(plotsheet 2n3_nested_153 sheets_final v1_0_sheet 22 to 31_S22.1_text_CC8 - stepover 1mm)
(Material Size) (X=1220.000, Y=2440.000, Z=21.000)
(LinuxCNC_NoArcs_MM_TC_medium_50um_G1_verbose.con)
G90 G80 G21 G49
G64 P0.050
M6 T1
(Tool Number:1) (7.998 mm dia. slot drill)
G43 H1 G0Z30.0000
M3 S19000
G04 P10
G1 X580.6511 Y1082.6407 Z10.0000 F9999
G1 X580.6511 Y1082.6407 Z-1.5000 F2000
G1 X568.0273 Y1082.6407 Z-1.5000 F4000
G1 X568.0273 Y1123.7416 Z-1.5000 F4000
G1 X568.0273 Y1082.6407 Z-1.5000 F4000
G1 X568.0273 Y1082.6407 Z10.0000 F9999
G1 X607.3667 Y1123.7416 Z10.0000 F9999
G1 X607.3667 Y1123.7416 Z-1.5000 F2000
G1 X596.0640 Y1107.7783 Z-1.5000 F4000
G1 X594.6774 Y1105.8164 Z-1.5000 F4000
G1 X593.3484 Y1103.8150 Z-1.5000 F4000
G1 X591.4218 Y1096.6040 Z-1.5000 F4000
G1 X592.5227 Y1091.1728 Z-1.5000 F4000
G1 X595.4768 Y1086.7508 Z-1.5000 F4000
G1 X599.8438 Y1083.7416 Z-1.5000 F4000
G1 X605.2383 Y1082.6407 Z-1.5000 F4000
G1 X610.6328 Y1083.7416 Z-1.5000 F4000
G1 X615.0732 Y1086.7508 Z-1.5000 F4000
G1 X618.0640 Y1091.1728 Z-1.5000 F4000
G1 X619.1649 Y1096.6040 Z-1.5000 F4000
G1 X618.0640 Y1102.0169 Z-1.5000 F4000
G1 X615.0732 Y1106.4389 Z-1.5000 F4000
G1 X610.6328 Y1109.4114 Z-1.5000 F4000
G1 X605.2383 Y1110.5123 Z-1.5000 F4000
G1 X598.3209 Y1108.6591 Z-1.5000 F4000
G1 X593.3484 Y1103.8150 Z-1.5000 F4000
G1 X598.3209 Y1108.6591 Z-1.5000 F4000
G1 X605.2383 Y1110.5123 Z-1.5000 F4000
G1 X610.6328 Y1109.4114 Z-1.5000 F4000
G1 X615.0732 Y1106.4389 Z-1.5000 F4000
G1 X618.0640 Y1102.0169 Z-1.5000 F4000
G1 X619.1649 Y1096.6040 Z-1.5000 F4000
G1 X618.0640 Y1091.1728 Z-1.5000 F4000
G1 X615.0732 Y1086.7508 Z-1.5000 F4000
G1 X610.6328 Y1083.7416 Z-1.5000 F4000
G1 X605.2383 Y1082.6407 Z-1.5000 F4000
G1 X599.8438 Y1083.7416 Z-1.5000 F4000
G1 X595.4768 Y1086.7508 Z-1.5000 F4000
G1 X592.5227 Y1091.1728 Z-1.5000 F4000
G1 X591.4218 Y1096.6040 Z-1.5000 F4000
G1 X593.3484 Y1103.8150 Z-1.5000 F4000
G1 X594.3025 Y1105.2646 Z-1.5000 F4000
G1 X600.8346 Y1114.5490 Z-1.5000 F4000
G1 X600.8346 Y1114.5490 Z10.0000 F9999
G1 X630.1741 Y1090.5857 Z10.0000 F9999
G1 X630.1741 Y1090.5857 Z-1.5000 F2000
G1 X630.9264 Y1087.9068 Z-1.5000 F4000
G1 X632.6511 Y1085.3380 Z-1.5000 F4000
G1 X635.6053 Y1083.3930 Z-1.5000 F4000
G1 X640.1557 Y1082.6407 Z-1.5000 F4000
G1 X648.6695 Y1085.2646 Z-1.5000 F4000
G1 X651.7704 Y1093.2462 Z-1.5000 F4000
G1 X650.8897 Y1097.9802 Z-1.5000 F4000
G1 X648.5777 Y1101.3380 Z-1.5000 F4000
G1 X645.3667 Y1103.3380 Z-1.5000 F4000
G1 X641.7887 Y1104.0169 Z-1.5000 F4000
G1 X645.2566 Y1104.7508 Z-1.5000 F4000
G1 X648.2108 Y1106.9710 Z-1.5000 F4000
G1 X650.3025 Y1110.3471 Z-1.5000 F4000
G1 X651.0915 Y1114.5490 Z-1.5000 F4000
G1 X651.0548 Y1116.1270 Z-1.5000 F4000
G1 X650.7796 Y1118.1086 Z-1.5000 F4000
G1 X649.9906 Y1120.1270 Z-1.5000 F4000
G1 X648.4676 Y1121.9618 Z-1.5000 F4000
G1 X645.9172 Y1123.2646 Z-1.5000 F4000
G1 X642.1741 Y1123.7416 Z-1.5000 F4000
G1 X636.7979 Y1122.9160 Z-1.5000 F4000
G1 X633.6970 Y1120.8976 Z-1.5000 F4000
G1 X632.1741 Y1118.2371 Z-1.5000 F4000
G1 X631.5869 Y1115.5031 Z-1.5000 F4000
G1 X632.1741 Y1118.2371 Z-1.5000 F4000
G1 X633.6970 Y1120.8976 Z-1.5000 F4000
G1 X636.7979 Y1122.9160 Z-1.5000 F4000
G1 X642.1741 Y1123.7416 Z-1.5000 F4000
G1 X645.9172 Y1123.2646 Z-1.5000 F4000
G1 X648.4676 Y1121.9618 Z-1.5000 F4000
G1 X649.9906 Y1120.1270 Z-1.5000 F4000
G1 X650.7796 Y1118.1086 Z-1.5000 F4000
G1 X651.0548 Y1116.1637 Z-1.5000 F4000
G1 X651.0915 Y1114.5490 Z-1.5000 F4000
G1 X650.3025 Y1110.3471 Z-1.5000 F4000
G1 X648.2108 Y1106.9710 Z-1.5000 F4000
G1 X645.2566 Y1104.7508 Z-1.5000 F4000
G1 X641.7887 Y1104.0169 Z-1.5000 F4000
G1 X645.3667 Y1103.3380 Z-1.5000 F4000
G1 X648.5777 Y1101.3380 Z-1.5000 F4000
G1 X650.8897 Y1097.9802 Z-1.5000 F4000
G1 X651.7704 Y1093.2462 Z-1.5000 F4000
G1 X648.6695 Y1085.2646 Z-1.5000 F4000
G1 X640.1557 Y1082.6407 Z-1.5000 F4000
G1 X635.6053 Y1083.3930 Z-1.5000 F4000
G1 X632.6511 Y1085.3380 Z-1.5000 F4000
G1 X630.9264 Y1087.9068 Z-1.5000 F4000
G1 X630.9264 Y1087.9068 Z10.0000 F9999
G1 X793.6612 Y2276.2180 Z10.0000 F9999
G1 X793.6612 Y2276.2180 Z-1.5000 F2000
G1 X795.6061 Y2273.1721 Z-1.5000 F4000
G1 X798.0281 Y2271.1171 Z-1.5000 F4000
G1 X801.1474 Y2269.8694 Z-1.5000 F4000
G1 X805.2758 Y2269.3923 Z-1.5000 F4000
G1 X809.7713 Y2269.8510 Z-1.5000 F4000
G1 X813.5878 Y2271.5942 Z-1.5000 F4000
G1 X816.2667 Y2274.5850 Z-1.5000 F4000
G1 X817.3859 Y2278.7501 Z-1.5000 F4000
G1 X816.8538 Y2282.7501 Z-1.5000 F4000
G1 X815.3125 Y2285.4290 Z-1.5000 F4000
G1 X813.2758 Y2287.1171 Z-1.5000 F4000
G1 X811.3676 Y2288.2180 Z-1.5000 F4000
G1 X802.1749 Y2292.9520 Z-1.5000 F4000
G1 X799.8080 Y2294.3648 Z-1.5000 F4000
G1 X797.9547 Y2296.0162 Z-1.5000 F4000
G1 X796.7070 Y2298.1997 Z-1.5000 F4000
G1 X796.1933 Y2301.0804 Z-1.5000 F4000
G1 X796.7254 Y2304.3648 Z-1.5000 F4000
G1 X798.5602 Y2307.3923 Z-1.5000 F4000
G1 X801.6979 Y2309.6125 Z-1.5000 F4000
G1 X806.0648 Y2310.4932 Z-1.5000 F4000
G1 X810.3217 Y2309.8143 Z-1.5000 F4000
G1 X813.1658 Y2308.3465 Z-1.5000 F4000
G1 X815.2575 Y2306.1997 Z-1.5000 F4000
G1 X813.1658 Y2308.3465 Z-1.5000 F4000
G1 X810.3217 Y2309.8143 Z-1.5000 F4000
G1 X806.0648 Y2310.4932 Z-1.5000 F4000
G1 X801.6979 Y2309.6125 Z-1.5000 F4000
G1 X798.5602 Y2307.3923 Z-1.5000 F4000
G1 X796.7254 Y2304.3648 Z-1.5000 F4000
G1 X796.1933 Y2301.0804 Z-1.5000 F4000
G1 X796.7070 Y2298.1997 Z-1.5000 F4000
G1 X797.9547 Y2296.0162 Z-1.5000 F4000
G1 X799.8080 Y2294.3648 Z-1.5000 F4000
G1 X802.1749 Y2292.9520 Z-1.5000 F4000
G1 X811.3676 Y2288.2180 Z-1.5000 F4000
G1 X813.2758 Y2287.1171 Z-1.5000 F4000
G1 X815.3125 Y2285.4290 Z-1.5000 F4000
G1 X816.8538 Y2282.7501 Z-1.5000 F4000
G1 X817.3859 Y2278.7501 Z-1.5000 F4000
G1 X816.2667 Y2274.5850 Z-1.5000 F4000
G1 X813.5878 Y2271.5942 Z-1.5000 F4000
G1 X809.7713 Y2269.8510 Z-1.5000 F4000
G1 X805.2758 Y2269.3923 Z-1.5000 F4000
G1 X801.1474 Y2269.8694 Z-1.5000 F4000
G1 X798.0281 Y2271.1171 Z-1.5000 F4000
G1 X795.6061 Y2273.1721 Z-1.5000 F4000
G1 X795.6061 Y2273.1721 Z10.0000 F9999
G1 X869.9914 Y2276.2180 Z10.0000 F9999
G1 X869.9914 Y2276.2180 Z-1.5000 F2000
G1 X871.9364 Y2273.1721 Z-1.5000 F4000
G1 X874.3584 Y2271.1171 Z-1.5000 F4000
G1 X877.4777 Y2269.8694 Z-1.5000 F4000
G1 X881.6061 Y2269.3923 Z-1.5000 F4000
G1 X886.1015 Y2269.8510 Z-1.5000 F4000
G1 X889.9180 Y2271.5942 Z-1.5000 F4000
G1 X892.5969 Y2274.5850 Z-1.5000 F4000
G1 X893.7162 Y2278.7501 Z-1.5000 F4000
G1 X893.1841 Y2282.7501 Z-1.5000 F4000
G1 X891.6428 Y2285.4290 Z-1.5000 F4000
G1 X889.6061 Y2287.1171 Z-1.5000 F4000
G1 X887.6979 Y2288.2180 Z-1.5000 F4000
G1 X878.5052 Y2292.9520 Z-1.5000 F4000
G1 X876.1382 Y2294.3648 Z-1.5000 F4000
G1 X874.2850 Y2296.0162 Z-1.5000 F4000
G1 X873.0373 Y2298.1997 Z-1.5000 F4000
G1 X872.5235 Y2301.0804 Z-1.5000 F4000
G1 X873.0557 Y2304.3648 Z-1.5000 F4000
G1 X874.8905 Y2307.3923 Z-1.5000 F4000
G1 X878.0281 Y2309.6125 Z-1.5000 F4000
G1 X882.3951 Y2310.4932 Z-1.5000 F4000
G1 X886.6520 Y2309.8143 Z-1.5000 F4000
G1 X889.4960 Y2308.3465 Z-1.5000 F4000
G1 X891.5878 Y2306.1997 Z-1.5000 F4000
G1 X889.4960 Y2308.3465 Z-1.5000 F4000
G1 X886.6520 Y2309.8143 Z-1.5000 F4000
G1 X882.3951 Y2310.4932 Z-1.5000 F4000
G1 X878.0281 Y2309.6125 Z-1.5000 F4000
G1 X874.8905 Y2307.3923 Z-1.5000 F4000
G1 X873.0557 Y2304.3648 Z-1.5000 F4000
G1 X872.5235 Y2301.0804 Z-1.5000 F4000
G1 X873.0373 Y2298.1997 Z-1.5000 F4000
G1 X874.2850 Y2296.0162 Z-1.5000 F4000
G1 X876.1382 Y2294.3648 Z-1.5000 F4000
G1 X878.5052 Y2292.9520 Z-1.5000 F4000
G1 X887.6979 Y2288.2180 Z-1.5000 F4000
G1 X889.6061 Y2287.1171 Z-1.5000 F4000
G1 X891.6428 Y2285.4290 Z-1.5000 F4000
G1 X893.1841 Y2282.7501 Z-1.5000 F4000
G1 X893.7162 Y2278.7501 Z-1.5000 F4000
G1 X892.5969 Y2274.5850 Z-1.5000 F4000
G1 X889.9180 Y2271.5942 Z-1.5000 F4000
G1 X886.1015 Y2269.8510 Z-1.5000 F4000
G1 X881.6061 Y2269.3923 Z-1.5000 F4000
G1 X877.4777 Y2269.8694 Z-1.5000 F4000
G1 X874.3584 Y2271.1171 Z-1.5000 F4000
G1 X871.9364 Y2273.1721 Z-1.5000 F4000
G1 X871.9364 Y2273.1721 Z10.0000 F9999
G1 X859.2758 Y2319.8877 Z10.0000 F9999
G1 X859.2758 Y2319.8877 Z-1.5000 F2000
G1 X828.8905 Y2267.0437 Z-1.5000 F4000
G1 X859.2758 Y2319.8877 Z-1.5000 F4000
G1 X859.2758 Y2319.8877 Z10.0000 F9999
G1 X1081.7988 Y2333.4007 Z10.0000 F9999
G1 X1081.7988 Y2333.4007 Z-1.5000 F2000
G1 X1082.6162 Y2334.8564 Z-1.5000 F4000
G1 X1082.9743 Y2336.6780 Z-1.5000 F4000
G1 X1082.5461 Y2338.7565 Z-1.5000 F4000
G1 X1080.9347 Y2341.0063 Z-1.5000 F4000
G1 X1076.2094 Y2343.5052 Z-1.5000 F4000
G1 X1071.5075 Y2341.4344 Z-1.5000 F4000
G1 X1069.8727 Y2339.0523 Z-1.5000 F4000
G1 X1069.4290 Y2336.6469 Z-1.5000 F4000
G1 X1069.9428 Y2334.4360 Z-1.5000 F4000
G1 X1071.1727 Y2332.6300 Z-1.5000 F4000
G1 X1069.3901 Y2333.7899 Z-1.5000 F4000
G1 X1067.1948 Y2334.1013 Z-1.5000 F4000
G1 X1064.8749 Y2333.5564 Z-1.5000 F4000
G1 X1062.7575 Y2332.1084 Z-1.5000 F4000
G1 X1062.2570 Y2331.5969 Z-1.5000 F4000
G1 X1061.7963 Y2331.0477 Z-1.5000 F4000
G1 X1061.3796 Y2330.4659 Z-1.5000 F4000
G1 X1060.8581 Y2329.2748 Z-1.5000 F4000
G1 X1060.7257 Y2327.8502 Z-1.5000 F4000
G1 X1061.2551 Y2326.2154 Z-1.5000 F4000
G1 X1062.6408 Y2324.4250 Z-1.5000 F4000
G1 X1065.2720 Y2322.4944 Z-1.5000 F4000
G1 X1067.4439 Y2322.0351 Z-1.5000 F4000
G1 X1069.2188 Y2322.5177 Z-1.5000 F4000
G1 X1070.6278 Y2323.4285 Z-1.5000 F4000
G1 X1069.2188 Y2322.5177 Z-1.5000 F4000
G1 X1067.4439 Y2322.0351 Z-1.5000 F4000
G1 X1065.2720 Y2322.4944 Z-1.5000 F4000
G1 X1062.6408 Y2324.4250 Z-1.5000 F4000
G1 X1061.2551 Y2326.2154 Z-1.5000 F4000
G1 X1060.7257 Y2327.8502 Z-1.5000 F4000
G1 X1060.8581 Y2329.2748 Z-1.5000 F4000
G1 X1061.3796 Y2330.4659 Z-1.5000 F4000
G1 X1061.7952 Y2331.0486 Z-1.5000 F4000
G1 X1062.2559 Y2331.5979 Z-1.5000 F4000
G1 X1062.7575 Y2332.1084 Z-1.5000 F4000
G1 X1064.8749 Y2333.5564 Z-1.5000 F4000
G1 X1067.1948 Y2334.1013 Z-1.5000 F4000
G1 X1069.3901 Y2333.7899 Z-1.5000 F4000
G1 X1071.1727 Y2332.6300 Z-1.5000 F4000
G1 X1069.9428 Y2334.4360 Z-1.5000 F4000
G1 X1069.4290 Y2336.6469 Z-1.5000 F4000
G1 X1069.8727 Y2339.0523 Z-1.5000 F4000
G1 X1071.5075 Y2341.4344 Z-1.5000 F4000
G1 X1076.2094 Y2343.5052 Z-1.5000 F4000
G1 X1080.9347 Y2341.0063 Z-1.5000 F4000
G1 X1082.5461 Y2338.7565 Z-1.5000 F4000
G1 X1082.9743 Y2336.6780 Z-1.5000 F4000
G1 X1082.6162 Y2334.8564 Z-1.5000 F4000
G1 X1082.6162 Y2334.8564 Z10.0000 F9999
G1 X1082.1507 Y2307.2555 Z10.0000 F9999
G1 X1082.1507 Y2307.2555 Z-1.5000 F2000
G1 X1105.7382 Y2312.0041 Z-1.5000 F4000
G1 X1093.5163 Y2324.2260 Z-1.5000 F4000
G1 X1105.7382 Y2312.0041 Z-1.5000 F4000
G1 X1082.1507 Y2307.2555 Z-1.5000 F4000
G1 X1099.5883 Y2324.6931 Z-1.5000 F4000
G1 X1099.5883 Y2324.6931 Z10.0000 F9999
G1 X1119.4334 Y2301.3968 Z10.0000 F9999
G1 X1119.4334 Y2301.3968 Z-1.5000 F2000
G1 X1124.7892 Y2296.0410 Z-1.5000 F4000
G1 X1107.3516 Y2278.6034 Z-1.5000 F4000
G1 X1124.7892 Y2296.0410 Z-1.5000 F4000
G1 X1124.7892 Y2296.0410 Z10.0000 F9999
G1 X523.6039 Y2294.6235 Z10.0000 F9999
G1 X523.6039 Y2294.6235 Z-1.5000 F2000
G1 X510.6076 Y2294.6235 Z-1.5000 F4000
G1 X523.6039 Y2294.6235 Z-1.5000 F4000
G1 X523.6039 Y2278.1593 Z-1.5000 F4000
G1 X509.9965 Y2278.1593 Z-1.5000 F4000
G1 X523.6039 Y2278.1593 Z-1.5000 F4000
G1 X523.6039 Y2315.1501 Z-1.5000 F4000
G1 X523.6039 Y2315.1501 Z10.0000 F9999
G1 X496.1250 Y2315.1501 Z10.0000 F9999
G1 X496.1250 Y2315.1501 Z-1.5000 F2000
G1 X496.1250 Y2278.1593 Z-1.5000 F4000
G1 X489.6846 Y2278.1593 Z-1.5000 F4000
G1 X486.2002 Y2278.7043 Z-1.5000 F4000
G1 X483.3103 Y2280.3391 Z-1.5000 F4000
G1 X481.3121 Y2283.1795 Z-1.5000 F4000
G1 X480.5525 Y2287.3575 Z-1.5000 F4000
G1 X481.5929 Y2291.5685 Z-1.5000 F4000
G1 X484.0865 Y2294.5575 Z-1.5000 F4000
G1 X487.0754 Y2296.3244 Z-1.5000 F4000
G1 X489.6846 Y2296.9189 Z-1.5000 F4000
G1 X496.1250 Y2296.9189 Z-1.5000 F4000
G1 X489.6846 Y2296.9189 Z-1.5000 F4000
G1 X487.0754 Y2296.3244 Z-1.5000 F4000
G1 X484.0865 Y2294.5575 Z-1.5000 F4000
G1 X481.5929 Y2291.5685 Z-1.5000 F4000
G1 X480.5525 Y2287.3575 Z-1.5000 F4000
G1 X481.3121 Y2283.1795 Z-1.5000 F4000
G1 X483.3103 Y2280.3391 Z-1.5000 F4000
G1 X486.2002 Y2278.7043 Z-1.5000 F4000
G1 X489.6846 Y2278.1593 Z-1.5000 F4000
G1 X496.1250 Y2278.1593 Z-1.5000 F4000
G1 X496.1250 Y2278.1593 Z10.0000 F9999
G1 X456.4259 Y2278.1593 Z10.0000 F9999
G1 X456.4259 Y2278.1593 Z-1.5000 F2000
G1 X441.9764 Y2315.1501 Z-1.5000 F4000
G1 X456.4259 Y2278.1593 Z-1.5000 F4000
G1 X470.8424 Y2315.1501 Z-1.5000 F4000
G1 X470.8424 Y2315.1501 Z10.0000 F9999
G1 X480.4534 Y2315.1501 Z10.0000 F9999
G1 X480.4534 Y2315.1501 Z-1.5000 F2000
G1 X492.3599 Y2297.0180 Z-1.5000 F4000
G1 X480.4534 Y2315.1501 Z-1.5000 F4000
G1 X480.4534 Y2315.1501 Z10.0000 F9999
G1 X447.1452 Y2301.9226 Z10.0000 F9999
G1 X447.1452 Y2301.9226 Z-1.5000 F2000
G1 X465.7727 Y2301.9226 Z-1.5000 F4000
G1 X447.1452 Y2301.9226 Z-1.5000 F4000
G1 X447.1452 Y2301.9226 Z10.0000 F9999
G1 X405.4149 Y2292.9556 Z10.0000 F9999
G1 X405.4149 Y2292.9556 Z-1.5000 F2000
G1 X431.7378 Y2292.9556 Z-1.5000 F4000
G1 X405.4149 Y2292.9556 Z-1.5000 F4000
G1 X405.4149 Y2292.9556 Z10.0000 F9999
G1 X381.3874 Y2278.1593 Z10.0000 F9999
G1 X381.3874 Y2278.1593 Z-1.5000 F2000
G1 X366.9378 Y2315.1501 Z-1.5000 F4000
G1 X381.3874 Y2278.1593 Z-1.5000 F4000
G1 X395.8039 Y2315.1501 Z-1.5000 F4000
G1 X395.8039 Y2315.1501 Z10.0000 F9999
G1 X372.1066 Y2301.9226 Z10.0000 F9999
G1 X372.1066 Y2301.9226 Z-1.5000 F2000
G1 X390.7342 Y2301.9226 Z-1.5000 F4000
G1 X372.1066 Y2301.9226 Z-1.5000 F4000
G1 X372.1066 Y2301.9226 Z10.0000 F9999
G1 X319.7085 Y2309.0070 Z10.0000 F9999
G1 X319.7085 Y2309.0070 Z-1.5000 F2000
G1 X317.9580 Y2311.7483 Z-1.5000 F4000
G1 X315.7782 Y2313.5978 Z-1.5000 F4000
G1 X312.9709 Y2314.7208 Z-1.5000 F4000
G1 X309.2553 Y2315.1501 Z-1.5000 F4000
G1 X305.2094 Y2314.7373 Z-1.5000 F4000
G1 X301.7745 Y2313.1685 Z-1.5000 F4000
G1 X299.3635 Y2310.4767 Z-1.5000 F4000
G1 X298.3562 Y2306.7281 Z-1.5000 F4000
G1 X298.8351 Y2303.1281 Z-1.5000 F4000
G1 X300.2222 Y2300.7171 Z-1.5000 F4000
G1 X302.0553 Y2299.1978 Z-1.5000 F4000
G1 X303.7727 Y2298.2070 Z-1.5000 F4000
G1 X312.0461 Y2293.9465 Z-1.5000 F4000
G1 X314.1764 Y2292.6749 Z-1.5000 F4000
G1 X315.8443 Y2291.1887 Z-1.5000 F4000
G1 X316.9672 Y2289.2235 Z-1.5000 F4000
G1 X317.4296 Y2286.6309 Z-1.5000 F4000
G1 X316.9507 Y2283.6749 Z-1.5000 F4000
G1 X315.2993 Y2280.9501 Z-1.5000 F4000
G1 X312.4754 Y2278.9520 Z-1.5000 F4000
G1 X308.5452 Y2278.1593 Z-1.5000 F4000
G1 X304.7140 Y2278.7703 Z-1.5000 F4000
G1 X302.1543 Y2280.0914 Z-1.5000 F4000
G1 X300.2718 Y2282.0235 Z-1.5000 F4000
G1 X302.1543 Y2280.0914 Z-1.5000 F4000
G1 X304.7140 Y2278.7703 Z-1.5000 F4000
G1 X308.5452 Y2278.1593 Z-1.5000 F4000
G1 X312.4754 Y2278.9520 Z-1.5000 F4000
G1 X315.2993 Y2280.9501 Z-1.5000 F4000
G1 X316.9507 Y2283.6749 Z-1.5000 F4000
G1 X317.4296 Y2286.6309 Z-1.5000 F4000
G1 X316.9672 Y2289.2235 Z-1.5000 F4000
G1 X315.8443 Y2291.1887 Z-1.5000 F4000
G1 X314.1764 Y2292.6749 Z-1.5000 F4000
G1 X312.0461 Y2293.9465 Z-1.5000 F4000
G1 X303.7727 Y2298.2070 Z-1.5000 F4000
G1 X302.0553 Y2299.1978 Z-1.5000 F4000
G1 X300.2222 Y2300.7171 Z-1.5000 F4000
G1 X298.8351 Y2303.1281 Z-1.5000 F4000
G1 X298.3562 Y2306.7281 Z-1.5000 F4000
G1 X299.3635 Y2310.4767 Z-1.5000 F4000
G1 X301.7745 Y2313.1685 Z-1.5000 F4000
G1 X305.2094 Y2314.7373 Z-1.5000 F4000
G1 X309.2553 Y2315.1501 Z-1.5000 F4000
G1 X312.9709 Y2314.7208 Z-1.5000 F4000
G1 X315.7782 Y2313.5978 Z-1.5000 F4000
G1 X317.9580 Y2311.7483 Z-1.5000 F4000
G1 X317.9580 Y2311.7483 Z10.0000 F9999
G1 X329.3525 Y2269.7043 Z10.0000 F9999
G1 X329.3525 Y2269.7043 Z-1.5000 F2000
G1 X356.6993 Y2317.2639 Z-1.5000 F4000
G1 X329.3525 Y2269.7043 Z-1.5000 F4000
G1 X329.3525 Y2269.7043 Z10.0000 F9999
G1 X273.6516 Y2278.1593 Z10.0000 F9999
G1 X273.6516 Y2278.1593 Z-1.5000 F2000
G1 X285.4094 Y2294.7887 Z-1.5000 F4000
G1 X286.2681 Y2296.0932 Z-1.5000 F4000
G1 X288.0021 Y2302.5832 Z-1.5000 F4000
G1 X287.0112 Y2307.4712 Z-1.5000 F4000
G1 X284.3525 Y2311.4510 Z-1.5000 F4000
G1 X280.4222 Y2314.1593 Z-1.5000 F4000
G1 X275.5672 Y2315.1501 Z-1.5000 F4000
G1 X270.7121 Y2314.1593 Z-1.5000 F4000
G1 X266.7158 Y2311.4510 Z-1.5000 F4000
G1 X264.0241 Y2307.4712 Z-1.5000 F4000
G1 X263.0332 Y2302.5832 Z-1.5000 F4000
G1 X264.0241 Y2297.7116 Z-1.5000 F4000
G1 X266.7158 Y2293.7318 Z-1.5000 F4000
G1 X270.7121 Y2291.0565 Z-1.5000 F4000
G1 X275.5672 Y2290.0657 Z-1.5000 F4000
G1 X281.7929 Y2291.7336 Z-1.5000 F4000
G1 X286.2681 Y2296.0932 Z-1.5000 F4000
G1 X281.7929 Y2291.7336 Z-1.5000 F4000
G1 X275.5672 Y2290.0657 Z-1.5000 F4000
G1 X270.7121 Y2291.0565 Z-1.5000 F4000
G1 X266.7158 Y2293.7318 Z-1.5000 F4000
G1 X264.0241 Y2297.7116 Z-1.5000 F4000
G1 X263.0332 Y2302.5832 Z-1.5000 F4000
G1 X264.0241 Y2307.4712 Z-1.5000 F4000
G1 X266.7158 Y2311.4510 Z-1.5000 F4000
G1 X270.7121 Y2314.1593 Z-1.5000 F4000
G1 X275.5672 Y2315.1501 Z-1.5000 F4000
G1 X280.4222 Y2314.1593 Z-1.5000 F4000
G1 X284.3525 Y2311.4510 Z-1.5000 F4000
G1 X287.0112 Y2307.4712 Z-1.5000 F4000
G1 X288.0021 Y2302.5832 Z-1.5000 F4000
G1 X286.2681 Y2296.0932 Z-1.5000 F4000
G1 X285.4094 Y2294.7887 Z-1.5000 F4000
G1 X279.5305 Y2286.4327 Z-1.5000 F4000
G1 X279.5305 Y2286.4327 Z10.0000 F9999
G1 X225.7782 Y2269.7043 Z10.0000 F9999
G1 X225.7782 Y2269.7043 Z-1.5000 F2000
G1 X253.1250 Y2317.2639 Z-1.5000 F4000
G1 X225.7782 Y2269.7043 Z-1.5000 F4000
G1 X225.7782 Y2269.7043 Z10.0000 F9999
G1 X211.8241 Y2315.1501 Z10.0000 F9999
G1 X211.8241 Y2315.1501 Z-1.5000 F2000
G1 X211.8241 Y2294.6235 Z-1.5000 F4000
G1 X197.0112 Y2294.6235 Z-1.5000 F4000
G1 X211.8241 Y2294.6235 Z-1.5000 F4000
G1 X211.8241 Y2278.1593 Z-1.5000 F4000
G1 X195.8388 Y2278.1593 Z-1.5000 F4000
G1 X211.8241 Y2278.1593 Z-1.5000 F4000
G1 X211.8241 Y2315.1501 Z-1.5000 F4000
G1 X195.8388 Y2315.1501 Z-1.5000 F4000
G1 X195.8388 Y2315.1501 Z10.0000 F9999
G1 X175.6754 Y2296.0602 Z10.0000 F9999
G1 X175.6754 Y2296.0602 Z-1.5000 F2000
G1 X164.9250 Y2315.1501 Z-1.5000 F4000
G1 X175.6754 Y2296.0602 Z-1.5000 F4000
G1 X164.9250 Y2278.1593 Z-1.5000 F4000
G1 X175.6754 Y2296.0602 Z-1.5000 F4000
G1 X186.5415 Y2278.1593 Z-1.5000 F4000
G1 X175.6754 Y2296.0602 Z-1.5000 F4000
G1 X186.5415 Y2315.1501 Z-1.5000 F4000
G1 X186.5415 Y2315.1501 Z10.0000 F9999
(Tool Number:1) (7.998 mm dia. slot drill)
M3 S19000
G1 X52.8989 Y239.4863 Z10.0000 F9999
G1 X52.8989 Y239.4863 Z1.0000 F2000
G1 X52.8989 Y278.4574 Z-10.0000 F2000
G1 X52.8989 Y239.4863 Z-21.0000 F2000
G1 X52.8989 Y323.4852 Z-21.0000 F2750
G1 X47.8989 Y323.4852 Z-21.0000 F2750
G1 X47.8989 Y325.4872 Z-21.0000 F2750
G1 X85.9008 Y325.4872 Z-21.0000 F2750
G1 X85.9008 Y323.4852 Z-21.0000 F2750
G1 X80.9009 Y323.4852 Z-21.0000 F2750
G1 X80.9009 Y155.4874 Z-21.0000 F2750
G1 X85.9008 Y155.4874 Z-21.0000 F2750
G1 X85.9008 Y153.4854 Z-21.0000 F2750
G1 X47.8989 Y153.4854 Z-21.0000 F2750
G1 X47.8989 Y155.4874 Z-21.0000 F2750
G1 X52.8989 Y155.4874 Z-21.0000 F2750
G1 X52.8989 Y239.4863 Z-21.0000 F2750
G1 X52.8989 Y239.4863 Z10.0000 F9999
G1 X52.8989 Y539.4857 Z10.0000 F9999
G1 X52.8989 Y539.4857 Z1.0000 F2000
G1 X52.8989 Y578.4568 Z-10.0000 F2000
G1 X52.8989 Y539.4857 Z-21.0000 F2000
G1 X52.8989 Y623.4844 Z-21.0000 F2750
G1 X47.8989 Y623.4844 Z-21.0000 F2750
G1 X47.8989 Y625.4864 Z-21.0000 F2750
G1 X85.9008 Y625.4864 Z-21.0000 F2750
G1 X85.9008 Y623.4844 Z-21.0000 F2750
G1 X80.9009 Y623.4844 Z-21.0000 F2750
G1 X80.9009 Y455.4869 Z-21.0000 F2750
G1 X85.9008 Y455.4869 Z-21.0000 F2750
G1 X85.9008 Y453.4848 Z-21.0000 F2750
G1 X47.8989 Y453.4848 Z-21.0000 F2750
G1 X47.8989 Y455.4869 Z-21.0000 F2750
G1 X52.8989 Y455.4869 Z-21.0000 F2750
G1 X52.8989 Y539.4857 Z-21.0000 F2750
G1 X52.8989 Y539.4857 Z10.0000 F9999
G1 X202.8989 Y546.4847 Z10.0000 F9999
G1 X202.8989 Y546.4847 Z1.0000 F2000
G1 X202.8989 Y585.4559 Z-10.0000 F2000
G1 X202.8989 Y546.4847 Z-21.0000 F2000
G1 X202.8989 Y665.4836 Z-21.0000 F2750
G1 X197.8989 Y665.4836 Z-21.0000 F2750
G1 X197.8989 Y667.4855 Z-21.0000 F2750
G1 X235.9008 Y667.4855 Z-21.0000 F2750
G1 X235.9008 Y665.4836 Z-21.0000 F2750
G1 X230.9009 Y665.4836 Z-21.0000 F2750
G1 X230.9009 Y427.4859 Z-21.0000 F2750
G1 X235.9008 Y427.4859 Z-21.0000 F2750
G1 X235.9008 Y425.4839 Z-21.0000 F2750
G1 X197.8989 Y425.4839 Z-21.0000 F2750
G1 X197.8989 Y427.4859 Z-21.0000 F2750
G1 X202.8989 Y427.4859 Z-21.0000 F2750
G1 X202.8989 Y546.4847 Z-21.0000 F2750
G1 X202.8989 Y546.4847 Z10.0000 F9999
G1 X80.9009 Y839.4851 Z10.0000 F9999
G1 X80.9009 Y839.4851 Z1.0000 F2000
G1 X80.9009 Y800.5140 Z-10.0000 F2000
G1 X80.9009 Y839.4851 Z-21.0000 F2000
G1 X80.9009 Y755.4863 Z-21.0000 F2750
G1 X85.9008 Y755.4863 Z-21.0000 F2750
G1 X85.9008 Y753.4843 Z-21.0000 F2750
G1 X65.8989 Y753.4843 Z-21.0000 F2750
G1 X65.8989 Y755.4863 Z-21.0000 F2750
G1 X70.8989 Y755.4863 Z-21.0000 F2750
G1 X70.8989 Y834.4841 Z-21.0000 F2750
G1 X49.8989 Y834.4841 Z-21.0000 F2750
G1 X49.8989 Y844.4861 Z-21.0000 F2750
G1 X70.8989 Y844.4861 Z-21.0000 F2750
G1 X70.8989 Y923.4840 Z-21.0000 F2750
G1 X65.8988 Y923.4840 Z-21.0000 F2750
G1 X65.8988 Y925.4858 Z-21.0000 F2750
G1 X85.9008 Y925.4858 Z-21.0000 F2750
G1 X85.9008 Y923.4840 Z-21.0000 F2750
G1 X80.9009 Y923.4840 Z-21.0000 F2750
G1 X80.9009 Y839.4851 Z-21.0000 F2750
G1 X80.9009 Y839.4851 Z10.0000 F9999
G1 X70.8989 Y1139.4845 Z10.0000 F9999
G1 X70.8989 Y1139.4845 Z1.0000 F2000
G1 X70.8989 Y1178.4556 Z-10.0000 F2000
G1 X70.8989 Y1139.4845 Z-21.0000 F2000
G1 X70.8989 Y1223.4834 Z-21.0000 F2750
G1 X65.8989 Y1223.4834 Z-21.0000 F2750
G1 X65.8989 Y1225.4854 Z-21.0000 F2750
G1 X85.9008 Y1225.4854 Z-21.0000 F2750
G1 X85.9008 Y1223.4834 Z-21.0000 F2750
G1 X80.9009 Y1223.4834 Z-21.0000 F2750
G1 X80.9009 Y1055.4856 Z-21.0000 F2750
G1 X85.9008 Y1055.4856 Z-21.0000 F2750
G1 X85.9008 Y1053.4836 Z-21.0000 F2750
G1 X65.8987 Y1053.4836 Z-21.0000 F2750
G1 X65.8988 Y1055.4856 Z-21.0000 F2750
G1 X70.8989 Y1055.4856 Z-21.0000 F2750
G1 X70.8989 Y1139.4845 Z-21.0000 F2750
G1 X70.8989 Y1139.4845 Z10.0000 F9999
G1 X202.8989 Y1146.4835 Z10.0000 F9999
G1 X202.8989 Y1146.4835 Z1.0000 F2000
G1 X202.8989 Y1185.4546 Z-10.0000 F2000
G1 X202.8989 Y1146.4835 Z-21.0000 F2000
G1 X202.8989 Y1265.4823 Z-21.0000 F2750
G1 X197.8989 Y1265.4823 Z-21.0000 F2750
G1 X197.8989 Y1267.4843 Z-21.0000 F2750
G1 X235.9008 Y1267.4843 Z-21.0000 F2750
G1 X235.9008 Y1265.4823 Z-21.0000 F2750
G1 X230.9009 Y1265.4823 Z-21.0000 F2750
G1 X230.9009 Y1027.4846 Z-21.0000 F2750
G1 X235.9008 Y1027.4846 Z-21.0000 F2750
G1 X235.9008 Y1025.4827 Z-21.0000 F2750
G1 X197.8989 Y1025.4827 Z-21.0000 F2750
G1 X197.8989 Y1027.4846 Z-21.0000 F2750
G1 X202.8989 Y1027.4846 Z-21.0000 F2750
G1 X202.8989 Y1146.4835 Z-21.0000 F2750
G1 X202.8989 Y1146.4835 Z10.0000 F9999
G1 X80.9009 Y1439.4840 Z10.0000 F9999
G1 X80.9009 Y1439.4840 Z1.0000 F2000
G1 X80.9009 Y1400.5128 Z-10.0000 F2000
G1 X80.9009 Y1439.4840 Z-21.0000 F2000
G1 X80.9009 Y1355.4851 Z-21.0000 F2750
G1 X85.9008 Y1355.4851 Z-21.0000 F2750
G1 X85.9008 Y1353.4831 Z-21.0000 F2750
G1 X65.8989 Y1353.4831 Z-21.0000 F2750
G1 X65.8989 Y1355.4851 Z-21.0000 F2750
G1 X70.8989 Y1355.4851 Z-21.0000 F2750
G1 X70.8989 Y1434.4829 Z-21.0000 F2750
G1 X41.9009 Y1434.4829 Z-21.0000 F2750
G1 X41.9009 Y1429.4829 Z-21.0000 F2750
G1 X39.8989 Y1429.4829 Z-21.0000 F2750
G1 X39.8989 Y1449.4849 Z-21.0000 F2750
G1 X41.9009 Y1449.4849 Z-21.0000 F2750
G1 X41.9009 Y1444.4849 Z-21.0000 F2750
G1 X70.8989 Y1444.4849 Z-21.0000 F2750
G1 X70.8989 Y1523.4828 Z-21.0000 F2750
G1 X65.8989 Y1523.4828 Z-21.0000 F2750
G1 X65.8989 Y1525.4847 Z-21.0000 F2750
G1 X85.9008 Y1525.4847 Z-21.0000 F2750
G1 X85.9008 Y1523.4828 Z-21.0000 F2750
G1 X80.9009 Y1523.4828 Z-21.0000 F2750
G1 X80.9009 Y1439.4840 Z-21.0000 F2750
G1 X80.9009 Y1439.4840 Z10.0000 F9999
G1 X52.8989 Y1739.4833 Z10.0000 F9999
G1 X52.8989 Y1739.4833 Z1.0000 F2000
G1 X52.8989 Y1778.4545 Z-10.0000 F2000
G1 X52.8989 Y1739.4833 Z-21.0000 F2000
G1 X52.8989 Y1823.4822 Z-21.0000 F2750
G1 X47.8989 Y1823.4822 Z-21.0000 F2750
G1 X47.8989 Y1825.4841 Z-21.0000 F2750
G1 X85.9008 Y1825.4841 Z-21.0000 F2750
G1 X85.9008 Y1823.4822 Z-21.0000 F2750
G1 X80.9009 Y1823.4822 Z-21.0000 F2750
G1 X80.9009 Y1655.4845 Z-21.0000 F2750
G1 X85.9008 Y1655.4845 Z-21.0000 F2750
G1 X85.9008 Y1653.4825 Z-21.0000 F2750
G1 X47.8989 Y1653.4825 Z-21.0000 F2750
G1 X47.8989 Y1655.4845 Z-21.0000 F2750
G1 X52.8989 Y1655.4845 Z-21.0000 F2750
G1 X52.8989 Y1739.4833 Z-21.0000 F2750
G1 X52.8989 Y1739.4833 Z10.0000 F9999
G1 X202.8989 Y1739.4833 Z10.0000 F9999
G1 X202.8989 Y1739.4833 Z1.0000 F2000
G1 X202.8989 Y1778.4545 Z-10.0000 F2000
G1 X202.8989 Y1739.4833 Z-21.0000 F2000
G1 X202.8989 Y1858.4822 Z-21.0000 F2750
G1 X197.8989 Y1858.4822 Z-21.0000 F2750
G1 X197.8989 Y1860.4842 Z-21.0000 F2750
G1 X235.9008 Y1860.4842 Z-21.0000 F2750
G1 X235.9008 Y1858.4822 Z-21.0000 F2750
G1 X230.9009 Y1858.4822 Z-21.0000 F2750
G1 X230.9009 Y1620.4845 Z-21.0000 F2750
G1 X235.9008 Y1620.4845 Z-21.0000 F2750
G1 X235.9008 Y1618.4826 Z-21.0000 F2750
G1 X197.8989 Y1618.4826 Z-21.0000 F2750
G1 X197.8989 Y1620.4845 Z-21.0000 F2750
G1 X202.8989 Y1620.4845 Z-21.0000 F2750
G1 X202.8989 Y1739.4833 Z-21.0000 F2750
G1 X202.8989 Y1739.4833 Z10.0000 F9999
G1 X52.8989 Y2039.4827 Z10.0000 F9999
G1 X52.8989 Y2039.4827 Z1.0000 F2000
G1 X52.8989 Y2078.4538 Z-10.0000 F2000
G1 X52.8989 Y2039.4827 Z-21.0000 F2000
G1 X52.8989 Y2123.4815 Z-21.0000 F2750
G1 X47.8989 Y2123.4815 Z-21.0000 F2750
G1 X47.8989 Y2125.4835 Z-21.0000 F2750
G1 X85.9008 Y2125.4835 Z-21.0000 F2750
G1 X85.9008 Y2123.4815 Z-21.0000 F2750
G1 X80.9009 Y2123.4815 Z-21.0000 F2750
G1 X80.9009 Y1955.4838 Z-21.0000 F2750
G1 X85.9008 Y1955.4838 Z-21.0000 F2750
G1 X85.9008 Y1953.4819 Z-21.0000 F2750
G1 X47.8989 Y1953.4819 Z-21.0000 F2750
G1 X47.8989 Y1955.4838 Z-21.0000 F2750
G1 X52.8989 Y1955.4838 Z-21.0000 F2750
G1 X52.8989 Y2039.4827 Z-21.0000 F2750
G1 X52.8989 Y2039.4827 Z10.0000 F9999
G1 X988.8969 Y1739.4833 Z10.0000 F9999
G1 X988.8969 Y1739.4833 Z1.0000 F2000
G1 X988.8969 Y1778.4545 Z-10.0000 F2000
G1 X988.8969 Y1739.4833 Z-21.0000 F2000
G1 X988.8969 Y1858.4822 Z-21.0000 F2750
G1 X983.8969 Y1858.4822 Z-21.0000 F2750
G1 X983.8969 Y1860.4842 Z-21.0000 F2750
G1 X1021.8987 Y1860.4842 Z-21.0000 F2750
G1 X1021.8987 Y1858.4822 Z-21.0000 F2750
G1 X1016.8988 Y1858.4822 Z-21.0000 F2750
G1 X1016.8988 Y1620.4845 Z-21.0000 F2750
G1 X1021.8987 Y1620.4845 Z-21.0000 F2750
G1 X1021.8987 Y1618.4826 Z-21.0000 F2750
G1 X983.8969 Y1618.4826 Z-21.0000 F2750
G1 X983.8969 Y1620.4845 Z-21.0000 F2750
G1 X988.8969 Y1620.4845 Z-21.0000 F2750
G1 X988.8969 Y1739.4833 Z-21.0000 F2750
G1 X988.8969 Y1739.4833 Z10.0000 F9999
G1 X1138.8967 Y1739.4833 Z10.0000 F9999
G1 X1138.8967 Y1739.4833 Z1.0000 F2000
G1 X1138.8967 Y1778.4545 Z-10.0000 F2000
G1 X1138.8967 Y1739.4833 Z-21.0000 F2000
G1 X1138.8967 Y1823.4822 Z-21.0000 F2750
G1 X1133.8967 Y1823.4822 Z-21.0000 F2750
G1 X1133.8967 Y1825.4841 Z-21.0000 F2750
G1 X1171.8986 Y1825.4841 Z-21.0000 F2750
G1 X1171.8986 Y1823.4822 Z-21.0000 F2750
G1 X1166.8987 Y1823.4822 Z-21.0000 F2750
G1 X1166.8987 Y1655.4845 Z-21.0000 F2750
G1 X1171.8986 Y1655.4845 Z-21.0000 F2750
G1 X1171.8986 Y1653.4825 Z-21.0000 F2750
G1 X1133.8967 Y1653.4825 Z-21.0000 F2750
G1 X1133.8967 Y1655.4845 Z-21.0000 F2750
G1 X1138.8967 Y1655.4845 Z-21.0000 F2750
G1 X1138.8967 Y1739.4833 Z-21.0000 F2750
G1 X1138.8967 Y1739.4833 Z10.0000 F9999
G1 X1138.8967 Y1439.4840 Z10.0000 F9999
G1 X1138.8967 Y1439.4840 Z1.0000 F2000
G1 X1138.8967 Y1478.4551 Z-10.0000 F2000
G1 X1138.8967 Y1439.4840 Z-21.0000 F2000
G1 X1138.8967 Y1523.4828 Z-21.0000 F2750
G1 X1133.8967 Y1523.4828 Z-21.0000 F2750
G1 X1133.8967 Y1525.4847 Z-21.0000 F2750
G1 X1153.8987 Y1525.4847 Z-21.0000 F2750
G1 X1153.8987 Y1523.4828 Z-21.0000 F2750
G1 X1148.8987 Y1523.4828 Z-21.0000 F2750
G1 X1148.8987 Y1444.4849 Z-21.0000 F2750
G1 X1177.8967 Y1444.4849 Z-21.0000 F2750
G1 X1177.8967 Y1449.4849 Z-21.0000 F2750
G1 X1179.8986 Y1449.4849 Z-21.0000 F2750
G1 X1179.8986 Y1429.4829 Z-21.0000 F2750
G1 X1177.8967 Y1429.4829 Z-21.0000 F2750
G1 X1177.8967 Y1434.4829 Z-21.0000 F2750
G1 X1148.8987 Y1434.4829 Z-21.0000 F2750
G1 X1148.8987 Y1355.4851 Z-21.0000 F2750
G1 X1153.8987 Y1355.4851 Z-21.0000 F2750
G1 X1153.8987 Y1353.4831 Z-21.0000 F2750
G1 X1133.8967 Y1353.4831 Z-21.0000 F2750
G1 X1133.8967 Y1355.4851 Z-21.0000 F2750
G1 X1138.8967 Y1355.4851 Z-21.0000 F2750
G1 X1138.8967 Y1439.4840 Z-21.0000 F2750
G1 X1138.8967 Y1439.4840 Z10.0000 F9999
G1 X1148.8987 Y1139.4845 Z10.0000 F9999
G1 X1148.8987 Y1139.4845 Z1.0000 F2000
G1 X1148.8987 Y1100.5133 Z-10.0000 F2000
G1 X1148.8987 Y1139.4845 Z-21.0000 F2000
G1 X1148.8987 Y1055.4856 Z-21.0000 F2750
G1 X1153.8987 Y1055.4856 Z-21.0000 F2750
G1 X1153.8987 Y1053.4836 Z-21.0000 F2750
G1 X1133.8967 Y1053.4836 Z-21.0000 F2750
G1 X1133.8967 Y1055.4856 Z-21.0000 F2750
G1 X1138.8967 Y1055.4856 Z-21.0000 F2750
G1 X1138.8967 Y1223.4834 Z-21.0000 F2750
G1 X1133.8967 Y1223.4834 Z-21.0000 F2750
G1 X1133.8967 Y1225.4854 Z-21.0000 F2750
G1 X1153.8987 Y1225.4854 Z-21.0000 F2750
G1 X1153.8987 Y1223.4834 Z-21.0000 F2750
G1 X1148.8987 Y1223.4834 Z-21.0000 F2750
G1 X1148.8987 Y1139.4845 Z-21.0000 F2750
G1 X1148.8987 Y1139.4845 Z10.0000 F9999
G1 X988.8969 Y1146.4835 Z10.0000 F9999
G1 X988.8969 Y1146.4835 Z1.0000 F2000
G1 X988.8969 Y1185.4546 Z-10.0000 F2000
G1 X988.8969 Y1146.4835 Z-21.0000 F2000
G1 X988.8969 Y1265.4823 Z-21.0000 F2750
G1 X983.8969 Y1265.4823 Z-21.0000 F2750
G1 X983.8969 Y1267.4843 Z-21.0000 F2750
G1 X1021.8987 Y1267.4843 Z-21.0000 F2750
G1 X1021.8987 Y1265.4823 Z-21.0000 F2750
G1 X1016.8988 Y1265.4823 Z-21.0000 F2750
G1 X1016.8988 Y1027.4846 Z-21.0000 F2750
G1 X1021.8987 Y1027.4846 Z-21.0000 F2750
G1 X1021.8987 Y1025.4827 Z-21.0000 F2750
G1 X983.8969 Y1025.4827 Z-21.0000 F2750
G1 X983.8969 Y1027.4846 Z-21.0000 F2750
G1 X988.8969 Y1027.4846 Z-21.0000 F2750
G1 X988.8969 Y1146.4835 Z-21.0000 F2750
G1 X988.8969 Y1146.4835 Z10.0000 F9999
G1 X1138.8967 Y839.4851 Z10.0000 F9999
G1 X1138.8967 Y839.4851 Z1.0000 F2000
G1 X1138.8967 Y878.4563 Z-10.0000 F2000
G1 X1138.8967 Y839.4851 Z-21.0000 F2000
G1 X1138.8967 Y923.4840 Z-21.0000 F2750
G1 X1133.8967 Y923.4840 Z-21.0000 F2750
G1 X1133.8967 Y925.4858 Z-21.0000 F2750
G1 X1153.8987 Y925.4858 Z-21.0000 F2750
G1 X1153.8987 Y923.4840 Z-21.0000 F2750
G1 X1148.8987 Y923.4840 Z-21.0000 F2750
G1 X1148.8987 Y844.4861 Z-21.0000 F2750
G1 X1177.8966 Y844.4861 Z-21.0000 F2750
G1 X1177.8967 Y849.4861 Z-21.0000 F2750
G1 X1179.8988 Y849.4861 Z-21.0000 F2750
G1 X1179.8986 Y829.4841 Z-21.0000 F2750
G1 X1177.8967 Y829.4841 Z-21.0000 F2750
G1 X1177.8967 Y834.4841 Z-21.0000 F2750
G1 X1148.8987 Y834.4841 Z-21.0000 F2750
G1 X1148.8987 Y755.4863 Z-21.0000 F2750
G1 X1153.8987 Y755.4863 Z-21.0000 F2750
G1 X1153.8987 Y753.4843 Z-21.0000 F2750
G1 X1133.8967 Y753.4843 Z-21.0000 F2750
G1 X1133.8967 Y755.4863 Z-21.0000 F2750
G1 X1138.8967 Y755.4863 Z-21.0000 F2750
G1 X1138.8967 Y839.4851 Z-21.0000 F2750
G1 X1138.8967 Y839.4851 Z10.0000 F9999
G1 X1138.8967 Y539.4857 Z10.0000 F9999
G1 X1138.8967 Y539.4857 Z1.0000 F2000
G1 X1138.8967 Y578.4568 Z-10.0000 F2000
G1 X1138.8967 Y539.4857 Z-21.0000 F2000
G1 X1138.8967 Y623.4844 Z-21.0000 F2750
G1 X1133.8967 Y623.4844 Z-21.0000 F2750
G1 X1133.8967 Y625.4864 Z-21.0000 F2750
G1 X1171.8986 Y625.4864 Z-21.0000 F2750
G1 X1171.8986 Y623.4844 Z-21.0000 F2750
G1 X1166.8987 Y623.4844 Z-21.0000 F2750
G1 X1166.8987 Y455.4869 Z-21.0000 F2750
G1 X1171.8986 Y455.4869 Z-21.0000 F2750
G1 X1171.8986 Y453.4848 Z-21.0000 F2750
G1 X1133.8967 Y453.4848 Z-21.0000 F2750
G1 X1133.8967 Y455.4869 Z-21.0000 F2750
G1 X1138.8967 Y455.4869 Z-21.0000 F2750
G1 X1138.8967 Y539.4857 Z-21.0000 F2750
G1 X1138.8967 Y539.4857 Z10.0000 F9999
G1 X988.8969 Y546.4847 Z10.0000 F9999
G1 X988.8969 Y546.4847 Z1.0000 F2000
G1 X988.8969 Y585.4559 Z-10.0000 F2000
G1 X988.8969 Y546.4847 Z-21.0000 F2000
G1 X988.8969 Y665.4836 Z-21.0000 F2750
G1 X983.8969 Y665.4836 Z-21.0000 F2750
G1 X983.8969 Y667.4855 Z-21.0000 F2750
G1 X1021.8987 Y667.4855 Z-21.0000 F2750
G1 X1021.8987 Y665.4836 Z-21.0000 F2750
G1 X1016.8988 Y665.4836 Z-21.0000 F2750
G1 X1016.8988 Y427.4859 Z-21.0000 F2750
G1 X1021.8987 Y427.4859 Z-21.0000 F2750
G1 X1021.8987 Y425.4839 Z-21.0000 F2750
G1 X983.8969 Y425.4839 Z-21.0000 F2750
G1 X983.8969 Y427.4859 Z-21.0000 F2750
G1 X988.8969 Y427.4859 Z-21.0000 F2750
G1 X988.8969 Y546.4847 Z-21.0000 F2750
G1 X988.8969 Y546.4847 Z10.0000 F9999
G1 X1138.8967 Y239.4863 Z10.0000 F9999
G1 X1138.8967 Y239.4863 Z1.0000 F2000
G1 X1138.8967 Y278.4574 Z-10.0000 F2000
G1 X1138.8967 Y239.4863 Z-21.0000 F2000
G1 X1138.8967 Y323.4852 Z-21.0000 F2750
G1 X1133.8967 Y323.4852 Z-21.0000 F2750
G1 X1133.8967 Y325.4872 Z-21.0000 F2750
G1 X1171.8986 Y325.4872 Z-21.0000 F2750
G1 X1171.8986 Y323.4852 Z-21.0000 F2750
G1 X1166.8987 Y323.4852 Z-21.0000 F2750
G1 X1166.8987 Y155.4874 Z-21.0000 F2750
G1 X1171.8986 Y155.4874 Z-21.0000 F2750
G1 X1171.8986 Y153.4854 Z-21.0000 F2750
G1 X1133.8967 Y153.4854 Z-21.0000 F2750
G1 X1133.8967 Y155.4874 Z-21.0000 F2750
G1 X1138.8967 Y155.4874 Z-21.0000 F2750
G1 X1138.8967 Y239.4863 Z-21.0000 F2750
G1 X1138.8967 Y239.4863 Z10.0000 F9999
G1 X1166.8987 Y2039.4827 Z10.0000 F9999
G1 X1166.8987 Y2039.4827 Z1.0000 F2000
G1 X1166.8987 Y2000.5115 Z-10.0000 F2000
G1 X1166.8987 Y2039.4827 Z-21.0000 F2000
G1 X1166.8987 Y1955.4838 Z-21.0000 F2750
G1 X1171.8986 Y1955.4838 Z-21.0000 F2750
G1 X1171.8986 Y1953.4819 Z-21.0000 F2750
G1 X1133.8967 Y1953.4819 Z-21.0000 F2750
G1 X1133.8967 Y1955.4838 Z-21.0000 F2750
G1 X1138.8967 Y1955.4838 Z-21.0000 F2750
G1 X1138.8967 Y2123.4815 Z-21.0000 F2750
G1 X1133.8967 Y2123.4815 Z-21.0000 F2750
G1 X1133.8967 Y2125.4835 Z-21.0000 F2750
G1 X1171.8986 Y2125.4835 Z-21.0000 F2750
G1 X1171.8986 Y2123.4815 Z-21.0000 F2750
G1 X1166.8987 Y2123.4815 Z-21.0000 F2750
G1 X1166.8987 Y2039.4827 Z-21.0000 F2750
G1 X1166.8987 Y2039.4827 Z10.0000 F9999
(Tool Number:1) (7.998 mm dia. slot drill)
M3 S19000
G1 X514.0144 Y2250.4851 Z10.0000 F9999
G1 X514.0144 Y2250.4851 Z1.0000 F2000
G1 X552.9856 Y2250.4851 Z-10.0000 F2000
G1 X514.0144 Y2250.4851 Z-21.0000 F2000
G1 X682.6279 Y2250.4851 Z-21.0000 F2750
G1 X682.6279 Y2278.8935 Z-21.0000 F2750
G1 X682.6279 Y2278.8935 Z-15.0000 F9999
G1 X682.6279 Y2306.8915 Z-15.0000 F2750
G1 X682.6279 Y2306.8915 Z-21.0000 F2000
G1 X682.6279 Y2336.4830 Z-21.0000 F2750
G1 X345.4010 Y2336.4830 Z-21.0000 F2750
G1 X345.4010 Y2331.4830 Z-21.0000 F2750
G1 X343.3981 Y2331.4830 Z-21.0000 F2750
G1 X343.3981 Y2367.1403 Z-21.0000 F2750
G1 X338.0558 Y2372.4829 Z-21.0000 F2750
G1 X324.6072 Y2372.4829 Z-21.0000 F2750
G1 X324.6072 Y2372.4829 Z-15.0000 F9999
G1 X296.6092 Y2372.4829 Z-15.0000 F2750
G1 X296.6092 Y2372.4829 Z-21.0000 F2000
G1 X280.7434 Y2372.4829 Z-21.0000 F2750
G1 X275.4012 Y2367.1403 Z-21.0000 F2750
G1 X275.4012 Y2331.4830 Z-21.0000 F2750
G1 X273.3981 Y2331.4830 Z-21.0000 F2750
G1 X273.3981 Y2336.4830 Z-21.0000 F2750
G1 X45.4013 Y2336.4830 Z-21.0000 F2750
G1 X45.4013 Y2331.4830 Z-21.0000 F2750
G1 X43.3985 Y2331.4830 Z-21.0000 F2750
G1 X43.3985 Y2367.1402 Z-21.0000 F2750
G1 X38.0566 Y2372.4829 Z-21.0000 F2750
G1 X5.9010 Y2372.4829 Z-21.0000 F2750
G1 X5.9010 Y2310.2653 Z-21.0000 F2750
G1 X6.2141 Y2308.1161 Z-21.0000 F2750
G1 X7.2942 Y2305.8092 Z-21.0000 F2750
G1 X9.0131 Y2303.9244 Z-21.0000 F2750
G1 X11.1325 Y2302.6641 Z-21.0000 F2750
G1 X13.5222 Y2302.0578 Z-21.0000 F2750
G1 X16.0669 Y2302.1746 Z-21.0000 F2750
G1 X18.4659 Y2303.0413 Z-21.0000 F2750
G1 X20.2064 Y2304.3420 Z-21.0000 F2750
G1 X23.1344 Y2307.2702 Z-21.0000 F2750
G1 X23.6934 Y2307.6874 Z-21.0000 F2750
G1 X24.0368 Y2307.8237 Z-21.0000 F2750
G1 X24.4128 Y2307.8693 Z-21.0000 F2750
G1 X24.7848 Y2307.8174 Z-21.0000 F2750
G1 X25.1226 Y2307.6774 Z-21.0000 F2750
G1 X25.4221 Y2307.4508 Z-21.0000 F2750
G1 X25.6556 Y2307.1525 Z-21.0000 F2750
G1 X25.8018 Y2306.8133 Z-21.0000 F2750
G1 X25.9014 Y2306.1252 Z-21.0000 F2750
G1 X25.9014 Y2280.8430 Z-21.0000 F2750
G1 X25.8018 Y2280.1549 Z-21.0000 F2750
G1 X25.6556 Y2279.8156 Z-21.0000 F2750
G1 X25.4221 Y2279.5173 Z-21.0000 F2750
G1 X25.1226 Y2279.2907 Z-21.0000 F2750
G1 X24.7848 Y2279.1507 Z-21.0000 F2750
G1 X24.4128 Y2279.0989 Z-21.0000 F2750
G1 X24.0368 Y2279.1445 Z-21.0000 F2750
G1 X23.6934 Y2279.2807 Z-21.0000 F2750
G1 X23.1344 Y2279.6980 Z-21.0000 F2750
G1 X20.2064 Y2282.6261 Z-21.0000 F2750
G1 X18.4659 Y2283.9269 Z-21.0000 F2750
G1 X16.0669 Y2284.7935 Z-21.0000 F2750
G1 X13.5222 Y2284.9103 Z-21.0000 F2750
G1 X11.1325 Y2284.3041 Z-21.0000 F2750
G1 X9.0131 Y2283.0437 Z-21.0000 F2750
G1 X7.2942 Y2281.1589 Z-21.0000 F2750
G1 X6.2141 Y2278.8520 Z-21.0000 F2750
G1 X5.9010 Y2276.7028 Z-21.0000 F2750
G1 X5.9010 Y2214.4853 Z-21.0000 F2750
G1 X10.5908 Y2214.4853 Z-21.0000 F2750
G1 X10.5908 Y2214.4853 Z-15.0000 F9999
G1 X38.0566 Y2214.4853 Z-15.0000 F2750
G1 X38.4329 Y2214.8616 Z-15.0000 F2750
G1 X38.4329 Y2214.8616 Z-21.0000 F2000
G1 X43.3985 Y2219.8279 Z-21.0000 F2750
G1 X43.3985 Y2255.4851 Z-21.0000 F2750
G1 X45.4013 Y2255.4851 Z-21.0000 F2750
G1 X45.4013 Y2250.4851 Z-21.0000 F2750
G1 X273.3981 Y2250.4851 Z-21.0000 F2750
G1 X273.3981 Y2255.4851 Z-21.0000 F2750
G1 X275.4012 Y2255.4851 Z-21.0000 F2750
G1 X275.4012 Y2219.8278 Z-21.0000 F2750
G1 X280.7434 Y2214.4853 Z-21.0000 F2750
G1 X297.6877 Y2214.4853 Z-21.0000 F2750
G1 X297.6877 Y2214.4853 Z-15.0000 F9999
G1 X325.6857 Y2214.4853 Z-15.0000 F2750
G1 X325.6857 Y2214.4853 Z-21.0000 F2000
G1 X338.0558 Y2214.4853 Z-21.0000 F2750
G1 X343.3981 Y2219.8278 Z-21.0000 F2750
G1 X343.3981 Y2255.4851 Z-21.0000 F2750
G1 X345.4010 Y2255.4851 Z-21.0000 F2750
G1 X345.4010 Y2250.4851 Z-21.0000 F2750
G1 X514.0144 Y2250.4851 Z-21.0000 F2750
G1 X514.0144 Y2250.4851 Z10.0000 F9999
G1 X1079.1555 Y2286.8605 Z10.0000 F9999
G1 X1079.1555 Y2286.8605 Z1.0000 F2000
G1 X1106.7122 Y2259.3038 Z-10.0000 F2000
G1 X1079.1555 Y2286.8605 Z-21.0000 F2000
G1 X1123.0739 Y2242.9421 Z-21.0000 F2750
G1 X1123.0739 Y2242.9421 Z-15.0000 F9999
G1 X1142.8714 Y2223.1446 Z-15.0000 F2750
G1 X1142.8714 Y2223.1446 Z-21.0000 F2000
G1 X1150.9090 Y2215.1070 Z-21.0000 F2750
G1 X1181.3132 Y2245.5112 Z-21.0000 F2750
G1 X1139.9475 Y2286.8769 Z-21.0000 F2750
G1 X1200.3168 Y2347.2463 Z-21.0000 F2750
G1 X1194.3875 Y2353.1755 Z-21.0000 F2750
G1 X1194.3875 Y2353.1755 Z-15.0000 F9999
G1 X1174.5899 Y2372.9731 Z-15.0000 F2750
G1 X1174.5899 Y2372.9731 Z-21.0000 F2000
G1 X1170.8050 Y2376.7581 Z-21.0000 F2750
G1 X1114.7841 Y2330.4250 Z-21.0000 F2750
G1 X1097.9369 Y2347.2723 Z-21.0000 F2750
G1 X1144.2699 Y2403.2932 Z-21.0000 F2750
G1 X1114.7581 Y2432.8050 Z-21.0000 F2750
G1 X1054.3887 Y2372.4356 Z-21.0000 F2750
G1 X1013.0230 Y2413.8014 Z-21.0000 F2750
G1 X982.6188 Y2383.3972 Z-21.0000 F2750
G1 X1015.4395 Y2350.5765 Z-21.0000 F2750
G1 X1015.4395 Y2350.5765 Z-15.0000 F9999
G1 X1035.2371 Y2330.7789 Z-15.0000 F2750
G1 X1035.2371 Y2330.7789 Z-21.0000 F2000
G1 X1079.1555 Y2286.8605 Z-21.0000 F2750
G1 X1079.1555 Y2286.8605 Z10.0000 F9999
G1 X780.1888 Y2232.4852 Z10.0000 F9999
G1 X780.1888 Y2232.4852 Z1.0000 F2000
G1 X817.6877 Y2232.4852 Z-9.5845 F2000
G1 X817.6877 Y2233.9574 Z-10.0000 F2000
G1 X817.6877 Y2232.4852 Z-10.4155 F2000
G1 X780.1888 Y2232.4852 Z-21.0000 F2000
G1 X817.6877 Y2232.4852 Z-21.0000 F2750
G1 X817.6877 Y2237.4852 Z-21.0000 F2750
G1 X819.6897 Y2237.4852 Z-21.0000 F2750
G1 X819.6897 Y2219.8277 Z-21.0000 F2750
G1 X825.0323 Y2214.4853 Z-21.0000 F2750
G1 X831.5456 Y2214.4853 Z-21.0000 F2750
G1 X831.5456 Y2214.4853 Z-15.0000 F9999
G1 X859.5436 Y2214.4853 Z-15.0000 F2750
G1 X859.5436 Y2214.4853 Z-21.0000 F2000
G1 X862.3451 Y2214.4853 Z-21.0000 F2750
G1 X867.6876 Y2219.8277 Z-21.0000 F2750
G1 X867.6876 Y2237.4852 Z-21.0000 F2750
G1 X869.6896 Y2237.4852 Z-21.0000 F2750
G1 X869.6896 Y2232.4852 Z-21.0000 F2750
G1 X944.6875 Y2232.4852 Z-21.0000 F2750
G1 X944.6875 Y2237.4852 Z-21.0000 F2750
G1 X946.6895 Y2237.4852 Z-21.0000 F2750
G1 X946.6895 Y2219.8277 Z-21.0000 F2750
G1 X952.0320 Y2214.4853 Z-21.0000 F2750
G1 X967.3448 Y2214.4853 Z-21.0000 F2750
G1 X972.6874 Y2219.8277 Z-21.0000 F2750
G1 X972.6874 Y2237.4852 Z-21.0000 F2750
G1 X974.6894 Y2237.4852 Z-21.0000 F2750
G1 X974.6894 Y2232.4852 Z-21.0000 F2750
G1 X990.6874 Y2232.4852 Z-21.0000 F2750
G1 X990.6874 Y2240.0675 Z-21.0000 F2750
G1 X990.6874 Y2240.0675 Z-15.0000 F9999
G1 X990.6874 Y2268.0655 Z-15.0000 F2750
G1 X990.6874 Y2268.0655 Z-21.0000 F2000
G1 X990.6874 Y2271.4831 Z-21.0000 F2750
G1 X949.6875 Y2271.4831 Z-21.0000 F2750
G1 X949.6875 Y2273.4851 Z-21.0000 F2750
G1 X954.6875 Y2273.4851 Z-21.0000 F2750
G1 X954.6875 Y2313.4830 Z-21.0000 F2750
G1 X949.6875 Y2313.4830 Z-21.0000 F2750
G1 X949.6875 Y2315.4850 Z-21.0000 F2750
G1 X990.6874 Y2315.4850 Z-21.0000 F2750
G1 X990.6874 Y2354.4829 Z-21.0000 F2750
G1 X974.6894 Y2354.4829 Z-21.0000 F2750
G1 X974.6894 Y2349.4829 Z-21.0000 F2750
G1 X972.6874 Y2349.4829 Z-21.0000 F2750
G1 X972.6874 Y2367.1404 Z-21.0000 F2750
G1 X967.3448 Y2372.4829 Z-21.0000 F2750
G1 X952.0320 Y2372.4829 Z-21.0000 F2750
G1 X946.6895 Y2367.1404 Z-21.0000 F2750
G1 X946.6895 Y2349.4829 Z-21.0000 F2750
G1 X944.6875 Y2349.4829 Z-21.0000 F2750
G1 X944.6875 Y2354.4829 Z-21.0000 F2750
G1 X869.6896 Y2354.4829 Z-21.0000 F2750
G1 X869.6896 Y2349.4829 Z-21.0000 F2750
G1 X867.6876 Y2349.4829 Z-21.0000 F2750
G1 X867.6876 Y2367.1404 Z-21.0000 F2750
G1 X862.3451 Y2372.4829 Z-21.0000 F2750
G1 X857.3866 Y2372.4829 Z-21.0000 F2750
G1 X857.3866 Y2372.4829 Z-15.0000 F9999
G1 X829.3886 Y2372.4829 Z-15.0000 F2750
G1 X829.3886 Y2372.4829 Z-21.0000 F2000
G1 X825.0323 Y2372.4829 Z-21.0000 F2750
G1 X819.6897 Y2367.1404 Z-21.0000 F2750
G1 X819.6897 Y2349.4829 Z-21.0000 F2750
G1 X817.6877 Y2349.4829 Z-21.0000 F2750
G1 X817.6877 Y2354.4829 Z-21.0000 F2750
G1 X742.6899 Y2354.4829 Z-21.0000 F2750
G1 X742.6899 Y2349.4829 Z-21.0000 F2750
G1 X740.6879 Y2349.4829 Z-21.0000 F2750
G1 X740.6879 Y2367.1404 Z-21.0000 F2750
G1 X735.3453 Y2372.4829 Z-21.0000 F2750
G1 X720.0325 Y2372.4829 Z-21.0000 F2750
G1 X714.6899 Y2367.1404 Z-21.0000 F2750
G1 X714.6899 Y2349.4829 Z-21.0000 F2750
G1 X712.6880 Y2349.4829 Z-21.0000 F2750
G1 X712.6880 Y2354.4829 Z-21.0000 F2750
G1 X696.6900 Y2354.4829 Z-21.0000 F2750
G1 X696.6900 Y2315.4850 Z-21.0000 F2750
G1 X737.6899 Y2315.4850 Z-21.0000 F2750
G1 X737.6899 Y2313.4830 Z-21.0000 F2750
G1 X732.6899 Y2313.4830 Z-21.0000 F2750
G1 X732.6899 Y2273.4851 Z-21.0000 F2750
G1 X737.6899 Y2273.4851 Z-21.0000 F2750
G1 X737.6899 Y2271.4831 Z-21.0000 F2750
G1 X696.6900 Y2271.4831 Z-21.0000 F2750
G1 X696.6900 Y2232.4852 Z-21.0000 F2750
G1 X712.6880 Y2232.4852 Z-21.0000 F2750
G1 X712.6880 Y2237.4852 Z-21.0000 F2750
G1 X714.6899 Y2237.4852 Z-21.0000 F2750
G1 X714.6899 Y2219.8277 Z-21.0000 F2750
G1 X720.0325 Y2214.4853 Z-21.0000 F2750
G1 X735.3453 Y2214.4853 Z-21.0000 F2750
G1 X740.6879 Y2219.8277 Z-21.0000 F2750
G1 X740.6879 Y2237.4852 Z-21.0000 F2750
G1 X742.6899 Y2237.4852 Z-21.0000 F2750
G1 X742.6899 Y2232.4852 Z-21.0000 F2750
G1 X780.1888 Y2232.4852 Z-21.0000 F2750
G1 X780.1888 Y2232.4852 Z10.0000 F9999
G1 X1213.8967 Y1103.1912 Z10.0000 F9999
G1 X1213.8967 Y1103.1912 Z1.0000 F2000
G1 X1213.8967 Y1142.1623 Z-10.0000 F2000
G1 X1213.8967 Y1103.1912 Z-21.0000 F2000
G1 X1213.8967 Y2200.4814 Z-21.0000 F2750
G1 X5.9010 Y2200.4814 Z-21.0000 F2750
G1 X5.9010 Y5.9010 Z-21.0000 F2750
G1 X1213.8967 Y5.9010 Z-21.0000 F2750
G1 X1213.8967 Y1103.1912 Z-21.0000 F2750
G1 X1213.8967 Y1103.1912 Z10.0000 F9999
G1 X1900.0000 Y2800.0000 Z80.0000 F9999
G1 Z80.0000 F9999
G1 X1900.0000 Y2800.0000 F9999
M5
M30
