(plotsheet 2n3_nested_153 sheets_final v1_0_sheet 146a_S146.0_15 screws_CC8 - stepover 1mm)
(Material Size) (X=1220.000, Y=2440.000, Z=20.000)
(LinuxCNC_NoArcs_MM_TC_medium_50um_G1_verbose.con)
G90 G80 G21 G49
G64 P0.050
M6 T1
(Tool Number:1) (7.998 mm dia. slot drill)
G43 H1 G0Z80.0000
M3 S9000
G04 P10
G1 X87.3566 Y97.4275 Z10.0000 F9999
G1 X87.3566 Y97.4275 Z2.0000 F9999
G1 X87.3566 Y97.4275 Z-1.0000 F2500
G1 X87.3566 Y97.4275 Z10.0000 F9999
G1 X431.2650 Y96.2498 Z10.0000 F9999
G1 X431.2650 Y96.2498 Z2.0000 F9999
G1 X431.2650 Y96.2498 Z-1.0000 F2500
G1 X431.2650 Y96.2498 Z10.0000 F9999
G1 X775.1340 Y96.2498 Z10.0000 F9999
G1 X775.1340 Y96.2498 Z2.0000 F9999
G1 X775.1340 Y96.2498 Z-1.0000 F2500
G1 X775.1340 Y96.2498 Z10.0000 F9999
G1 X1120.2657 Y96.2498 Z10.0000 F9999
G1 X1120.2657 Y96.2498 Z2.0000 F9999
G1 X1120.2657 Y96.2498 Z-1.0000 F2500
G1 X1120.2657 Y96.2498 Z10.0000 F9999
G1 X1120.2657 Y860.2204 Z10.0000 F9999
G1 X1120.2657 Y860.2204 Z2.0000 F9999
G1 X1120.2657 Y860.2204 Z-1.0000 F2500
G1 X1120.2657 Y860.2204 Z10.0000 F9999
G1 X946.6578 Y860.2204 Z10.0000 F9999
G1 X946.6578 Y860.2204 Z2.0000 F9999
G1 X946.6578 Y860.2204 Z-1.0000 F2500
G1 X946.6578 Y860.2204 Z10.0000 F9999
G1 X775.1340 Y860.2204 Z10.0000 F9999
G1 X775.1340 Y860.2204 Z2.0000 F9999
G1 X775.1340 Y860.2204 Z-1.0000 F2500
G1 X775.1340 Y860.2204 Z10.0000 F9999
G1 X604.4862 Y860.2204 Z10.0000 F9999
G1 X604.4862 Y860.2204 Z2.0000 F9999
G1 X604.4862 Y860.2204 Z-1.0000 F2500
G1 X604.4862 Y860.2204 Z10.0000 F9999
G1 X431.2650 Y860.2204 Z10.0000 F9999
G1 X431.2650 Y860.2204 Z2.0000 F9999
G1 X431.2650 Y860.2204 Z-1.0000 F2500
G1 X431.2650 Y860.2204 Z10.0000 F9999
G1 X260.0330 Y860.2204 Z10.0000 F9999
G1 X260.0330 Y860.2204 Z2.0000 F9999
G1 X260.0330 Y860.2204 Z-1.0000 F2500
G1 X260.0330 Y860.2204 Z10.0000 F9999
G1 X87.3566 Y860.2204 Z10.0000 F9999
G1 X87.3566 Y860.2204 Z2.0000 F9999
G1 X87.3566 Y860.2204 Z-1.0000 F2500
G1 X87.3566 Y860.2204 Z10.0000 F9999
G1 X87.3566 Y1830.0846 Z10.0000 F9999
G1 X87.3566 Y1830.0846 Z2.0000 F9999
G1 X87.3566 Y1830.0846 Z-1.0000 F2500
G1 X87.3566 Y1830.0846 Z10.0000 F9999
G1 X431.2650 Y1830.0846 Z10.0000 F9999
G1 X431.2650 Y1830.0846 Z2.0000 F9999
G1 X431.2650 Y1830.0846 Z-1.0000 F2500
G1 X431.2650 Y1830.0846 Z10.0000 F9999
G1 X775.1340 Y1830.0846 Z10.0000 F9999
G1 X775.1340 Y1830.0846 Z2.0000 F9999
G1 X775.1340 Y1830.0846 Z-1.0000 F2500
G1 X775.1340 Y1830.0846 Z10.0000 F9999
G1 X1120.2657 Y1830.0846 Z10.0000 F9999
G1 X1120.2657 Y1830.0846 Z2.0000 F9999
G1 X1120.2657 Y1830.0846 Z-1.0000 F2500
G1 X1120.2657 Y1830.0846 Z10.0000 F9999
G1 X1900.0000 Y2800.0000 Z80.0000 F9999
G1 Z80.0000 F9999
G1 X1900.0000 Y2800.0000 F9999
M5
M30
