(plotsheet 2n3_nested_153 sheets_final v1_0_sheet 152a_S152.1_text_CC8 - stepover 1mm)
(Material Size) (X=1220.000, Y=2440.000, Z=20.000)
(LinuxCNC_NoArcs_MM_TC_medium_50um_G1_verbose.con)
G90 G80 G21 G49
G64 P0.050
M6 T1
(Tool Number:1) (7.998 mm dia. slot drill)
G43 H1 G0Z80.0000
M3 S18000
G04 P10
G1 X107.7115 Y153.0059 Z10.0000 F9999
G1 X107.7115 Y153.0059 Z-1.0000 F2500
G1 X66.6105 Y115.9050 Z-1.0000 F5000
G1 X107.7115 Y115.9050 Z-1.0000 F5000
G1 X66.6105 Y115.9050 Z-1.0000 F5000
G1 X107.7115 Y153.0059 Z-1.0000 F5000
G1 X66.6105 Y153.0059 Z-1.0000 F5000
G1 X66.6105 Y153.0059 Z10.0000 F9999
G1 X107.7115 Y172.9692 Z10.0000 F9999
G1 X107.7115 Y172.9692 Z-1.0000 F2500
G1 X66.6105 Y172.9692 Z-1.0000 F5000
G1 X107.7115 Y172.9692 Z-1.0000 F5000
G1 X107.7115 Y172.9692 Z10.0000 F9999
G1 X117.1060 Y188.4738 Z10.0000 F9999
G1 X117.1060 Y188.4738 Z-1.0000 F2500
G1 X64.2619 Y218.8591 Z-1.0000 F5000
G1 X117.1060 Y188.4738 Z-1.0000 F5000
G1 X117.1060 Y188.4738 Z10.0000 F9999
G1 X66.6105 Y251.7399 Z10.0000 F9999
G1 X66.6105 Y251.7399 Z-1.0000 F2500
G1 X84.2252 Y235.9968 Z-1.0000 F5000
G1 X86.2434 Y234.2481 Z-1.0000 F5000
G1 X88.3170 Y232.5656 Z-1.0000 F5000
G1 X89.8767 Y231.5457 Z-1.0000 F5000
G1 X91.4729 Y230.5839 Z-1.0000 F5000
G1 X93.9317 Y229.6481 Z-1.0000 F5000
G1 X97.2161 Y229.2445 Z-1.0000 F5000
G1 X100.9592 Y229.8683 Z-1.0000 F5000
G1 X104.3353 Y231.7949 Z-1.0000 F5000
G1 X106.7757 Y235.1344 Z-1.0000 F5000
G1 X107.7115 Y240.1252 Z-1.0000 F5000
G1 X105.1060 Y248.8408 Z-1.0000 F5000
G1 X98.3537 Y251.6298 Z-1.0000 F5000
G1 X105.1060 Y248.8408 Z-1.0000 F5000
G1 X107.7115 Y240.1252 Z-1.0000 F5000
G1 X106.7757 Y235.1344 Z-1.0000 F5000
G1 X104.3353 Y231.7949 Z-1.0000 F5000
G1 X100.9592 Y229.8683 Z-1.0000 F5000
G1 X97.2161 Y229.2445 Z-1.0000 F5000
G1 X93.9317 Y229.6481 Z-1.0000 F5000
G1 X91.4729 Y230.5839 Z-1.0000 F5000
G1 X89.8767 Y231.5457 Z-1.0000 F5000
G1 X88.3170 Y232.5656 Z-1.0000 F5000
G1 X86.2434 Y234.2481 Z-1.0000 F5000
G1 X84.2252 Y235.9968 Z-1.0000 F5000
G1 X66.6105 Y251.7399 Z-1.0000 F5000
G1 X66.6105 Y229.5380 Z-1.0000 F5000
G1 X66.6105 Y229.5380 Z10.0000 F9999
G1 X73.4362 Y286.9692 Z10.0000 F9999
G1 X73.4362 Y286.9692 Z-1.0000 F2500
G1 X70.3904 Y285.0243 Z-1.0000 F5000
G1 X68.3353 Y282.6023 Z-1.0000 F5000
G1 X67.0876 Y279.4830 Z-1.0000 F5000
G1 X66.6105 Y275.3546 Z-1.0000 F5000
G1 X67.0693 Y270.8591 Z-1.0000 F5000
G1 X68.8124 Y267.0426 Z-1.0000 F5000
G1 X71.8032 Y264.3637 Z-1.0000 F5000
G1 X75.9683 Y263.2445 Z-1.0000 F5000
G1 X79.9683 Y263.7766 Z-1.0000 F5000
G1 X82.6472 Y265.3179 Z-1.0000 F5000
G1 X84.3353 Y267.3546 Z-1.0000 F5000
G1 X85.4362 Y269.2628 Z-1.0000 F5000
G1 X90.1702 Y278.4555 Z-1.0000 F5000
G1 X91.5830 Y280.8224 Z-1.0000 F5000
G1 X93.2344 Y282.6757 Z-1.0000 F5000
G1 X95.4179 Y283.9234 Z-1.0000 F5000
G1 X98.2986 Y284.4371 Z-1.0000 F5000
G1 X101.5830 Y283.9050 Z-1.0000 F5000
G1 X104.6105 Y282.0702 Z-1.0000 F5000
G1 X106.8307 Y278.9325 Z-1.0000 F5000
G1 X107.7115 Y274.5656 Z-1.0000 F5000
G1 X107.0326 Y270.3087 Z-1.0000 F5000
G1 X105.5647 Y267.4646 Z-1.0000 F5000
G1 X103.4179 Y265.3729 Z-1.0000 F5000
G1 X105.5647 Y267.4646 Z-1.0000 F5000
G1 X107.0326 Y270.3087 Z-1.0000 F5000
G1 X107.7115 Y274.5656 Z-1.0000 F5000
G1 X106.8307 Y278.9325 Z-1.0000 F5000
G1 X104.6105 Y282.0702 Z-1.0000 F5000
G1 X101.5830 Y283.9050 Z-1.0000 F5000
G1 X98.2986 Y284.4371 Z-1.0000 F5000
G1 X95.4179 Y283.9234 Z-1.0000 F5000
G1 X93.2344 Y282.6757 Z-1.0000 F5000
G1 X91.5830 Y280.8224 Z-1.0000 F5000
G1 X90.1702 Y278.4555 Z-1.0000 F5000
G1 X85.4362 Y269.2628 Z-1.0000 F5000
G1 X84.3353 Y267.3546 Z-1.0000 F5000
G1 X82.6472 Y265.3179 Z-1.0000 F5000
G1 X79.9683 Y263.7766 Z-1.0000 F5000
G1 X75.9683 Y263.2445 Z-1.0000 F5000
G1 X71.8032 Y264.3637 Z-1.0000 F5000
G1 X68.8124 Y267.0426 Z-1.0000 F5000
G1 X67.0693 Y270.8591 Z-1.0000 F5000
G1 X66.6105 Y275.3546 Z-1.0000 F5000
G1 X67.0876 Y279.4830 Z-1.0000 F5000
G1 X68.3353 Y282.6023 Z-1.0000 F5000
G1 X70.3904 Y285.0243 Z-1.0000 F5000
G1 X70.3904 Y285.0243 Z10.0000 F9999
G1 X117.1060 Y297.6848 Z10.0000 F9999
G1 X117.1060 Y297.6848 Z-1.0000 F2500
G1 X64.2619 Y328.0702 Z-1.0000 F5000
G1 X117.1060 Y297.6848 Z-1.0000 F5000
G1 X117.1060 Y297.6848 Z10.0000 F9999
G1 X107.7115 Y355.5013 Z10.0000 F9999
G1 X107.7115 Y355.5013 Z-1.0000 F2500
G1 X66.6105 Y339.4463 Z-1.0000 F5000
G1 X107.7115 Y355.5013 Z-1.0000 F5000
G1 X66.6105 Y371.5197 Z-1.0000 F5000
G1 X66.6105 Y371.5197 Z10.0000 F9999
G1 X91.2711 Y382.1986 Z10.0000 F9999
G1 X91.2711 Y382.1986 Z-1.0000 F2500
G1 X91.2711 Y411.4463 Z-1.0000 F5000
G1 X91.2711 Y382.1986 Z-1.0000 F5000
G1 X91.2711 Y382.1986 Z10.0000 F9999
G1 X81.3078 Y345.1894 Z10.0000 F9999
G1 X81.3078 Y345.1894 Z-1.0000 F2500
G1 X81.3078 Y365.8867 Z-1.0000 F5000
G1 X81.3078 Y345.1894 Z-1.0000 F5000
G1 X81.3078 Y345.1894 Z10.0000 F9999
G1 X81.3078 Y428.5656 Z10.0000 F9999
G1 X81.3078 Y428.5656 Z-1.0000 F2500
G1 X81.3078 Y449.2628 Z-1.0000 F5000
G1 X81.3078 Y428.5656 Z-1.0000 F5000
G1 X81.3078 Y428.5656 Z10.0000 F9999
G1 X107.7115 Y438.8775 Z10.0000 F9999
G1 X107.7115 Y438.8775 Z-1.0000 F2500
G1 X66.6105 Y422.8224 Z-1.0000 F5000
G1 X107.7115 Y438.8775 Z-1.0000 F5000
G1 X66.6105 Y454.8958 Z-1.0000 F5000
G1 X66.6105 Y454.8958 Z10.0000 F9999
G1 X66.6105 Y465.5747 Z10.0000 F9999
G1 X66.6105 Y465.5747 Z-1.0000 F2500
G1 X86.7573 Y478.8041 Z-1.0000 F5000
G1 X66.6105 Y465.5747 Z-1.0000 F5000
G1 X66.6105 Y465.5747 Z10.0000 F9999
G1 X66.6105 Y482.9876 Z10.0000 F9999
G1 X66.6105 Y482.9876 Z-1.0000 F2500
G1 X107.7115 Y482.9876 Z-1.0000 F5000
G1 X107.7115 Y475.8316 Z-1.0000 F5000
G1 X107.1060 Y471.9601 Z-1.0000 F5000
G1 X105.2894 Y468.7491 Z-1.0000 F5000
G1 X102.1335 Y466.5289 Z-1.0000 F5000
G1 X97.4913 Y465.6848 Z-1.0000 F5000
G1 X92.8124 Y466.8408 Z-1.0000 F5000
G1 X89.4913 Y469.6114 Z-1.0000 F5000
G1 X87.5280 Y472.9325 Z-1.0000 F5000
G1 X86.8674 Y475.8316 Z-1.0000 F5000
G1 X86.8674 Y482.9876 Z-1.0000 F5000
G1 X86.8674 Y475.8316 Z-1.0000 F5000
G1 X87.5280 Y472.9325 Z-1.0000 F5000
G1 X89.4913 Y469.6114 Z-1.0000 F5000
G1 X92.8124 Y466.8408 Z-1.0000 F5000
G1 X97.4913 Y465.6848 Z-1.0000 F5000
G1 X102.1335 Y466.5289 Z-1.0000 F5000
G1 X105.2894 Y468.7491 Z-1.0000 F5000
G1 X107.1060 Y471.9601 Z-1.0000 F5000
G1 X107.7115 Y475.8316 Z-1.0000 F5000
G1 X107.7115 Y482.9876 Z-1.0000 F5000
G1 X107.7115 Y482.9876 Z10.0000 F9999
G1 X89.4179 Y513.5197 Z10.0000 F9999
G1 X89.4179 Y513.5197 Z-1.0000 F2500
G1 X89.4179 Y499.0793 Z-1.0000 F5000
G1 X89.4179 Y513.5197 Z-1.0000 F5000
G1 X107.7115 Y513.5197 Z-1.0000 F5000
G1 X107.7115 Y498.4004 Z-1.0000 F5000
G1 X107.7115 Y513.5197 Z-1.0000 F5000
G1 X66.6105 Y513.5197 Z-1.0000 F5000
G1 X66.6105 Y513.5197 Z10.0000 F9999
G1 X232.8752 Y482.9876 Z10.0000 F9999
G1 X232.8752 Y482.9876 Z-1.0000 F2500
G1 X273.9762 Y482.9876 Z-1.0000 F5000
G1 X273.9762 Y475.8316 Z-1.0000 F5000
G1 X273.3707 Y471.9601 Z-1.0000 F5000
G1 X271.5541 Y468.7491 Z-1.0000 F5000
G1 X268.3982 Y466.5289 Z-1.0000 F5000
G1 X263.7560 Y465.6848 Z-1.0000 F5000
G1 X259.0771 Y466.8408 Z-1.0000 F5000
G1 X255.7560 Y469.6114 Z-1.0000 F5000
G1 X253.7927 Y472.9325 Z-1.0000 F5000
G1 X253.1321 Y475.8316 Z-1.0000 F5000
G1 X253.1321 Y482.9876 Z-1.0000 F5000
G1 X253.1321 Y475.8316 Z-1.0000 F5000
G1 X253.7927 Y472.9325 Z-1.0000 F5000
G1 X255.7560 Y469.6114 Z-1.0000 F5000
G1 X259.0771 Y466.8408 Z-1.0000 F5000
G1 X263.7560 Y465.6848 Z-1.0000 F5000
G1 X268.3982 Y466.5289 Z-1.0000 F5000
G1 X271.5541 Y468.7491 Z-1.0000 F5000
G1 X273.3707 Y471.9601 Z-1.0000 F5000
G1 X273.9762 Y475.8316 Z-1.0000 F5000
G1 X273.9762 Y482.9876 Z-1.0000 F5000
G1 X273.9762 Y482.9876 Z10.0000 F9999
G1 X255.6826 Y513.5197 Z10.0000 F9999
G1 X255.6826 Y513.5197 Z-1.0000 F2500
G1 X255.6826 Y499.0793 Z-1.0000 F5000
G1 X255.6826 Y513.5197 Z-1.0000 F5000
G1 X273.9762 Y513.5197 Z-1.0000 F5000
G1 X273.9762 Y498.4004 Z-1.0000 F5000
G1 X273.9762 Y513.5197 Z-1.0000 F5000
G1 X232.8752 Y513.5197 Z-1.0000 F5000
G1 X232.8752 Y513.5197 Z10.0000 F9999
G1 X232.8752 Y465.5747 Z10.0000 F9999
G1 X232.8752 Y465.5747 Z-1.0000 F2500
G1 X253.0220 Y478.8041 Z-1.0000 F5000
G1 X232.8752 Y465.5747 Z-1.0000 F5000
G1 X232.8752 Y465.5747 Z10.0000 F9999
G1 X247.5725 Y428.5656 Z10.0000 F9999
G1 X247.5725 Y428.5656 Z-1.0000 F2500
G1 X247.5725 Y449.2628 Z-1.0000 F5000
G1 X247.5725 Y428.5656 Z-1.0000 F5000
G1 X247.5725 Y428.5656 Z10.0000 F9999
G1 X273.9762 Y438.8775 Z10.0000 F9999
G1 X273.9762 Y438.8775 Z-1.0000 F2500
G1 X232.8752 Y422.8224 Z-1.0000 F5000
G1 X273.9762 Y438.8775 Z-1.0000 F5000
G1 X232.8752 Y454.8958 Z-1.0000 F5000
G1 X232.8752 Y454.8958 Z10.0000 F9999
G1 X257.5358 Y382.1986 Z10.0000 F9999
G1 X257.5358 Y382.1986 Z-1.0000 F2500
G1 X257.5358 Y411.4463 Z-1.0000 F5000
G1 X257.5358 Y382.1986 Z-1.0000 F5000
G1 X257.5358 Y382.1986 Z10.0000 F9999
G1 X273.9762 Y355.5013 Z10.0000 F9999
G1 X273.9762 Y355.5013 Z-1.0000 F2500
G1 X232.8752 Y339.4463 Z-1.0000 F5000
G1 X273.9762 Y355.5013 Z-1.0000 F5000
G1 X232.8752 Y371.5197 Z-1.0000 F5000
G1 X232.8752 Y371.5197 Z10.0000 F9999
G1 X247.5725 Y345.1894 Z10.0000 F9999
G1 X247.5725 Y345.1894 Z-1.0000 F2500
G1 X247.5725 Y365.8867 Z-1.0000 F5000
G1 X247.5725 Y345.1894 Z-1.0000 F5000
G1 X247.5725 Y345.1894 Z10.0000 F9999
G1 X239.7009 Y286.9692 Z10.0000 F9999
G1 X239.7009 Y286.9692 Z-1.0000 F2500
G1 X236.6551 Y285.0243 Z-1.0000 F5000
G1 X234.6000 Y282.6023 Z-1.0000 F5000
G1 X233.3523 Y279.4830 Z-1.0000 F5000
G1 X232.8752 Y275.3546 Z-1.0000 F5000
G1 X233.3340 Y270.8591 Z-1.0000 F5000
G1 X235.0771 Y267.0426 Z-1.0000 F5000
G1 X238.0679 Y264.3637 Z-1.0000 F5000
G1 X242.2330 Y263.2445 Z-1.0000 F5000
G1 X246.2330 Y263.7766 Z-1.0000 F5000
G1 X248.9119 Y265.3179 Z-1.0000 F5000
G1 X250.6000 Y267.3546 Z-1.0000 F5000
G1 X251.7009 Y269.2628 Z-1.0000 F5000
G1 X256.4349 Y278.4555 Z-1.0000 F5000
G1 X257.8477 Y280.8224 Z-1.0000 F5000
G1 X259.4991 Y282.6757 Z-1.0000 F5000
G1 X261.6826 Y283.9234 Z-1.0000 F5000
G1 X264.5633 Y284.4371 Z-1.0000 F5000
G1 X267.8477 Y283.9050 Z-1.0000 F5000
G1 X270.8752 Y282.0702 Z-1.0000 F5000
G1 X273.0954 Y278.9325 Z-1.0000 F5000
G1 X273.9762 Y274.5656 Z-1.0000 F5000
G1 X273.2973 Y270.3087 Z-1.0000 F5000
G1 X271.8294 Y267.4646 Z-1.0000 F5000
G1 X269.6826 Y265.3729 Z-1.0000 F5000
G1 X271.8294 Y267.4646 Z-1.0000 F5000
G1 X273.2973 Y270.3087 Z-1.0000 F5000
G1 X273.9762 Y274.5656 Z-1.0000 F5000
G1 X273.0954 Y278.9325 Z-1.0000 F5000
G1 X270.8752 Y282.0702 Z-1.0000 F5000
G1 X267.8477 Y283.9050 Z-1.0000 F5000
G1 X264.5633 Y284.4371 Z-1.0000 F5000
G1 X261.6826 Y283.9234 Z-1.0000 F5000
G1 X259.4991 Y282.6757 Z-1.0000 F5000
G1 X257.8477 Y280.8224 Z-1.0000 F5000
G1 X256.4349 Y278.4555 Z-1.0000 F5000
G1 X251.7009 Y269.2628 Z-1.0000 F5000
G1 X250.6000 Y267.3546 Z-1.0000 F5000
G1 X248.9119 Y265.3179 Z-1.0000 F5000
G1 X246.2330 Y263.7766 Z-1.0000 F5000
G1 X242.2330 Y263.2445 Z-1.0000 F5000
G1 X238.0679 Y264.3637 Z-1.0000 F5000
G1 X235.0771 Y267.0426 Z-1.0000 F5000
G1 X233.3340 Y270.8591 Z-1.0000 F5000
G1 X232.8752 Y275.3546 Z-1.0000 F5000
G1 X233.3523 Y279.4830 Z-1.0000 F5000
G1 X234.6000 Y282.6023 Z-1.0000 F5000
G1 X236.6551 Y285.0243 Z-1.0000 F5000
G1 X236.6551 Y285.0243 Z10.0000 F9999
G1 X232.8752 Y251.7399 Z10.0000 F9999
G1 X232.8752 Y251.7399 Z-1.0000 F2500
G1 X250.4899 Y235.9968 Z-1.0000 F5000
G1 X252.5081 Y234.2481 Z-1.0000 F5000
G1 X254.5817 Y232.5656 Z-1.0000 F5000
G1 X256.1414 Y231.5457 Z-1.0000 F5000
G1 X257.7376 Y230.5839 Z-1.0000 F5000
G1 X260.1963 Y229.6481 Z-1.0000 F5000
G1 X263.4807 Y229.2445 Z-1.0000 F5000
G1 X267.2239 Y229.8683 Z-1.0000 F5000
G1 X270.6000 Y231.7949 Z-1.0000 F5000
G1 X273.0404 Y235.1344 Z-1.0000 F5000
G1 X273.9762 Y240.1252 Z-1.0000 F5000
G1 X271.3707 Y248.8408 Z-1.0000 F5000
G1 X264.6184 Y251.6298 Z-1.0000 F5000
G1 X271.3707 Y248.8408 Z-1.0000 F5000
G1 X273.9762 Y240.1252 Z-1.0000 F5000
G1 X273.0404 Y235.1344 Z-1.0000 F5000
G1 X270.6000 Y231.7949 Z-1.0000 F5000
G1 X267.2239 Y229.8683 Z-1.0000 F5000
G1 X263.4807 Y229.2445 Z-1.0000 F5000
G1 X260.1963 Y229.6481 Z-1.0000 F5000
G1 X257.7376 Y230.5839 Z-1.0000 F5000
G1 X256.1414 Y231.5457 Z-1.0000 F5000
G1 X254.5817 Y232.5656 Z-1.0000 F5000
G1 X252.5081 Y234.2481 Z-1.0000 F5000
G1 X250.4899 Y235.9968 Z-1.0000 F5000
G1 X232.8752 Y251.7399 Z-1.0000 F5000
G1 X232.8752 Y229.5380 Z-1.0000 F5000
G1 X232.8752 Y229.5380 Z10.0000 F9999
G1 X283.3707 Y188.4738 Z10.0000 F9999
G1 X283.3707 Y188.4738 Z-1.0000 F2500
G1 X230.5266 Y218.8591 Z-1.0000 F5000
G1 X283.3707 Y188.4738 Z-1.0000 F5000
G1 X283.3707 Y188.4738 Z10.0000 F9999
G1 X273.9762 Y172.9692 Z10.0000 F9999
G1 X273.9762 Y172.9692 Z-1.0000 F2500
G1 X232.8752 Y172.9692 Z-1.0000 F5000
G1 X273.9762 Y172.9692 Z-1.0000 F5000
G1 X273.9762 Y172.9692 Z10.0000 F9999
G1 X273.9762 Y153.0059 Z10.0000 F9999
G1 X273.9762 Y153.0059 Z-1.0000 F2500
G1 X232.8752 Y115.9050 Z-1.0000 F5000
G1 X273.9762 Y115.9050 Z-1.0000 F5000
G1 X232.8752 Y115.9050 Z-1.0000 F5000
G1 X273.9762 Y153.0059 Z-1.0000 F5000
G1 X232.8752 Y153.0059 Z-1.0000 F5000
G1 X232.8752 Y153.0059 Z10.0000 F9999
G1 X283.3707 Y297.6848 Z10.0000 F9999
G1 X283.3707 Y297.6848 Z-1.0000 F2500
G1 X230.5266 Y328.0702 Z-1.0000 F5000
G1 X283.3707 Y297.6848 Z-1.0000 F5000
G1 X283.3707 Y297.6848 Z10.0000 F9999
G1 X417.5339 Y286.9692 Z10.0000 F9999
G1 X417.5339 Y286.9692 Z-1.0000 F2500
G1 X414.4880 Y285.0243 Z-1.0000 F5000
G1 X412.4330 Y282.6023 Z-1.0000 F5000
G1 X411.1853 Y279.4830 Z-1.0000 F5000
G1 X410.7082 Y275.3546 Z-1.0000 F5000
G1 X411.1669 Y270.8591 Z-1.0000 F5000
G1 X412.9100 Y267.0426 Z-1.0000 F5000
G1 X415.9008 Y264.3637 Z-1.0000 F5000
G1 X420.0660 Y263.2445 Z-1.0000 F5000
G1 X424.0660 Y263.7766 Z-1.0000 F5000
G1 X426.7449 Y265.3179 Z-1.0000 F5000
G1 X428.4330 Y267.3546 Z-1.0000 F5000
G1 X429.5339 Y269.2628 Z-1.0000 F5000
G1 X434.2678 Y278.4555 Z-1.0000 F5000
G1 X435.6807 Y280.8224 Z-1.0000 F5000
G1 X437.3320 Y282.6757 Z-1.0000 F5000
G1 X439.5155 Y283.9234 Z-1.0000 F5000
G1 X442.3963 Y284.4371 Z-1.0000 F5000
G1 X445.6807 Y283.9050 Z-1.0000 F5000
G1 X448.7082 Y282.0702 Z-1.0000 F5000
G1 X450.9284 Y278.9325 Z-1.0000 F5000
G1 X451.8091 Y274.5656 Z-1.0000 F5000
G1 X451.1302 Y270.3087 Z-1.0000 F5000
G1 X449.6623 Y267.4646 Z-1.0000 F5000
G1 X447.5155 Y265.3729 Z-1.0000 F5000
G1 X449.6623 Y267.4646 Z-1.0000 F5000
G1 X451.1302 Y270.3087 Z-1.0000 F5000
G1 X451.8091 Y274.5656 Z-1.0000 F5000
G1 X450.9284 Y278.9325 Z-1.0000 F5000
G1 X448.7082 Y282.0702 Z-1.0000 F5000
G1 X445.6807 Y283.9050 Z-1.0000 F5000
G1 X442.3963 Y284.4371 Z-1.0000 F5000
G1 X439.5155 Y283.9234 Z-1.0000 F5000
G1 X437.3320 Y282.6757 Z-1.0000 F5000
G1 X435.6807 Y280.8224 Z-1.0000 F5000
G1 X434.2678 Y278.4555 Z-1.0000 F5000
G1 X429.5339 Y269.2628 Z-1.0000 F5000
G1 X428.4330 Y267.3546 Z-1.0000 F5000
G1 X426.7449 Y265.3179 Z-1.0000 F5000
G1 X424.0660 Y263.7766 Z-1.0000 F5000
G1 X420.0660 Y263.2445 Z-1.0000 F5000
G1 X415.9008 Y264.3637 Z-1.0000 F5000
G1 X412.9100 Y267.0426 Z-1.0000 F5000
G1 X411.1669 Y270.8591 Z-1.0000 F5000
G1 X410.7082 Y275.3546 Z-1.0000 F5000
G1 X411.1853 Y279.4830 Z-1.0000 F5000
G1 X412.4330 Y282.6023 Z-1.0000 F5000
G1 X414.4880 Y285.0243 Z-1.0000 F5000
G1 X414.4880 Y285.0243 Z10.0000 F9999
G1 X410.7082 Y251.7399 Z10.0000 F9999
G1 X410.7082 Y251.7399 Z-1.0000 F2500
G1 X428.3229 Y235.9968 Z-1.0000 F5000
G1 X430.3410 Y234.2481 Z-1.0000 F5000
G1 X432.4146 Y232.5656 Z-1.0000 F5000
G1 X433.9744 Y231.5457 Z-1.0000 F5000
G1 X435.5706 Y230.5839 Z-1.0000 F5000
G1 X438.0293 Y229.6481 Z-1.0000 F5000
G1 X441.3137 Y229.2445 Z-1.0000 F5000
G1 X445.0568 Y229.8683 Z-1.0000 F5000
G1 X448.4330 Y231.7949 Z-1.0000 F5000
G1 X450.8733 Y235.1344 Z-1.0000 F5000
G1 X451.8091 Y240.1252 Z-1.0000 F5000
G1 X449.2036 Y248.8408 Z-1.0000 F5000
G1 X442.4513 Y251.6298 Z-1.0000 F5000
G1 X449.2036 Y248.8408 Z-1.0000 F5000
G1 X451.8091 Y240.1252 Z-1.0000 F5000
G1 X450.8733 Y235.1344 Z-1.0000 F5000
G1 X448.4330 Y231.7949 Z-1.0000 F5000
G1 X445.0568 Y229.8683 Z-1.0000 F5000
G1 X441.3137 Y229.2445 Z-1.0000 F5000
G1 X438.0293 Y229.6481 Z-1.0000 F5000
G1 X435.5706 Y230.5839 Z-1.0000 F5000
G1 X433.9744 Y231.5457 Z-1.0000 F5000
G1 X432.4146 Y232.5656 Z-1.0000 F5000
G1 X430.3410 Y234.2481 Z-1.0000 F5000
G1 X428.3229 Y235.9968 Z-1.0000 F5000
G1 X410.7082 Y251.7399 Z-1.0000 F5000
G1 X410.7082 Y229.5380 Z-1.0000 F5000
G1 X410.7082 Y229.5380 Z10.0000 F9999
G1 X461.2036 Y188.4738 Z10.0000 F9999
G1 X461.2036 Y188.4738 Z-1.0000 F2500
G1 X408.3596 Y218.8591 Z-1.0000 F5000
G1 X461.2036 Y188.4738 Z-1.0000 F5000
G1 X461.2036 Y188.4738 Z10.0000 F9999
G1 X451.8091 Y172.9692 Z10.0000 F9999
G1 X451.8091 Y172.9692 Z-1.0000 F2500
G1 X410.7082 Y172.9692 Z-1.0000 F5000
G1 X451.8091 Y172.9692 Z-1.0000 F5000
G1 X451.8091 Y172.9692 Z10.0000 F9999
G1 X451.8091 Y153.0059 Z10.0000 F9999
G1 X451.8091 Y153.0059 Z-1.0000 F2500
G1 X410.7082 Y115.9050 Z-1.0000 F5000
G1 X451.8091 Y115.9050 Z-1.0000 F5000
G1 X410.7082 Y115.9050 Z-1.0000 F5000
G1 X451.8091 Y153.0059 Z-1.0000 F5000
G1 X410.7082 Y153.0059 Z-1.0000 F5000
G1 X410.7082 Y153.0059 Z10.0000 F9999
G1 X461.2036 Y297.6848 Z10.0000 F9999
G1 X461.2036 Y297.6848 Z-1.0000 F2500
G1 X408.3596 Y328.0702 Z-1.0000 F5000
G1 X461.2036 Y297.6848 Z-1.0000 F5000
G1 X461.2036 Y297.6848 Z10.0000 F9999
G1 X451.8091 Y355.5013 Z10.0000 F9999
G1 X451.8091 Y355.5013 Z-1.0000 F2500
G1 X410.7082 Y339.4463 Z-1.0000 F5000
G1 X451.8091 Y355.5013 Z-1.0000 F5000
G1 X410.7082 Y371.5197 Z-1.0000 F5000
G1 X410.7082 Y371.5197 Z10.0000 F9999
G1 X435.3687 Y382.1986 Z10.0000 F9999
G1 X435.3687 Y382.1986 Z-1.0000 F2500
G1 X435.3687 Y411.4463 Z-1.0000 F5000
G1 X435.3687 Y382.1986 Z-1.0000 F5000
G1 X435.3687 Y382.1986 Z10.0000 F9999
G1 X425.4054 Y345.1894 Z10.0000 F9999
G1 X425.4054 Y345.1894 Z-1.0000 F2500
G1 X425.4054 Y365.8867 Z-1.0000 F5000
G1 X425.4054 Y345.1894 Z-1.0000 F5000
G1 X425.4054 Y345.1894 Z10.0000 F9999
G1 X425.4054 Y428.5656 Z10.0000 F9999
G1 X425.4054 Y428.5656 Z-1.0000 F2500
G1 X425.4054 Y449.2628 Z-1.0000 F5000
G1 X425.4054 Y428.5656 Z-1.0000 F5000
G1 X425.4054 Y428.5656 Z10.0000 F9999
G1 X451.8091 Y438.8775 Z10.0000 F9999
G1 X451.8091 Y438.8775 Z-1.0000 F2500
G1 X410.7082 Y422.8224 Z-1.0000 F5000
G1 X451.8091 Y438.8775 Z-1.0000 F5000
G1 X410.7082 Y454.8958 Z-1.0000 F5000
G1 X410.7082 Y454.8958 Z10.0000 F9999
G1 X410.7082 Y465.5747 Z10.0000 F9999
G1 X410.7082 Y465.5747 Z-1.0000 F2500
G1 X430.8550 Y478.8041 Z-1.0000 F5000
G1 X410.7082 Y465.5747 Z-1.0000 F5000
G1 X410.7082 Y465.5747 Z10.0000 F9999
G1 X410.7082 Y482.9876 Z10.0000 F9999
G1 X410.7082 Y482.9876 Z-1.0000 F2500
G1 X451.8091 Y482.9876 Z-1.0000 F5000
G1 X451.8091 Y475.8316 Z-1.0000 F5000
G1 X451.2036 Y471.9601 Z-1.0000 F5000
G1 X449.3871 Y468.7491 Z-1.0000 F5000
G1 X446.2311 Y466.5289 Z-1.0000 F5000
G1 X441.5889 Y465.6848 Z-1.0000 F5000
G1 X436.9100 Y466.8408 Z-1.0000 F5000
G1 X433.5889 Y469.6114 Z-1.0000 F5000
G1 X431.6256 Y472.9325 Z-1.0000 F5000
G1 X430.9651 Y475.8316 Z-1.0000 F5000
G1 X430.9651 Y482.9876 Z-1.0000 F5000
G1 X430.9651 Y475.8316 Z-1.0000 F5000
G1 X431.6256 Y472.9325 Z-1.0000 F5000
G1 X433.5889 Y469.6114 Z-1.0000 F5000
G1 X436.9100 Y466.8408 Z-1.0000 F5000
G1 X441.5889 Y465.6848 Z-1.0000 F5000
G1 X446.2311 Y466.5289 Z-1.0000 F5000
G1 X449.3871 Y468.7491 Z-1.0000 F5000
G1 X451.2036 Y471.9601 Z-1.0000 F5000
G1 X451.8091 Y475.8316 Z-1.0000 F5000
G1 X451.8091 Y482.9876 Z-1.0000 F5000
G1 X451.8091 Y482.9876 Z10.0000 F9999
G1 X433.5155 Y513.5197 Z10.0000 F9999
G1 X433.5155 Y513.5197 Z-1.0000 F2500
G1 X433.5155 Y499.0793 Z-1.0000 F5000
G1 X433.5155 Y513.5197 Z-1.0000 F5000
G1 X451.8091 Y513.5197 Z-1.0000 F5000
G1 X451.8091 Y498.4004 Z-1.0000 F5000
G1 X451.8091 Y513.5197 Z-1.0000 F5000
G1 X410.7082 Y513.5197 Z-1.0000 F5000
G1 X410.7082 Y513.5197 Z10.0000 F9999
G1 X576.9729 Y515.8093 Z10.0000 F9999
G1 X576.9729 Y515.8093 Z-1.0000 F2500
G1 X594.5876 Y500.0662 Z-1.0000 F5000
G1 X596.6057 Y498.3175 Z-1.0000 F5000
G1 X598.6793 Y496.6350 Z-1.0000 F5000
G1 X600.2391 Y495.6151 Z-1.0000 F5000
G1 X601.8353 Y494.6533 Z-1.0000 F5000
G1 X604.2940 Y493.7175 Z-1.0000 F5000
G1 X607.5784 Y493.3139 Z-1.0000 F5000
G1 X611.3215 Y493.9377 Z-1.0000 F5000
G1 X614.6976 Y495.8643 Z-1.0000 F5000
G1 X617.1380 Y499.2038 Z-1.0000 F5000
G1 X618.0738 Y504.1946 Z-1.0000 F5000
G1 X615.4683 Y512.9102 Z-1.0000 F5000
G1 X608.7160 Y515.6992 Z-1.0000 F5000
G1 X615.4683 Y512.9102 Z-1.0000 F5000
G1 X618.0738 Y504.1946 Z-1.0000 F5000
G1 X617.1380 Y499.2038 Z-1.0000 F5000
G1 X614.6976 Y495.8643 Z-1.0000 F5000
G1 X611.3215 Y493.9377 Z-1.0000 F5000
G1 X607.5784 Y493.3139 Z-1.0000 F5000
G1 X604.2940 Y493.7175 Z-1.0000 F5000
G1 X601.8353 Y494.6533 Z-1.0000 F5000
G1 X600.2391 Y495.6151 Z-1.0000 F5000
G1 X598.6793 Y496.6350 Z-1.0000 F5000
G1 X596.6057 Y498.3175 Z-1.0000 F5000
G1 X594.5876 Y500.0662 Z-1.0000 F5000
G1 X576.9729 Y515.8093 Z-1.0000 F5000
G1 X576.9729 Y493.6075 Z-1.0000 F5000
G1 X576.9729 Y493.6075 Z10.0000 F9999
G1 X576.9729 Y437.0386 Z10.0000 F9999
G1 X576.9729 Y437.0386 Z-1.0000 F2500
G1 X599.7802 Y437.0386 Z-1.0000 F5000
G1 X599.7802 Y420.5799 Z-1.0000 F5000
G1 X599.7802 Y437.0386 Z-1.0000 F5000
G1 X618.0738 Y437.0386 Z-1.0000 F5000
G1 X618.0738 Y419.2772 Z-1.0000 F5000
G1 X618.0738 Y437.0386 Z-1.0000 F5000
G1 X576.9729 Y437.0386 Z-1.0000 F5000
G1 X576.9729 Y419.2772 Z-1.0000 F5000
G1 X576.9729 Y419.2772 Z10.0000 F9999
G1 X598.1839 Y396.8735 Z10.0000 F9999
G1 X598.1839 Y396.8735 Z-1.0000 F2500
G1 X576.9729 Y384.9286 Z-1.0000 F5000
G1 X598.1839 Y396.8735 Z-1.0000 F5000
G1 X618.0738 Y384.9286 Z-1.0000 F5000
G1 X598.1839 Y396.8735 Z-1.0000 F5000
G1 X618.0738 Y408.9469 Z-1.0000 F5000
G1 X598.1839 Y396.8735 Z-1.0000 F5000
G1 X576.9729 Y408.9469 Z-1.0000 F5000
G1 X576.9729 Y408.9469 Z10.0000 F9999
G1 X627.4683 Y452.5432 Z10.0000 F9999
G1 X627.4683 Y452.5432 Z-1.0000 F2500
G1 X574.6243 Y482.9286 Z-1.0000 F5000
G1 X627.4683 Y452.5432 Z-1.0000 F5000
G1 X627.4683 Y452.5432 Z10.0000 F9999
G1 X583.7986 Y551.0386 Z10.0000 F9999
G1 X583.7986 Y551.0386 Z-1.0000 F2500
G1 X580.7527 Y549.0937 Z-1.0000 F5000
G1 X578.6976 Y546.6717 Z-1.0000 F5000
G1 X577.4499 Y543.5524 Z-1.0000 F5000
G1 X576.9729 Y539.4240 Z-1.0000 F5000
G1 X577.4316 Y534.9286 Z-1.0000 F5000
G1 X579.1747 Y531.1120 Z-1.0000 F5000
G1 X582.1655 Y528.4331 Z-1.0000 F5000
G1 X586.3307 Y527.3139 Z-1.0000 F5000
G1 X590.3307 Y527.8460 Z-1.0000 F5000
G1 X593.0096 Y529.3873 Z-1.0000 F5000
G1 X594.6976 Y531.4240 Z-1.0000 F5000
G1 X595.7986 Y533.3322 Z-1.0000 F5000
G1 X600.5325 Y542.5249 Z-1.0000 F5000
G1 X601.9454 Y544.8919 Z-1.0000 F5000
G1 X603.5967 Y546.7451 Z-1.0000 F5000
G1 X605.7802 Y547.9928 Z-1.0000 F5000
G1 X608.6610 Y548.5065 Z-1.0000 F5000
G1 X611.9454 Y547.9744 Z-1.0000 F5000
G1 X614.9729 Y546.1396 Z-1.0000 F5000
G1 X617.1931 Y543.0019 Z-1.0000 F5000
G1 X618.0738 Y538.6350 Z-1.0000 F5000
G1 X617.3949 Y534.3781 Z-1.0000 F5000
G1 X615.9270 Y531.5341 Z-1.0000 F5000
G1 X613.7802 Y529.4423 Z-1.0000 F5000
G1 X615.9270 Y531.5341 Z-1.0000 F5000
G1 X617.3949 Y534.3781 Z-1.0000 F5000
G1 X618.0738 Y538.6350 Z-1.0000 F5000
G1 X617.1931 Y543.0019 Z-1.0000 F5000
G1 X614.9729 Y546.1396 Z-1.0000 F5000
G1 X611.9454 Y547.9744 Z-1.0000 F5000
G1 X608.6610 Y548.5065 Z-1.0000 F5000
G1 X605.7802 Y547.9928 Z-1.0000 F5000
G1 X603.5967 Y546.7451 Z-1.0000 F5000
G1 X601.9454 Y544.8919 Z-1.0000 F5000
G1 X600.5325 Y542.5249 Z-1.0000 F5000
G1 X595.7986 Y533.3322 Z-1.0000 F5000
G1 X594.6976 Y531.4240 Z-1.0000 F5000
G1 X593.0096 Y529.3873 Z-1.0000 F5000
G1 X590.3307 Y527.8460 Z-1.0000 F5000
G1 X586.3307 Y527.3139 Z-1.0000 F5000
G1 X582.1655 Y528.4331 Z-1.0000 F5000
G1 X579.1747 Y531.1120 Z-1.0000 F5000
G1 X577.4316 Y534.9286 Z-1.0000 F5000
G1 X576.9729 Y539.4240 Z-1.0000 F5000
G1 X577.4499 Y543.5524 Z-1.0000 F5000
G1 X578.6976 Y546.6717 Z-1.0000 F5000
G1 X580.7527 Y549.0937 Z-1.0000 F5000
G1 X580.7527 Y549.0937 Z10.0000 F9999
G1 X627.4683 Y561.7542 Z10.0000 F9999
G1 X627.4683 Y561.7542 Z-1.0000 F2500
G1 X574.6243 Y592.1396 Z-1.0000 F5000
G1 X627.4683 Y561.7542 Z-1.0000 F5000
G1 X627.4683 Y561.7542 Z10.0000 F9999
G1 X618.0738 Y619.5708 Z10.0000 F9999
G1 X618.0738 Y619.5708 Z-1.0000 F2500
G1 X576.9729 Y603.5157 Z-1.0000 F5000
G1 X618.0738 Y619.5708 Z-1.0000 F5000
G1 X576.9729 Y635.5891 Z-1.0000 F5000
G1 X576.9729 Y635.5891 Z10.0000 F9999
G1 X601.6334 Y646.2680 Z10.0000 F9999
G1 X601.6334 Y646.2680 Z-1.0000 F2500
G1 X601.6334 Y675.5157 Z-1.0000 F5000
G1 X601.6334 Y646.2680 Z-1.0000 F5000
G1 X601.6334 Y646.2680 Z10.0000 F9999
G1 X591.6701 Y609.2588 Z10.0000 F9999
G1 X591.6701 Y609.2588 Z-1.0000 F2500
G1 X591.6701 Y629.9561 Z-1.0000 F5000
G1 X591.6701 Y609.2588 Z-1.0000 F5000
G1 X591.6701 Y609.2588 Z10.0000 F9999
G1 X591.6701 Y692.6350 Z10.0000 F9999
G1 X591.6701 Y692.6350 Z-1.0000 F2500
G1 X591.6701 Y713.3322 Z-1.0000 F5000
G1 X591.6701 Y692.6350 Z-1.0000 F5000
G1 X591.6701 Y692.6350 Z10.0000 F9999
G1 X618.0738 Y702.9469 Z10.0000 F9999
G1 X618.0738 Y702.9469 Z-1.0000 F2500
G1 X576.9729 Y686.8919 Z-1.0000 F5000
G1 X618.0738 Y702.9469 Z-1.0000 F5000
G1 X576.9729 Y718.9653 Z-1.0000 F5000
G1 X576.9729 Y718.9653 Z10.0000 F9999
G1 X576.9729 Y729.6441 Z10.0000 F9999
G1 X576.9729 Y729.6441 Z-1.0000 F2500
G1 X597.1197 Y742.8735 Z-1.0000 F5000
G1 X576.9729 Y729.6441 Z-1.0000 F5000
G1 X576.9729 Y729.6441 Z10.0000 F9999
G1 X576.9729 Y747.0570 Z10.0000 F9999
G1 X576.9729 Y747.0570 Z-1.0000 F2500
G1 X618.0738 Y747.0570 Z-1.0000 F5000
G1 X618.0738 Y739.9010 Z-1.0000 F5000
G1 X617.4683 Y736.0295 Z-1.0000 F5000
G1 X615.6518 Y732.8185 Z-1.0000 F5000
G1 X612.4958 Y730.5983 Z-1.0000 F5000
G1 X607.8536 Y729.7542 Z-1.0000 F5000
G1 X603.1747 Y730.9102 Z-1.0000 F5000
G1 X599.8536 Y733.6808 Z-1.0000 F5000
G1 X597.8903 Y737.0019 Z-1.0000 F5000
G1 X597.2298 Y739.9010 Z-1.0000 F5000
G1 X597.2298 Y747.0570 Z-1.0000 F5000
G1 X597.2298 Y739.9010 Z-1.0000 F5000
G1 X597.8903 Y737.0019 Z-1.0000 F5000
G1 X599.8536 Y733.6808 Z-1.0000 F5000
G1 X603.1747 Y730.9102 Z-1.0000 F5000
G1 X607.8536 Y729.7542 Z-1.0000 F5000
G1 X612.4958 Y730.5983 Z-1.0000 F5000
G1 X615.6518 Y732.8185 Z-1.0000 F5000
G1 X617.4683 Y736.0295 Z-1.0000 F5000
G1 X618.0738 Y739.9010 Z-1.0000 F5000
G1 X618.0738 Y747.0570 Z-1.0000 F5000
G1 X618.0738 Y747.0570 Z10.0000 F9999
G1 X599.7802 Y777.5891 Z10.0000 F9999
G1 X599.7802 Y777.5891 Z-1.0000 F2500
G1 X599.7802 Y763.1487 Z-1.0000 F5000
G1 X599.7802 Y777.5891 Z-1.0000 F5000
G1 X618.0738 Y777.5891 Z-1.0000 F5000
G1 X618.0738 Y762.4698 Z-1.0000 F5000
G1 X618.0738 Y777.5891 Z-1.0000 F5000
G1 X576.9729 Y777.5891 Z-1.0000 F5000
G1 X576.9729 Y777.5891 Z10.0000 F9999
G1 X754.5439 Y747.0570 Z10.0000 F9999
G1 X754.5439 Y747.0570 Z-1.0000 F2500
G1 X795.6448 Y747.0570 Z-1.0000 F5000
G1 X795.6448 Y739.9010 Z-1.0000 F5000
G1 X795.0393 Y736.0295 Z-1.0000 F5000
G1 X793.2228 Y732.8185 Z-1.0000 F5000
G1 X790.0668 Y730.5983 Z-1.0000 F5000
G1 X785.4246 Y729.7542 Z-1.0000 F5000
G1 X780.7457 Y730.9102 Z-1.0000 F5000
G1 X777.4246 Y733.6808 Z-1.0000 F5000
G1 X775.4613 Y737.0019 Z-1.0000 F5000
G1 X774.8007 Y739.9010 Z-1.0000 F5000
G1 X774.8007 Y747.0570 Z-1.0000 F5000
G1 X774.8007 Y739.9010 Z-1.0000 F5000
G1 X775.4613 Y737.0019 Z-1.0000 F5000
G1 X777.4246 Y733.6808 Z-1.0000 F5000
G1 X780.7457 Y730.9102 Z-1.0000 F5000
G1 X785.4246 Y729.7542 Z-1.0000 F5000
G1 X790.0668 Y730.5983 Z-1.0000 F5000
G1 X793.2228 Y732.8185 Z-1.0000 F5000
G1 X795.0393 Y736.0295 Z-1.0000 F5000
G1 X795.6448 Y739.9010 Z-1.0000 F5000
G1 X795.6448 Y747.0570 Z-1.0000 F5000
G1 X795.6448 Y747.0570 Z10.0000 F9999
G1 X777.3512 Y777.5891 Z10.0000 F9999
G1 X777.3512 Y777.5891 Z-1.0000 F2500
G1 X777.3512 Y763.1487 Z-1.0000 F5000
G1 X777.3512 Y777.5891 Z-1.0000 F5000
G1 X795.6448 Y777.5891 Z-1.0000 F5000
G1 X795.6448 Y762.4698 Z-1.0000 F5000
G1 X795.6448 Y777.5891 Z-1.0000 F5000
G1 X754.5439 Y777.5891 Z-1.0000 F5000
G1 X754.5439 Y777.5891 Z10.0000 F9999
G1 X754.5439 Y729.6441 Z10.0000 F9999
G1 X754.5439 Y729.6441 Z-1.0000 F2500
G1 X774.6907 Y742.8735 Z-1.0000 F5000
G1 X754.5439 Y729.6441 Z-1.0000 F5000
G1 X754.5439 Y729.6441 Z10.0000 F9999
G1 X769.2411 Y692.6350 Z10.0000 F9999
G1 X769.2411 Y692.6350 Z-1.0000 F2500
G1 X769.2411 Y713.3322 Z-1.0000 F5000
G1 X769.2411 Y692.6350 Z-1.0000 F5000
G1 X769.2411 Y692.6350 Z10.0000 F9999
G1 X795.6448 Y702.9469 Z10.0000 F9999
G1 X795.6448 Y702.9469 Z-1.0000 F2500
G1 X754.5439 Y686.8919 Z-1.0000 F5000
G1 X795.6448 Y702.9469 Z-1.0000 F5000
G1 X754.5439 Y718.9653 Z-1.0000 F5000
G1 X754.5439 Y718.9653 Z10.0000 F9999
G1 X779.2044 Y646.2680 Z10.0000 F9999
G1 X779.2044 Y646.2680 Z-1.0000 F2500
G1 X779.2044 Y675.5157 Z-1.0000 F5000
G1 X779.2044 Y646.2680 Z-1.0000 F5000
G1 X779.2044 Y646.2680 Z10.0000 F9999
G1 X795.6448 Y619.5708 Z10.0000 F9999
G1 X795.6448 Y619.5708 Z-1.0000 F2500
G1 X754.5439 Y603.5157 Z-1.0000 F5000
G1 X795.6448 Y619.5708 Z-1.0000 F5000
G1 X754.5439 Y635.5891 Z-1.0000 F5000
G1 X754.5439 Y635.5891 Z10.0000 F9999
G1 X769.2411 Y609.2588 Z10.0000 F9999
G1 X769.2411 Y609.2588 Z-1.0000 F2500
G1 X769.2411 Y629.9561 Z-1.0000 F5000
G1 X769.2411 Y609.2588 Z-1.0000 F5000
G1 X769.2411 Y609.2588 Z10.0000 F9999
G1 X761.3696 Y551.0386 Z10.0000 F9999
G1 X761.3696 Y551.0386 Z-1.0000 F2500
G1 X758.3237 Y549.0937 Z-1.0000 F5000
G1 X756.2686 Y546.6717 Z-1.0000 F5000
G1 X755.0209 Y543.5524 Z-1.0000 F5000
G1 X754.5439 Y539.4240 Z-1.0000 F5000
G1 X755.0026 Y534.9286 Z-1.0000 F5000
G1 X756.7457 Y531.1120 Z-1.0000 F5000
G1 X759.7365 Y528.4331 Z-1.0000 F5000
G1 X763.9017 Y527.3139 Z-1.0000 F5000
G1 X767.9017 Y527.8460 Z-1.0000 F5000
G1 X770.5806 Y529.3873 Z-1.0000 F5000
G1 X772.2686 Y531.4240 Z-1.0000 F5000
G1 X773.3696 Y533.3322 Z-1.0000 F5000
G1 X778.1035 Y542.5249 Z-1.0000 F5000
G1 X779.5163 Y544.8919 Z-1.0000 F5000
G1 X781.1677 Y546.7451 Z-1.0000 F5000
G1 X783.3512 Y547.9928 Z-1.0000 F5000
G1 X786.2319 Y548.5065 Z-1.0000 F5000
G1 X789.5163 Y547.9744 Z-1.0000 F5000
G1 X792.5439 Y546.1396 Z-1.0000 F5000
G1 X794.7640 Y543.0019 Z-1.0000 F5000
G1 X795.6448 Y538.6350 Z-1.0000 F5000
G1 X794.9659 Y534.3781 Z-1.0000 F5000
G1 X793.4980 Y531.5341 Z-1.0000 F5000
G1 X791.3512 Y529.4423 Z-1.0000 F5000
G1 X793.4980 Y531.5341 Z-1.0000 F5000
G1 X794.9659 Y534.3781 Z-1.0000 F5000
G1 X795.6448 Y538.6350 Z-1.0000 F5000
G1 X794.7640 Y543.0019 Z-1.0000 F5000
G1 X792.5439 Y546.1396 Z-1.0000 F5000
G1 X789.5163 Y547.9744 Z-1.0000 F5000
G1 X786.2319 Y548.5065 Z-1.0000 F5000
G1 X783.3512 Y547.9928 Z-1.0000 F5000
G1 X781.1677 Y546.7451 Z-1.0000 F5000
G1 X779.5163 Y544.8919 Z-1.0000 F5000
G1 X778.1035 Y542.5249 Z-1.0000 F5000
G1 X773.3696 Y533.3322 Z-1.0000 F5000
G1 X772.2686 Y531.4240 Z-1.0000 F5000
G1 X770.5806 Y529.3873 Z-1.0000 F5000
G1 X767.9017 Y527.8460 Z-1.0000 F5000
G1 X763.9017 Y527.3139 Z-1.0000 F5000
G1 X759.7365 Y528.4331 Z-1.0000 F5000
G1 X756.7457 Y531.1120 Z-1.0000 F5000
G1 X755.0026 Y534.9286 Z-1.0000 F5000
G1 X754.5439 Y539.4240 Z-1.0000 F5000
G1 X755.0209 Y543.5524 Z-1.0000 F5000
G1 X756.2686 Y546.6717 Z-1.0000 F5000
G1 X758.3237 Y549.0937 Z-1.0000 F5000
G1 X758.3237 Y549.0937 Z10.0000 F9999
G1 X754.5439 Y515.8093 Z10.0000 F9999
G1 X754.5439 Y515.8093 Z-1.0000 F2500
G1 X772.1585 Y500.0662 Z-1.0000 F5000
G1 X774.1767 Y498.3175 Z-1.0000 F5000
G1 X776.2503 Y496.6350 Z-1.0000 F5000
G1 X777.8100 Y495.6151 Z-1.0000 F5000
G1 X779.4062 Y494.6533 Z-1.0000 F5000
G1 X781.8650 Y493.7175 Z-1.0000 F5000
G1 X785.1494 Y493.3139 Z-1.0000 F5000
G1 X788.8925 Y493.9377 Z-1.0000 F5000
G1 X792.2686 Y495.8643 Z-1.0000 F5000
G1 X794.7090 Y499.2038 Z-1.0000 F5000
G1 X795.6448 Y504.1946 Z-1.0000 F5000
G1 X793.0393 Y512.9102 Z-1.0000 F5000
G1 X786.2870 Y515.6992 Z-1.0000 F5000
G1 X793.0393 Y512.9102 Z-1.0000 F5000
G1 X795.6448 Y504.1946 Z-1.0000 F5000
G1 X794.7090 Y499.2038 Z-1.0000 F5000
G1 X792.2686 Y495.8643 Z-1.0000 F5000
G1 X788.8925 Y493.9377 Z-1.0000 F5000
G1 X785.1494 Y493.3139 Z-1.0000 F5000
G1 X781.8650 Y493.7175 Z-1.0000 F5000
G1 X779.4062 Y494.6533 Z-1.0000 F5000
G1 X777.8100 Y495.6151 Z-1.0000 F5000
G1 X776.2503 Y496.6350 Z-1.0000 F5000
G1 X774.1767 Y498.3175 Z-1.0000 F5000
G1 X772.1585 Y500.0662 Z-1.0000 F5000
G1 X754.5439 Y515.8093 Z-1.0000 F5000
G1 X754.5439 Y493.6075 Z-1.0000 F5000
G1 X754.5439 Y493.6075 Z10.0000 F9999
G1 X754.5439 Y437.0386 Z10.0000 F9999
G1 X754.5439 Y437.0386 Z-1.0000 F2500
G1 X777.3512 Y437.0386 Z-1.0000 F5000
G1 X777.3512 Y420.5799 Z-1.0000 F5000
G1 X777.3512 Y437.0386 Z-1.0000 F5000
G1 X795.6448 Y437.0386 Z-1.0000 F5000
G1 X795.6448 Y419.2772 Z-1.0000 F5000
G1 X795.6448 Y437.0386 Z-1.0000 F5000
G1 X754.5439 Y437.0386 Z-1.0000 F5000
G1 X754.5439 Y419.2772 Z-1.0000 F5000
G1 X754.5439 Y419.2772 Z10.0000 F9999
G1 X775.7549 Y396.8735 Z10.0000 F9999
G1 X775.7549 Y396.8735 Z-1.0000 F2500
G1 X754.5439 Y384.9286 Z-1.0000 F5000
G1 X775.7549 Y396.8735 Z-1.0000 F5000
G1 X795.6448 Y384.9286 Z-1.0000 F5000
G1 X775.7549 Y396.8735 Z-1.0000 F5000
G1 X795.6448 Y408.9469 Z-1.0000 F5000
G1 X775.7549 Y396.8735 Z-1.0000 F5000
G1 X754.5439 Y408.9469 Z-1.0000 F5000
G1 X754.5439 Y408.9469 Z10.0000 F9999
G1 X805.0393 Y452.5432 Z10.0000 F9999
G1 X805.0393 Y452.5432 Z-1.0000 F2500
G1 X752.1952 Y482.9286 Z-1.0000 F5000
G1 X805.0393 Y452.5432 Z-1.0000 F5000
G1 X805.0393 Y452.5432 Z10.0000 F9999
G1 X805.0393 Y561.7542 Z10.0000 F9999
G1 X805.0393 Y561.7542 Z-1.0000 F2500
G1 X752.1952 Y592.1396 Z-1.0000 F5000
G1 X805.0393 Y561.7542 Z-1.0000 F5000
G1 X805.0393 Y561.7542 Z10.0000 F9999
G1 X927.8962 Y551.0386 Z10.0000 F9999
G1 X927.8962 Y551.0386 Z-1.0000 F2500
G1 X924.8503 Y549.0937 Z-1.0000 F5000
G1 X922.7953 Y546.6717 Z-1.0000 F5000
G1 X921.5476 Y543.5524 Z-1.0000 F5000
G1 X921.0705 Y539.4240 Z-1.0000 F5000
G1 X921.5292 Y534.9286 Z-1.0000 F5000
G1 X923.2724 Y531.1120 Z-1.0000 F5000
G1 X926.2632 Y528.4331 Z-1.0000 F5000
G1 X930.4283 Y527.3139 Z-1.0000 F5000
G1 X934.4283 Y527.8460 Z-1.0000 F5000
G1 X937.1072 Y529.3873 Z-1.0000 F5000
G1 X938.7953 Y531.4240 Z-1.0000 F5000
G1 X939.8962 Y533.3322 Z-1.0000 F5000
G1 X944.6301 Y542.5249 Z-1.0000 F5000
G1 X946.0430 Y544.8919 Z-1.0000 F5000
G1 X947.6944 Y546.7451 Z-1.0000 F5000
G1 X949.8779 Y547.9928 Z-1.0000 F5000
G1 X952.7586 Y548.5065 Z-1.0000 F5000
G1 X956.0430 Y547.9744 Z-1.0000 F5000
G1 X959.0705 Y546.1396 Z-1.0000 F5000
G1 X961.2907 Y543.0019 Z-1.0000 F5000
G1 X962.1714 Y538.6350 Z-1.0000 F5000
G1 X961.4925 Y534.3781 Z-1.0000 F5000
G1 X960.0246 Y531.5341 Z-1.0000 F5000
G1 X957.8779 Y529.4423 Z-1.0000 F5000
G1 X960.0246 Y531.5341 Z-1.0000 F5000
G1 X961.4925 Y534.3781 Z-1.0000 F5000
G1 X962.1714 Y538.6350 Z-1.0000 F5000
G1 X961.2907 Y543.0019 Z-1.0000 F5000
G1 X959.0705 Y546.1396 Z-1.0000 F5000
G1 X956.0430 Y547.9744 Z-1.0000 F5000
G1 X952.7586 Y548.5065 Z-1.0000 F5000
G1 X949.8779 Y547.9928 Z-1.0000 F5000
G1 X947.6944 Y546.7451 Z-1.0000 F5000
G1 X946.0430 Y544.8919 Z-1.0000 F5000
G1 X944.6301 Y542.5249 Z-1.0000 F5000
G1 X939.8962 Y533.3322 Z-1.0000 F5000
G1 X938.7953 Y531.4240 Z-1.0000 F5000
G1 X937.1072 Y529.3873 Z-1.0000 F5000
G1 X934.4283 Y527.8460 Z-1.0000 F5000
G1 X930.4283 Y527.3139 Z-1.0000 F5000
G1 X926.2632 Y528.4331 Z-1.0000 F5000
G1 X923.2724 Y531.1120 Z-1.0000 F5000
G1 X921.5292 Y534.9286 Z-1.0000 F5000
G1 X921.0705 Y539.4240 Z-1.0000 F5000
G1 X921.5476 Y543.5524 Z-1.0000 F5000
G1 X922.7953 Y546.6717 Z-1.0000 F5000
G1 X924.8503 Y549.0937 Z-1.0000 F5000
G1 X924.8503 Y549.0937 Z10.0000 F9999
G1 X921.0705 Y515.8093 Z10.0000 F9999
G1 X921.0705 Y515.8093 Z-1.0000 F2500
G1 X938.6852 Y500.0662 Z-1.0000 F5000
G1 X940.7034 Y498.3175 Z-1.0000 F5000
G1 X942.7769 Y496.6350 Z-1.0000 F5000
G1 X944.3367 Y495.6151 Z-1.0000 F5000
G1 X945.9329 Y494.6533 Z-1.0000 F5000
G1 X948.3916 Y493.7175 Z-1.0000 F5000
G1 X951.6760 Y493.3139 Z-1.0000 F5000
G1 X955.4191 Y493.9377 Z-1.0000 F5000
G1 X958.7953 Y495.8643 Z-1.0000 F5000
G1 X961.2357 Y499.2038 Z-1.0000 F5000
G1 X962.1714 Y504.1946 Z-1.0000 F5000
G1 X959.5659 Y512.9102 Z-1.0000 F5000
G1 X952.8136 Y515.6992 Z-1.0000 F5000
G1 X959.5659 Y512.9102 Z-1.0000 F5000
G1 X962.1714 Y504.1946 Z-1.0000 F5000
G1 X961.2357 Y499.2038 Z-1.0000 F5000
G1 X958.7953 Y495.8643 Z-1.0000 F5000
G1 X955.4191 Y493.9377 Z-1.0000 F5000
G1 X951.6760 Y493.3139 Z-1.0000 F5000
G1 X948.3916 Y493.7175 Z-1.0000 F5000
G1 X945.9329 Y494.6533 Z-1.0000 F5000
G1 X944.3367 Y495.6151 Z-1.0000 F5000
G1 X942.7769 Y496.6350 Z-1.0000 F5000
G1 X940.7034 Y498.3175 Z-1.0000 F5000
G1 X938.6852 Y500.0662 Z-1.0000 F5000
G1 X921.0705 Y515.8093 Z-1.0000 F5000
G1 X921.0705 Y493.6075 Z-1.0000 F5000
G1 X921.0705 Y493.6075 Z10.0000 F9999
G1 X921.0705 Y437.0386 Z10.0000 F9999
G1 X921.0705 Y437.0386 Z-1.0000 F2500
G1 X943.8779 Y437.0386 Z-1.0000 F5000
G1 X943.8779 Y420.5799 Z-1.0000 F5000
G1 X943.8779 Y437.0386 Z-1.0000 F5000
G1 X962.1714 Y437.0386 Z-1.0000 F5000
G1 X962.1714 Y419.2772 Z-1.0000 F5000
G1 X962.1714 Y437.0386 Z-1.0000 F5000
G1 X921.0705 Y437.0386 Z-1.0000 F5000
G1 X921.0705 Y419.2772 Z-1.0000 F5000
G1 X921.0705 Y419.2772 Z10.0000 F9999
G1 X942.2815 Y396.8735 Z10.0000 F9999
G1 X942.2815 Y396.8735 Z-1.0000 F2500
G1 X921.0705 Y384.9286 Z-1.0000 F5000
G1 X942.2815 Y396.8735 Z-1.0000 F5000
G1 X962.1714 Y384.9286 Z-1.0000 F5000
G1 X942.2815 Y396.8735 Z-1.0000 F5000
G1 X962.1714 Y408.9469 Z-1.0000 F5000
G1 X942.2815 Y396.8735 Z-1.0000 F5000
G1 X921.0705 Y408.9469 Z-1.0000 F5000
G1 X921.0705 Y408.9469 Z10.0000 F9999
G1 X971.5659 Y452.5432 Z10.0000 F9999
G1 X971.5659 Y452.5432 Z-1.0000 F2500
G1 X918.7219 Y482.9286 Z-1.0000 F5000
G1 X971.5659 Y452.5432 Z-1.0000 F5000
G1 X971.5659 Y452.5432 Z10.0000 F9999
G1 X971.5659 Y561.7542 Z10.0000 F9999
G1 X971.5659 Y561.7542 Z-1.0000 F2500
G1 X918.7219 Y592.1396 Z-1.0000 F5000
G1 X971.5659 Y561.7542 Z-1.0000 F5000
G1 X971.5659 Y561.7542 Z10.0000 F9999
G1 X962.1714 Y619.5708 Z10.0000 F9999
G1 X962.1714 Y619.5708 Z-1.0000 F2500
G1 X921.0705 Y603.5157 Z-1.0000 F5000
G1 X962.1714 Y619.5708 Z-1.0000 F5000
G1 X921.0705 Y635.5891 Z-1.0000 F5000
G1 X921.0705 Y635.5891 Z10.0000 F9999
G1 X945.7311 Y646.2680 Z10.0000 F9999
G1 X945.7311 Y646.2680 Z-1.0000 F2500
G1 X945.7311 Y675.5157 Z-1.0000 F5000
G1 X945.7311 Y646.2680 Z-1.0000 F5000
G1 X945.7311 Y646.2680 Z10.0000 F9999
G1 X935.7678 Y609.2588 Z10.0000 F9999
G1 X935.7678 Y609.2588 Z-1.0000 F2500
G1 X935.7678 Y629.9561 Z-1.0000 F5000
G1 X935.7678 Y609.2588 Z-1.0000 F5000
G1 X935.7678 Y609.2588 Z10.0000 F9999
G1 X935.7678 Y692.6350 Z10.0000 F9999
G1 X935.7678 Y692.6350 Z-1.0000 F2500
G1 X935.7678 Y713.3322 Z-1.0000 F5000
G1 X935.7678 Y692.6350 Z-1.0000 F5000
G1 X935.7678 Y692.6350 Z10.0000 F9999
G1 X962.1714 Y702.9469 Z10.0000 F9999
G1 X962.1714 Y702.9469 Z-1.0000 F2500
G1 X921.0705 Y686.8919 Z-1.0000 F5000
G1 X962.1714 Y702.9469 Z-1.0000 F5000
G1 X921.0705 Y718.9653 Z-1.0000 F5000
G1 X921.0705 Y718.9653 Z10.0000 F9999
G1 X921.0705 Y729.6441 Z10.0000 F9999
G1 X921.0705 Y729.6441 Z-1.0000 F2500
G1 X941.2173 Y742.8735 Z-1.0000 F5000
G1 X921.0705 Y729.6441 Z-1.0000 F5000
G1 X921.0705 Y729.6441 Z10.0000 F9999
G1 X921.0705 Y747.0570 Z10.0000 F9999
G1 X921.0705 Y747.0570 Z-1.0000 F2500
G1 X962.1714 Y747.0570 Z-1.0000 F5000
G1 X962.1714 Y739.9010 Z-1.0000 F5000
G1 X961.5659 Y736.0295 Z-1.0000 F5000
G1 X959.7494 Y732.8185 Z-1.0000 F5000
G1 X956.5935 Y730.5983 Z-1.0000 F5000
G1 X951.9513 Y729.7542 Z-1.0000 F5000
G1 X947.2724 Y730.9102 Z-1.0000 F5000
G1 X943.9513 Y733.6808 Z-1.0000 F5000
G1 X941.9879 Y737.0019 Z-1.0000 F5000
G1 X941.3274 Y739.9010 Z-1.0000 F5000
G1 X941.3274 Y747.0570 Z-1.0000 F5000
G1 X941.3274 Y739.9010 Z-1.0000 F5000
G1 X941.9879 Y737.0019 Z-1.0000 F5000
G1 X943.9513 Y733.6808 Z-1.0000 F5000
G1 X947.2724 Y730.9102 Z-1.0000 F5000
G1 X951.9513 Y729.7542 Z-1.0000 F5000
G1 X956.5935 Y730.5983 Z-1.0000 F5000
G1 X959.7494 Y732.8185 Z-1.0000 F5000
G1 X961.5659 Y736.0295 Z-1.0000 F5000
G1 X962.1714 Y739.9010 Z-1.0000 F5000
G1 X962.1714 Y747.0570 Z-1.0000 F5000
G1 X962.1714 Y747.0570 Z10.0000 F9999
G1 X943.8779 Y777.5891 Z10.0000 F9999
G1 X943.8779 Y777.5891 Z-1.0000 F2500
G1 X943.8779 Y763.1487 Z-1.0000 F5000
G1 X943.8779 Y777.5891 Z-1.0000 F5000
G1 X962.1714 Y777.5891 Z-1.0000 F5000
G1 X962.1714 Y762.4698 Z-1.0000 F5000
G1 X962.1714 Y777.5891 Z-1.0000 F5000
G1 X921.0705 Y777.5891 Z-1.0000 F5000
G1 X921.0705 Y777.5891 Z10.0000 F9999
G1 X1098.6415 Y747.0570 Z10.0000 F9999
G1 X1098.6415 Y747.0570 Z-1.0000 F2500
G1 X1139.7424 Y747.0570 Z-1.0000 F5000
G1 X1139.7424 Y739.9010 Z-1.0000 F5000
G1 X1139.1369 Y736.0295 Z-1.0000 F5000
G1 X1137.3204 Y732.8185 Z-1.0000 F5000
G1 X1134.1644 Y730.5983 Z-1.0000 F5000
G1 X1129.5222 Y729.7542 Z-1.0000 F5000
G1 X1124.8433 Y730.9102 Z-1.0000 F5000
G1 X1121.5222 Y733.6808 Z-1.0000 F5000
G1 X1119.5589 Y737.0019 Z-1.0000 F5000
G1 X1118.8984 Y739.9010 Z-1.0000 F5000
G1 X1118.8984 Y747.0570 Z-1.0000 F5000
G1 X1118.8984 Y739.9010 Z-1.0000 F5000
G1 X1119.5589 Y737.0019 Z-1.0000 F5000
G1 X1121.5222 Y733.6808 Z-1.0000 F5000
G1 X1124.8433 Y730.9102 Z-1.0000 F5000
G1 X1129.5222 Y729.7542 Z-1.0000 F5000
G1 X1134.1644 Y730.5983 Z-1.0000 F5000
G1 X1137.3204 Y732.8185 Z-1.0000 F5000
G1 X1139.1369 Y736.0295 Z-1.0000 F5000
G1 X1139.7424 Y739.9010 Z-1.0000 F5000
G1 X1139.7424 Y747.0570 Z-1.0000 F5000
G1 X1139.7424 Y747.0570 Z10.0000 F9999
G1 X1121.4488 Y777.5891 Z10.0000 F9999
G1 X1121.4488 Y777.5891 Z-1.0000 F2500
G1 X1121.4488 Y763.1487 Z-1.0000 F5000
G1 X1121.4488 Y777.5891 Z-1.0000 F5000
G1 X1139.7424 Y777.5891 Z-1.0000 F5000
G1 X1139.7424 Y762.4698 Z-1.0000 F5000
G1 X1139.7424 Y777.5891 Z-1.0000 F5000
G1 X1098.6415 Y777.5891 Z-1.0000 F5000
G1 X1098.6415 Y777.5891 Z10.0000 F9999
G1 X1098.6415 Y729.6441 Z10.0000 F9999
G1 X1098.6415 Y729.6441 Z-1.0000 F2500
G1 X1118.7883 Y742.8735 Z-1.0000 F5000
G1 X1098.6415 Y729.6441 Z-1.0000 F5000
G1 X1098.6415 Y729.6441 Z10.0000 F9999
G1 X1113.3387 Y692.6350 Z10.0000 F9999
G1 X1113.3387 Y692.6350 Z-1.0000 F2500
G1 X1113.3387 Y713.3322 Z-1.0000 F5000
G1 X1113.3387 Y692.6350 Z-1.0000 F5000
G1 X1113.3387 Y692.6350 Z10.0000 F9999
G1 X1139.7424 Y702.9469 Z10.0000 F9999
G1 X1139.7424 Y702.9469 Z-1.0000 F2500
G1 X1098.6415 Y686.8919 Z-1.0000 F5000
G1 X1139.7424 Y702.9469 Z-1.0000 F5000
G1 X1098.6415 Y718.9653 Z-1.0000 F5000
G1 X1098.6415 Y718.9653 Z10.0000 F9999
G1 X1123.3021 Y646.2680 Z10.0000 F9999
G1 X1123.3021 Y646.2680 Z-1.0000 F2500
G1 X1123.3021 Y675.5157 Z-1.0000 F5000
G1 X1123.3021 Y646.2680 Z-1.0000 F5000
G1 X1123.3021 Y646.2680 Z10.0000 F9999
G1 X1139.7424 Y619.5708 Z10.0000 F9999
G1 X1139.7424 Y619.5708 Z-1.0000 F2500
G1 X1098.6415 Y603.5157 Z-1.0000 F5000
G1 X1139.7424 Y619.5708 Z-1.0000 F5000
G1 X1098.6415 Y635.5891 Z-1.0000 F5000
G1 X1098.6415 Y635.5891 Z10.0000 F9999
G1 X1113.3387 Y609.2588 Z10.0000 F9999
G1 X1113.3387 Y609.2588 Z-1.0000 F2500
G1 X1113.3387 Y629.9561 Z-1.0000 F5000
G1 X1113.3387 Y609.2588 Z-1.0000 F5000
G1 X1113.3387 Y609.2588 Z10.0000 F9999
G1 X1105.4672 Y551.0386 Z10.0000 F9999
G1 X1105.4672 Y551.0386 Z-1.0000 F2500
G1 X1102.4213 Y549.0937 Z-1.0000 F5000
G1 X1100.3663 Y546.6717 Z-1.0000 F5000
G1 X1099.1186 Y543.5524 Z-1.0000 F5000
G1 X1098.6415 Y539.4240 Z-1.0000 F5000
G1 X1099.1002 Y534.9286 Z-1.0000 F5000
G1 X1100.8433 Y531.1120 Z-1.0000 F5000
G1 X1103.8342 Y528.4331 Z-1.0000 F5000
G1 X1107.9993 Y527.3139 Z-1.0000 F5000
G1 X1111.9993 Y527.8460 Z-1.0000 F5000
G1 X1114.6782 Y529.3873 Z-1.0000 F5000
G1 X1116.3663 Y531.4240 Z-1.0000 F5000
G1 X1117.4672 Y533.3322 Z-1.0000 F5000
G1 X1122.2011 Y542.5249 Z-1.0000 F5000
G1 X1123.6140 Y544.8919 Z-1.0000 F5000
G1 X1125.2654 Y546.7451 Z-1.0000 F5000
G1 X1127.4488 Y547.9928 Z-1.0000 F5000
G1 X1130.3296 Y548.5065 Z-1.0000 F5000
G1 X1133.6140 Y547.9744 Z-1.0000 F5000
G1 X1136.6415 Y546.1396 Z-1.0000 F5000
G1 X1138.8617 Y543.0019 Z-1.0000 F5000
G1 X1139.7424 Y538.6350 Z-1.0000 F5000
G1 X1139.0635 Y534.3781 Z-1.0000 F5000
G1 X1137.5956 Y531.5341 Z-1.0000 F5000
G1 X1135.4488 Y529.4423 Z-1.0000 F5000
G1 X1137.5956 Y531.5341 Z-1.0000 F5000
G1 X1139.0635 Y534.3781 Z-1.0000 F5000
G1 X1139.7424 Y538.6350 Z-1.0000 F5000
G1 X1138.8617 Y543.0019 Z-1.0000 F5000
G1 X1136.6415 Y546.1396 Z-1.0000 F5000
G1 X1133.6140 Y547.9744 Z-1.0000 F5000
G1 X1130.3296 Y548.5065 Z-1.0000 F5000
G1 X1127.4488 Y547.9928 Z-1.0000 F5000
G1 X1125.2654 Y546.7451 Z-1.0000 F5000
G1 X1123.6140 Y544.8919 Z-1.0000 F5000
G1 X1122.2011 Y542.5249 Z-1.0000 F5000
G1 X1117.4672 Y533.3322 Z-1.0000 F5000
G1 X1116.3663 Y531.4240 Z-1.0000 F5000
G1 X1114.6782 Y529.3873 Z-1.0000 F5000
G1 X1111.9993 Y527.8460 Z-1.0000 F5000
G1 X1107.9993 Y527.3139 Z-1.0000 F5000
G1 X1103.8342 Y528.4331 Z-1.0000 F5000
G1 X1100.8433 Y531.1120 Z-1.0000 F5000
G1 X1099.1002 Y534.9286 Z-1.0000 F5000
G1 X1098.6415 Y539.4240 Z-1.0000 F5000
G1 X1099.1186 Y543.5524 Z-1.0000 F5000
G1 X1100.3663 Y546.6717 Z-1.0000 F5000
G1 X1102.4213 Y549.0937 Z-1.0000 F5000
G1 X1102.4213 Y549.0937 Z10.0000 F9999
G1 X1098.6415 Y515.8093 Z10.0000 F9999
G1 X1098.6415 Y515.8093 Z-1.0000 F2500
G1 X1116.2562 Y500.0662 Z-1.0000 F5000
G1 X1118.2744 Y498.3175 Z-1.0000 F5000
G1 X1120.3479 Y496.6350 Z-1.0000 F5000
G1 X1121.9077 Y495.6151 Z-1.0000 F5000
G1 X1123.5039 Y494.6533 Z-1.0000 F5000
G1 X1125.9626 Y493.7175 Z-1.0000 F5000
G1 X1129.2470 Y493.3139 Z-1.0000 F5000
G1 X1132.9901 Y493.9377 Z-1.0000 F5000
G1 X1136.3663 Y495.8643 Z-1.0000 F5000
G1 X1138.8066 Y499.2038 Z-1.0000 F5000
G1 X1139.7424 Y504.1946 Z-1.0000 F5000
G1 X1137.1369 Y512.9102 Z-1.0000 F5000
G1 X1130.3846 Y515.6992 Z-1.0000 F5000
G1 X1137.1369 Y512.9102 Z-1.0000 F5000
G1 X1139.7424 Y504.1946 Z-1.0000 F5000
G1 X1138.8066 Y499.2038 Z-1.0000 F5000
G1 X1136.3663 Y495.8643 Z-1.0000 F5000
G1 X1132.9901 Y493.9377 Z-1.0000 F5000
G1 X1129.2470 Y493.3139 Z-1.0000 F5000
G1 X1125.9626 Y493.7175 Z-1.0000 F5000
G1 X1123.5039 Y494.6533 Z-1.0000 F5000
G1 X1121.9077 Y495.6151 Z-1.0000 F5000
G1 X1120.3479 Y496.6350 Z-1.0000 F5000
G1 X1118.2744 Y498.3175 Z-1.0000 F5000
G1 X1116.2562 Y500.0662 Z-1.0000 F5000
G1 X1098.6415 Y515.8093 Z-1.0000 F5000
G1 X1098.6415 Y493.6075 Z-1.0000 F5000
G1 X1098.6415 Y493.6075 Z10.0000 F9999
G1 X1098.6415 Y437.0386 Z10.0000 F9999
G1 X1098.6415 Y437.0386 Z-1.0000 F2500
G1 X1121.4488 Y437.0386 Z-1.0000 F5000
G1 X1121.4488 Y420.5799 Z-1.0000 F5000
G1 X1121.4488 Y437.0386 Z-1.0000 F5000
G1 X1139.7424 Y437.0386 Z-1.0000 F5000
G1 X1139.7424 Y419.2772 Z-1.0000 F5000
G1 X1139.7424 Y437.0386 Z-1.0000 F5000
G1 X1098.6415 Y437.0386 Z-1.0000 F5000
G1 X1098.6415 Y419.2772 Z-1.0000 F5000
G1 X1098.6415 Y419.2772 Z10.0000 F9999
G1 X1119.8525 Y396.8735 Z10.0000 F9999
G1 X1119.8525 Y396.8735 Z-1.0000 F2500
G1 X1098.6415 Y384.9286 Z-1.0000 F5000
G1 X1119.8525 Y396.8735 Z-1.0000 F5000
G1 X1139.7424 Y384.9286 Z-1.0000 F5000
G1 X1119.8525 Y396.8735 Z-1.0000 F5000
G1 X1139.7424 Y408.9469 Z-1.0000 F5000
G1 X1119.8525 Y396.8735 Z-1.0000 F5000
G1 X1098.6415 Y408.9469 Z-1.0000 F5000
G1 X1098.6415 Y408.9469 Z10.0000 F9999
G1 X1149.1369 Y452.5432 Z10.0000 F9999
G1 X1149.1369 Y452.5432 Z-1.0000 F2500
G1 X1096.2929 Y482.9286 Z-1.0000 F5000
G1 X1149.1369 Y452.5432 Z-1.0000 F5000
G1 X1149.1369 Y452.5432 Z10.0000 F9999
G1 X1149.1369 Y561.7542 Z10.0000 F9999
G1 X1149.1369 Y561.7542 Z-1.0000 F2500
G1 X1096.2929 Y592.1396 Z-1.0000 F5000
G1 X1149.1369 Y561.7542 Z-1.0000 F5000
G1 X1149.1369 Y561.7542 Z10.0000 F9999
(Tool Number:1) (7.998 mm dia. slot drill)
M3 S9000
G1 X0.0000 Y1698.4205 Z10.0000 F9999
G1 X0.0000 Y1698.4205 Z1.0000 F2500
G1 X38.9711 Y1698.4205 Z-9.5000 F2500
G1 X0.0000 Y1698.4205 Z-20.0000 F2500
G1 X535.9040 Y1698.4205 Z-20.0000 F5000
G1 X535.9040 Y1391.6973 Z-20.0000 F5000
G1 X1220.0000 Y1391.6973 Z-20.0000 F5000
G1 X1220.0000 Y1391.6973 Z10.0000 F9999
(Tool Number:1) (7.998 mm dia. slot drill)
M3 S9000
G1 X195.9498 Y459.3991 Z10.0000 F9999
G1 X195.9498 Y459.3991 Z1.0000 F2500
G1 X195.9498 Y420.4279 Z-9.5000 F2500
G1 X195.9498 Y459.3991 Z-20.0000 F2500
G1 X195.9498 Y345.4003 Z-20.0000 F5000
G1 X200.9498 Y345.4003 Z-20.0000 F5000
G1 X200.9498 Y343.3983 Z-20.0000 F5000
G1 X183.2923 Y343.3983 Z-20.0000 F5000
G1 X177.9498 Y338.0557 Z-20.0000 F5000
G1 X177.9498 Y280.7430 Z-20.0000 F5000
G1 X183.2923 Y275.4005 Z-20.0000 F5000
G1 X200.9498 Y275.4005 Z-20.0000 F5000
G1 X200.9498 Y273.3985 Z-20.0000 F5000
G1 X195.9498 Y273.3985 Z-20.0000 F5000
G1 X195.9498 Y45.4009 Z-20.0000 F5000
G1 X200.9498 Y45.4009 Z-20.0000 F5000
G1 X200.9498 Y43.3989 Z-20.0000 F5000
G1 X183.2923 Y43.3989 Z-20.0000 F5000
G1 X177.9498 Y38.0564 Z-20.0000 F5000
G1 X177.9498 Y5.9010 Z-20.0000 F5000
G1 X240.1660 Y5.9010 Z-20.0000 F5000
G1 X242.3167 Y6.2128 Z-20.0000 F5000
G1 X244.6248 Y7.2953 Z-20.0000 F5000
G1 X246.5082 Y9.0135 Z-20.0000 F5000
G1 X247.7683 Y11.1316 Z-20.0000 F5000
G1 X248.3749 Y13.5204 Z-20.0000 F5000
G1 X248.2581 Y16.0670 Z-20.0000 F5000
G1 X247.3915 Y18.4645 Z-20.0000 F5000
G1 X246.0913 Y20.2057 Z-20.0000 F5000
G1 X243.1623 Y23.1347 Z-20.0000 F5000
G1 X242.7453 Y23.6931 Z-20.0000 F5000
G1 X242.6090 Y24.0363 Z-20.0000 F5000
G1 X242.5633 Y24.4121 Z-20.0000 F5000
G1 X242.6150 Y24.7840 Z-20.0000 F5000
G1 X242.7549 Y25.1217 Z-20.0000 F5000
G1 X242.9813 Y25.4212 Z-20.0000 F5000
G1 X243.2794 Y25.6546 Z-20.0000 F5000
G1 X243.6184 Y25.8010 Z-20.0000 F5000
G1 X244.3081 Y25.9010 Z-20.0000 F5000
G1 X269.5891 Y25.9010 Z-20.0000 F5000
G1 X270.2789 Y25.8010 Z-20.0000 F5000
G1 X270.6179 Y25.6546 Z-20.0000 F5000
G1 X270.9160 Y25.4212 Z-20.0000 F5000
G1 X271.1424 Y25.1217 Z-20.0000 F5000
G1 X271.2822 Y24.7840 Z-20.0000 F5000
G1 X271.3339 Y24.4121 Z-20.0000 F5000
G1 X271.2882 Y24.0363 Z-20.0000 F5000
G1 X271.1519 Y23.6931 Z-20.0000 F5000
G1 X270.7350 Y23.1347 Z-20.0000 F5000
G1 X267.8060 Y20.2057 Z-20.0000 F5000
G1 X266.5058 Y18.4645 Z-20.0000 F5000
G1 X265.6392 Y16.0670 Z-20.0000 F5000
G1 X265.5224 Y13.5204 Z-20.0000 F5000
G1 X266.1290 Y11.1316 Z-20.0000 F5000
G1 X267.3891 Y9.0135 Z-20.0000 F5000
G1 X269.2725 Y7.2953 Z-20.0000 F5000
G1 X271.5806 Y6.2128 Z-20.0000 F5000
G1 X273.7313 Y5.9010 Z-20.0000 F5000
G1 X335.9475 Y5.9010 Z-20.0000 F5000
G1 X335.9475 Y38.0564 Z-20.0000 F5000
G1 X330.6050 Y43.3989 Z-20.0000 F5000
G1 X312.9475 Y43.3989 Z-20.0000 F5000
G1 X312.9475 Y45.4009 Z-20.0000 F5000
G1 X317.9475 Y45.4009 Z-20.0000 F5000
G1 X317.9475 Y273.3985 Z-20.0000 F5000
G1 X312.9475 Y273.3985 Z-20.0000 F5000
G1 X312.9475 Y275.4005 Z-20.0000 F5000
G1 X330.6050 Y275.4005 Z-20.0000 F5000
G1 X335.9475 Y280.7430 Z-20.0000 F5000
G1 X335.9475 Y338.0557 Z-20.0000 F5000
G1 X330.6050 Y343.3983 Z-20.0000 F5000
G1 X312.9475 Y343.3983 Z-20.0000 F5000
G1 X312.9475 Y345.4003 Z-20.0000 F5000
G1 X317.9475 Y345.4003 Z-20.0000 F5000
G1 X317.9475 Y573.3979 Z-20.0000 F5000
G1 X312.9475 Y573.3979 Z-20.0000 F5000
G1 X312.9475 Y575.3999 Z-20.0000 F5000
G1 X330.6050 Y575.3999 Z-20.0000 F5000
G1 X335.9475 Y580.7425 Z-20.0000 F5000
G1 X335.9475 Y604.3979 Z-20.0000 F5000
G1 X288.9496 Y604.3979 Z-20.0000 F5000
G1 X288.9496 Y599.3978 Z-20.0000 F5000
G1 X286.9476 Y599.3978 Z-20.0000 F5000
G1 X286.9476 Y619.3998 Z-20.0000 F5000
G1 X288.9496 Y619.3998 Z-20.0000 F5000
G1 X288.9496 Y614.3997 Z-20.0000 F5000
G1 X335.9475 Y614.3997 Z-20.0000 F5000
G1 X335.9475 Y638.0552 Z-20.0000 F5000
G1 X330.6050 Y643.3977 Z-20.0000 F5000
G1 X312.9475 Y643.3977 Z-20.0000 F5000
G1 X312.9475 Y645.3997 Z-20.0000 F5000
G1 X317.9475 Y645.3997 Z-20.0000 F5000
G1 X317.9475 Y873.3973 Z-20.0000 F5000
G1 X312.9475 Y873.3973 Z-20.0000 F5000
G1 X312.9475 Y875.3993 Z-20.0000 F5000
G1 X330.6050 Y875.3993 Z-20.0000 F5000
G1 X335.9475 Y880.7418 Z-20.0000 F5000
G1 X335.9475 Y938.0546 Z-20.0000 F5000
G1 X330.6050 Y943.3971 Z-20.0000 F5000
G1 X312.9475 Y943.3971 Z-20.0000 F5000
G1 X312.9475 Y945.3991 Z-20.0000 F5000
G1 X317.9475 Y945.3991 Z-20.0000 F5000
G1 X317.9475 Y1063.3970 Z-20.0000 F5000
G1 X294.9476 Y1063.3970 Z-20.0000 F5000
G1 X294.9476 Y1065.3990 Z-20.0000 F5000
G1 X299.9476 Y1065.3990 Z-20.0000 F5000
G1 X299.9476 Y1173.3967 Z-20.0000 F5000
G1 X294.9476 Y1173.3967 Z-20.0000 F5000
G1 X294.9476 Y1175.3987 Z-20.0000 F5000
G1 X330.6050 Y1175.3987 Z-20.0000 F5000
G1 X335.9475 Y1180.7412 Z-20.0000 F5000
G1 X335.9475 Y1238.0539 Z-20.0000 F5000
G1 X330.6050 Y1243.3965 Z-20.0000 F5000
G1 X294.9476 Y1243.3965 Z-20.0000 F5000
G1 X294.9476 Y1245.3985 Z-20.0000 F5000
G1 X299.9476 Y1245.3985 Z-20.0000 F5000
G1 X299.9476 Y1473.3960 Z-20.0000 F5000
G1 X294.9476 Y1473.3960 Z-20.0000 F5000
G1 X294.9476 Y1475.3980 Z-20.0000 F5000
G1 X330.6050 Y1475.3980 Z-20.0000 F5000
G1 X335.9475 Y1480.7406 Z-20.0000 F5000
G1 X335.9475 Y1499.1382 Z-20.0000 F5000
G1 X335.9475 Y1499.1382 Z-10.0000 F9999
G1 X335.9475 Y1515.1362 Z-10.0000 F5000
G1 X335.9475 Y1515.1362 Z-20.0000 F2500
G1 X335.9475 Y1538.0535 Z-20.0000 F5000
G1 X330.6050 Y1543.3960 Z-20.0000 F5000
G1 X294.9476 Y1543.3960 Z-20.0000 F5000
G1 X294.9476 Y1545.3979 Z-20.0000 F5000
G1 X299.9476 Y1545.3979 Z-20.0000 F5000
G1 X299.9476 Y1674.8957 Z-20.0000 F5000
G1 X213.9497 Y1674.8957 Z-20.0000 F5000
G1 X213.9497 Y1545.3979 Z-20.0000 F5000
G1 X218.9497 Y1545.3979 Z-20.0000 F5000
G1 X218.9497 Y1543.3960 Z-20.0000 F5000
G1 X183.2923 Y1543.3960 Z-20.0000 F5000
G1 X177.9498 Y1538.0535 Z-20.0000 F5000
G1 X177.9498 Y1514.6674 Z-20.0000 F5000
G1 X177.9498 Y1514.6674 Z-10.0000 F9999
G1 X177.9498 Y1498.6694 Z-10.0000 F5000
G1 X177.9498 Y1498.6694 Z-20.0000 F2500
G1 X177.9498 Y1480.7406 Z-20.0000 F5000
G1 X183.2923 Y1475.3980 Z-20.0000 F5000
G1 X218.9497 Y1475.3980 Z-20.0000 F5000
G1 X218.9497 Y1473.3960 Z-20.0000 F5000
G1 X213.9497 Y1473.3960 Z-20.0000 F5000
G1 X213.9497 Y1245.3985 Z-20.0000 F5000
G1 X218.9497 Y1245.3985 Z-20.0000 F5000
G1 X218.9497 Y1243.3965 Z-20.0000 F5000
G1 X183.2923 Y1243.3965 Z-20.0000 F5000
G1 X177.9498 Y1238.0539 Z-20.0000 F5000
G1 X177.9498 Y1180.7412 Z-20.0000 F5000
G1 X183.2923 Y1175.3987 Z-20.0000 F5000
G1 X218.9497 Y1175.3987 Z-20.0000 F5000
G1 X218.9497 Y1173.3967 Z-20.0000 F5000
G1 X213.9498 Y1173.3967 Z-20.0000 F5000
G1 X213.9473 Y1065.3990 Z-20.0000 F5000
G1 X218.9474 Y1065.3990 Z-20.0000 F5000
G1 X218.9474 Y1063.3970 Z-20.0000 F5000
G1 X195.9498 Y1063.3970 Z-20.0000 F5000
G1 X195.9498 Y945.3991 Z-20.0000 F5000
G1 X200.9498 Y945.3991 Z-20.0000 F5000
G1 X200.9498 Y943.3971 Z-20.0000 F5000
G1 X183.2923 Y943.3971 Z-20.0000 F5000
G1 X177.9498 Y938.0546 Z-20.0000 F5000
G1 X177.9498 Y880.7418 Z-20.0000 F5000
G1 X183.2923 Y875.3993 Z-20.0000 F5000
G1 X200.9498 Y875.3993 Z-20.0000 F5000
G1 X200.9498 Y873.3973 Z-20.0000 F5000
G1 X195.9498 Y873.3973 Z-20.0000 F5000
G1 X195.9498 Y645.3997 Z-20.0000 F5000
G1 X200.9498 Y645.3997 Z-20.0000 F5000
G1 X200.9498 Y643.3977 Z-20.0000 F5000
G1 X183.2923 Y643.3977 Z-20.0000 F5000
G1 X177.9498 Y638.0552 Z-20.0000 F5000
G1 X177.9498 Y614.3997 Z-20.0000 F5000
G1 X224.9477 Y614.3997 Z-20.0000 F5000
G1 X224.9477 Y619.3998 Z-20.0000 F5000
G1 X226.9497 Y619.3998 Z-20.0000 F5000
G1 X226.9497 Y599.3978 Z-20.0000 F5000
G1 X224.9477 Y599.3978 Z-20.0000 F5000
G1 X224.9477 Y604.3979 Z-20.0000 F5000
G1 X177.9498 Y604.3979 Z-20.0000 F5000
G1 X177.9498 Y580.7425 Z-20.0000 F5000
G1 X183.2923 Y575.3999 Z-20.0000 F5000
G1 X200.9498 Y575.3999 Z-20.0000 F5000
G1 X200.9498 Y573.3979 Z-20.0000 F5000
G1 X195.9498 Y573.3979 Z-20.0000 F5000
G1 X195.9498 Y459.3991 Z-20.0000 F5000
G1 X195.9498 Y459.3991 Z10.0000 F9999
G1 X540.0474 Y459.3990 Z10.0000 F9999
G1 X540.0474 Y459.3990 Z1.0000 F2500
G1 X540.0474 Y420.4278 Z-9.5000 F2500
G1 X540.0474 Y459.3990 Z-20.0000 F2500
G1 X540.0474 Y345.4002 Z-20.0000 F5000
G1 X545.0474 Y345.4002 Z-20.0000 F5000
G1 X545.0474 Y343.3983 Z-20.0000 F5000
G1 X527.3899 Y343.3983 Z-20.0000 F5000
G1 X522.0475 Y338.0557 Z-20.0000 F5000
G1 X522.0475 Y314.4003 Z-20.0000 F5000
G1 X569.0453 Y314.4003 Z-20.0000 F5000
G1 X569.0453 Y319.4003 Z-20.0000 F5000
G1 X571.0473 Y319.4003 Z-20.0000 F5000
G1 X571.0473 Y299.3983 Z-20.0000 F5000
G1 X569.0453 Y299.3983 Z-20.0000 F5000
G1 X569.0453 Y304.3984 Z-20.0000 F5000
G1 X522.0475 Y304.3984 Z-20.0000 F5000
G1 X522.0475 Y280.7430 Z-20.0000 F5000
G1 X527.3899 Y275.4004 Z-20.0000 F5000
G1 X545.0474 Y275.4004 Z-20.0000 F5000
G1 X545.0474 Y273.3984 Z-20.0000 F5000
G1 X540.0474 Y273.3984 Z-20.0000 F5000
G1 X540.0474 Y156.3526 Z-20.0000 F5000
G1 X540.0474 Y156.3526 Z-10.0000 F9999
G1 X540.0474 Y140.3546 Z-10.0000 F5000
G1 X540.0474 Y140.3546 Z-20.0000 F2500
G1 X540.0474 Y45.4008 Z-20.0000 F5000
G1 X545.0474 Y45.4008 Z-20.0000 F5000
G1 X545.0474 Y43.3988 Z-20.0000 F5000
G1 X527.3899 Y43.3988 Z-20.0000 F5000
G1 X522.0475 Y38.0563 Z-20.0000 F5000
G1 X522.0475 Y5.9010 Z-20.0000 F5000
G1 X584.2634 Y5.9010 Z-20.0000 F5000
G1 X586.4140 Y6.2126 Z-20.0000 F5000
G1 X588.7226 Y7.2952 Z-20.0000 F5000
G1 X590.6058 Y9.0136 Z-20.0000 F5000
G1 X591.8659 Y11.1313 Z-20.0000 F5000
G1 X592.4725 Y13.5201 Z-20.0000 F5000
G1 X592.3558 Y16.0668 Z-20.0000 F5000
G1 X591.4891 Y18.4643 Z-20.0000 F5000
G1 X590.1890 Y20.2055 Z-20.0000 F5000
G1 X587.2599 Y23.1347 Z-20.0000 F5000
G1 X586.8430 Y23.6930 Z-20.0000 F5000
G1 X586.7067 Y24.0362 Z-20.0000 F5000
G1 X586.6610 Y24.4120 Z-20.0000 F5000
G1 X586.7127 Y24.7839 Z-20.0000 F5000
G1 X586.8525 Y25.1215 Z-20.0000 F5000
G1 X587.0789 Y25.4210 Z-20.0000 F5000
G1 X587.3770 Y25.6545 Z-20.0000 F5000
G1 X587.7160 Y25.8008 Z-20.0000 F5000
G1 X588.4055 Y25.9007 Z-20.0000 F5000
G1 X613.6870 Y25.9007 Z-20.0000 F5000
G1 X614.3765 Y25.8008 Z-20.0000 F5000
G1 X614.7156 Y25.6545 Z-20.0000 F5000
G1 X615.0136 Y25.4210 Z-20.0000 F5000
G1 X615.2400 Y25.1215 Z-20.0000 F5000
G1 X615.3799 Y24.7839 Z-20.0000 F5000
G1 X615.4315 Y24.4120 Z-20.0000 F5000
G1 X615.3859 Y24.0362 Z-20.0000 F5000
G1 X615.2496 Y23.6930 Z-20.0000 F5000
G1 X614.8326 Y23.1347 Z-20.0000 F5000
G1 X611.9036 Y20.2055 Z-20.0000 F5000
G1 X610.6034 Y18.4643 Z-20.0000 F5000
G1 X609.7368 Y16.0668 Z-20.0000 F5000
G1 X609.6200 Y13.5201 Z-20.0000 F5000
G1 X610.2266 Y11.1313 Z-20.0000 F5000
G1 X611.4868 Y9.0136 Z-20.0000 F5000
G1 X613.3700 Y7.2952 Z-20.0000 F5000
G1 X615.6785 Y6.2126 Z-20.0000 F5000
G1 X617.8291 Y5.9010 Z-20.0000 F5000
G1 X680.0451 Y5.9010 Z-20.0000 F5000
G1 X680.0451 Y38.0563 Z-20.0000 F5000
G1 X674.7026 Y43.3988 Z-20.0000 F5000
G1 X657.0452 Y43.3988 Z-20.0000 F5000
G1 X657.0452 Y45.4008 Z-20.0000 F5000
G1 X662.0452 Y45.4008 Z-20.0000 F5000
G1 X662.0452 Y140.3546 Z-20.0000 F5000
G1 X662.0452 Y140.3546 Z-10.0000 F9999
G1 X662.0452 Y156.3526 Z-10.0000 F5000
G1 X662.0452 Y156.3526 Z-20.0000 F2500
G1 X662.0452 Y273.3984 Z-20.0000 F5000
G1 X657.0452 Y273.3984 Z-20.0000 F5000
G1 X657.0452 Y275.4004 Z-20.0000 F5000
G1 X674.7026 Y275.4004 Z-20.0000 F5000
G1 X680.0451 Y280.7430 Z-20.0000 F5000
G1 X680.0451 Y304.3984 Z-20.0000 F5000
G1 X633.0472 Y304.3984 Z-20.0000 F5000
G1 X633.0472 Y299.3983 Z-20.0000 F5000
G1 X631.0452 Y299.3983 Z-20.0000 F5000
G1 X631.0452 Y319.4003 Z-20.0000 F5000
G1 X633.0472 Y319.4003 Z-20.0000 F5000
G1 X633.0472 Y314.4003 Z-20.0000 F5000
G1 X680.0451 Y314.4003 Z-20.0000 F5000
G1 X680.0451 Y338.0557 Z-20.0000 F5000
G1 X674.7026 Y343.3983 Z-20.0000 F5000
G1 X657.0452 Y343.3983 Z-20.0000 F5000
G1 X657.0452 Y345.4002 Z-20.0000 F5000
G1 X662.0452 Y345.4002 Z-20.0000 F5000
G1 X662.0452 Y573.3978 Z-20.0000 F5000
G1 X657.0452 Y573.3978 Z-20.0000 F5000
G1 X657.0452 Y575.3998 Z-20.0000 F5000
G1 X674.7026 Y575.3998 Z-20.0000 F5000
G1 X680.0451 Y580.7424 Z-20.0000 F5000
G1 X680.0451 Y638.0551 Z-20.0000 F5000
G1 X674.7026 Y643.3977 Z-20.0000 F5000
G1 X657.0452 Y643.3977 Z-20.0000 F5000
G1 X657.0452 Y645.3997 Z-20.0000 F5000
G1 X662.0452 Y645.3997 Z-20.0000 F5000
G1 X662.0452 Y763.3975 Z-20.0000 F5000
G1 X639.0452 Y763.3975 Z-20.0000 F5000
G1 X639.0452 Y765.3995 Z-20.0000 F5000
G1 X644.0452 Y765.3995 Z-20.0000 F5000
G1 X644.0452 Y873.3972 Z-20.0000 F5000
G1 X639.0452 Y873.3972 Z-20.0000 F5000
G1 X639.0452 Y875.3992 Z-20.0000 F5000
G1 X674.7026 Y875.3992 Z-20.0000 F5000
G1 X680.0451 Y880.7418 Z-20.0000 F5000
G1 X680.0451 Y938.0545 Z-20.0000 F5000
G1 X674.7026 Y943.3970 Z-20.0000 F5000
G1 X639.0452 Y943.3970 Z-20.0000 F5000
G1 X639.0452 Y945.3990 Z-20.0000 F5000
G1 X644.0452 Y945.3990 Z-20.0000 F5000
G1 X644.0452 Y1173.3966 Z-20.0000 F5000
G1 X639.0452 Y1173.3966 Z-20.0000 F5000
G1 X639.0452 Y1175.3986 Z-20.0000 F5000
G1 X674.7026 Y1175.3986 Z-20.0000 F5000
G1 X680.0451 Y1180.7411 Z-20.0000 F5000
G1 X680.0451 Y1201.8821 Z-20.0000 F5000
G1 X680.0451 Y1201.8821 Z-10.0000 F9999
G1 X680.0451 Y1217.8801 Z-10.0000 F5000
G1 X680.0451 Y1217.8801 Z-20.0000 F2500
G1 X680.0451 Y1238.0540 Z-20.0000 F5000
G1 X674.7026 Y1243.3966 Z-20.0000 F5000
G1 X639.0452 Y1243.3966 Z-20.0000 F5000
G1 X639.0452 Y1245.3984 Z-20.0000 F5000
G1 X644.0452 Y1245.3984 Z-20.0000 F5000
G1 X644.0452 Y1361.3963 Z-20.0000 F5000
G1 X558.0473 Y1361.3963 Z-20.0000 F5000
G1 X558.0473 Y1245.3984 Z-20.0000 F5000
G1 X563.0473 Y1245.3984 Z-20.0000 F5000
G1 X563.0473 Y1243.3966 Z-20.0000 F5000
G1 X527.3899 Y1243.3966 Z-20.0000 F5000
G1 X522.0475 Y1238.0540 Z-20.0000 F5000
G1 X522.0475 Y1217.2899 Z-20.0000 F5000
G1 X522.0475 Y1217.2899 Z-10.0000 F9999
G1 X522.0475 Y1201.2919 Z-10.0000 F5000
G1 X522.0475 Y1201.2919 Z-20.0000 F2500
G1 X522.0475 Y1180.7411 Z-20.0000 F5000
G1 X527.3899 Y1175.3986 Z-20.0000 F5000
G1 X563.0473 Y1175.3986 Z-20.0000 F5000
G1 X563.0473 Y1173.3966 Z-20.0000 F5000
G1 X558.0473 Y1173.3966 Z-20.0000 F5000
G1 X558.0473 Y945.3990 Z-20.0000 F5000
G1 X563.0473 Y945.3990 Z-20.0000 F5000
G1 X563.0473 Y943.3970 Z-20.0000 F5000
G1 X527.3899 Y943.3970 Z-20.0000 F5000
G1 X522.0475 Y938.0545 Z-20.0000 F5000
G1 X522.0475 Y880.7418 Z-20.0000 F5000
G1 X527.3899 Y875.3992 Z-20.0000 F5000
G1 X563.0473 Y875.3992 Z-20.0000 F5000
G1 X563.0473 Y873.3972 Z-20.0000 F5000
G1 X558.0474 Y873.3972 Z-20.0000 F5000
G1 X558.0449 Y765.3995 Z-20.0000 F5000
G1 X563.0450 Y765.3995 Z-20.0000 F5000
G1 X563.0450 Y763.3975 Z-20.0000 F5000
G1 X540.0474 Y763.3975 Z-20.0000 F5000
G1 X540.0474 Y645.3997 Z-20.0000 F5000
G1 X545.0474 Y645.3997 Z-20.0000 F5000
G1 X545.0474 Y643.3977 Z-20.0000 F5000
G1 X527.3899 Y643.3977 Z-20.0000 F5000
G1 X522.0475 Y638.0551 Z-20.0000 F5000
G1 X522.0475 Y580.7424 Z-20.0000 F5000
G1 X527.3899 Y575.3998 Z-20.0000 F5000
G1 X545.0474 Y575.3998 Z-20.0000 F5000
G1 X545.0474 Y573.3978 Z-20.0000 F5000
G1 X540.0474 Y573.3978 Z-20.0000 F5000
G1 X540.0474 Y459.3990 Z-20.0000 F5000
G1 X540.0474 Y459.3990 Z10.0000 F9999
G1 X884.1450 Y459.3990 Z10.0000 F9999
G1 X884.1450 Y459.3990 Z1.0000 F2500
G1 X884.1450 Y420.4278 Z-9.5000 F2500
G1 X884.1450 Y459.3990 Z-20.0000 F2500
G1 X884.1450 Y345.4002 Z-20.0000 F5000
G1 X889.1450 Y345.4002 Z-20.0000 F5000
G1 X889.1450 Y343.3983 Z-20.0000 F5000
G1 X871.4876 Y343.3983 Z-20.0000 F5000
G1 X866.1451 Y338.0557 Z-20.0000 F5000
G1 X866.1451 Y314.4003 Z-20.0000 F5000
G1 X913.1430 Y314.4003 Z-20.0000 F5000
G1 X913.1430 Y319.4003 Z-20.0000 F5000
G1 X915.1450 Y319.4003 Z-20.0000 F5000
G1 X915.1450 Y299.3983 Z-20.0000 F5000
G1 X913.1430 Y299.3983 Z-20.0000 F5000
G1 X913.1430 Y304.3984 Z-20.0000 F5000
G1 X866.1451 Y304.3984 Z-20.0000 F5000
G1 X866.1451 Y280.7430 Z-20.0000 F5000
G1 X871.4876 Y275.4004 Z-20.0000 F5000
G1 X889.1450 Y275.4004 Z-20.0000 F5000
G1 X889.1450 Y273.3984 Z-20.0000 F5000
G1 X884.1450 Y273.3984 Z-20.0000 F5000
G1 X884.1450 Y154.1235 Z-20.0000 F5000
G1 X884.1450 Y154.1235 Z-10.0000 F9999
G1 X884.1450 Y138.1255 Z-10.0000 F5000
G1 X884.1450 Y138.1255 Z-20.0000 F2500
G1 X884.1450 Y45.4008 Z-20.0000 F5000
G1 X889.1450 Y45.4008 Z-20.0000 F5000
G1 X889.1450 Y43.3988 Z-20.0000 F5000
G1 X871.4876 Y43.3988 Z-20.0000 F5000
G1 X866.1451 Y38.0563 Z-20.0000 F5000
G1 X866.1451 Y5.9010 Z-20.0000 F5000
G1 X928.3611 Y5.9010 Z-20.0000 F5000
G1 X930.5117 Y6.2126 Z-20.0000 F5000
G1 X932.8202 Y7.2952 Z-20.0000 F5000
G1 X934.7034 Y9.0136 Z-20.0000 F5000
G1 X935.9635 Y11.1313 Z-20.0000 F5000
G1 X936.5702 Y13.5201 Z-20.0000 F5000
G1 X936.4534 Y16.0668 Z-20.0000 F5000
G1 X935.5867 Y18.4643 Z-20.0000 F5000
G1 X934.2866 Y20.2055 Z-20.0000 F5000
G1 X931.3575 Y23.1347 Z-20.0000 F5000
G1 X930.9406 Y23.6930 Z-20.0000 F5000
G1 X930.8043 Y24.0362 Z-20.0000 F5000
G1 X930.7586 Y24.4120 Z-20.0000 F5000
G1 X930.8103 Y24.7839 Z-20.0000 F5000
G1 X930.9502 Y25.1215 Z-20.0000 F5000
G1 X931.1766 Y25.4210 Z-20.0000 F5000
G1 X931.4746 Y25.6545 Z-20.0000 F5000
G1 X931.8136 Y25.8008 Z-20.0000 F5000
G1 X932.5032 Y25.9007 Z-20.0000 F5000
G1 X957.7846 Y25.9007 Z-20.0000 F5000
G1 X958.4742 Y25.8008 Z-20.0000 F5000
G1 X958.8132 Y25.6545 Z-20.0000 F5000
G1 X959.1113 Y25.4210 Z-20.0000 F5000
G1 X959.3376 Y25.1215 Z-20.0000 F5000
G1 X959.4775 Y24.7839 Z-20.0000 F5000
G1 X959.5292 Y24.4120 Z-20.0000 F5000
G1 X959.4835 Y24.0362 Z-20.0000 F5000
G1 X959.3472 Y23.6930 Z-20.0000 F5000
G1 X958.9303 Y23.1347 Z-20.0000 F5000
G1 X956.0012 Y20.2055 Z-20.0000 F5000
G1 X954.7011 Y18.4643 Z-20.0000 F5000
G1 X953.8344 Y16.0668 Z-20.0000 F5000
G1 X953.7176 Y13.5201 Z-20.0000 F5000
G1 X954.3243 Y11.1313 Z-20.0000 F5000
G1 X955.5844 Y9.0136 Z-20.0000 F5000
G1 X957.4676 Y7.2952 Z-20.0000 F5000
G1 X959.7762 Y6.2126 Z-20.0000 F5000
G1 X961.9268 Y5.9010 Z-20.0000 F5000
G1 X1024.1427 Y5.9010 Z-20.0000 F5000
G1 X1024.1427 Y38.0563 Z-20.0000 F5000
G1 X1018.8003 Y43.3988 Z-20.0000 F5000
G1 X1001.1428 Y43.3988 Z-20.0000 F5000
G1 X1001.1428 Y45.4008 Z-20.0000 F5000
G1 X1006.1428 Y45.4008 Z-20.0000 F5000
G1 X1006.1428 Y137.3824 Z-20.0000 F5000
G1 X1006.1428 Y137.3824 Z-10.0000 F9999
G1 X1006.1428 Y153.3804 Z-10.0000 F5000
G1 X1006.1428 Y153.3804 Z-20.0000 F2500
G1 X1006.1428 Y273.3984 Z-20.0000 F5000
G1 X1001.1428 Y273.3984 Z-20.0000 F5000
G1 X1001.1428 Y275.4004 Z-20.0000 F5000
G1 X1018.8003 Y275.4004 Z-20.0000 F5000
G1 X1024.1427 Y280.7430 Z-20.0000 F5000
G1 X1024.1427 Y304.3984 Z-20.0000 F5000
G1 X977.1449 Y304.3984 Z-20.0000 F5000
G1 X977.1449 Y299.3983 Z-20.0000 F5000
G1 X975.1429 Y299.3983 Z-20.0000 F5000
G1 X975.1429 Y319.4003 Z-20.0000 F5000
G1 X977.1449 Y319.4003 Z-20.0000 F5000
G1 X977.1449 Y314.4003 Z-20.0000 F5000
G1 X1024.1427 Y314.4003 Z-20.0000 F5000
G1 X1024.1427 Y338.0557 Z-20.0000 F5000
G1 X1018.8003 Y343.3983 Z-20.0000 F5000
G1 X1001.1428 Y343.3983 Z-20.0000 F5000
G1 X1001.1428 Y345.4002 Z-20.0000 F5000
G1 X1006.1428 Y345.4002 Z-20.0000 F5000
G1 X1006.1428 Y573.3978 Z-20.0000 F5000
G1 X1001.1428 Y573.3978 Z-20.0000 F5000
G1 X1001.1428 Y575.3998 Z-20.0000 F5000
G1 X1018.8003 Y575.3998 Z-20.0000 F5000
G1 X1024.1427 Y580.7424 Z-20.0000 F5000
G1 X1024.1427 Y638.0551 Z-20.0000 F5000
G1 X1018.8003 Y643.3977 Z-20.0000 F5000
G1 X1001.1428 Y643.3977 Z-20.0000 F5000
G1 X1001.1428 Y645.3997 Z-20.0000 F5000
G1 X1006.1428 Y645.3997 Z-20.0000 F5000
G1 X1006.1428 Y763.3975 Z-20.0000 F5000
G1 X983.1429 Y763.3975 Z-20.0000 F5000
G1 X983.1429 Y765.3995 Z-20.0000 F5000
G1 X988.1429 Y765.3995 Z-20.0000 F5000
G1 X988.1429 Y873.3972 Z-20.0000 F5000
G1 X983.1429 Y873.3972 Z-20.0000 F5000
G1 X983.1429 Y875.3992 Z-20.0000 F5000
G1 X1018.8003 Y875.3992 Z-20.0000 F5000
G1 X1024.1427 Y880.7418 Z-20.0000 F5000
G1 X1024.1427 Y938.0545 Z-20.0000 F5000
G1 X1018.8003 Y943.3970 Z-20.0000 F5000
G1 X983.1429 Y943.3970 Z-20.0000 F5000
G1 X983.1429 Y945.3990 Z-20.0000 F5000
G1 X988.1429 Y945.3990 Z-20.0000 F5000
G1 X988.1429 Y1173.3966 Z-20.0000 F5000
G1 X983.1429 Y1173.3966 Z-20.0000 F5000
G1 X983.1429 Y1175.3986 Z-20.0000 F5000
G1 X1018.8003 Y1175.3986 Z-20.0000 F5000
G1 X1024.1427 Y1180.7411 Z-20.0000 F5000
G1 X1024.1427 Y1197.7506 Z-20.0000 F5000
G1 X1024.1427 Y1197.7506 Z-10.0000 F9999
G1 X1024.1427 Y1213.7486 Z-10.0000 F5000
G1 X1024.1427 Y1213.7486 Z-20.0000 F2500
G1 X1024.1427 Y1238.0540 Z-20.0000 F5000
G1 X1018.8003 Y1243.3966 Z-20.0000 F5000
G1 X983.1429 Y1243.3966 Z-20.0000 F5000
G1 X983.1429 Y1245.3984 Z-20.0000 F5000
G1 X988.1429 Y1245.3984 Z-20.0000 F5000
G1 X988.1429 Y1361.3963 Z-20.0000 F5000
G1 X902.1450 Y1361.3963 Z-20.0000 F5000
G1 X902.1450 Y1245.3984 Z-20.0000 F5000
G1 X907.1450 Y1245.3984 Z-20.0000 F5000
G1 X907.1450 Y1243.3966 Z-20.0000 F5000
G1 X871.4876 Y1243.3966 Z-20.0000 F5000
G1 X866.1451 Y1238.0540 Z-20.0000 F5000
G1 X866.1451 Y1214.3388 Z-20.0000 F5000
G1 X866.1451 Y1214.3388 Z-10.0000 F9999
G1 X866.1451 Y1198.3408 Z-10.0000 F5000
G1 X866.1451 Y1198.3408 Z-20.0000 F2500
G1 X866.1451 Y1180.7411 Z-20.0000 F5000
G1 X871.4876 Y1175.3986 Z-20.0000 F5000
G1 X907.1450 Y1175.3986 Z-20.0000 F5000
G1 X907.1450 Y1173.3966 Z-20.0000 F5000
G1 X902.1450 Y1173.3966 Z-20.0000 F5000
G1 X902.1450 Y945.3990 Z-20.0000 F5000
G1 X907.1450 Y945.3990 Z-20.0000 F5000
G1 X907.1450 Y943.3970 Z-20.0000 F5000
G1 X871.4876 Y943.3970 Z-20.0000 F5000
G1 X866.1451 Y938.0545 Z-20.0000 F5000
G1 X866.1451 Y880.7418 Z-20.0000 F5000
G1 X871.4876 Y875.3992 Z-20.0000 F5000
G1 X907.1450 Y875.3992 Z-20.0000 F5000
G1 X907.1450 Y873.3972 Z-20.0000 F5000
G1 X902.1451 Y873.3972 Z-20.0000 F5000
G1 X902.1426 Y765.3995 Z-20.0000 F5000
G1 X907.1427 Y765.3995 Z-20.0000 F5000
G1 X907.1427 Y763.3975 Z-20.0000 F5000
G1 X884.1450 Y763.3975 Z-20.0000 F5000
G1 X884.1450 Y645.3997 Z-20.0000 F5000
G1 X889.1450 Y645.3997 Z-20.0000 F5000
G1 X889.1450 Y643.3977 Z-20.0000 F5000
G1 X871.4876 Y643.3977 Z-20.0000 F5000
G1 X866.1451 Y638.0551 Z-20.0000 F5000
G1 X866.1451 Y580.7424 Z-20.0000 F5000
G1 X871.4876 Y575.3998 Z-20.0000 F5000
G1 X889.1450 Y575.3998 Z-20.0000 F5000
G1 X889.1450 Y573.3978 Z-20.0000 F5000
G1 X884.1450 Y573.3978 Z-20.0000 F5000
G1 X884.1450 Y459.3990 Z-20.0000 F5000
G1 X884.1450 Y459.3990 Z10.0000 F9999
G1 X1056.1939 Y459.3990 Z10.0000 F9999
G1 X1056.1939 Y459.3990 Z1.0000 F2500
G1 X1056.1939 Y420.4278 Z-9.5000 F2500
G1 X1056.1939 Y459.3990 Z-20.0000 F2500
G1 X1056.1939 Y345.4002 Z-20.0000 F5000
G1 X1061.1939 Y345.4002 Z-20.0000 F5000
G1 X1061.1939 Y343.3983 Z-20.0000 F5000
G1 X1043.5364 Y343.3983 Z-20.0000 F5000
G1 X1038.1939 Y338.0557 Z-20.0000 F5000
G1 X1038.1939 Y314.4003 Z-20.0000 F5000
G1 X1085.1918 Y314.4003 Z-20.0000 F5000
G1 X1085.1918 Y319.4003 Z-20.0000 F5000
G1 X1087.1938 Y319.4003 Z-20.0000 F5000
G1 X1087.1938 Y299.3983 Z-20.0000 F5000
G1 X1085.1918 Y299.3983 Z-20.0000 F5000
G1 X1085.1918 Y304.3984 Z-20.0000 F5000
G1 X1038.1939 Y304.3984 Z-20.0000 F5000
G1 X1038.1939 Y280.7430 Z-20.0000 F5000
G1 X1043.5364 Y275.4004 Z-20.0000 F5000
G1 X1061.1939 Y275.4004 Z-20.0000 F5000
G1 X1061.1939 Y273.3984 Z-20.0000 F5000
G1 X1056.1939 Y273.3984 Z-20.0000 F5000
G1 X1056.1939 Y45.4008 Z-20.0000 F5000
G1 X1061.1939 Y45.4008 Z-20.0000 F5000
G1 X1061.1939 Y43.3988 Z-20.0000 F5000
G1 X1043.5364 Y43.3988 Z-20.0000 F5000
G1 X1038.1939 Y38.0563 Z-20.0000 F5000
G1 X1038.1939 Y5.9010 Z-20.0000 F5000
G1 X1100.4099 Y5.9010 Z-20.0000 F5000
G1 X1102.5605 Y6.2126 Z-20.0000 F5000
G1 X1104.8690 Y7.2952 Z-20.0000 F5000
G1 X1106.7523 Y9.0136 Z-20.0000 F5000
G1 X1108.0124 Y11.1313 Z-20.0000 F5000
G1 X1108.6190 Y13.5201 Z-20.0000 F5000
G1 X1108.5022 Y16.0668 Z-20.0000 F5000
G1 X1107.6356 Y18.4643 Z-20.0000 F5000
G1 X1106.3354 Y20.2055 Z-20.0000 F5000
G1 X1103.4064 Y23.1347 Z-20.0000 F5000
G1 X1102.9894 Y23.6930 Z-20.0000 F5000
G1 X1102.8531 Y24.0362 Z-20.0000 F5000
G1 X1102.8075 Y24.4120 Z-20.0000 F5000
G1 X1102.8591 Y24.7839 Z-20.0000 F5000
G1 X1102.9990 Y25.1215 Z-20.0000 F5000
G1 X1103.2254 Y25.4210 Z-20.0000 F5000
G1 X1103.5234 Y25.6545 Z-20.0000 F5000
G1 X1103.8625 Y25.8008 Z-20.0000 F5000
G1 X1104.5520 Y25.9007 Z-20.0000 F5000
G1 X1129.8335 Y25.9007 Z-20.0000 F5000
G1 X1130.5230 Y25.8008 Z-20.0000 F5000
G1 X1130.8620 Y25.6545 Z-20.0000 F5000
G1 X1131.1601 Y25.4210 Z-20.0000 F5000
G1 X1131.3865 Y25.1215 Z-20.0000 F5000
G1 X1131.5263 Y24.7839 Z-20.0000 F5000
G1 X1131.5780 Y24.4120 Z-20.0000 F5000
G1 X1131.5323 Y24.0362 Z-20.0000 F5000
G1 X1131.3960 Y23.6930 Z-20.0000 F5000
G1 X1130.9791 Y23.1347 Z-20.0000 F5000
G1 X1128.0500 Y20.2055 Z-20.0000 F5000
G1 X1126.7499 Y18.4643 Z-20.0000 F5000
G1 X1125.8832 Y16.0668 Z-20.0000 F5000
G1 X1125.7665 Y13.5201 Z-20.0000 F5000
G1 X1126.3731 Y11.1313 Z-20.0000 F5000
G1 X1127.6332 Y9.0136 Z-20.0000 F5000
G1 X1129.5164 Y7.2952 Z-20.0000 F5000
G1 X1131.8250 Y6.2126 Z-20.0000 F5000
G1 X1133.9756 Y5.9010 Z-20.0000 F5000
G1 X1196.1915 Y5.9010 Z-20.0000 F5000
G1 X1196.1915 Y38.0563 Z-20.0000 F5000
G1 X1190.8491 Y43.3988 Z-20.0000 F5000
G1 X1173.1916 Y43.3988 Z-20.0000 F5000
G1 X1173.1916 Y45.4008 Z-20.0000 F5000
G1 X1178.1916 Y45.4008 Z-20.0000 F5000
G1 X1178.1916 Y273.3984 Z-20.0000 F5000
G1 X1173.1916 Y273.3984 Z-20.0000 F5000
G1 X1173.1916 Y275.4004 Z-20.0000 F5000
G1 X1190.8491 Y275.4004 Z-20.0000 F5000
G1 X1196.1915 Y280.7430 Z-20.0000 F5000
G1 X1196.1915 Y304.3984 Z-20.0000 F5000
G1 X1149.1937 Y304.3984 Z-20.0000 F5000
G1 X1149.1937 Y299.3983 Z-20.0000 F5000
G1 X1147.1917 Y299.3983 Z-20.0000 F5000
G1 X1147.1917 Y319.4003 Z-20.0000 F5000
G1 X1149.1937 Y319.4003 Z-20.0000 F5000
G1 X1149.1937 Y314.4003 Z-20.0000 F5000
G1 X1196.1915 Y314.4003 Z-20.0000 F5000
G1 X1196.1915 Y338.0557 Z-20.0000 F5000
G1 X1190.8491 Y343.3983 Z-20.0000 F5000
G1 X1173.1916 Y343.3983 Z-20.0000 F5000
G1 X1173.1916 Y345.4002 Z-20.0000 F5000
G1 X1178.1916 Y345.4002 Z-20.0000 F5000
G1 X1178.1916 Y573.3978 Z-20.0000 F5000
G1 X1173.1916 Y573.3978 Z-20.0000 F5000
G1 X1173.1916 Y575.3998 Z-20.0000 F5000
G1 X1190.8491 Y575.3998 Z-20.0000 F5000
G1 X1196.1915 Y580.7424 Z-20.0000 F5000
G1 X1196.1915 Y638.0551 Z-20.0000 F5000
G1 X1190.8491 Y643.3977 Z-20.0000 F5000
G1 X1173.1916 Y643.3977 Z-20.0000 F5000
G1 X1173.1916 Y645.3997 Z-20.0000 F5000
G1 X1178.1916 Y645.3997 Z-20.0000 F5000
G1 X1178.1916 Y763.3975 Z-20.0000 F5000
G1 X1155.1917 Y763.3975 Z-20.0000 F5000
G1 X1155.1917 Y765.3995 Z-20.0000 F5000
G1 X1160.1917 Y765.3995 Z-20.0000 F5000
G1 X1160.1917 Y873.3972 Z-20.0000 F5000
G1 X1155.1917 Y873.3972 Z-20.0000 F5000
G1 X1155.1917 Y875.3992 Z-20.0000 F5000
G1 X1190.8491 Y875.3992 Z-20.0000 F5000
G1 X1196.1915 Y880.7418 Z-20.0000 F5000
G1 X1196.1915 Y938.0545 Z-20.0000 F5000
G1 X1190.8491 Y943.3970 Z-20.0000 F5000
G1 X1155.1917 Y943.3970 Z-20.0000 F5000
G1 X1155.1917 Y945.3990 Z-20.0000 F5000
G1 X1160.1917 Y945.3990 Z-20.0000 F5000
G1 X1160.1917 Y1173.3966 Z-20.0000 F5000
G1 X1155.1917 Y1173.3966 Z-20.0000 F5000
G1 X1155.1917 Y1175.3986 Z-20.0000 F5000
G1 X1190.8491 Y1175.3986 Z-20.0000 F5000
G1 X1196.1915 Y1180.7411 Z-20.0000 F5000
G1 X1196.1915 Y1238.0540 Z-20.0000 F5000
G1 X1190.8491 Y1243.3966 Z-20.0000 F5000
G1 X1155.1917 Y1243.3966 Z-20.0000 F5000
G1 X1155.1917 Y1245.3984 Z-20.0000 F5000
G1 X1160.1917 Y1245.3984 Z-20.0000 F5000
G1 X1160.1917 Y1361.3963 Z-20.0000 F5000
G1 X1074.1938 Y1361.3963 Z-20.0000 F5000
G1 X1074.1938 Y1245.3984 Z-20.0000 F5000
G1 X1079.1938 Y1245.3984 Z-20.0000 F5000
G1 X1079.1938 Y1243.3966 Z-20.0000 F5000
G1 X1043.5364 Y1243.3966 Z-20.0000 F5000
G1 X1038.1939 Y1238.0540 Z-20.0000 F5000
G1 X1038.1939 Y1180.7411 Z-20.0000 F5000
G1 X1043.5364 Y1175.3986 Z-20.0000 F5000
G1 X1079.1938 Y1175.3986 Z-20.0000 F5000
G1 X1079.1938 Y1173.3966 Z-20.0000 F5000
G1 X1074.1938 Y1173.3966 Z-20.0000 F5000
G1 X1074.1938 Y945.3990 Z-20.0000 F5000
G1 X1079.1938 Y945.3990 Z-20.0000 F5000
G1 X1079.1938 Y943.3970 Z-20.0000 F5000
G1 X1043.5364 Y943.3970 Z-20.0000 F5000
G1 X1038.1939 Y938.0545 Z-20.0000 F5000
G1 X1038.1939 Y880.7418 Z-20.0000 F5000
G1 X1043.5364 Y875.3992 Z-20.0000 F5000
G1 X1079.1938 Y875.3992 Z-20.0000 F5000
G1 X1079.1938 Y873.3972 Z-20.0000 F5000
G1 X1074.1939 Y873.3972 Z-20.0000 F5000
G1 X1074.1914 Y765.3995 Z-20.0000 F5000
G1 X1079.1915 Y765.3995 Z-20.0000 F5000
G1 X1079.1915 Y763.3975 Z-20.0000 F5000
G1 X1056.1939 Y763.3975 Z-20.0000 F5000
G1 X1056.1939 Y645.3997 Z-20.0000 F5000
G1 X1061.1939 Y645.3997 Z-20.0000 F5000
G1 X1061.1939 Y643.3977 Z-20.0000 F5000
G1 X1043.5364 Y643.3977 Z-20.0000 F5000
G1 X1038.1939 Y638.0551 Z-20.0000 F5000
G1 X1038.1939 Y580.7424 Z-20.0000 F5000
G1 X1043.5364 Y575.3998 Z-20.0000 F5000
G1 X1061.1939 Y575.3998 Z-20.0000 F5000
G1 X1061.1939 Y573.3978 Z-20.0000 F5000
G1 X1056.1939 Y573.3978 Z-20.0000 F5000
G1 X1056.1939 Y459.3990 Z-20.0000 F5000
G1 X1056.1939 Y459.3990 Z10.0000 F9999
G1 X23.9009 Y459.3991 Z10.0000 F9999
G1 X23.9009 Y459.3991 Z1.0000 F2500
G1 X23.9009 Y420.4279 Z-9.5000 F2500
G1 X23.9009 Y459.3991 Z-20.0000 F2500
G1 X23.9009 Y345.4003 Z-20.0000 F5000
G1 X28.9009 Y345.4003 Z-20.0000 F5000
G1 X28.9009 Y343.3983 Z-20.0000 F5000
G1 X11.2435 Y343.3983 Z-20.0000 F5000
G1 X5.9010 Y338.0557 Z-20.0000 F5000
G1 X5.9010 Y280.7430 Z-20.0000 F5000
G1 X11.2435 Y275.4005 Z-20.0000 F5000
G1 X28.9009 Y275.4005 Z-20.0000 F5000
G1 X28.9009 Y273.3985 Z-20.0000 F5000
G1 X23.9009 Y273.3985 Z-20.0000 F5000
G1 X23.9009 Y45.4009 Z-20.0000 F5000
G1 X28.9009 Y45.4009 Z-20.0000 F5000
G1 X28.9009 Y43.3989 Z-20.0000 F5000
G1 X11.2435 Y43.3989 Z-20.0000 F5000
G1 X5.9010 Y38.0564 Z-20.0000 F5000
G1 X5.9010 Y5.9010 Z-20.0000 F5000
G1 X68.1172 Y5.9010 Z-20.0000 F5000
G1 X70.2678 Y6.2128 Z-20.0000 F5000
G1 X72.5759 Y7.2953 Z-20.0000 F5000
G1 X74.4593 Y9.0135 Z-20.0000 F5000
G1 X75.7195 Y11.1316 Z-20.0000 F5000
G1 X76.3261 Y13.5204 Z-20.0000 F5000
G1 X76.2093 Y16.0670 Z-20.0000 F5000
G1 X75.3427 Y18.4645 Z-20.0000 F5000
G1 X74.0425 Y20.2057 Z-20.0000 F5000
G1 X71.1135 Y23.1347 Z-20.0000 F5000
G1 X70.6965 Y23.6931 Z-20.0000 F5000
G1 X70.5602 Y24.0363 Z-20.0000 F5000
G1 X70.5145 Y24.4121 Z-20.0000 F5000
G1 X70.5662 Y24.7840 Z-20.0000 F5000
G1 X70.7061 Y25.1217 Z-20.0000 F5000
G1 X70.9325 Y25.4212 Z-20.0000 F5000
G1 X71.2305 Y25.6546 Z-20.0000 F5000
G1 X71.5696 Y25.8010 Z-20.0000 F5000
G1 X72.2593 Y25.9010 Z-20.0000 F5000
G1 X97.5403 Y25.9010 Z-20.0000 F5000
G1 X98.2300 Y25.8010 Z-20.0000 F5000
G1 X98.5691 Y25.6546 Z-20.0000 F5000
G1 X98.8672 Y25.4212 Z-20.0000 F5000
G1 X99.0935 Y25.1217 Z-20.0000 F5000
G1 X99.2334 Y24.7840 Z-20.0000 F5000
G1 X99.2851 Y24.4121 Z-20.0000 F5000
G1 X99.2394 Y24.0363 Z-20.0000 F5000
G1 X99.1031 Y23.6931 Z-20.0000 F5000
G1 X98.6861 Y23.1347 Z-20.0000 F5000
G1 X95.7572 Y20.2057 Z-20.0000 F5000
G1 X94.4570 Y18.4645 Z-20.0000 F5000
G1 X93.5903 Y16.0670 Z-20.0000 F5000
G1 X93.4735 Y13.5204 Z-20.0000 F5000
G1 X94.0801 Y11.1316 Z-20.0000 F5000
G1 X95.3403 Y9.0135 Z-20.0000 F5000
G1 X97.2237 Y7.2953 Z-20.0000 F5000
G1 X99.5318 Y6.2128 Z-20.0000 F5000
G1 X101.6824 Y5.9010 Z-20.0000 F5000
G1 X163.8986 Y5.9010 Z-20.0000 F5000
G1 X163.8986 Y38.0564 Z-20.0000 F5000
G1 X158.5562 Y43.3989 Z-20.0000 F5000
G1 X140.8987 Y43.3989 Z-20.0000 F5000
G1 X140.8987 Y45.4009 Z-20.0000 F5000
G1 X145.8987 Y45.4009 Z-20.0000 F5000
G1 X145.8987 Y273.3985 Z-20.0000 F5000
G1 X140.8987 Y273.3985 Z-20.0000 F5000
G1 X140.8987 Y275.4005 Z-20.0000 F5000
G1 X158.5561 Y275.4005 Z-20.0000 F5000
G1 X163.8986 Y280.7430 Z-20.0000 F5000
G1 X163.8986 Y338.0557 Z-20.0000 F5000
G1 X158.5562 Y343.3983 Z-20.0000 F5000
G1 X140.8987 Y343.3983 Z-20.0000 F5000
G1 X140.8987 Y345.4003 Z-20.0000 F5000
G1 X145.8987 Y345.4003 Z-20.0000 F5000
G1 X145.8987 Y573.3979 Z-20.0000 F5000
G1 X140.8987 Y573.3979 Z-20.0000 F5000
G1 X140.8987 Y575.3999 Z-20.0000 F5000
G1 X158.5562 Y575.3999 Z-20.0000 F5000
G1 X163.8986 Y580.7425 Z-20.0000 F5000
G1 X163.8986 Y604.3979 Z-20.0000 F5000
G1 X116.9008 Y604.3979 Z-20.0000 F5000
G1 X116.9008 Y599.3978 Z-20.0000 F5000
G1 X114.8988 Y599.3978 Z-20.0000 F5000
G1 X114.8988 Y619.3998 Z-20.0000 F5000
G1 X116.9008 Y619.3998 Z-20.0000 F5000
G1 X116.9008 Y614.3997 Z-20.0000 F5000
G1 X163.8986 Y614.3997 Z-20.0000 F5000
G1 X163.8986 Y638.0552 Z-20.0000 F5000
G1 X158.5562 Y643.3977 Z-20.0000 F5000
G1 X140.8987 Y643.3977 Z-20.0000 F5000
G1 X140.8987 Y645.3997 Z-20.0000 F5000
G1 X145.8987 Y645.3997 Z-20.0000 F5000
G1 X145.8987 Y873.3973 Z-20.0000 F5000
G1 X140.8987 Y873.3973 Z-20.0000 F5000
G1 X140.8987 Y875.3993 Z-20.0000 F5000
G1 X158.5562 Y875.3993 Z-20.0000 F5000
G1 X163.8986 Y880.7418 Z-20.0000 F5000
G1 X163.8986 Y938.0546 Z-20.0000 F5000
G1 X158.5562 Y943.3971 Z-20.0000 F5000
G1 X140.8987 Y943.3971 Z-20.0000 F5000
G1 X140.8987 Y945.3991 Z-20.0000 F5000
G1 X145.8987 Y945.3991 Z-20.0000 F5000
G1 X145.8987 Y1063.3970 Z-20.0000 F5000
G1 X122.8988 Y1063.3970 Z-20.0000 F5000
G1 X122.8988 Y1065.3990 Z-20.0000 F5000
G1 X127.8988 Y1065.3990 Z-20.0000 F5000
G1 X127.8988 Y1173.3967 Z-20.0000 F5000
G1 X122.8988 Y1173.3967 Z-20.0000 F5000
G1 X122.8988 Y1175.3987 Z-20.0000 F5000
G1 X158.5562 Y1175.3987 Z-20.0000 F5000
G1 X163.8986 Y1180.7412 Z-20.0000 F5000
G1 X163.8986 Y1238.0539 Z-20.0000 F5000
G1 X158.5562 Y1243.3965 Z-20.0000 F5000
G1 X122.8988 Y1243.3965 Z-20.0000 F5000
G1 X122.8988 Y1245.3985 Z-20.0000 F5000
G1 X127.8988 Y1245.3985 Z-20.0000 F5000
G1 X127.8988 Y1473.3960 Z-20.0000 F5000
G1 X122.8988 Y1473.3960 Z-20.0000 F5000
G1 X122.8988 Y1475.3980 Z-20.0000 F5000
G1 X158.5562 Y1475.3980 Z-20.0000 F5000
G1 X163.8986 Y1480.7406 Z-20.0000 F5000
G1 X163.8986 Y1538.0535 Z-20.0000 F5000
G1 X158.5562 Y1543.3960 Z-20.0000 F5000
G1 X122.8988 Y1543.3960 Z-20.0000 F5000
G1 X122.8988 Y1545.3979 Z-20.0000 F5000
G1 X127.8988 Y1545.3979 Z-20.0000 F5000
G1 X127.8988 Y1674.8957 Z-20.0000 F5000
G1 X41.9009 Y1674.8957 Z-20.0000 F5000
G1 X41.9009 Y1545.3979 Z-20.0000 F5000
G1 X46.9009 Y1545.3979 Z-20.0000 F5000
G1 X46.9009 Y1543.3960 Z-20.0000 F5000
G1 X11.2435 Y1543.3960 Z-20.0000 F5000
G1 X5.9010 Y1538.0535 Z-20.0000 F5000
G1 X5.9010 Y1480.7406 Z-20.0000 F5000
G1 X11.2435 Y1475.3980 Z-20.0000 F5000
G1 X46.9009 Y1475.3980 Z-20.0000 F5000
G1 X46.9009 Y1473.3960 Z-20.0000 F5000
G1 X41.9009 Y1473.3960 Z-20.0000 F5000
G1 X41.9009 Y1245.3985 Z-20.0000 F5000
G1 X46.9009 Y1245.3985 Z-20.0000 F5000
G1 X46.9009 Y1243.3965 Z-20.0000 F5000
G1 X11.2435 Y1243.3965 Z-20.0000 F5000
G1 X5.9010 Y1238.0539 Z-20.0000 F5000
G1 X5.9010 Y1180.7412 Z-20.0000 F5000
G1 X11.2435 Y1175.3987 Z-20.0000 F5000
G1 X46.9009 Y1175.3987 Z-20.0000 F5000
G1 X46.9009 Y1173.3967 Z-20.0000 F5000
G1 X41.9010 Y1173.3967 Z-20.0000 F5000
G1 X41.8985 Y1065.3990 Z-20.0000 F5000
G1 X46.8986 Y1065.3990 Z-20.0000 F5000
G1 X46.8986 Y1063.3970 Z-20.0000 F5000
G1 X23.9009 Y1063.3970 Z-20.0000 F5000
G1 X23.9009 Y945.3991 Z-20.0000 F5000
G1 X28.9009 Y945.3991 Z-20.0000 F5000
G1 X28.9009 Y943.3971 Z-20.0000 F5000
G1 X11.2435 Y943.3971 Z-20.0000 F5000
G1 X5.9010 Y938.0546 Z-20.0000 F5000
G1 X5.9010 Y880.7418 Z-20.0000 F5000
G1 X11.2435 Y875.3993 Z-20.0000 F5000
G1 X28.9009 Y875.3993 Z-20.0000 F5000
G1 X28.9009 Y873.3973 Z-20.0000 F5000
G1 X23.9009 Y873.3973 Z-20.0000 F5000
G1 X23.9009 Y645.3997 Z-20.0000 F5000
G1 X28.9009 Y645.3997 Z-20.0000 F5000
G1 X28.9009 Y643.3977 Z-20.0000 F5000
G1 X11.2435 Y643.3977 Z-20.0000 F5000
G1 X5.9010 Y638.0552 Z-20.0000 F5000
G1 X5.9010 Y614.3997 Z-20.0000 F5000
G1 X52.8989 Y614.3997 Z-20.0000 F5000
G1 X52.8989 Y619.3998 Z-20.0000 F5000
G1 X54.9009 Y619.3998 Z-20.0000 F5000
G1 X54.9009 Y599.3978 Z-20.0000 F5000
G1 X52.8989 Y599.3978 Z-20.0000 F5000
G1 X52.8989 Y604.3979 Z-20.0000 F5000
G1 X5.9010 Y604.3979 Z-20.0000 F5000
G1 X5.9010 Y580.7425 Z-20.0000 F5000
G1 X11.2435 Y575.3999 Z-20.0000 F5000
G1 X28.9009 Y575.3999 Z-20.0000 F5000
G1 X28.9009 Y573.3979 Z-20.0000 F5000
G1 X23.9009 Y573.3979 Z-20.0000 F5000
G1 X23.9009 Y459.3991 Z-20.0000 F5000
G1 X23.9009 Y459.3991 Z10.0000 F9999
G1 X367.9986 Y459.3991 Z10.0000 F9999
G1 X367.9986 Y459.3991 Z1.0000 F2500
G1 X367.9986 Y420.4279 Z-9.5000 F2500
G1 X367.9986 Y459.3991 Z-20.0000 F2500
G1 X367.9986 Y345.4003 Z-20.0000 F5000
G1 X372.9986 Y345.4003 Z-20.0000 F5000
G1 X372.9986 Y343.3983 Z-20.0000 F5000
G1 X355.3411 Y343.3983 Z-20.0000 F5000
G1 X349.9986 Y338.0557 Z-20.0000 F5000
G1 X349.9986 Y280.7430 Z-20.0000 F5000
G1 X355.3411 Y275.4005 Z-20.0000 F5000
G1 X372.9986 Y275.4005 Z-20.0000 F5000
G1 X372.9986 Y273.3985 Z-20.0000 F5000
G1 X367.9986 Y273.3985 Z-20.0000 F5000
G1 X367.9986 Y45.4009 Z-20.0000 F5000
G1 X372.9986 Y45.4009 Z-20.0000 F5000
G1 X372.9986 Y43.3989 Z-20.0000 F5000
G1 X355.3411 Y43.3989 Z-20.0000 F5000
G1 X349.9986 Y38.0564 Z-20.0000 F5000
G1 X349.9986 Y5.9010 Z-20.0000 F5000
G1 X412.2148 Y5.9010 Z-20.0000 F5000
G1 X414.3655 Y6.2128 Z-20.0000 F5000
G1 X416.6736 Y7.2953 Z-20.0000 F5000
G1 X418.5570 Y9.0135 Z-20.0000 F5000
G1 X419.8171 Y11.1316 Z-20.0000 F5000
G1 X420.4237 Y13.5204 Z-20.0000 F5000
G1 X420.3069 Y16.0670 Z-20.0000 F5000
G1 X419.4403 Y18.4645 Z-20.0000 F5000
G1 X418.1401 Y20.2057 Z-20.0000 F5000
G1 X415.2111 Y23.1347 Z-20.0000 F5000
G1 X414.7941 Y23.6931 Z-20.0000 F5000
G1 X414.6579 Y24.0363 Z-20.0000 F5000
G1 X414.6122 Y24.4121 Z-20.0000 F5000
G1 X414.6639 Y24.7840 Z-20.0000 F5000
G1 X414.8037 Y25.1217 Z-20.0000 F5000
G1 X415.0301 Y25.4212 Z-20.0000 F5000
G1 X415.3282 Y25.6546 Z-20.0000 F5000
G1 X415.6672 Y25.8010 Z-20.0000 F5000
G1 X416.3570 Y25.9010 Z-20.0000 F5000
G1 X441.6380 Y25.9010 Z-20.0000 F5000
G1 X442.3277 Y25.8010 Z-20.0000 F5000
G1 X442.6667 Y25.6546 Z-20.0000 F5000
G1 X442.9648 Y25.4212 Z-20.0000 F5000
G1 X443.1912 Y25.1217 Z-20.0000 F5000
G1 X443.3311 Y24.7840 Z-20.0000 F5000
G1 X443.3827 Y24.4121 Z-20.0000 F5000
G1 X443.3370 Y24.0363 Z-20.0000 F5000
G1 X443.2008 Y23.6931 Z-20.0000 F5000
G1 X442.7838 Y23.1347 Z-20.0000 F5000
G1 X439.8548 Y20.2057 Z-20.0000 F5000
G1 X438.5546 Y18.4645 Z-20.0000 F5000
G1 X437.6880 Y16.0670 Z-20.0000 F5000
G1 X437.5712 Y13.5204 Z-20.0000 F5000
G1 X438.1778 Y11.1316 Z-20.0000 F5000
G1 X439.4379 Y9.0135 Z-20.0000 F5000
G1 X441.3213 Y7.2953 Z-20.0000 F5000
G1 X443.6294 Y6.2128 Z-20.0000 F5000
G1 X445.7801 Y5.9010 Z-20.0000 F5000
G1 X507.9963 Y5.9010 Z-20.0000 F5000
G1 X507.9963 Y38.0564 Z-20.0000 F5000
G1 X502.6538 Y43.3989 Z-20.0000 F5000
G1 X484.9963 Y43.3989 Z-20.0000 F5000
G1 X484.9963 Y45.4009 Z-20.0000 F5000
G1 X489.9963 Y45.4009 Z-20.0000 F5000
G1 X489.9963 Y273.3985 Z-20.0000 F5000
G1 X484.9963 Y273.3985 Z-20.0000 F5000
G1 X484.9963 Y275.4005 Z-20.0000 F5000
G1 X502.6538 Y275.4005 Z-20.0000 F5000
G1 X507.9963 Y280.7430 Z-20.0000 F5000
G1 X507.9963 Y338.0557 Z-20.0000 F5000
G1 X502.6538 Y343.3983 Z-20.0000 F5000
G1 X484.9963 Y343.3983 Z-20.0000 F5000
G1 X484.9963 Y345.4003 Z-20.0000 F5000
G1 X489.9963 Y345.4003 Z-20.0000 F5000
G1 X489.9963 Y573.3979 Z-20.0000 F5000
G1 X484.9963 Y573.3979 Z-20.0000 F5000
G1 X484.9963 Y575.3999 Z-20.0000 F5000
G1 X502.6538 Y575.3999 Z-20.0000 F5000
G1 X507.9963 Y580.7425 Z-20.0000 F5000
G1 X507.9963 Y604.3979 Z-20.0000 F5000
G1 X460.9984 Y604.3979 Z-20.0000 F5000
G1 X460.9984 Y599.3978 Z-20.0000 F5000
G1 X458.9964 Y599.3978 Z-20.0000 F5000
G1 X458.9964 Y619.3998 Z-20.0000 F5000
G1 X460.9984 Y619.3998 Z-20.0000 F5000
G1 X460.9984 Y614.3997 Z-20.0000 F5000
G1 X507.9963 Y614.3997 Z-20.0000 F5000
G1 X507.9963 Y638.0552 Z-20.0000 F5000
G1 X502.6538 Y643.3977 Z-20.0000 F5000
G1 X484.9963 Y643.3977 Z-20.0000 F5000
G1 X484.9963 Y645.3997 Z-20.0000 F5000
G1 X489.9963 Y645.3997 Z-20.0000 F5000
G1 X489.9963 Y873.3973 Z-20.0000 F5000
G1 X484.9963 Y873.3973 Z-20.0000 F5000
G1 X484.9963 Y875.3993 Z-20.0000 F5000
G1 X502.6538 Y875.3993 Z-20.0000 F5000
G1 X507.9963 Y880.7418 Z-20.0000 F5000
G1 X507.9963 Y938.0546 Z-20.0000 F5000
G1 X502.6538 Y943.3971 Z-20.0000 F5000
G1 X484.9963 Y943.3971 Z-20.0000 F5000
G1 X484.9963 Y945.3991 Z-20.0000 F5000
G1 X489.9963 Y945.3991 Z-20.0000 F5000
G1 X489.9963 Y1063.3970 Z-20.0000 F5000
G1 X466.9964 Y1063.3970 Z-20.0000 F5000
G1 X466.9964 Y1065.3990 Z-20.0000 F5000
G1 X471.9964 Y1065.3990 Z-20.0000 F5000
G1 X471.9964 Y1173.3967 Z-20.0000 F5000
G1 X466.9964 Y1173.3967 Z-20.0000 F5000
G1 X466.9964 Y1175.3987 Z-20.0000 F5000
G1 X502.6538 Y1175.3987 Z-20.0000 F5000
G1 X507.9963 Y1180.7412 Z-20.0000 F5000
G1 X507.9963 Y1238.0539 Z-20.0000 F5000
G1 X502.6538 Y1243.3965 Z-20.0000 F5000
G1 X466.9964 Y1243.3965 Z-20.0000 F5000
G1 X466.9964 Y1245.3985 Z-20.0000 F5000
G1 X471.9964 Y1245.3985 Z-20.0000 F5000
G1 X471.9964 Y1473.3960 Z-20.0000 F5000
G1 X466.9964 Y1473.3960 Z-20.0000 F5000
G1 X466.9964 Y1475.3980 Z-20.0000 F5000
G1 X502.6538 Y1475.3980 Z-20.0000 F5000
G1 X507.9963 Y1480.7406 Z-20.0000 F5000
G1 X507.9963 Y1538.0535 Z-20.0000 F5000
G1 X502.6538 Y1543.3960 Z-20.0000 F5000
G1 X466.9964 Y1543.3960 Z-20.0000 F5000
G1 X466.9964 Y1545.3979 Z-20.0000 F5000
G1 X471.9964 Y1545.3979 Z-20.0000 F5000
G1 X471.9964 Y1674.8957 Z-20.0000 F5000
G1 X385.9985 Y1674.8957 Z-20.0000 F5000
G1 X385.9985 Y1545.3979 Z-20.0000 F5000
G1 X390.9985 Y1545.3979 Z-20.0000 F5000
G1 X390.9985 Y1543.3960 Z-20.0000 F5000
G1 X355.3411 Y1543.3960 Z-20.0000 F5000
G1 X349.9986 Y1538.0535 Z-20.0000 F5000
G1 X349.9986 Y1480.7406 Z-20.0000 F5000
G1 X355.3411 Y1475.3980 Z-20.0000 F5000
G1 X390.9985 Y1475.3980 Z-20.0000 F5000
G1 X390.9985 Y1473.3960 Z-20.0000 F5000
G1 X385.9985 Y1473.3960 Z-20.0000 F5000
G1 X385.9985 Y1245.3985 Z-20.0000 F5000
G1 X390.9985 Y1245.3985 Z-20.0000 F5000
G1 X390.9985 Y1243.3965 Z-20.0000 F5000
G1 X355.3411 Y1243.3965 Z-20.0000 F5000
G1 X349.9986 Y1238.0539 Z-20.0000 F5000
G1 X349.9986 Y1180.7412 Z-20.0000 F5000
G1 X355.3411 Y1175.3987 Z-20.0000 F5000
G1 X390.9985 Y1175.3987 Z-20.0000 F5000
G1 X390.9985 Y1173.3967 Z-20.0000 F5000
G1 X385.9986 Y1173.3967 Z-20.0000 F5000
G1 X385.9961 Y1065.3990 Z-20.0000 F5000
G1 X390.9962 Y1065.3990 Z-20.0000 F5000
G1 X390.9962 Y1063.3970 Z-20.0000 F5000
G1 X367.9986 Y1063.3970 Z-20.0000 F5000
G1 X367.9986 Y945.3991 Z-20.0000 F5000
G1 X372.9986 Y945.3991 Z-20.0000 F5000
G1 X372.9986 Y943.3971 Z-20.0000 F5000
G1 X355.3411 Y943.3971 Z-20.0000 F5000
G1 X349.9986 Y938.0546 Z-20.0000 F5000
G1 X349.9986 Y880.7418 Z-20.0000 F5000
G1 X355.3411 Y875.3993 Z-20.0000 F5000
G1 X372.9986 Y875.3993 Z-20.0000 F5000
G1 X372.9986 Y873.3973 Z-20.0000 F5000
G1 X367.9986 Y873.3973 Z-20.0000 F5000
G1 X367.9986 Y645.3997 Z-20.0000 F5000
G1 X372.9986 Y645.3997 Z-20.0000 F5000
G1 X372.9986 Y643.3977 Z-20.0000 F5000
G1 X355.3411 Y643.3977 Z-20.0000 F5000
G1 X349.9986 Y638.0552 Z-20.0000 F5000
G1 X349.9986 Y614.3997 Z-20.0000 F5000
G1 X396.9965 Y614.3997 Z-20.0000 F5000
G1 X396.9965 Y619.3998 Z-20.0000 F5000
G1 X398.9985 Y619.3998 Z-20.0000 F5000
G1 X398.9985 Y599.3978 Z-20.0000 F5000
G1 X396.9965 Y599.3978 Z-20.0000 F5000
G1 X396.9965 Y604.3979 Z-20.0000 F5000
G1 X349.9986 Y604.3979 Z-20.0000 F5000
G1 X349.9986 Y580.7425 Z-20.0000 F5000
G1 X355.3411 Y575.3999 Z-20.0000 F5000
G1 X372.9986 Y575.3999 Z-20.0000 F5000
G1 X372.9986 Y573.3979 Z-20.0000 F5000
G1 X367.9986 Y573.3979 Z-20.0000 F5000
G1 X367.9986 Y459.3991 Z-20.0000 F5000
G1 X367.9986 Y459.3991 Z10.0000 F9999
G1 X712.0962 Y459.3990 Z10.0000 F9999
G1 X712.0962 Y459.3990 Z1.0000 F2500
G1 X712.0962 Y420.4278 Z-9.5000 F2500
G1 X712.0962 Y459.3990 Z-20.0000 F2500
G1 X712.0962 Y345.4002 Z-20.0000 F5000
G1 X717.0962 Y345.4002 Z-20.0000 F5000
G1 X717.0962 Y343.3983 Z-20.0000 F5000
G1 X699.4388 Y343.3983 Z-20.0000 F5000
G1 X694.0963 Y338.0557 Z-20.0000 F5000
G1 X694.0963 Y314.4003 Z-20.0000 F5000
G1 X741.0942 Y314.4003 Z-20.0000 F5000
G1 X741.0942 Y319.4003 Z-20.0000 F5000
G1 X743.0962 Y319.4003 Z-20.0000 F5000
G1 X743.0962 Y299.3983 Z-20.0000 F5000
G1 X741.0942 Y299.3983 Z-20.0000 F5000
G1 X741.0942 Y304.3984 Z-20.0000 F5000
G1 X694.0963 Y304.3984 Z-20.0000 F5000
G1 X694.0963 Y280.7430 Z-20.0000 F5000
G1 X699.4388 Y275.4004 Z-20.0000 F5000
G1 X717.0962 Y275.4004 Z-20.0000 F5000
G1 X717.0962 Y273.3984 Z-20.0000 F5000
G1 X712.0962 Y273.3984 Z-20.0000 F5000
G1 X712.0962 Y45.4008 Z-20.0000 F5000
G1 X717.0962 Y45.4008 Z-20.0000 F5000
G1 X717.0962 Y43.3988 Z-20.0000 F5000
G1 X699.4388 Y43.3988 Z-20.0000 F5000
G1 X694.0963 Y38.0563 Z-20.0000 F5000
G1 X694.0963 Y5.9010 Z-20.0000 F5000
G1 X756.3122 Y5.9010 Z-20.0000 F5000
G1 X758.4629 Y6.2126 Z-20.0000 F5000
G1 X760.7714 Y7.2952 Z-20.0000 F5000
G1 X762.6546 Y9.0136 Z-20.0000 F5000
G1 X763.9147 Y11.1313 Z-20.0000 F5000
G1 X764.5214 Y13.5201 Z-20.0000 F5000
G1 X764.4046 Y16.0668 Z-20.0000 F5000
G1 X763.5379 Y18.4643 Z-20.0000 F5000
G1 X762.2378 Y20.2055 Z-20.0000 F5000
G1 X759.3087 Y23.1347 Z-20.0000 F5000
G1 X758.8918 Y23.6930 Z-20.0000 F5000
G1 X758.7555 Y24.0362 Z-20.0000 F5000
G1 X758.7098 Y24.4120 Z-20.0000 F5000
G1 X758.7615 Y24.7839 Z-20.0000 F5000
G1 X758.9014 Y25.1215 Z-20.0000 F5000
G1 X759.1277 Y25.4210 Z-20.0000 F5000
G1 X759.4258 Y25.6545 Z-20.0000 F5000
G1 X759.7648 Y25.8008 Z-20.0000 F5000
G1 X760.4544 Y25.9007 Z-20.0000 F5000
G1 X785.7358 Y25.9007 Z-20.0000 F5000
G1 X786.4254 Y25.8008 Z-20.0000 F5000
G1 X786.7644 Y25.6545 Z-20.0000 F5000
G1 X787.0624 Y25.4210 Z-20.0000 F5000
G1 X787.2888 Y25.1215 Z-20.0000 F5000
G1 X787.4287 Y24.7839 Z-20.0000 F5000
G1 X787.4804 Y24.4120 Z-20.0000 F5000
G1 X787.4347 Y24.0362 Z-20.0000 F5000
G1 X787.2984 Y23.6930 Z-20.0000 F5000
G1 X786.8815 Y23.1347 Z-20.0000 F5000
G1 X783.9524 Y20.2055 Z-20.0000 F5000
G1 X782.6523 Y18.4643 Z-20.0000 F5000
G1 X781.7856 Y16.0668 Z-20.0000 F5000
G1 X781.6688 Y13.5201 Z-20.0000 F5000
G1 X782.2755 Y11.1313 Z-20.0000 F5000
G1 X783.5356 Y9.0136 Z-20.0000 F5000
G1 X785.4188 Y7.2952 Z-20.0000 F5000
G1 X787.7273 Y6.2126 Z-20.0000 F5000
G1 X789.8779 Y5.9010 Z-20.0000 F5000
G1 X852.0939 Y5.9010 Z-20.0000 F5000
G1 X852.0939 Y38.0563 Z-20.0000 F5000
G1 X846.7514 Y43.3988 Z-20.0000 F5000
G1 X829.0940 Y43.3988 Z-20.0000 F5000
G1 X829.0940 Y45.4008 Z-20.0000 F5000
G1 X834.0940 Y45.4008 Z-20.0000 F5000
G1 X834.0940 Y273.3984 Z-20.0000 F5000
G1 X829.0940 Y273.3984 Z-20.0000 F5000
G1 X829.0940 Y275.4004 Z-20.0000 F5000
G1 X846.7514 Y275.4004 Z-20.0000 F5000
G1 X852.0939 Y280.7430 Z-20.0000 F5000
G1 X852.0939 Y304.3984 Z-20.0000 F5000
G1 X805.0960 Y304.3984 Z-20.0000 F5000
G1 X805.0960 Y299.3983 Z-20.0000 F5000
G1 X803.0940 Y299.3983 Z-20.0000 F5000
G1 X803.0940 Y319.4003 Z-20.0000 F5000
G1 X805.0960 Y319.4003 Z-20.0000 F5000
G1 X805.0960 Y314.4003 Z-20.0000 F5000
G1 X852.0939 Y314.4003 Z-20.0000 F5000
G1 X852.0939 Y338.0557 Z-20.0000 F5000
G1 X846.7514 Y343.3983 Z-20.0000 F5000
G1 X829.0940 Y343.3983 Z-20.0000 F5000
G1 X829.0940 Y345.4002 Z-20.0000 F5000
G1 X834.0940 Y345.4002 Z-20.0000 F5000
G1 X834.0940 Y573.3978 Z-20.0000 F5000
G1 X829.0940 Y573.3978 Z-20.0000 F5000
G1 X829.0940 Y575.3998 Z-20.0000 F5000
G1 X846.7514 Y575.3998 Z-20.0000 F5000
G1 X852.0939 Y580.7424 Z-20.0000 F5000
G1 X852.0939 Y638.0551 Z-20.0000 F5000
G1 X846.7514 Y643.3977 Z-20.0000 F5000
G1 X829.0940 Y643.3977 Z-20.0000 F5000
G1 X829.0940 Y645.3997 Z-20.0000 F5000
G1 X834.0940 Y645.3997 Z-20.0000 F5000
G1 X834.0940 Y763.3975 Z-20.0000 F5000
G1 X811.0940 Y763.3975 Z-20.0000 F5000
G1 X811.0940 Y765.3995 Z-20.0000 F5000
G1 X816.0940 Y765.3995 Z-20.0000 F5000
G1 X816.0940 Y873.3972 Z-20.0000 F5000
G1 X811.0940 Y873.3972 Z-20.0000 F5000
G1 X811.0940 Y875.3992 Z-20.0000 F5000
G1 X846.7514 Y875.3992 Z-20.0000 F5000
G1 X852.0939 Y880.7418 Z-20.0000 F5000
G1 X852.0939 Y938.0545 Z-20.0000 F5000
G1 X846.7514 Y943.3970 Z-20.0000 F5000
G1 X811.0940 Y943.3970 Z-20.0000 F5000
G1 X811.0940 Y945.3990 Z-20.0000 F5000
G1 X816.0940 Y945.3990 Z-20.0000 F5000
G1 X816.0940 Y1173.3966 Z-20.0000 F5000
G1 X811.0940 Y1173.3966 Z-20.0000 F5000
G1 X811.0940 Y1175.3986 Z-20.0000 F5000
G1 X846.7514 Y1175.3986 Z-20.0000 F5000
G1 X852.0939 Y1180.7411 Z-20.0000 F5000
G1 X852.0939 Y1238.0540 Z-20.0000 F5000
G1 X846.7514 Y1243.3966 Z-20.0000 F5000
G1 X811.0940 Y1243.3966 Z-20.0000 F5000
G1 X811.0940 Y1245.3984 Z-20.0000 F5000
G1 X816.0940 Y1245.3984 Z-20.0000 F5000
G1 X816.0940 Y1361.3963 Z-20.0000 F5000
G1 X730.0962 Y1361.3963 Z-20.0000 F5000
G1 X730.0962 Y1245.3984 Z-20.0000 F5000
G1 X735.0962 Y1245.3984 Z-20.0000 F5000
G1 X735.0962 Y1243.3966 Z-20.0000 F5000
G1 X699.4388 Y1243.3966 Z-20.0000 F5000
G1 X694.0963 Y1238.0540 Z-20.0000 F5000
G1 X694.0963 Y1180.7411 Z-20.0000 F5000
G1 X699.4388 Y1175.3986 Z-20.0000 F5000
G1 X735.0962 Y1175.3986 Z-20.0000 F5000
G1 X735.0962 Y1173.3966 Z-20.0000 F5000
G1 X730.0962 Y1173.3966 Z-20.0000 F5000
G1 X730.0962 Y945.3990 Z-20.0000 F5000
G1 X735.0962 Y945.3990 Z-20.0000 F5000
G1 X735.0962 Y943.3970 Z-20.0000 F5000
G1 X699.4388 Y943.3970 Z-20.0000 F5000
G1 X694.0963 Y938.0545 Z-20.0000 F5000
G1 X694.0963 Y880.7418 Z-20.0000 F5000
G1 X699.4388 Y875.3992 Z-20.0000 F5000
G1 X735.0962 Y875.3992 Z-20.0000 F5000
G1 X735.0962 Y873.3972 Z-20.0000 F5000
G1 X730.0962 Y873.3972 Z-20.0000 F5000
G1 X730.0937 Y765.3995 Z-20.0000 F5000
G1 X735.0938 Y765.3995 Z-20.0000 F5000
G1 X735.0938 Y763.3975 Z-20.0000 F5000
G1 X712.0962 Y763.3975 Z-20.0000 F5000
G1 X712.0962 Y645.3997 Z-20.0000 F5000
G1 X717.0962 Y645.3997 Z-20.0000 F5000
G1 X717.0962 Y643.3977 Z-20.0000 F5000
G1 X699.4388 Y643.3977 Z-20.0000 F5000
G1 X694.0963 Y638.0551 Z-20.0000 F5000
G1 X694.0963 Y580.7424 Z-20.0000 F5000
G1 X699.4388 Y575.3998 Z-20.0000 F5000
G1 X717.0962 Y575.3998 Z-20.0000 F5000
G1 X717.0962 Y573.3978 Z-20.0000 F5000
G1 X712.0962 Y573.3978 Z-20.0000 F5000
G1 X712.0962 Y459.3990 Z-20.0000 F5000
G1 X712.0962 Y459.3990 Z10.0000 F9999
G1 X1900.0000 Y2800.0000 Z80.0000 F9999
G1 Z80.0000 F9999
G1 X1900.0000 Y2800.0000 F9999
M5
M30
