(plotsheet 2n3_nested_153 sheets_final v1_0_sheet 154b_S154.0_42 screws_CC8 - HSM MRR 5.5~11mil)
(Material Size) (X=1220.000, Y=2440.000, Z=20.000)
(LinuxCNC_NoArcs_MM_TC_medium_50um_G1_verbose.con)
G90 G80 G21 G49
G64 P0.050
M6 T1
(Tool Number:1) (7.998 mm dia. slot drill)
G43 H1 G0Z80.0000
M3 S9000
G04 P10
G1 X75.0637 Y99.2221 Z10.0000 F9999
G1 X75.0637 Y99.2221 Z2.0000 F9999
G1 X75.0637 Y99.2221 Z-1.5000 F2500
G1 X75.0637 Y99.2221 Z10.0000 F9999
G1 X276.3751 Y62.2502 Z10.0000 F9999
G1 X276.3751 Y62.2502 Z2.0000 F9999
G1 X276.3751 Y62.2502 Z-1.5000 F2500
G1 X276.3751 Y62.2502 Z10.0000 F9999
G1 X374.6114 Y96.3132 Z10.0000 F9999
G1 X374.6114 Y96.3132 Z2.0000 F9999
G1 X374.6114 Y96.3132 Z-1.5000 F2500
G1 X374.6114 Y96.3132 Z10.0000 F9999
G1 X845.1691 Y125.3604 Z10.0000 F9999
G1 X845.1691 Y125.3604 Z2.0000 F9999
G1 X845.1691 Y125.3604 Z-1.5000 F2500
G1 X845.1691 Y125.3604 Z10.0000 F9999
G1 X557.7087 Y145.1061 Z10.0000 F9999
G1 X557.7087 Y145.1061 Z2.0000 F9999
G1 X557.7087 Y145.1061 Z-1.5000 F2500
G1 X557.7087 Y145.1061 Z10.0000 F9999
G1 X193.5794 Y188.3531 Z10.0000 F9999
G1 X193.5794 Y188.3531 Z2.0000 F9999
G1 X193.5794 Y188.3531 Z-1.5000 F2500
G1 X193.5794 Y188.3531 Z10.0000 F9999
G1 X459.7255 Y278.3574 Z10.0000 F9999
G1 X459.7255 Y278.3574 Z2.0000 F9999
G1 X459.7255 Y278.3574 Z-1.5000 F2500
G1 X459.7255 Y278.3574 Z10.0000 F9999
G1 X276.3751 Y642.7595 Z10.0000 F9999
G1 X276.3751 Y642.7595 Z2.0000 F9999
G1 X276.3751 Y642.7595 Z-1.5000 F2500
G1 X276.3751 Y642.7595 Z10.0000 F9999
G1 X78.5149 Y682.4752 Z10.0000 F9999
G1 X78.5149 Y682.4752 Z2.0000 F9999
G1 X78.5149 Y682.4752 Z-1.5000 F2500
G1 X78.5149 Y682.4752 Z10.0000 F9999
G1 X374.6114 Y710.6272 Z10.0000 F9999
G1 X374.6114 Y710.6272 Z2.0000 F9999
G1 X374.6114 Y710.6272 Z-1.5000 F2500
G1 X374.6114 Y710.6272 Z10.0000 F9999
G1 X557.7087 Y759.4201 Z10.0000 F9999
G1 X557.7087 Y759.4201 Z2.0000 F9999
G1 X557.7087 Y759.4201 Z-1.5000 F2500
G1 X557.7087 Y759.4201 Z10.0000 F9999
G1 X276.3751 Y932.6605 Z10.0000 F9999
G1 X276.3751 Y932.6605 Z2.0000 F9999
G1 X276.3751 Y932.6605 Z-1.5000 F2500
G1 X276.3751 Y932.6605 Z10.0000 F9999
G1 X459.7255 Y858.8666 Z10.0000 F9999
G1 X459.7255 Y858.8666 Z2.0000 F9999
G1 X459.7255 Y858.8666 Z-1.5000 F2500
G1 X459.7255 Y858.8666 Z10.0000 F9999
G1 X847.0167 Y881.6356 Z10.0000 F9999
G1 X847.0167 Y881.6356 Z2.0000 F9999
G1 X847.0167 Y881.6356 Z-1.5000 F2500
G1 X847.0167 Y881.6356 Z10.0000 F9999
G1 X1055.7518 Y991.0992 Z10.0000 F9999
G1 X1055.7518 Y991.0992 Z2.0000 F9999
G1 X1055.7518 Y991.0992 Z-1.5000 F2500
G1 X1055.7518 Y991.0992 Z10.0000 F9999
G1 X76.7893 Y991.0467 Z10.0000 F9999
G1 X76.7893 Y991.0467 Z2.0000 F9999
G1 X76.7893 Y991.0467 Z-1.5000 F2500
G1 X76.7893 Y991.0467 Z10.0000 F9999
G1 X193.5794 Y1091.0610 Z10.0000 F9999
G1 X193.5794 Y1091.0610 Z2.0000 F9999
G1 X193.5794 Y1091.0610 Z-1.5000 F2500
G1 X193.5794 Y1091.0610 Z10.0000 F9999
G1 X730.6455 Y1073.4795 Z10.0000 F9999
G1 X730.6455 Y1073.4795 Z2.0000 F9999
G1 X730.6455 Y1073.4795 Z-1.5000 F2500
G1 X730.6455 Y1073.4795 Z10.0000 F9999
G1 X459.7255 Y1148.7676 Z10.0000 F9999
G1 X459.7255 Y1148.7676 Z2.0000 F9999
G1 X459.7255 Y1148.7676 Z-1.5000 F2500
G1 X459.7255 Y1148.7676 Z10.0000 F9999
G1 X643.6616 Y1190.9637 Z10.0000 F9999
G1 X643.6616 Y1190.9637 Z2.0000 F9999
G1 X643.6616 Y1190.9637 Z-1.5000 F2500
G1 X643.6616 Y1190.9637 Z10.0000 F9999
G1 X374.6114 Y1305.9596 Z10.0000 F9999
G1 X374.6114 Y1305.9596 Z2.0000 F9999
G1 X374.6114 Y1305.9596 Z-1.5000 F2500
G1 X374.6114 Y1305.9596 Z10.0000 F9999
G1 X75.7709 Y1334.7524 Z10.0000 F9999
G1 X75.7709 Y1334.7524 Z2.0000 F9999
G1 X75.7709 Y1334.7524 Z-1.5000 F2500
G1 X75.7709 Y1334.7524 Z10.0000 F9999
G1 X193.5794 Y1388.7512 Z10.0000 F9999
G1 X193.5794 Y1388.7512 Z2.0000 F9999
G1 X193.5794 Y1388.7512 Z-1.5000 F2500
G1 X193.5794 Y1388.7512 Z10.0000 F9999
G1 X557.7087 Y1354.7524 Z10.0000 F9999
G1 X557.7087 Y1354.7524 Z2.0000 F9999
G1 X557.7087 Y1354.7524 Z-1.5000 F2500
G1 X557.7087 Y1354.7524 Z10.0000 F9999
G1 X643.6616 Y1492.7948 Z10.0000 F9999
G1 X643.6616 Y1492.7948 Z2.0000 F9999
G1 X643.6616 Y1492.7948 Z-1.5000 F2500
G1 X643.6616 Y1492.7948 Z10.0000 F9999
G1 X276.3751 Y1527.9928 Z10.0000 F9999
G1 X276.3751 Y1527.9928 Z2.0000 F9999
G1 X276.3751 Y1527.9928 Z-1.5000 F2500
G1 X276.3751 Y1527.9928 Z10.0000 F9999
G1 X842.5140 Y1543.1354 Z10.0000 F9999
G1 X842.5140 Y1543.1354 Z2.0000 F9999
G1 X842.5140 Y1543.1354 Z-1.5000 F2500
G1 X842.5140 Y1543.1354 Z10.0000 F9999
G1 X557.7087 Y1644.6534 Z10.0000 F9999
G1 X557.7087 Y1644.6534 Z2.0000 F9999
G1 X557.7087 Y1644.6534 Z-1.5000 F2500
G1 X557.7087 Y1644.6534 Z10.0000 F9999
G1 X374.6114 Y1595.8606 Z10.0000 F9999
G1 X374.6114 Y1595.8606 Z2.0000 F9999
G1 X374.6114 Y1595.8606 Z-1.5000 F2500
G1 X374.6114 Y1595.8606 Z10.0000 F9999
G1 X76.7893 Y1648.8119 Z10.0000 F9999
G1 X76.7893 Y1648.8119 Z2.0000 F9999
G1 X76.7893 Y1648.8119 Z-1.5000 F2500
G1 X76.7893 Y1648.8119 Z10.0000 F9999
G1 X459.7255 Y1744.1000 Z10.0000 F9999
G1 X459.7255 Y1744.1000 Z2.0000 F9999
G1 X459.7255 Y1744.1000 Z-1.5000 F2500
G1 X459.7255 Y1744.1000 Z10.0000 F9999
G1 X730.6455 Y1953.5360 Z10.0000 F9999
G1 X730.6455 Y1953.5360 Z2.0000 F9999
G1 X730.6455 Y1953.5360 Z-1.5000 F2500
G1 X730.6455 Y1953.5360 Z10.0000 F9999
G1 X990.6954 Y2097.5300 Z10.0000 F9999
G1 X990.6954 Y2097.5300 Z2.0000 F9999
G1 X990.6954 Y2097.5300 Z-1.5000 F2500
G1 X990.6954 Y2097.5300 Z10.0000 F9999
G1 X276.3751 Y2142.3069 Z10.0000 F9999
G1 X276.3751 Y2142.3069 Z2.0000 F9999
G1 X276.3751 Y2142.3069 Z-1.5000 F2500
G1 X276.3751 Y2142.3069 Z10.0000 F9999
G1 X374.6114 Y2176.3696 Z10.0000 F9999
G1 X374.6114 Y2176.3696 Z2.0000 F9999
G1 X374.6114 Y2176.3696 Z-1.5000 F2500
G1 X374.6114 Y2176.3696 Z10.0000 F9999
G1 X557.7087 Y2225.1626 Z10.0000 F9999
G1 X557.7087 Y2225.1626 Z2.0000 F9999
G1 X557.7087 Y2225.1626 Z-1.5000 F2500
G1 X557.7087 Y2225.1626 Z10.0000 F9999
G1 X730.6455 Y2255.3672 Z10.0000 F9999
G1 X730.6455 Y2255.3672 Z2.0000 F9999
G1 X730.6455 Y2255.3672 Z-1.5000 F2500
G1 X730.6455 Y2255.3672 Z10.0000 F9999
G1 X193.5794 Y2270.1353 Z10.0000 F9999
G1 X193.5794 Y2270.1353 Z2.0000 F9999
G1 X193.5794 Y2270.1353 Z-1.5000 F2500
G1 X193.5794 Y2270.1353 Z10.0000 F9999
G1 X77.5282 Y2256.9744 Z10.0000 F9999
G1 X77.5282 Y2256.9744 Z2.0000 F9999
G1 X77.5282 Y2256.9744 Z-1.5000 F2500
G1 X77.5282 Y2256.9744 Z10.0000 F9999
G1 X459.7255 Y2358.4141 Z10.0000 F9999
G1 X459.7255 Y2358.4141 Z2.0000 F9999
G1 X459.7255 Y2358.4141 Z-1.5000 F2500
G1 X459.7255 Y2358.4141 Z10.0000 F9999
G1 X643.6616 Y2372.8513 Z10.0000 F9999
G1 X643.6616 Y2372.8513 Z2.0000 F9999
G1 X643.6616 Y2372.8513 Z-1.5000 F2500
G1 X643.6616 Y2372.8513 Z10.0000 F9999
G1 X1013.8088 Y2324.2080 Z10.0000 F9999
G1 X1013.8088 Y2324.2080 Z2.0000 F9999
G1 X1013.8088 Y2324.2080 Z-1.5000 F2500
G1 X1013.8088 Y2324.2080 Z10.0000 F9999
G1 X1900.0000 Y2800.0000 Z80.0000 F9999
G1 Z80.0000 F9999
G1 X1900.0000 Y2800.0000 F9999
M5
M30
