(plotsheet 2n3_nested_153 sheets_final v1_0_sheet 133 to 136a_S133.0_8 screws_CC8 - stepover 1mm)
(Material Size) (X=1220.000, Y=2440.000, Z=21.000)
(LinuxCNC_NoArcs_MM_TC_medium_50um_G1_verbose.con)
G90 G80 G21 G49
G64 P0.050
M6 T1
(Tool Number:1) (7.998 mm dia. slot drill)
G43 H1 G0Z80.0000
M3 S9000
G04 P10
G1 X96.6337 Y145.1061 Z10.0000 F9999
G1 X96.6337 Y145.1061 Z2.0000 F9999
G1 X96.6337 Y145.1061 Z-1.0000 F2500
G1 X96.6337 Y145.1061 Z10.0000 F9999
G1 X788.5997 Y219.3069 Z10.0000 F9999
G1 X788.5997 Y219.3069 Z2.0000 F9999
G1 X788.5997 Y219.3069 Z-1.0000 F2500
G1 X788.5997 Y219.3069 Z10.0000 F9999
G1 X1129.2504 Y78.5149 Z10.0000 F9999
G1 X1129.2504 Y78.5149 Z2.0000 F9999
G1 X1129.2504 Y78.5149 Z-1.0000 F2500
G1 X1129.2504 Y78.5149 Z10.0000 F9999
G1 X1131.9944 Y999.2786 Z10.0000 F9999
G1 X1131.9944 Y999.2786 Z2.0000 F9999
G1 X1131.9944 Y999.2786 Z-1.0000 F2500
G1 X1131.9944 Y999.2786 Z10.0000 F9999
G1 X782.4045 Y1452.0934 Z10.0000 F9999
G1 X782.4045 Y1452.0934 Z2.0000 F9999
G1 X782.4045 Y1452.0934 Z-1.0000 F2500
G1 X782.4045 Y1452.0934 Z10.0000 F9999
G1 X267.4682 Y1104.5403 Z10.0000 F9999
G1 X267.4682 Y1104.5403 Z2.0000 F9999
G1 X267.4682 Y1104.5403 Z-1.0000 F2500
G1 X267.4682 Y1104.5403 Z10.0000 F9999
G1 X98.3593 Y1380.6365 Z10.0000 F9999
G1 X98.3593 Y1380.6365 Z2.0000 F9999
G1 X98.3593 Y1380.6365 Z-1.0000 F2500
G1 X98.3593 Y1380.6365 Z10.0000 F9999
G1 X1128.5431 Y2131.2729 Z10.0000 F9999
G1 X1128.5431 Y2131.2729 Z2.0000 F9999
G1 X1128.5431 Y2131.2729 Z-1.0000 F2500
G1 X1128.5431 Y2131.2729 Z10.0000 F9999
G1 X1900.0000 Y2800.0000 Z80.0000 F9999
G1 Z80.0000 F9999
G1 X1900.0000 Y2800.0000 F9999
M5
M30
