(plotsheet 2n3_nested_153 sheets_final v1_0_sheet 36 to 41_S36.0_6 screws_CC8 - stepover 1mm)
(Material Size) (X=1220.000, Y=2440.000, Z=21.000)
(LinuxCNC_NoArcs_MM_TC_medium_50um_G1_verbose.con)
G90 G80 G21 G49
G64 P0.050
M6 T1
(Tool Number:1) (7.998 mm dia. slot drill)
G43 H1 G0Z30.0000
M3 S19000
G04 P10
G1 X254.5262 Y157.1853 Z10.0000 F9999
G1 X254.5262 Y157.1853 Z2.0000 F9999
G1 X254.5262 Y157.1853 Z-2.0000 F2000
G1 X254.5262 Y157.1853 Z10.0000 F9999
G1 X982.7299 Y141.6549 Z10.0000 F9999
G1 X982.7299 Y141.6549 Z2.0000 F9999
G1 X982.7299 Y141.6549 Z-2.0000 F2000
G1 X982.7299 Y141.6549 Z10.0000 F9999
G1 X803.2673 Y1941.1456 Z10.0000 F9999
G1 X803.2673 Y1941.1456 Z2.0000 F9999
G1 X803.2673 Y1941.1456 Z-2.0000 F2000
G1 X803.2673 Y1941.1456 Z10.0000 F9999
G1 X858.8530 Y2273.8904 Z10.0000 F9999
G1 X858.8530 Y2273.8904 Z2.0000 F9999
G1 X858.8530 Y2273.8904 Z-2.0000 F2000
G1 X858.8530 Y2273.8904 Z10.0000 F9999
G1 X205.1909 Y2271.7539 Z10.0000 F9999
G1 X205.1909 Y2271.7539 Z2.0000 F9999
G1 X205.1909 Y2271.7539 Z-2.0000 F2000
G1 X205.1909 Y2271.7539 Z10.0000 F9999
G1 X199.3069 Y1936.2800 Z10.0000 F9999
G1 X199.3069 Y1936.2800 Z2.0000 F9999
G1 X199.3069 Y1936.2800 Z-2.0000 F2000
G1 X199.3069 Y1936.2800 Z10.0000 F9999
G1 X1900.0000 Y2800.0000 Z80.0000 F9999
G1 Z80.0000 F9999
G1 X1900.0000 Y2800.0000 F9999
M5
M30
