(plotsheet 2n3_nested_153 sheets_final v1_0_sheet 113a_S113.0_8 screws_CC8 - stepover 1mm)
(Material Size) (X=1220.000, Y=2440.000, Z=21.000)
(LinuxCNC_NoArcs_MM_TC_medium_50um_G1_verbose.con)
G90 G80 G21 G49
G64 P0.050
M6 T1
(Tool Number:1) (7.998 mm dia. slot drill)
G43 H1 G0Z80.0000
M3 S9000
G04 P10
G1 X178.5997 Y149.8515 Z10.0000 F9999
G1 X178.5997 Y149.8515 Z2.0000 F9999
G1 X178.5997 Y149.8515 Z-1.0000 F2500
G1 X178.5997 Y149.8515 Z10.0000 F9999
G1 X340.8062 Y548.4653 Z10.0000 F9999
G1 X340.8062 Y548.4653 Z2.0000 F9999
G1 X340.8062 Y548.4653 Z-1.0000 F2500
G1 X340.8062 Y548.4653 Z10.0000 F9999
G1 X825.7001 Y232.6803 Z10.0000 F9999
G1 X825.7001 Y232.6803 Z2.0000 F9999
G1 X825.7001 Y232.6803 Z-1.0000 F2500
G1 X825.7001 Y232.6803 Z10.0000 F9999
G1 X920.6082 Y1193.8402 Z10.0000 F9999
G1 X920.6082 Y1193.8402 Z2.0000 F9999
G1 X920.6082 Y1193.8402 Z-1.0000 F2500
G1 X920.6082 Y1193.8402 Z10.0000 F9999
G1 X547.8784 Y1504.4484 Z10.0000 F9999
G1 X547.8784 Y1504.4484 Z2.0000 F9999
G1 X547.8784 Y1504.4484 Z-1.0000 F2500
G1 X547.8784 Y1504.4484 Z10.0000 F9999
G1 X61.2588 Y1504.4484 Z10.0000 F9999
G1 X61.2588 Y1504.4484 Z2.0000 F9999
G1 X61.2588 Y1504.4484 Z-1.0000 F2500
G1 X61.2588 Y1504.4484 Z10.0000 F9999
G1 X754.9505 Y2165.3535 Z10.0000 F9999
G1 X754.9505 Y2165.3535 Z2.0000 F9999
G1 X754.9505 Y2165.3535 Z-1.0000 F2500
G1 X754.9505 Y2165.3535 Z10.0000 F9999
G1 X1052.4611 Y1801.2517 Z10.0000 F9999
G1 X1052.4611 Y1801.2517 Z2.0000 F9999
G1 X1052.4611 Y1801.2517 Z-1.0000 F2500
G1 X1052.4611 Y1801.2517 Z10.0000 F9999
G1 X1900.0000 Y2800.0000 Z80.0000 F9999
G1 Z80.0000 F9999
G1 X1900.0000 Y2800.0000 F9999
M5
M30
