(plotsheet 2n3_nested_153 sheets_final v1_0_sheet 81 to 85_S81.0_9 screws_CC8 - stepover 1mm)
(Material Size) (X=1220.000, Y=2440.000, Z=21.000)
(LinuxCNC_NoArcs_MM_TC_medium_50um_G1_verbose.con)
G90 G80 G21 G49
G64 P0.050
M6 T1
(Tool Number:1) (7.998 mm dia. slot drill)
G43 H1 G0Z80.0000
M3 S24000
G04 P10
G1 X153.5785 Y588.5856 Z10.0000 F9999
G1 X153.5785 Y588.5856 Z2.0000 F9999
G1 X153.5785 Y588.5856 Z-1.0000 F2000
G1 X153.5785 Y588.5856 Z10.0000 F9999
G1 X610.8628 Y728.3593 Z10.0000 F9999
G1 X610.8628 Y728.3593 Z2.0000 F9999
G1 X610.8628 Y728.3593 Z-1.0000 F2000
G1 X610.8628 Y728.3593 Z10.0000 F9999
G1 X872.7228 Y155.8911 Z10.0000 F9999
G1 X872.7228 Y155.8911 Z2.0000 F9999
G1 X872.7228 Y155.8911 Z-1.0000 F2000
G1 X872.7228 Y155.8911 Z10.0000 F9999
G1 X733.3805 Y1515.2334 Z10.0000 F9999
G1 X733.3805 Y1515.2334 Z2.0000 F9999
G1 X733.3805 Y1515.2334 Z-1.0000 F2000
G1 X733.3805 Y1515.2334 Z10.0000 F9999
G1 X1021.5558 Y1561.8246 Z10.0000 F9999
G1 X1021.5558 Y1561.8246 Z2.0000 F9999
G1 X1021.5558 Y1561.8246 Z-1.0000 F2000
G1 X1021.5558 Y1561.8246 Z10.0000 F9999
G1 X402.0651 Y1472.0934 Z10.0000 F9999
G1 X402.0651 Y1472.0934 Z2.0000 F9999
G1 X402.0651 Y1472.0934 Z-1.0000 F2000
G1 X402.0651 Y1472.0934 Z10.0000 F9999
G1 X151.4215 Y1715.8345 Z10.0000 F9999
G1 X151.4215 Y1715.8345 Z2.0000 F9999
G1 X151.4215 Y1715.8345 Z-1.0000 F2000
G1 X151.4215 Y1715.8345 Z10.0000 F9999
G1 X186.1462 Y2235.0032 Z10.0000 F9999
G1 X186.1462 Y2235.0032 Z2.0000 F9999
G1 X186.1462 Y2235.0032 Z-1.0000 F2000
G1 X186.1462 Y2235.0032 Z10.0000 F9999
G1 X778.2461 Y2226.1812 Z10.0000 F9999
G1 X778.2461 Y2226.1812 Z2.0000 F9999
G1 X778.2461 Y2226.1812 Z-1.0000 F2000
G1 X778.2461 Y2226.1812 Z10.0000 F9999
G1 X1900.0000 Y2800.0000 Z80.0000 F9999
G1 Z80.0000 F9999
G1 X1900.0000 Y2800.0000 F9999
M5
M30
