(plotsheet 2n3_nested_153 sheets_final v1_0_sheet 32 to 35_S32.1_text_CC8 - stepover 1mm)
(Material Size) (X=1220.000, Y=2440.000, Z=21.000)
(LinuxCNC_NoArcs_MM_TC_medium_50um_G1_verbose.con)
G90 G80 G21 G49
G64 P0.050
M6 T1
(Tool Number:1) (7.998 mm dia. slot drill)
G43 H1 G0Z30.0000
M3 S19000
G04 P10
G1 X608.8988 Y1043.5595 Z10.0000 F9999
G1 X608.8988 Y1043.5595 Z-1.5000 F2000
G1 X631.1007 Y1076.9540 Z-1.5000 F4000
G1 X602.2933 Y1076.9540 Z-1.5000 F4000
G1 X631.1007 Y1076.9540 Z-1.5000 F4000
G1 X608.8988 Y1043.5595 Z-1.5000 F4000
G1 X608.8988 Y1084.6604 Z-1.5000 F4000
G1 X608.8988 Y1084.6604 Z10.0000 F9999
G1 X591.1741 Y1079.1375 Z10.0000 F9999
G1 X591.1741 Y1079.1375 Z-1.5000 F2000
G1 X589.9264 Y1080.4036 Z-1.5000 F4000
G1 X587.5961 Y1082.2201 Z-1.5000 F4000
G1 X584.1282 Y1083.8714 Z-1.5000 F4000
G1 X579.3943 Y1084.6604 Z-1.5000 F4000
G1 X574.2383 Y1083.4678 Z-1.5000 F4000
G1 X569.8713 Y1080.1467 Z-1.5000 F4000
G1 X566.8254 Y1075.2292 Z-1.5000 F4000
G1 X565.6878 Y1069.2843 Z-1.5000 F4000
G1 X567.0273 Y1063.7430 Z-1.5000 F4000
G1 X570.2750 Y1059.7063 Z-1.5000 F4000
G1 X574.3300 Y1057.2843 Z-1.5000 F4000
G1 X578.0915 Y1056.4770 Z-1.5000 F4000
G1 X580.2383 Y1056.4770 Z-1.5000 F4000
G1 X582.4952 Y1056.8806 Z-1.5000 F4000
G1 X585.1374 Y1057.7797 Z-1.5000 F4000
G1 X579.5043 Y1042.3852 Z-1.5000 F4000
G1 X565.3025 Y1042.3852 Z-1.5000 F4000
G1 X579.5043 Y1042.3852 Z-1.5000 F4000
G1 X585.1374 Y1057.7797 Z-1.5000 F4000
G1 X582.4952 Y1056.8806 Z-1.5000 F4000
G1 X580.2383 Y1056.4770 Z-1.5000 F4000
G1 X578.0915 Y1056.4770 Z-1.5000 F4000
G1 X574.3300 Y1057.2843 Z-1.5000 F4000
G1 X570.2750 Y1059.7063 Z-1.5000 F4000
G1 X567.0273 Y1063.7430 Z-1.5000 F4000
G1 X565.6878 Y1069.2843 Z-1.5000 F4000
G1 X566.8254 Y1075.2292 Z-1.5000 F4000
G1 X569.8713 Y1080.1467 Z-1.5000 F4000
G1 X574.2383 Y1083.4678 Z-1.5000 F4000
G1 X579.3943 Y1084.6604 Z-1.5000 F4000
G1 X584.1282 Y1083.8714 Z-1.5000 F4000
G1 X587.5961 Y1082.2201 Z-1.5000 F4000
G1 X589.9264 Y1080.4036 Z-1.5000 F4000
G1 X589.9264 Y1080.4036 Z10.0000 F9999
G1 X641.8713 Y1084.6604 Z10.0000 F9999
G1 X641.8713 Y1084.6604 Z-1.5000 F2000
G1 X654.4952 Y1084.6604 Z-1.5000 F4000
G1 X654.4952 Y1043.5595 Z-1.5000 F4000
G1 X654.4952 Y1084.6604 Z-1.5000 F4000
G1 X654.4952 Y1084.6604 Z10.0000 F9999
G1 X498.3488 Y2261.6816 Z10.0000 F9999
G1 X498.3488 Y2261.6816 Z-1.5000 F2000
G1 X514.2938 Y2302.7825 Z-1.5000 F4000
G1 X530.2571 Y2261.6816 Z-1.5000 F4000
G1 X543.3213 Y2302.7825 Z-1.5000 F4000
G1 X530.2571 Y2261.6816 Z-1.5000 F4000
G1 X514.2938 Y2302.7825 Z-1.5000 F4000
G1 X498.3488 Y2261.6816 Z-1.5000 F4000
G1 X485.2662 Y2302.7825 Z-1.5000 F4000
G1 X485.2662 Y2302.7825 Z10.0000 F9999
G1 X577.9268 Y2302.7825 Z10.0000 F9999
G1 X577.9268 Y2302.7825 Z-1.5000 F2000
G1 X555.7250 Y2269.3880 Z-1.5000 F4000
G1 X584.5323 Y2269.3880 Z-1.5000 F4000
G1 X555.7250 Y2269.3880 Z-1.5000 F4000
G1 X577.9268 Y2302.7825 Z-1.5000 F4000
G1 X577.9268 Y2261.6816 Z-1.5000 F4000
G1 X577.9268 Y2261.6816 Z10.0000 F9999
G1 X1096.5949 Y2240.5021 Z10.0000 F9999
G1 X1096.5949 Y2240.5021 Z-1.5000 F2000
G1 X1121.6407 Y2223.8507 Z-1.5000 F4000
G1 X1121.6407 Y2245.4562 Z-1.5000 F4000
G1 X1121.6407 Y2223.8507 Z-1.5000 F4000
G1 X1096.5949 Y2240.5021 Z-1.5000 F4000
G1 X1127.4206 Y2240.5021 Z-1.5000 F4000
G1 X1127.4206 Y2240.5021 Z10.0000 F9999
G1 X1121.1470 Y2264.4138 Z10.0000 F9999
G1 X1121.1470 Y2264.4138 Z-1.5000 F2000
G1 X1123.1562 Y2264.9780 Z-1.5000 F4000
G1 X1125.0828 Y2266.2716 Z-1.5000 F4000
G1 X1126.5415 Y2268.4872 Z-1.5000 F4000
G1 X1127.1057 Y2271.9000 Z-1.5000 F4000
G1 X1125.1378 Y2278.2854 Z-1.5000 F4000
G1 X1119.1516 Y2280.6110 Z-1.5000 F4000
G1 X1115.6011 Y2279.9505 Z-1.5000 F4000
G1 X1113.0828 Y2278.2166 Z-1.5000 F4000
G1 X1111.5828 Y2275.8083 Z-1.5000 F4000
G1 X1111.0736 Y2273.1248 Z-1.5000 F4000
G1 X1110.5231 Y2275.7257 Z-1.5000 F4000
G1 X1108.8580 Y2277.9413 Z-1.5000 F4000
G1 X1106.3259 Y2279.5101 Z-1.5000 F4000
G1 X1103.1745 Y2280.1019 Z-1.5000 F4000
G1 X1102.2800 Y2280.0921 Z-1.5000 F4000
G1 X1101.3874 Y2280.0139 Z-1.5000 F4000
G1 X1100.5048 Y2279.8679 Z-1.5000 F4000
G1 X1098.9910 Y2279.2762 Z-1.5000 F4000
G1 X1097.6149 Y2278.1340 Z-1.5000 F4000
G1 X1096.6378 Y2276.2211 Z-1.5000 F4000
G1 X1096.2800 Y2273.4138 Z-1.5000 F4000
G1 X1096.8993 Y2269.3817 Z-1.5000 F4000
G1 X1098.4131 Y2267.0560 Z-1.5000 F4000
G1 X1100.4085 Y2265.9138 Z-1.5000 F4000
G1 X1102.4589 Y2265.4734 Z-1.5000 F4000
G1 X1100.4085 Y2265.9138 Z-1.5000 F4000
G1 X1098.4131 Y2267.0560 Z-1.5000 F4000
G1 X1096.8993 Y2269.3817 Z-1.5000 F4000
G1 X1096.2800 Y2273.4138 Z-1.5000 F4000
G1 X1096.6378 Y2276.2211 Z-1.5000 F4000
G1 X1097.6149 Y2278.1340 Z-1.5000 F4000
G1 X1098.9910 Y2279.2762 Z-1.5000 F4000
G1 X1100.5048 Y2279.8679 Z-1.5000 F4000
G1 X1101.3872 Y2280.0158 Z-1.5000 F4000
G1 X1102.2799 Y2280.0940 Z-1.5000 F4000
G1 X1103.1745 Y2280.1019 Z-1.5000 F4000
G1 X1106.3259 Y2279.5101 Z-1.5000 F4000
G1 X1108.8580 Y2277.9413 Z-1.5000 F4000
G1 X1110.5231 Y2275.7257 Z-1.5000 F4000
G1 X1111.0736 Y2273.1248 Z-1.5000 F4000
G1 X1111.5828 Y2275.8083 Z-1.5000 F4000
G1 X1113.0828 Y2278.2166 Z-1.5000 F4000
G1 X1115.6011 Y2279.9505 Z-1.5000 F4000
G1 X1119.1516 Y2280.6110 Z-1.5000 F4000
G1 X1125.1378 Y2278.2854 Z-1.5000 F4000
G1 X1127.1057 Y2271.9000 Z-1.5000 F4000
G1 X1126.5415 Y2268.4872 Z-1.5000 F4000
G1 X1125.0828 Y2266.2716 Z-1.5000 F4000
G1 X1123.1562 Y2264.9780 Z-1.5000 F4000
G1 X1123.1562 Y2264.9780 Z10.0000 F9999
G1 X1126.0704 Y2204.0011 Z10.0000 F9999
G1 X1126.0704 Y2204.0011 Z-1.5000 F2000
G1 X1126.0704 Y2194.5332 Z-1.5000 F4000
G1 X1095.2447 Y2194.5332 Z-1.5000 F4000
G1 X1126.0704 Y2194.5332 Z-1.5000 F4000
G1 X1126.0704 Y2194.5332 Z10.0000 F9999
(Tool Number:1) (7.998 mm dia. slot drill)
M3 S19000
G1 X52.8990 Y134.8997 Z10.0000 F9999
G1 X52.8990 Y134.8997 Z1.0000 F2000
G1 X52.8990 Y173.8709 Z-10.0000 F2000
G1 X52.8990 Y134.8997 Z-21.0000 F2000
G1 X52.8990 Y218.8986 Z-21.0000 F2750
G1 X47.8991 Y218.8986 Z-21.0000 F2750
G1 X47.8991 Y220.9006 Z-21.0000 F2750
G1 X85.9010 Y220.9006 Z-21.0000 F2750
G1 X85.9010 Y218.8986 Z-21.0000 F2750
G1 X80.9010 Y218.8986 Z-21.0000 F2750
G1 X80.9010 Y139.9007 Z-21.0000 F2750
G1 X108.8989 Y139.9007 Z-21.0000 F2750
G1 X108.8989 Y144.9007 Z-21.0000 F2750
G1 X110.9009 Y144.9007 Z-21.0000 F2750
G1 X110.9009 Y124.8988 Z-21.0000 F2750
G1 X108.8989 Y124.8988 Z-21.0000 F2750
G1 X108.8989 Y129.8988 Z-21.0000 F2750
G1 X80.9010 Y129.8988 Z-21.0000 F2750
G1 X80.9010 Y50.9009 Z-21.0000 F2750
G1 X85.9010 Y50.9009 Z-21.0000 F2750
G1 X85.9010 Y48.8989 Z-21.0000 F2750
G1 X47.8991 Y48.8989 Z-21.0000 F2750
G1 X47.8991 Y50.9009 Z-21.0000 F2750
G1 X52.8990 Y50.9009 Z-21.0000 F2750
G1 X52.8990 Y134.8997 Z-21.0000 F2750
G1 X52.8990 Y134.8997 Z10.0000 F9999
G1 X80.9010 Y434.8992 Z10.0000 F9999
G1 X80.9010 Y434.8992 Z1.0000 F2000
G1 X80.9010 Y395.9280 Z-10.0000 F2000
G1 X80.9010 Y434.8992 Z-21.0000 F2000
G1 X80.9010 Y350.9003 Z-21.0000 F2750
G1 X85.9010 Y350.9003 Z-21.0000 F2750
G1 X85.9010 Y348.8983 Z-21.0000 F2750
G1 X47.8991 Y348.8983 Z-21.0000 F2750
G1 X47.8991 Y350.9003 Z-21.0000 F2750
G1 X52.8990 Y350.9003 Z-21.0000 F2750
G1 X52.8990 Y518.8980 Z-21.0000 F2750
G1 X47.8991 Y518.8980 Z-21.0000 F2750
G1 X47.8991 Y520.8999 Z-21.0000 F2750
G1 X85.9010 Y520.8999 Z-21.0000 F2750
G1 X85.9010 Y518.8980 Z-21.0000 F2750
G1 X80.9010 Y518.8980 Z-21.0000 F2750
G1 X80.9010 Y434.8992 Z-21.0000 F2750
G1 X80.9010 Y434.8992 Z10.0000 F9999
G1 X80.9010 Y734.8985 Z10.0000 F9999
G1 X80.9010 Y734.8985 Z1.0000 F2000
G1 X80.9010 Y695.9273 Z-10.0000 F2000
G1 X80.9010 Y734.8985 Z-21.0000 F2000
G1 X80.9010 Y650.8996 Z-21.0000 F2750
G1 X85.9010 Y650.8996 Z-21.0000 F2750
G1 X85.9010 Y648.8977 Z-21.0000 F2750
G1 X47.8991 Y648.8977 Z-21.0000 F2750
G1 X47.8991 Y650.8996 Z-21.0000 F2750
G1 X52.8990 Y650.8996 Z-21.0000 F2750
G1 X52.8990 Y818.8973 Z-21.0000 F2750
G1 X47.8991 Y818.8973 Z-21.0000 F2750
G1 X47.8991 Y820.8993 Z-21.0000 F2750
G1 X85.9010 Y820.8993 Z-21.0000 F2750
G1 X85.9010 Y818.8973 Z-21.0000 F2750
G1 X80.9010 Y818.8973 Z-21.0000 F2750
G1 X80.9010 Y734.8985 Z-21.0000 F2750
G1 X80.9010 Y734.8985 Z10.0000 F9999
G1 X80.9010 Y1034.8979 Z10.0000 F9999
G1 X80.9010 Y1034.8979 Z1.0000 F2000
G1 X80.9010 Y995.9267 Z-10.0000 F2000
G1 X80.9010 Y1034.8979 Z-21.0000 F2000
G1 X80.9010 Y950.8990 Z-21.0000 F2750
G1 X85.9010 Y950.8990 Z-21.0000 F2750
G1 X85.9010 Y948.8971 Z-21.0000 F2750
G1 X65.8990 Y948.8971 Z-21.0000 F2750
G1 X65.8990 Y950.8990 Z-21.0000 F2750
G1 X70.8990 Y950.8990 Z-21.0000 F2750
G1 X70.8990 Y1029.8970 Z-21.0000 F2750
G1 X41.9010 Y1029.8970 Z-21.0000 F2750
G1 X41.9010 Y1024.8970 Z-21.0000 F2750
G1 X39.8991 Y1024.8970 Z-21.0000 F2750
G1 X39.8991 Y1044.8990 Z-21.0000 F2750
G1 X41.9010 Y1044.8990 Z-21.0000 F2750
G1 X41.9010 Y1039.8990 Z-21.0000 F2750
G1 X70.8990 Y1039.8990 Z-21.0000 F2750
G1 X70.8990 Y1118.8967 Z-21.0000 F2750
G1 X65.8990 Y1118.8967 Z-21.0000 F2750
G1 X65.8990 Y1120.8987 Z-21.0000 F2750
G1 X85.9010 Y1120.8987 Z-21.0000 F2750
G1 X85.9010 Y1118.8967 Z-21.0000 F2750
G1 X80.9010 Y1118.8967 Z-21.0000 F2750
G1 X80.9010 Y1034.8979 Z-21.0000 F2750
G1 X80.9010 Y1034.8979 Z10.0000 F9999
G1 X70.8990 Y1334.8974 Z10.0000 F9999
G1 X70.8990 Y1334.8974 Z1.0000 F2000
G1 X70.8990 Y1373.8685 Z-10.0000 F2000
G1 X70.8990 Y1334.8974 Z-21.0000 F2000
G1 X70.8990 Y1418.8962 Z-21.0000 F2750
G1 X65.8990 Y1418.8962 Z-21.0000 F2750
G1 X65.8990 Y1420.8982 Z-21.0000 F2750
G1 X85.9010 Y1420.8982 Z-21.0000 F2750
G1 X85.9010 Y1418.8962 Z-21.0000 F2750
G1 X80.9010 Y1418.8962 Z-21.0000 F2750
G1 X80.9010 Y1250.8985 Z-21.0000 F2750
G1 X85.9010 Y1250.8985 Z-21.0000 F2750
G1 X85.9010 Y1248.8965 Z-21.0000 F2750
G1 X65.8990 Y1248.8965 Z-21.0000 F2750
G1 X65.8990 Y1250.8985 Z-21.0000 F2750
G1 X70.8990 Y1250.8985 Z-21.0000 F2750
G1 X70.8990 Y1334.8974 Z-21.0000 F2750
G1 X70.8990 Y1334.8974 Z10.0000 F9999
G1 X80.9010 Y1634.8967 Z10.0000 F9999
G1 X80.9010 Y1634.8967 Z1.0000 F2000
G1 X80.9010 Y1595.9255 Z-10.0000 F2000
G1 X80.9010 Y1634.8967 Z-21.0000 F2000
G1 X80.9010 Y1550.8979 Z-21.0000 F2750
G1 X85.9010 Y1550.8979 Z-21.0000 F2750
G1 X85.9010 Y1548.8960 Z-21.0000 F2750
G1 X65.8990 Y1548.8960 Z-21.0000 F2750
G1 X65.8990 Y1550.8979 Z-21.0000 F2750
G1 X70.8990 Y1550.8979 Z-21.0000 F2750
G1 X70.8990 Y1629.8957 Z-21.0000 F2750
G1 X41.9010 Y1629.8957 Z-21.0000 F2750
G1 X41.9010 Y1624.8957 Z-21.0000 F2750
G1 X39.8991 Y1624.8957 Z-21.0000 F2750
G1 X39.8991 Y1644.8977 Z-21.0000 F2750
G1 X41.9010 Y1644.8977 Z-21.0000 F2750
G1 X41.9010 Y1639.8977 Z-21.0000 F2750
G1 X70.8990 Y1639.8977 Z-21.0000 F2750
G1 X70.8990 Y1718.8955 Z-21.0000 F2750
G1 X65.8990 Y1718.8955 Z-21.0000 F2750
G1 X65.8990 Y1720.8975 Z-21.0000 F2750
G1 X85.9010 Y1720.8975 Z-21.0000 F2750
G1 X85.9010 Y1718.8955 Z-21.0000 F2750
G1 X80.9010 Y1718.8955 Z-21.0000 F2750
G1 X80.9010 Y1634.8967 Z-21.0000 F2750
G1 X80.9010 Y1634.8967 Z10.0000 F9999
G1 X52.8990 Y1934.8961 Z10.0000 F9999
G1 X52.8990 Y1934.8961 Z1.0000 F2000
G1 X52.8990 Y1973.8673 Z-10.0000 F2000
G1 X52.8990 Y1934.8961 Z-21.0000 F2000
G1 X52.8990 Y2018.8949 Z-21.0000 F2750
G1 X47.8991 Y2018.8949 Z-21.0000 F2750
G1 X47.8991 Y2020.8970 Z-21.0000 F2750
G1 X85.9010 Y2020.8970 Z-21.0000 F2750
G1 X85.9010 Y2018.8949 Z-21.0000 F2750
G1 X80.9010 Y2018.8949 Z-21.0000 F2750
G1 X80.9010 Y1850.8974 Z-21.0000 F2750
G1 X85.9010 Y1850.8974 Z-21.0000 F2750
G1 X85.9010 Y1848.8954 Z-21.0000 F2750
G1 X47.8991 Y1848.8954 Z-21.0000 F2750
G1 X47.8991 Y1850.8974 Z-21.0000 F2750
G1 X52.8990 Y1850.8974 Z-21.0000 F2750
G1 X52.8990 Y1934.8961 Z-21.0000 F2750
G1 X52.8990 Y1934.8961 Z10.0000 F9999
G1 X1166.8987 Y1934.8961 Z10.0000 F9999
G1 X1166.8987 Y1934.8961 Z1.0000 F2000
G1 X1166.8987 Y1895.9250 Z-10.0000 F2000
G1 X1166.8987 Y1934.8961 Z-21.0000 F2000
G1 X1166.8987 Y1850.8974 Z-21.0000 F2750
G1 X1171.8987 Y1850.8974 Z-21.0000 F2750
G1 X1171.8987 Y1848.8954 Z-21.0000 F2750
G1 X1133.8969 Y1848.8954 Z-21.0000 F2750
G1 X1133.8969 Y1850.8974 Z-21.0000 F2750
G1 X1138.8968 Y1850.8974 Z-21.0000 F2750
G1 X1138.8968 Y2018.8949 Z-21.0000 F2750
G1 X1133.8969 Y2018.8949 Z-21.0000 F2750
G1 X1133.8969 Y2020.8970 Z-21.0000 F2750
G1 X1171.8987 Y2020.8970 Z-21.0000 F2750
G1 X1171.8987 Y2018.8949 Z-21.0000 F2750
G1 X1166.8987 Y2018.8949 Z-21.0000 F2750
G1 X1166.8987 Y1934.8961 Z-21.0000 F2750
G1 X1166.8987 Y1934.8961 Z10.0000 F9999
G1 X1138.8968 Y1634.8967 Z10.0000 F9999
G1 X1138.8968 Y1634.8967 Z1.0000 F2000
G1 X1138.8968 Y1673.8678 Z-10.0000 F2000
G1 X1138.8968 Y1634.8967 Z-21.0000 F2000
G1 X1138.8968 Y1718.8955 Z-21.0000 F2750
G1 X1133.8969 Y1718.8955 Z-21.0000 F2750
G1 X1133.8969 Y1720.8975 Z-21.0000 F2750
G1 X1153.8988 Y1720.8975 Z-21.0000 F2750
G1 X1153.8988 Y1718.8955 Z-21.0000 F2750
G1 X1148.8988 Y1718.8955 Z-21.0000 F2750
G1 X1148.8988 Y1639.8977 Z-21.0000 F2750
G1 X1177.8967 Y1639.8977 Z-21.0000 F2750
G1 X1177.8967 Y1644.8977 Z-21.0000 F2750
G1 X1179.8987 Y1644.8977 Z-21.0000 F2750
G1 X1179.8987 Y1624.8957 Z-21.0000 F2750
G1 X1177.8967 Y1624.8957 Z-21.0000 F2750
G1 X1177.8967 Y1629.8957 Z-21.0000 F2750
G1 X1148.8988 Y1629.8957 Z-21.0000 F2750
G1 X1148.8988 Y1550.8979 Z-21.0000 F2750
G1 X1153.8988 Y1550.8979 Z-21.0000 F2750
G1 X1153.8988 Y1548.8960 Z-21.0000 F2750
G1 X1133.8969 Y1548.8960 Z-21.0000 F2750
G1 X1133.8969 Y1550.8979 Z-21.0000 F2750
G1 X1138.8968 Y1550.8979 Z-21.0000 F2750
G1 X1138.8968 Y1634.8967 Z-21.0000 F2750
G1 X1138.8968 Y1634.8967 Z10.0000 F9999
G1 X1148.8988 Y1334.8974 Z10.0000 F9999
G1 X1148.8988 Y1334.8974 Z1.0000 F2000
G1 X1148.8988 Y1295.9262 Z-10.0000 F2000
G1 X1148.8988 Y1334.8974 Z-21.0000 F2000
G1 X1148.8988 Y1250.8985 Z-21.0000 F2750
G1 X1153.8988 Y1250.8985 Z-21.0000 F2750
G1 X1153.8988 Y1248.8965 Z-21.0000 F2750
G1 X1133.8969 Y1248.8965 Z-21.0000 F2750
G1 X1133.8969 Y1250.8985 Z-21.0000 F2750
G1 X1138.8968 Y1250.8985 Z-21.0000 F2750
G1 X1138.8968 Y1418.8962 Z-21.0000 F2750
G1 X1133.8969 Y1418.8962 Z-21.0000 F2750
G1 X1133.8969 Y1420.8982 Z-21.0000 F2750
G1 X1153.8988 Y1420.8982 Z-21.0000 F2750
G1 X1153.8988 Y1418.8962 Z-21.0000 F2750
G1 X1148.8988 Y1418.8962 Z-21.0000 F2750
G1 X1148.8988 Y1334.8974 Z-21.0000 F2750
G1 X1148.8988 Y1334.8974 Z10.0000 F9999
G1 X1138.8968 Y1034.8979 Z10.0000 F9999
G1 X1138.8968 Y1034.8979 Z1.0000 F2000
G1 X1138.8968 Y1073.8690 Z-10.0000 F2000
G1 X1138.8968 Y1034.8979 Z-21.0000 F2000
G1 X1138.8968 Y1118.8967 Z-21.0000 F2750
G1 X1133.8969 Y1118.8967 Z-21.0000 F2750
G1 X1133.8969 Y1120.8987 Z-21.0000 F2750
G1 X1153.8988 Y1120.8987 Z-21.0000 F2750
G1 X1153.8988 Y1118.8967 Z-21.0000 F2750
G1 X1148.8988 Y1118.8967 Z-21.0000 F2750
G1 X1148.8988 Y1039.8990 Z-21.0000 F2750
G1 X1177.8967 Y1039.8990 Z-21.0000 F2750
G1 X1177.8967 Y1044.8990 Z-21.0000 F2750
G1 X1179.8987 Y1044.8990 Z-21.0000 F2750
G1 X1179.8987 Y1024.8970 Z-21.0000 F2750
G1 X1177.8967 Y1024.8970 Z-21.0000 F2750
G1 X1177.8967 Y1029.8970 Z-21.0000 F2750
G1 X1148.8988 Y1029.8970 Z-21.0000 F2750
G1 X1148.8988 Y950.8990 Z-21.0000 F2750
G1 X1153.8988 Y950.8990 Z-21.0000 F2750
G1 X1153.8988 Y948.8971 Z-21.0000 F2750
G1 X1133.8969 Y948.8971 Z-21.0000 F2750
G1 X1133.8969 Y950.8990 Z-21.0000 F2750
G1 X1138.8968 Y950.8990 Z-21.0000 F2750
G1 X1138.8968 Y1034.8979 Z-21.0000 F2750
G1 X1138.8968 Y1034.8979 Z10.0000 F9999
G1 X1138.8968 Y734.8985 Z10.0000 F9999
G1 X1138.8968 Y734.8985 Z1.0000 F2000
G1 X1138.8968 Y773.8696 Z-10.0000 F2000
G1 X1138.8968 Y734.8985 Z-21.0000 F2000
G1 X1138.8968 Y818.8973 Z-21.0000 F2750
G1 X1133.8969 Y818.8973 Z-21.0000 F2750
G1 X1133.8969 Y820.8993 Z-21.0000 F2750
G1 X1171.8987 Y820.8993 Z-21.0000 F2750
G1 X1171.8987 Y818.8973 Z-21.0000 F2750
G1 X1166.8987 Y818.8973 Z-21.0000 F2750
G1 X1166.8987 Y650.8996 Z-21.0000 F2750
G1 X1171.8987 Y650.8996 Z-21.0000 F2750
G1 X1171.8987 Y648.8977 Z-21.0000 F2750
G1 X1133.8969 Y648.8977 Z-21.0000 F2750
G1 X1133.8969 Y650.8996 Z-21.0000 F2750
G1 X1138.8968 Y650.8996 Z-21.0000 F2750
G1 X1138.8968 Y734.8985 Z-21.0000 F2750
G1 X1138.8968 Y734.8985 Z10.0000 F9999
G1 X1166.8987 Y434.8992 Z10.0000 F9999
G1 X1166.8987 Y434.8992 Z1.0000 F2000
G1 X1166.8987 Y395.9280 Z-10.0000 F2000
G1 X1166.8987 Y434.8992 Z-21.0000 F2000
G1 X1166.8987 Y350.9003 Z-21.0000 F2750
G1 X1171.8987 Y350.9003 Z-21.0000 F2750
G1 X1171.8987 Y348.8983 Z-21.0000 F2750
G1 X1133.8969 Y348.8983 Z-21.0000 F2750
G1 X1133.8969 Y350.9003 Z-21.0000 F2750
G1 X1138.8968 Y350.9003 Z-21.0000 F2750
G1 X1138.8968 Y518.8980 Z-21.0000 F2750
G1 X1133.8969 Y518.8980 Z-21.0000 F2750
G1 X1133.8969 Y520.8999 Z-21.0000 F2750
G1 X1171.8987 Y520.8999 Z-21.0000 F2750
G1 X1171.8987 Y518.8980 Z-21.0000 F2750
G1 X1166.8987 Y518.8980 Z-21.0000 F2750
G1 X1166.8987 Y434.8992 Z-21.0000 F2750
G1 X1166.8987 Y434.8992 Z10.0000 F9999
G1 X1166.8987 Y134.8997 Z10.0000 F9999
G1 X1166.8987 Y134.8997 Z1.0000 F2000
G1 X1166.8987 Y95.9286 Z-10.0000 F2000
G1 X1166.8987 Y134.8997 Z-21.0000 F2000
G1 X1166.8987 Y50.9009 Z-21.0000 F2750
G1 X1171.8987 Y50.9009 Z-21.0000 F2750
G1 X1171.8987 Y48.8989 Z-21.0000 F2750
G1 X1133.8969 Y48.8989 Z-21.0000 F2750
G1 X1133.8969 Y50.9009 Z-21.0000 F2750
G1 X1138.8968 Y50.9009 Z-21.0000 F2750
G1 X1138.8968 Y129.8988 Z-21.0000 F2750
G1 X1110.8989 Y129.8988 Z-21.0000 F2750
G1 X1110.8989 Y124.8988 Z-21.0000 F2750
G1 X1108.8969 Y124.8988 Z-21.0000 F2750
G1 X1108.8969 Y144.9007 Z-21.0000 F2750
G1 X1110.8989 Y144.9007 Z-21.0000 F2750
G1 X1110.8989 Y139.9007 Z-21.0000 F2750
G1 X1138.8968 Y139.9007 Z-21.0000 F2750
G1 X1138.8968 Y218.8986 Z-21.0000 F2750
G1 X1133.8969 Y218.8986 Z-21.0000 F2750
G1 X1133.8969 Y220.9006 Z-21.0000 F2750
G1 X1171.8987 Y220.9006 Z-21.0000 F2750
G1 X1171.8987 Y218.8986 Z-21.0000 F2750
G1 X1166.8987 Y218.8986 Z-21.0000 F2750
G1 X1166.8987 Y134.8997 Z-21.0000 F2750
G1 X1166.8987 Y134.8997 Z10.0000 F9999
G1 X609.8989 Y139.9007 Z10.0000 F9999
G1 X609.8989 Y139.9007 Z1.0000 F2000
G1 X648.8700 Y139.9007 Z-10.0000 F2000
G1 X609.8989 Y139.9007 Z-21.0000 F2000
G1 X650.8998 Y139.9007 Z-21.0000 F2750
G1 X650.8998 Y137.8987 Z-21.0000 F2750
G1 X645.8998 Y137.8987 Z-21.0000 F2750
G1 X645.8998 Y124.8988 Z-21.0000 F2750
G1 X643.8978 Y124.8988 Z-21.0000 F2750
G1 X643.8978 Y129.8988 Z-21.0000 F2750
G1 X575.9000 Y129.8988 Z-21.0000 F2750
G1 X575.9000 Y124.8988 Z-21.0000 F2750
G1 X573.8980 Y124.8988 Z-21.0000 F2750
G1 X573.8980 Y137.8987 Z-21.0000 F2750
G1 X568.8980 Y137.8987 Z-21.0000 F2750
G1 X568.8980 Y139.9007 Z-21.0000 F2750
G1 X609.8989 Y139.9007 Z-21.0000 F2750
G1 X609.8989 Y139.9007 Z10.0000 F9999
(Tool Number:1) (7.998 mm dia. slot drill)
M3 S19000
G1 X1085.5530 Y2239.8303 Z10.0000 F9999
G1 X1085.5530 Y2239.8303 Z1.0000 F2000
G1 X1085.5530 Y2200.8591 Z-10.0000 F2000
G1 X1085.5530 Y2239.8303 Z-21.0000 F2000
G1 X1085.5530 Y2164.0980 Z-21.0000 F2750
G1 X1085.5530 Y2164.0980 Z-15.0000 F9999
G1 X1085.5530 Y2136.1000 Z-15.0000 F2750
G1 X1085.5530 Y2136.1000 Z-21.0000 F2000
G1 X1085.5530 Y2118.8065 Z-21.0000 F2750
G1 X1128.5510 Y2118.8065 Z-21.0000 F2750
G1 X1128.5510 Y2177.3065 Z-21.0000 F2750
G1 X1213.9261 Y2177.3065 Z-21.0000 F2750
G1 X1213.9261 Y2219.0425 Z-21.0000 F2750
G1 X1141.5510 Y2225.8929 Z-21.0000 F2750
G1 X1141.5510 Y2249.7185 Z-21.0000 F2750
G1 X1213.9261 Y2256.5688 Z-21.0000 F2750
G1 X1213.9261 Y2298.3048 Z-21.0000 F2750
G1 X1193.8788 Y2298.3048 Z-21.0000 F2750
G1 X1193.8788 Y2298.3048 Z-15.0000 F9999
G1 X1165.8808 Y2298.3048 Z-15.0000 F2750
G1 X1165.8808 Y2298.3048 Z-21.0000 F2000
G1 X1128.5510 Y2298.3048 Z-21.0000 F2750
G1 X1128.5510 Y2356.8048 Z-21.0000 F2750
G1 X1085.5530 Y2356.8048 Z-21.0000 F2750
G1 X1085.5530 Y2343.5605 Z-21.0000 F2750
G1 X1085.5530 Y2343.5605 Z-15.0000 F9999
G1 X1085.5530 Y2315.5625 Z-15.0000 F2750
G1 X1085.5530 Y2315.5625 Z-21.0000 F2000
G1 X1085.5530 Y2239.8303 Z-21.0000 F2750
G1 X1085.5530 Y2239.8303 Z10.0000 F9999
G1 X5.9010 Y2282.2320 Z10.0000 F9999
G1 X5.9010 Y2282.2320 Z1.0000 F2000
G1 X5.9010 Y2243.2609 Z-10.0000 F2000
G1 X5.9010 Y2282.2320 Z-21.0000 F2000
G1 X5.9010 Y2135.2333 Z-21.0000 F2750
G1 X26.5526 Y2135.2333 Z-21.0000 F2750
G1 X26.5526 Y2135.2333 Z-15.0000 F9999
G1 X54.5506 Y2135.2333 Z-15.0000 F2750
G1 X54.5506 Y2135.2333 Z-21.0000 F2000
G1 X163.8990 Y2135.2333 Z-21.0000 F2750
G1 X163.8990 Y2158.2333 Z-21.0000 F2750
G1 X165.9015 Y2158.2333 Z-21.0000 F2750
G1 X165.9015 Y2153.2333 Z-21.0000 F2750
G1 X303.9014 Y2153.2333 Z-21.0000 F2750
G1 X303.9014 Y2158.2333 Z-21.0000 F2750
G1 X305.9010 Y2158.2333 Z-21.0000 F2750
G1 X305.9010 Y2135.2333 Z-21.0000 F2750
G1 X463.8961 Y2135.2333 Z-21.0000 F2750
G1 X463.8961 Y2158.2333 Z-21.0000 F2750
G1 X465.8986 Y2158.2333 Z-21.0000 F2750
G1 X465.8986 Y2153.2333 Z-21.0000 F2750
G1 X603.8985 Y2153.2333 Z-21.0000 F2750
G1 X603.8985 Y2158.2333 Z-21.0000 F2750
G1 X605.8976 Y2158.2333 Z-21.0000 F2750
G1 X605.8976 Y2135.2333 Z-21.0000 F2750
G1 X763.8951 Y2135.2333 Z-21.0000 F2750
G1 X763.8951 Y2158.2333 Z-21.0000 F2750
G1 X765.8976 Y2158.2333 Z-21.0000 F2750
G1 X765.8976 Y2153.2333 Z-21.0000 F2750
G1 X903.8975 Y2153.2333 Z-21.0000 F2750
G1 X903.8975 Y2158.2333 Z-21.0000 F2750
G1 X905.9000 Y2158.2333 Z-21.0000 F2750
G1 X905.9000 Y2135.2333 Z-21.0000 F2750
G1 X1063.8975 Y2135.2333 Z-21.0000 F2750
G1 X1063.8975 Y2152.9246 Z-21.0000 F2750
G1 X1063.8975 Y2152.9246 Z-15.0000 F9999
G1 X1063.8975 Y2180.9226 Z-15.0000 F2750
G1 X1063.8975 Y2180.9226 Z-21.0000 F2000
G1 X1063.8975 Y2315.9939 Z-21.0000 F2750
G1 X1063.8975 Y2315.9939 Z-15.0000 F9999
G1 X1063.8975 Y2343.9919 Z-15.0000 F2750
G1 X1063.8975 Y2343.9919 Z-21.0000 F2000
G1 X1063.8975 Y2429.2308 Z-21.0000 F2750
G1 X905.9000 Y2429.2308 Z-21.0000 F2750
G1 X905.9000 Y2406.2308 Z-21.0000 F2750
G1 X903.8951 Y2406.2308 Z-21.0000 F2750
G1 X903.8951 Y2411.2308 Z-21.0000 F2750
G1 X765.9000 Y2411.2308 Z-21.0000 F2750
G1 X765.9000 Y2406.2308 Z-21.0000 F2750
G1 X763.8951 Y2406.2308 Z-21.0000 F2750
G1 X763.8951 Y2429.2308 Z-21.0000 F2750
G1 X605.8976 Y2429.2308 Z-21.0000 F2750
G1 X605.8976 Y2406.2308 Z-21.0000 F2750
G1 X603.8985 Y2406.2308 Z-21.0000 F2750
G1 X603.8985 Y2411.2308 Z-21.0000 F2750
G1 X465.9005 Y2411.2308 Z-21.0000 F2750
G1 X465.9005 Y2406.2308 Z-21.0000 F2750
G1 X463.8961 Y2406.2308 Z-21.0000 F2750
G1 X463.8961 Y2429.2308 Z-21.0000 F2750
G1 X305.9010 Y2429.2308 Z-21.0000 F2750
G1 X305.9010 Y2406.2308 Z-21.0000 F2750
G1 X303.8985 Y2406.2308 Z-21.0000 F2750
G1 X303.8985 Y2411.2308 Z-21.0000 F2750
G1 X165.8986 Y2411.2308 Z-21.0000 F2750
G1 X165.8986 Y2406.2308 Z-21.0000 F2750
G1 X163.8990 Y2406.2308 Z-21.0000 F2750
G1 X163.8990 Y2429.2308 Z-21.0000 F2750
G1 X5.9010 Y2429.2308 Z-21.0000 F2750
G1 X5.9010 Y2282.2320 Z-21.0000 F2750
G1 X5.9010 Y2282.2320 Z10.0000 F9999
G1 X5.9010 Y1063.5228 Z10.0000 F9999
G1 X5.9010 Y1063.5228 Z1.0000 F2000
G1 X5.9010 Y1024.5517 Z-10.0000 F2000
G1 X5.9010 Y1063.5228 Z-21.0000 F2000
G1 X5.9010 Y5.9010 Z-21.0000 F2750
G1 X1213.8967 Y5.9010 Z-21.0000 F2750
G1 X1213.8967 Y2121.1446 Z-21.0000 F2750
G1 X1156.1983 Y2121.1446 Z-21.0000 F2750
G1 X1152.6758 Y2120.3063 Z-21.0000 F2750
G1 X1149.5401 Y2117.6599 Z-21.0000 F2750
G1 X1147.9329 Y2113.8847 Z-21.0000 F2750
G1 X1148.1675 Y2110.2715 Z-21.0000 F2750
G1 X1164.1856 Y2058.2124 Z-21.0000 F2750
G1 X1164.2511 Y2057.2045 Z-21.0000 F2750
G1 X1164.0444 Y2056.7190 Z-21.0000 F2750
G1 X1163.6411 Y2056.3787 Z-21.0000 F2750
G1 X1162.6584 Y2056.1446 Z-21.0000 F2750
G1 X1057.1374 Y2056.1446 Z-21.0000 F2750
G1 X1056.1546 Y2056.3787 Z-21.0000 F2750
G1 X1055.7514 Y2056.7190 Z-21.0000 F2750
G1 X1055.5447 Y2057.2045 Z-21.0000 F2750
G1 X1055.6101 Y2058.2124 Z-21.0000 F2750
G1 X1071.6283 Y2110.2715 Z-21.0000 F2750
G1 X1071.8629 Y2113.8848 Z-21.0000 F2750
G1 X1070.2556 Y2117.6599 Z-21.0000 F2750
G1 X1067.1199 Y2120.3063 Z-21.0000 F2750
G1 X1063.5975 Y2121.1446 Z-21.0000 F2750
G1 X956.1987 Y2121.1446 Z-21.0000 F2750
G1 X952.6763 Y2120.3063 Z-21.0000 F2750
G1 X949.5405 Y2117.6598 Z-21.0000 F2750
G1 X947.9333 Y2113.8847 Z-21.0000 F2750
G1 X948.1679 Y2110.2715 Z-21.0000 F2750
G1 X964.1860 Y2058.2124 Z-21.0000 F2750
G1 X964.2515 Y2057.2045 Z-21.0000 F2750
G1 X964.0448 Y2056.7190 Z-21.0000 F2750
G1 X963.6415 Y2056.3787 Z-21.0000 F2750
G1 X962.6588 Y2056.1446 Z-21.0000 F2750
G1 X857.1379 Y2056.1446 Z-21.0000 F2750
G1 X856.1551 Y2056.3787 Z-21.0000 F2750
G1 X855.7518 Y2056.7190 Z-21.0000 F2750
G1 X855.5450 Y2057.2047 Z-21.0000 F2750
G1 X855.6104 Y2058.2124 Z-21.0000 F2750
G1 X871.6287 Y2110.2715 Z-21.0000 F2750
G1 X871.8633 Y2113.8847 Z-21.0000 F2750
G1 X870.2560 Y2117.6599 Z-21.0000 F2750
G1 X867.1203 Y2120.3063 Z-21.0000 F2750
G1 X863.5978 Y2121.1446 Z-21.0000 F2750
G1 X756.1992 Y2121.1446 Z-21.0000 F2750
G1 X752.6767 Y2120.3063 Z-21.0000 F2750
G1 X749.5410 Y2117.6599 Z-21.0000 F2750
G1 X747.9337 Y2113.8847 Z-21.0000 F2750
G1 X748.1683 Y2110.2715 Z-21.0000 F2750
G1 X764.1864 Y2058.2122 Z-21.0000 F2750
G1 X764.2519 Y2057.2044 Z-21.0000 F2750
G1 X764.0452 Y2056.7190 Z-21.0000 F2750
G1 X763.6419 Y2056.3787 Z-21.0000 F2750
G1 X762.6592 Y2056.1446 Z-21.0000 F2750
G1 X657.1383 Y2056.1446 Z-21.0000 F2750
G1 X656.1555 Y2056.3787 Z-21.0000 F2750
G1 X655.7522 Y2056.7190 Z-21.0000 F2750
G1 X655.5454 Y2057.2046 Z-21.0000 F2750
G1 X655.6109 Y2058.2124 Z-21.0000 F2750
G1 X671.6291 Y2110.2715 Z-21.0000 F2750
G1 X671.8636 Y2113.8848 Z-21.0000 F2750
G1 X670.2564 Y2117.6598 Z-21.0000 F2750
G1 X667.1208 Y2120.3063 Z-21.0000 F2750
G1 X663.5982 Y2121.1446 Z-21.0000 F2750
G1 X556.1996 Y2121.1446 Z-21.0000 F2750
G1 X552.6770 Y2120.3063 Z-21.0000 F2750
G1 X549.5414 Y2117.6599 Z-21.0000 F2750
G1 X547.9341 Y2113.8848 Z-21.0000 F2750
G1 X548.1687 Y2110.2715 Z-21.0000 F2750
G1 X564.1869 Y2058.2124 Z-21.0000 F2750
G1 X564.2524 Y2057.2046 Z-21.0000 F2750
G1 X564.0456 Y2056.7190 Z-21.0000 F2750
G1 X563.6423 Y2056.3787 Z-21.0000 F2750
G1 X562.6596 Y2056.1446 Z-21.0000 F2750
G1 X457.1387 Y2056.1446 Z-21.0000 F2750
G1 X456.1559 Y2056.3787 Z-21.0000 F2750
G1 X455.7526 Y2056.7190 Z-21.0000 F2750
G1 X455.5458 Y2057.2047 Z-21.0000 F2750
G1 X455.6112 Y2058.2124 Z-21.0000 F2750
G1 X471.6295 Y2110.2714 Z-21.0000 F2750
G1 X471.8642 Y2113.8847 Z-21.0000 F2750
G1 X470.2568 Y2117.6599 Z-21.0000 F2750
G1 X467.1211 Y2120.3063 Z-21.0000 F2750
G1 X463.5986 Y2121.1446 Z-21.0000 F2750
G1 X356.1999 Y2121.1446 Z-21.0000 F2750
G1 X352.6775 Y2120.3063 Z-21.0000 F2750
G1 X349.5418 Y2117.6599 Z-21.0000 F2750
G1 X347.9345 Y2113.8847 Z-21.0000 F2750
G1 X348.1691 Y2110.2715 Z-21.0000 F2750
G1 X364.1873 Y2058.2123 Z-21.0000 F2750
G1 X364.2528 Y2057.2046 Z-21.0000 F2750
G1 X364.0460 Y2056.7190 Z-21.0000 F2750
G1 X363.6427 Y2056.3787 Z-21.0000 F2750
G1 X362.6599 Y2056.1446 Z-21.0000 F2750
G1 X257.1389 Y2056.1446 Z-21.0000 F2750
G1 X256.1564 Y2056.3786 Z-21.0000 F2750
G1 X255.7531 Y2056.7190 Z-21.0000 F2750
G1 X255.5463 Y2057.2047 Z-21.0000 F2750
G1 X255.6117 Y2058.2124 Z-21.0000 F2750
G1 X271.6299 Y2110.2714 Z-21.0000 F2750
G1 X271.8646 Y2113.8847 Z-21.0000 F2750
G1 X270.2573 Y2117.6599 Z-21.0000 F2750
G1 X267.1215 Y2120.3064 Z-21.0000 F2750
G1 X263.5990 Y2121.1446 Z-21.0000 F2750
G1 X156.2000 Y2121.1446 Z-21.0000 F2750
G1 X152.6779 Y2120.3063 Z-21.0000 F2750
G1 X149.5422 Y2117.6599 Z-21.0000 F2750
G1 X147.9349 Y2113.8847 Z-21.0000 F2750
G1 X148.1696 Y2110.2714 Z-21.0000 F2750
G1 X164.1878 Y2058.2127 Z-21.0000 F2750
G1 X164.2530 Y2057.2047 Z-21.0000 F2750
G1 X164.0462 Y2056.7188 Z-21.0000 F2750
G1 X163.6432 Y2056.3787 Z-21.0000 F2750
G1 X162.6603 Y2056.1446 Z-21.0000 F2750
G1 X57.1393 Y2056.1446 Z-21.0000 F2750
G1 X56.1566 Y2056.3787 Z-21.0000 F2750
G1 X55.7532 Y2056.7190 Z-21.0000 F2750
G1 X55.5466 Y2057.2044 Z-21.0000 F2750
G1 X55.6121 Y2058.2123 Z-21.0000 F2750
G1 X71.6303 Y2110.2714 Z-21.0000 F2750
G1 X71.8650 Y2113.8848 Z-21.0000 F2750
G1 X70.2575 Y2117.6599 Z-21.0000 F2750
G1 X67.1220 Y2120.3063 Z-21.0000 F2750
G1 X63.5994 Y2121.1446 Z-21.0000 F2750
G1 X5.9010 Y2121.1446 Z-21.0000 F2750
G1 X5.9010 Y1063.5228 Z-21.0000 F2750
G1 X5.9010 Y1063.5228 Z10.0000 F9999
G1 X1900.0000 Y2800.0000 Z80.0000 F9999
G1 Z80.0000 F9999
G1 X1900.0000 Y2800.0000 F9999
M5
M30
