(plotsheet 2n3_nested_153 sheets_final v1_0_sheet 74 to 78_S74.1_text_CC8 - stepover 1mm)
(Material Size) (X=1220.000, Y=2440.000, Z=21.000)
(LinuxCNC_NoArcs_MM_TC_medium_50um_G1_verbose.con)
G90 G80 G21 G49
G64 P0.050
M6 T1
(Tool Number:1) (7.998 mm dia. slot drill)
G43 H1 G0Z80.0000
M3 S19000
G04 P10
G1 X102.8722 Y67.6338 Z10.0000 F9999
G1 X102.8722 Y67.6338 Z-1.0000 F2000
G1 X104.8171 Y64.5879 Z-1.0000 F2750
G1 X107.2392 Y62.5328 Z-1.0000 F2750
G1 X110.3584 Y61.2851 Z-1.0000 F2750
G1 X114.4869 Y60.8081 Z-1.0000 F2750
G1 X118.9823 Y61.2668 Z-1.0000 F2750
G1 X122.7988 Y63.0099 Z-1.0000 F2750
G1 X125.4777 Y66.0007 Z-1.0000 F2750
G1 X126.5970 Y70.1659 Z-1.0000 F2750
G1 X126.0648 Y74.1659 Z-1.0000 F2750
G1 X124.5236 Y76.8448 Z-1.0000 F2750
G1 X122.4869 Y78.5328 Z-1.0000 F2750
G1 X120.5786 Y79.6338 Z-1.0000 F2750
G1 X111.3859 Y84.3677 Z-1.0000 F2750
G1 X109.0190 Y85.7806 Z-1.0000 F2750
G1 X107.1658 Y87.4319 Z-1.0000 F2750
G1 X105.9181 Y89.6154 Z-1.0000 F2750
G1 X105.4043 Y92.4961 Z-1.0000 F2750
G1 X105.9364 Y95.7806 Z-1.0000 F2750
G1 X107.7713 Y98.8081 Z-1.0000 F2750
G1 X110.9089 Y101.0283 Z-1.0000 F2750
G1 X115.2759 Y101.9090 Z-1.0000 F2750
G1 X119.5327 Y101.2301 Z-1.0000 F2750
G1 X122.3768 Y99.7622 Z-1.0000 F2750
G1 X124.4685 Y97.6154 Z-1.0000 F2750
G1 X122.3768 Y99.7622 Z-1.0000 F2750
G1 X119.5327 Y101.2301 Z-1.0000 F2750
G1 X115.2759 Y101.9090 Z-1.0000 F2750
G1 X110.9089 Y101.0283 Z-1.0000 F2750
G1 X107.7713 Y98.8081 Z-1.0000 F2750
G1 X105.9364 Y95.7806 Z-1.0000 F2750
G1 X105.4043 Y92.4961 Z-1.0000 F2750
G1 X105.9181 Y89.6154 Z-1.0000 F2750
G1 X107.1658 Y87.4319 Z-1.0000 F2750
G1 X109.0190 Y85.7806 Z-1.0000 F2750
G1 X111.3859 Y84.3677 Z-1.0000 F2750
G1 X120.5786 Y79.6338 Z-1.0000 F2750
G1 X122.4869 Y78.5328 Z-1.0000 F2750
G1 X124.5236 Y76.8448 Z-1.0000 F2750
G1 X126.0648 Y74.1659 Z-1.0000 F2750
G1 X126.5970 Y70.1659 Z-1.0000 F2750
G1 X125.4777 Y66.0007 Z-1.0000 F2750
G1 X122.7988 Y63.0099 Z-1.0000 F2750
G1 X118.9823 Y61.2668 Z-1.0000 F2750
G1 X114.4869 Y60.8081 Z-1.0000 F2750
G1 X110.3584 Y61.2851 Z-1.0000 F2750
G1 X107.2392 Y62.5328 Z-1.0000 F2750
G1 X104.8171 Y64.5879 Z-1.0000 F2750
G1 X104.8171 Y64.5879 Z10.0000 F9999
G1 X179.2025 Y67.6338 Z10.0000 F9999
G1 X179.2025 Y67.6338 Z-1.0000 F2000
G1 X181.1474 Y64.5879 Z-1.0000 F2750
G1 X183.5694 Y62.5328 Z-1.0000 F2750
G1 X186.6887 Y61.2851 Z-1.0000 F2750
G1 X190.8171 Y60.8081 Z-1.0000 F2750
G1 X195.3126 Y61.2668 Z-1.0000 F2750
G1 X199.1291 Y63.0099 Z-1.0000 F2750
G1 X201.8080 Y66.0007 Z-1.0000 F2750
G1 X202.9272 Y70.1659 Z-1.0000 F2750
G1 X202.3951 Y74.1659 Z-1.0000 F2750
G1 X200.8538 Y76.8448 Z-1.0000 F2750
G1 X198.8171 Y78.5328 Z-1.0000 F2750
G1 X196.9089 Y79.6338 Z-1.0000 F2750
G1 X187.7162 Y84.3677 Z-1.0000 F2750
G1 X185.3493 Y85.7806 Z-1.0000 F2750
G1 X183.4960 Y87.4319 Z-1.0000 F2750
G1 X182.2483 Y89.6154 Z-1.0000 F2750
G1 X181.7346 Y92.4961 Z-1.0000 F2750
G1 X182.2667 Y95.7806 Z-1.0000 F2750
G1 X184.1015 Y98.8081 Z-1.0000 F2750
G1 X187.2392 Y101.0283 Z-1.0000 F2750
G1 X191.6061 Y101.9090 Z-1.0000 F2750
G1 X195.8630 Y101.2301 Z-1.0000 F2750
G1 X198.7070 Y99.7622 Z-1.0000 F2750
G1 X200.7988 Y97.6154 Z-1.0000 F2750
G1 X198.7070 Y99.7622 Z-1.0000 F2750
G1 X195.8630 Y101.2301 Z-1.0000 F2750
G1 X191.6061 Y101.9090 Z-1.0000 F2750
G1 X187.2392 Y101.0283 Z-1.0000 F2750
G1 X184.1015 Y98.8081 Z-1.0000 F2750
G1 X182.2667 Y95.7806 Z-1.0000 F2750
G1 X181.7346 Y92.4961 Z-1.0000 F2750
G1 X182.2483 Y89.6154 Z-1.0000 F2750
G1 X183.4960 Y87.4319 Z-1.0000 F2750
G1 X185.3493 Y85.7806 Z-1.0000 F2750
G1 X187.7162 Y84.3677 Z-1.0000 F2750
G1 X196.9089 Y79.6338 Z-1.0000 F2750
G1 X198.8171 Y78.5328 Z-1.0000 F2750
G1 X200.8538 Y76.8448 Z-1.0000 F2750
G1 X202.3951 Y74.1659 Z-1.0000 F2750
G1 X202.9272 Y70.1659 Z-1.0000 F2750
G1 X201.8080 Y66.0007 Z-1.0000 F2750
G1 X199.1291 Y63.0099 Z-1.0000 F2750
G1 X195.3126 Y61.2668 Z-1.0000 F2750
G1 X190.8171 Y60.8081 Z-1.0000 F2750
G1 X186.6887 Y61.2851 Z-1.0000 F2750
G1 X183.5694 Y62.5328 Z-1.0000 F2750
G1 X181.1474 Y64.5879 Z-1.0000 F2750
G1 X181.1474 Y64.5879 Z10.0000 F9999
G1 X168.4869 Y111.3035 Z10.0000 F9999
G1 X168.4869 Y111.3035 Z-1.0000 F2000
G1 X138.1015 Y58.4594 Z-1.0000 F2750
G1 X168.4869 Y111.3035 Z-1.0000 F2750
G1 X168.4869 Y111.3035 Z10.0000 F9999
G1 X311.7708 Y477.4921 Z10.0000 F9999
G1 X311.7708 Y477.4921 Z-1.0000 F2000
G1 X301.5600 Y487.7030 Z-1.0000 F2750
G1 X311.7708 Y477.4921 Z-1.0000 F2750
G1 X298.8353 Y464.5566 Z-1.0000 F2750
G1 X288.1444 Y475.2476 Z-1.0000 F2750
G1 X298.8353 Y464.5566 Z-1.0000 F2750
G1 X327.8981 Y493.6194 Z-1.0000 F2750
G1 X327.8981 Y493.6194 Z10.0000 F9999
G1 X306.3086 Y515.2088 Z10.0000 F9999
G1 X306.3086 Y515.2088 Z-1.0000 F2000
G1 X277.2459 Y486.1461 Z-1.0000 F2750
G1 X272.1858 Y491.2061 Z-1.0000 F2750
G1 X269.8764 Y494.3719 Z-1.0000 F2750
G1 X268.8903 Y497.9269 Z-1.0000 F2750
G1 X269.5520 Y501.7284 Z-1.0000 F2750
G1 X272.2377 Y505.6077 Z-1.0000 F2750
G1 X276.3636 Y508.0988 Z-1.0000 F2750
G1 X280.6711 Y508.4881 Z-1.0000 F2750
G1 X284.4078 Y507.5280 Z-1.0000 F2750
G1 X286.9248 Y505.9451 Z-1.0000 F2750
G1 X291.9848 Y500.8850 Z-1.0000 F2750
G1 X286.9248 Y505.9451 Z-1.0000 F2750
G1 X284.4078 Y507.5280 Z-1.0000 F2750
G1 X280.6711 Y508.4881 Z-1.0000 F2750
G1 X276.3636 Y508.0988 Z-1.0000 F2750
G1 X272.2377 Y505.6077 Z-1.0000 F2750
G1 X269.5520 Y501.7284 Z-1.0000 F2750
G1 X268.8903 Y497.9269 Z-1.0000 F2750
G1 X269.8764 Y494.3719 Z-1.0000 F2750
G1 X272.1858 Y491.2061 Z-1.0000 F2750
G1 X277.2459 Y486.1461 Z-1.0000 F2750
G1 X277.2459 Y486.1461 Z10.0000 F9999
G1 X246.0553 Y517.3366 Z10.0000 F9999
G1 X246.0553 Y517.3366 Z-1.0000 F2000
G1 X263.7654 Y557.7520 Z-1.0000 F2750
G1 X246.0553 Y517.3366 Z-1.0000 F2750
G1 X286.4447 Y535.0727 Z-1.0000 F2750
G1 X286.4447 Y535.0727 Z10.0000 F9999
G1 X293.9959 Y527.5216 Z10.0000 F9999
G1 X293.9959 Y527.5216 Z-1.0000 F2000
G1 X289.1045 Y503.9211 Z-1.0000 F2750
G1 X293.9959 Y527.5216 Z-1.0000 F2750
G1 X293.9959 Y527.5216 Z10.0000 F9999
G1 X257.4339 Y543.2985 Z10.0000 F9999
G1 X257.4339 Y543.2985 Z-1.0000 F2000
G1 X272.0691 Y528.6633 Z-1.0000 F2750
G1 X257.4339 Y543.2985 Z-1.0000 F2750
G1 X257.4339 Y543.2985 Z10.0000 F9999
G1 X217.6024 Y569.0398 Z10.0000 F9999
G1 X217.6024 Y569.0398 Z-1.0000 F2000
G1 X238.2836 Y548.3585 Z-1.0000 F2750
G1 X217.6024 Y569.0398 Z-1.0000 F2750
G1 X217.6024 Y569.0398 Z10.0000 F9999
G1 X187.0995 Y576.2925 Z10.0000 F9999
G1 X187.0995 Y576.2925 Z-1.0000 F2000
G1 X204.8096 Y616.7078 Z-1.0000 F2750
G1 X187.0995 Y576.2925 Z-1.0000 F2750
G1 X227.4889 Y594.0285 Z-1.0000 F2750
G1 X227.4889 Y594.0285 Z10.0000 F9999
G1 X198.4781 Y602.2543 Z10.0000 F9999
G1 X198.4781 Y602.2543 Z-1.0000 F2000
G1 X213.1132 Y587.6191 Z-1.0000 F2750
G1 X198.4781 Y602.2543 Z-1.0000 F2750
G1 X198.4781 Y602.2543 Z10.0000 F9999
G1 X139.5741 Y610.5320 Z10.0000 F9999
G1 X139.5741 Y610.5320 Z-1.0000 F2000
G1 X198.4262 Y626.4127 Z-1.0000 F2750
G1 X139.5741 Y610.5320 Z-1.0000 F2750
G1 X139.5741 Y610.5320 Z10.0000 F9999
G1 X148.1891 Y641.0738 Z10.0000 F9999
G1 X148.1891 Y641.0738 Z-1.0000 F2000
G1 X137.9783 Y651.2847 Z-1.0000 F2750
G1 X148.1891 Y641.0738 Z-1.0000 F2750
G1 X135.2536 Y628.1383 Z-1.0000 F2750
G1 X124.5627 Y638.8292 Z-1.0000 F2750
G1 X135.2536 Y628.1383 Z-1.0000 F2750
G1 X164.3164 Y657.2010 Z-1.0000 F2750
G1 X164.3164 Y657.2010 Z10.0000 F9999
G1 X142.2079 Y671.4989 Z10.0000 F9999
G1 X142.2079 Y671.4989 Z-1.0000 F2000
G1 X142.2209 Y673.2764 Z-1.0000 F2750
G1 X141.8576 Y676.2086 Z-1.0000 F2750
G1 X140.5732 Y679.8285 Z-1.0000 F2750
G1 X137.7837 Y683.7338 Z-1.0000 F2750
G1 X133.2945 Y686.5362 Z-1.0000 F2750
G1 X127.8582 Y687.2758 Z-1.0000 F2750
G1 X122.2273 Y685.9524 Z-1.0000 F2750
G1 X117.2192 Y682.5531 Z-1.0000 F2750
G1 X114.2480 Y677.6877 Z-1.0000 F2750
G1 X113.6901 Y672.5368 Z-1.0000 F2750
G1 X114.8448 Y667.9569 Z-1.0000 F2750
G1 X116.9337 Y664.7262 Z-1.0000 F2750
G1 X118.4517 Y663.2082 Z-1.0000 F2750
G1 X120.3330 Y661.8978 Z-1.0000 F2750
G1 X122.8371 Y660.6652 Z-1.0000 F2750
G1 X107.9684 Y653.7628 Z-1.0000 F2750
G1 X97.9262 Y663.8050 Z-1.0000 F2750
G1 X107.9684 Y653.7628 Z-1.0000 F2750
G1 X122.8371 Y660.6652 Z-1.0000 F2750
G1 X120.3330 Y661.8978 Z-1.0000 F2750
G1 X118.4517 Y663.2082 Z-1.0000 F2750
G1 X116.9337 Y664.7262 Z-1.0000 F2750
G1 X114.8448 Y667.9569 Z-1.0000 F2750
G1 X113.6901 Y672.5368 Z-1.0000 F2750
G1 X114.2480 Y677.6877 Z-1.0000 F2750
G1 X117.2192 Y682.5531 Z-1.0000 F2750
G1 X122.2273 Y685.9524 Z-1.0000 F2750
G1 X127.8582 Y687.2758 Z-1.0000 F2750
G1 X133.2945 Y686.5362 Z-1.0000 F2750
G1 X137.7837 Y683.7338 Z-1.0000 F2750
G1 X140.5732 Y679.8285 Z-1.0000 F2750
G1 X141.8576 Y676.2086 Z-1.0000 F2750
G1 X142.2209 Y673.2764 Z-1.0000 F2750
G1 X142.2209 Y673.2764 Z10.0000 F9999
G1 X545.5318 Y637.4100 Z10.0000 F9999
G1 X545.5318 Y637.4100 Z-1.0000 F2000
G1 X604.3838 Y653.2907 Z-1.0000 F2750
G1 X545.5318 Y637.4100 Z-1.0000 F2750
G1 X545.5318 Y637.4100 Z10.0000 F9999
G1 X554.1468 Y667.9518 Z10.0000 F9999
G1 X554.1468 Y667.9518 Z-1.0000 F2000
G1 X543.9359 Y678.1627 Z-1.0000 F2750
G1 X554.1468 Y667.9518 Z-1.0000 F2750
G1 X541.2113 Y655.0163 Z-1.0000 F2750
G1 X530.5204 Y665.7072 Z-1.0000 F2750
G1 X541.2113 Y655.0163 Z-1.0000 F2750
G1 X570.2740 Y684.0790 Z-1.0000 F2750
G1 X570.2740 Y684.0790 Z10.0000 F9999
G1 X548.1656 Y698.3768 Z10.0000 F9999
G1 X548.1656 Y698.3768 Z-1.0000 F2000
G1 X548.1786 Y700.1543 Z-1.0000 F2750
G1 X547.8153 Y703.0866 Z-1.0000 F2750
G1 X546.5308 Y706.7064 Z-1.0000 F2750
G1 X543.7413 Y710.6117 Z-1.0000 F2750
G1 X539.2522 Y713.4142 Z-1.0000 F2750
G1 X533.8159 Y714.1538 Z-1.0000 F2750
G1 X528.1850 Y712.8304 Z-1.0000 F2750
G1 X523.1768 Y709.4311 Z-1.0000 F2750
G1 X520.2057 Y704.5656 Z-1.0000 F2750
G1 X519.6478 Y699.4148 Z-1.0000 F2750
G1 X520.8025 Y694.8348 Z-1.0000 F2750
G1 X522.8914 Y691.6042 Z-1.0000 F2750
G1 X524.4094 Y690.0862 Z-1.0000 F2750
G1 X526.2907 Y688.7758 Z-1.0000 F2750
G1 X528.7948 Y687.5432 Z-1.0000 F2750
G1 X513.9261 Y680.6408 Z-1.0000 F2750
G1 X503.8838 Y690.6830 Z-1.0000 F2750
G1 X513.9261 Y680.6408 Z-1.0000 F2750
G1 X528.7948 Y687.5432 Z-1.0000 F2750
G1 X526.2907 Y688.7758 Z-1.0000 F2750
G1 X524.4094 Y690.0862 Z-1.0000 F2750
G1 X522.8914 Y691.6042 Z-1.0000 F2750
G1 X520.8025 Y694.8348 Z-1.0000 F2750
G1 X519.6478 Y699.4148 Z-1.0000 F2750
G1 X520.2057 Y704.5656 Z-1.0000 F2750
G1 X523.1768 Y709.4311 Z-1.0000 F2750
G1 X528.1850 Y712.8304 Z-1.0000 F2750
G1 X533.8159 Y714.1538 Z-1.0000 F2750
G1 X539.2522 Y713.4142 Z-1.0000 F2750
G1 X543.7413 Y710.6117 Z-1.0000 F2750
G1 X546.5308 Y706.7064 Z-1.0000 F2750
G1 X547.8153 Y703.0866 Z-1.0000 F2750
G1 X548.1786 Y700.1543 Z-1.0000 F2750
G1 X548.1786 Y700.1543 Z10.0000 F9999
G1 X604.4357 Y629.1323 Z10.0000 F9999
G1 X604.4357 Y629.1323 Z-1.0000 F2000
G1 X619.0709 Y614.4971 Z-1.0000 F2750
G1 X604.4357 Y629.1323 Z-1.0000 F2750
G1 X604.4357 Y629.1323 Z10.0000 F9999
G1 X593.0571 Y603.1704 Z10.0000 F9999
G1 X593.0571 Y603.1704 Z-1.0000 F2000
G1 X610.7672 Y643.5858 Z-1.0000 F2750
G1 X593.0571 Y603.1704 Z-1.0000 F2750
G1 X633.4466 Y620.9065 Z-1.0000 F2750
G1 X633.4466 Y620.9065 Z10.0000 F9999
G1 X623.5600 Y595.9177 Z10.0000 F9999
G1 X623.5600 Y595.9177 Z-1.0000 F2000
G1 X644.2413 Y575.2365 Z-1.0000 F2750
G1 X623.5600 Y595.9177 Z-1.0000 F2750
G1 X623.5600 Y595.9177 Z10.0000 F9999
G1 X663.3916 Y570.1764 Z10.0000 F9999
G1 X663.3916 Y570.1764 Z-1.0000 F2000
G1 X678.0267 Y555.5413 Z-1.0000 F2750
G1 X663.3916 Y570.1764 Z-1.0000 F2750
G1 X663.3916 Y570.1764 Z10.0000 F9999
G1 X652.0130 Y544.2146 Z10.0000 F9999
G1 X652.0130 Y544.2146 Z-1.0000 F2000
G1 X669.7231 Y584.6300 Z-1.0000 F2750
G1 X652.0130 Y544.2146 Z-1.0000 F2750
G1 X692.4024 Y561.9506 Z-1.0000 F2750
G1 X692.4024 Y561.9506 Z10.0000 F9999
G1 X699.9535 Y554.3995 Z10.0000 F9999
G1 X699.9535 Y554.3995 Z-1.0000 F2000
G1 X695.0622 Y530.7990 Z-1.0000 F2750
G1 X699.9535 Y554.3995 Z-1.0000 F2750
G1 X699.9535 Y554.3995 Z10.0000 F9999
G1 X712.2663 Y542.0868 Z10.0000 F9999
G1 X712.2663 Y542.0868 Z-1.0000 F2000
G1 X683.2035 Y513.0240 Z-1.0000 F2750
G1 X678.1435 Y518.0841 Z-1.0000 F2750
G1 X675.8340 Y521.2498 Z-1.0000 F2750
G1 X674.8480 Y524.8048 Z-1.0000 F2750
G1 X675.5097 Y528.6063 Z-1.0000 F2750
G1 X678.1954 Y532.4857 Z-1.0000 F2750
G1 X682.3213 Y534.9768 Z-1.0000 F2750
G1 X686.6288 Y535.3660 Z-1.0000 F2750
G1 X690.3654 Y534.4059 Z-1.0000 F2750
G1 X692.8825 Y532.8230 Z-1.0000 F2750
G1 X697.9425 Y527.7630 Z-1.0000 F2750
G1 X692.8825 Y532.8230 Z-1.0000 F2750
G1 X690.3654 Y534.4059 Z-1.0000 F2750
G1 X686.6288 Y535.3660 Z-1.0000 F2750
G1 X682.3213 Y534.9768 Z-1.0000 F2750
G1 X678.1954 Y532.4857 Z-1.0000 F2750
G1 X675.5097 Y528.6063 Z-1.0000 F2750
G1 X674.8480 Y524.8048 Z-1.0000 F2750
G1 X675.8340 Y521.2498 Z-1.0000 F2750
G1 X678.1435 Y518.0841 Z-1.0000 F2750
G1 X683.2035 Y513.0240 Z-1.0000 F2750
G1 X683.2035 Y513.0240 Z10.0000 F9999
G1 X717.7285 Y504.3701 Z10.0000 F9999
G1 X717.7285 Y504.3701 Z-1.0000 F2000
G1 X707.5176 Y514.5810 Z-1.0000 F2750
G1 X717.7285 Y504.3701 Z-1.0000 F2750
G1 X704.7930 Y491.4346 Z-1.0000 F2750
G1 X694.1020 Y502.1255 Z-1.0000 F2750
G1 X704.7930 Y491.4346 Z-1.0000 F2750
G1 X733.8557 Y520.4973 Z-1.0000 F2750
G1 X733.8557 Y520.4973 Z10.0000 F9999
G1 X863.8635 Y770.5523 Z10.0000 F9999
G1 X863.8635 Y770.5523 Z-1.0000 F2000
G1 X863.8635 Y781.3825 Z-1.0000 F2750
G1 X863.8635 Y770.5523 Z-1.0000 F2750
G1 X850.1433 Y770.5523 Z-1.0000 F2750
G1 X850.1433 Y781.8917 Z-1.0000 F2750
G1 X850.1433 Y770.5523 Z-1.0000 F2750
G1 X880.9690 Y770.5523 Z-1.0000 F2750
G1 X880.9690 Y770.5523 Z10.0000 F9999
G1 X880.9690 Y793.4513 Z10.0000 F9999
G1 X880.9690 Y793.4513 Z-1.0000 F2000
G1 X850.1433 Y793.4513 Z-1.0000 F2750
G1 X850.1433 Y798.8183 Z-1.0000 F2750
G1 X850.5975 Y801.7220 Z-1.0000 F2750
G1 X851.9599 Y804.1302 Z-1.0000 F2750
G1 X854.3268 Y805.7954 Z-1.0000 F2750
G1 X857.8085 Y806.4284 Z-1.0000 F2750
G1 X861.3177 Y805.5614 Z-1.0000 F2750
G1 X863.8085 Y803.4835 Z-1.0000 F2750
G1 X865.2810 Y800.9926 Z-1.0000 F2750
G1 X865.7764 Y798.8183 Z-1.0000 F2750
G1 X865.7764 Y793.4513 Z-1.0000 F2750
G1 X865.7764 Y798.8183 Z-1.0000 F2750
G1 X865.2810 Y800.9926 Z-1.0000 F2750
G1 X863.8085 Y803.4835 Z-1.0000 F2750
G1 X861.3177 Y805.5614 Z-1.0000 F2750
G1 X857.8085 Y806.4284 Z-1.0000 F2750
G1 X854.3268 Y805.7954 Z-1.0000 F2750
G1 X851.9599 Y804.1302 Z-1.0000 F2750
G1 X850.5975 Y801.7220 Z-1.0000 F2750
G1 X850.1433 Y798.8183 Z-1.0000 F2750
G1 X850.1433 Y793.4513 Z-1.0000 F2750
G1 X850.1433 Y793.4513 Z10.0000 F9999
G1 X850.1433 Y826.5339 Z10.0000 F9999
G1 X850.1433 Y826.5339 Z-1.0000 F2000
G1 X880.9690 Y838.5752 Z-1.0000 F2750
G1 X850.1433 Y826.5339 Z-1.0000 F2750
G1 X880.9690 Y814.5202 Z-1.0000 F2750
G1 X880.9690 Y814.5202 Z10.0000 F9999
G1 X880.9690 Y806.5110 Z10.0000 F9999
G1 X880.9690 Y806.5110 Z-1.0000 F2000
G1 X865.8589 Y796.5890 Z-1.0000 F2750
G1 X880.9690 Y806.5110 Z-1.0000 F2750
G1 X880.9690 Y806.5110 Z10.0000 F9999
G1 X869.9461 Y834.2679 Z10.0000 F9999
G1 X869.9461 Y834.2679 Z-1.0000 F2000
G1 X869.9461 Y818.7449 Z-1.0000 F2750
G1 X869.9461 Y834.2679 Z-1.0000 F2750
G1 X869.9461 Y834.2679 Z10.0000 F9999
G1 X862.4736 Y869.0431 Z10.0000 F9999
G1 X862.4736 Y869.0431 Z-1.0000 F2000
G1 X862.4736 Y847.1073 Z-1.0000 F2750
G1 X862.4736 Y869.0431 Z-1.0000 F2750
G1 X862.4736 Y869.0431 Z10.0000 F9999
G1 X850.1433 Y889.0660 Z10.0000 F9999
G1 X850.1433 Y889.0660 Z-1.0000 F2000
G1 X880.9690 Y901.1073 Z-1.0000 F2750
G1 X850.1433 Y889.0660 Z-1.0000 F2750
G1 X880.9690 Y877.0523 Z-1.0000 F2750
G1 X880.9690 Y877.0523 Z10.0000 F9999
G1 X869.9461 Y896.8000 Z10.0000 F9999
G1 X869.9461 Y896.8000 Z-1.0000 F2000
G1 X869.9461 Y881.2770 Z-1.0000 F2750
G1 X869.9461 Y896.8000 Z-1.0000 F2750
G1 X869.9461 Y896.8000 Z10.0000 F9999
G1 X875.8498 Y940.4651 Z10.0000 F9999
G1 X875.8498 Y940.4651 Z-1.0000 F2000
G1 X878.1342 Y941.9238 Z-1.0000 F2750
G1 X879.6755 Y943.7403 Z-1.0000 F2750
G1 X880.6112 Y946.0798 Z-1.0000 F2750
G1 X880.9690 Y949.1761 Z-1.0000 F2750
G1 X880.6250 Y952.5477 Z-1.0000 F2750
G1 X879.3177 Y955.4101 Z-1.0000 F2750
G1 X877.0745 Y957.4192 Z-1.0000 F2750
G1 X873.9507 Y958.2587 Z-1.0000 F2750
G1 X870.9507 Y957.8596 Z-1.0000 F2750
G1 X868.9415 Y956.7036 Z-1.0000 F2750
G1 X867.6755 Y955.1761 Z-1.0000 F2750
G1 X866.8498 Y953.7449 Z-1.0000 F2750
G1 X863.2993 Y946.8504 Z-1.0000 F2750
G1 X862.2397 Y945.0752 Z-1.0000 F2750
G1 X861.0011 Y943.6853 Z-1.0000 F2750
G1 X859.3635 Y942.7495 Z-1.0000 F2750
G1 X857.2030 Y942.3642 Z-1.0000 F2750
G1 X854.7397 Y942.7633 Z-1.0000 F2750
G1 X852.4690 Y944.1394 Z-1.0000 F2750
G1 X850.8039 Y946.4926 Z-1.0000 F2750
G1 X850.1433 Y949.7679 Z-1.0000 F2750
G1 X850.6525 Y952.9605 Z-1.0000 F2750
G1 X851.7534 Y955.0935 Z-1.0000 F2750
G1 X853.3635 Y956.6624 Z-1.0000 F2750
G1 X851.7534 Y955.0935 Z-1.0000 F2750
G1 X850.6525 Y952.9605 Z-1.0000 F2750
G1 X850.1433 Y949.7679 Z-1.0000 F2750
G1 X850.8039 Y946.4926 Z-1.0000 F2750
G1 X852.4690 Y944.1394 Z-1.0000 F2750
G1 X854.7397 Y942.7633 Z-1.0000 F2750
G1 X857.2030 Y942.3642 Z-1.0000 F2750
G1 X859.3635 Y942.7495 Z-1.0000 F2750
G1 X861.0011 Y943.6853 Z-1.0000 F2750
G1 X862.2397 Y945.0752 Z-1.0000 F2750
G1 X863.2993 Y946.8504 Z-1.0000 F2750
G1 X866.8498 Y953.7449 Z-1.0000 F2750
G1 X867.6755 Y955.1761 Z-1.0000 F2750
G1 X868.9415 Y956.7036 Z-1.0000 F2750
G1 X870.9507 Y957.8596 Z-1.0000 F2750
G1 X873.9507 Y958.2587 Z-1.0000 F2750
G1 X877.0745 Y957.4192 Z-1.0000 F2750
G1 X879.3177 Y955.4101 Z-1.0000 F2750
G1 X880.6250 Y952.5477 Z-1.0000 F2750
G1 X880.9690 Y949.1761 Z-1.0000 F2750
G1 X880.6112 Y946.0798 Z-1.0000 F2750
G1 X879.6755 Y943.7403 Z-1.0000 F2750
G1 X878.1342 Y941.9238 Z-1.0000 F2750
G1 X878.1342 Y941.9238 Z10.0000 F9999
G1 X843.0975 Y932.4284 Z10.0000 F9999
G1 X843.0975 Y932.4284 Z-1.0000 F2000
G1 X882.7305 Y909.6394 Z-1.0000 F2750
G1 X843.0975 Y932.4284 Z-1.0000 F2750
G1 X843.0975 Y932.4284 Z10.0000 F9999
G1 X850.1433 Y983.5385 Z10.0000 F9999
G1 X850.1433 Y983.5385 Z-1.0000 F2000
G1 X875.1892 Y966.8871 Z-1.0000 F2750
G1 X875.1892 Y988.4926 Z-1.0000 F2750
G1 X875.1892 Y966.8871 Z-1.0000 F2750
G1 X850.1433 Y983.5385 Z-1.0000 F2750
G1 X880.9690 Y983.5385 Z-1.0000 F2750
G1 X880.9690 Y983.5385 Z10.0000 F9999
G1 X843.0975 Y1019.6211 Z10.0000 F9999
G1 X843.0975 Y1019.6211 Z-1.0000 F2000
G1 X882.7305 Y996.8321 Z-1.0000 F2750
G1 X843.0975 Y1019.6211 Z-1.0000 F2750
G1 X843.0975 Y1019.6211 Z10.0000 F9999
G1 X850.1433 Y1031.2495 Z10.0000 F9999
G1 X850.1433 Y1031.2495 Z-1.0000 F2000
G1 X880.9690 Y1031.2495 Z-1.0000 F2750
G1 X850.1433 Y1031.2495 Z-1.0000 F2750
G1 X850.1433 Y1031.2495 Z10.0000 F9999
G1 X850.1433 Y1046.2220 Z10.0000 F9999
G1 X850.1433 Y1046.2220 Z-1.0000 F2000
G1 X880.9690 Y1074.0477 Z-1.0000 F2750
G1 X850.1433 Y1074.0477 Z-1.0000 F2750
G1 X880.9690 Y1074.0477 Z-1.0000 F2750
G1 X850.1433 Y1046.2220 Z-1.0000 F2750
G1 X880.9690 Y1046.2220 Z-1.0000 F2750
G1 X880.9690 Y1046.2220 Z10.0000 F9999
G1 X1001.1570 Y1367.3437 Z10.0000 F9999
G1 X1001.1570 Y1367.3437 Z-1.0000 F2000
G1 X1003.1020 Y1364.2979 Z-1.0000 F2750
G1 X1005.5240 Y1362.2428 Z-1.0000 F2750
G1 X1008.6433 Y1360.9951 Z-1.0000 F2750
G1 X1012.7717 Y1360.5180 Z-1.0000 F2750
G1 X1017.2671 Y1360.9768 Z-1.0000 F2750
G1 X1021.0836 Y1362.7199 Z-1.0000 F2750
G1 X1023.7625 Y1365.7107 Z-1.0000 F2750
G1 X1024.8818 Y1369.8758 Z-1.0000 F2750
G1 X1024.3497 Y1373.8758 Z-1.0000 F2750
G1 X1022.8084 Y1376.5547 Z-1.0000 F2750
G1 X1020.7717 Y1378.2428 Z-1.0000 F2750
G1 X1018.8634 Y1379.3437 Z-1.0000 F2750
G1 X1009.6708 Y1384.0777 Z-1.0000 F2750
G1 X1007.3038 Y1385.4905 Z-1.0000 F2750
G1 X1005.4506 Y1387.1419 Z-1.0000 F2750
G1 X1004.2029 Y1389.3254 Z-1.0000 F2750
G1 X1003.6891 Y1392.2061 Z-1.0000 F2750
G1 X1004.2212 Y1395.4905 Z-1.0000 F2750
G1 X1006.0561 Y1398.5180 Z-1.0000 F2750
G1 X1009.1937 Y1400.7382 Z-1.0000 F2750
G1 X1013.5607 Y1401.6190 Z-1.0000 F2750
G1 X1017.8176 Y1400.9401 Z-1.0000 F2750
G1 X1020.6616 Y1399.4722 Z-1.0000 F2750
G1 X1022.7534 Y1397.3254 Z-1.0000 F2750
G1 X1020.6616 Y1399.4722 Z-1.0000 F2750
G1 X1017.8176 Y1400.9401 Z-1.0000 F2750
G1 X1013.5607 Y1401.6190 Z-1.0000 F2750
G1 X1009.1937 Y1400.7382 Z-1.0000 F2750
G1 X1006.0561 Y1398.5180 Z-1.0000 F2750
G1 X1004.2212 Y1395.4905 Z-1.0000 F2750
G1 X1003.6891 Y1392.2061 Z-1.0000 F2750
G1 X1004.2029 Y1389.3254 Z-1.0000 F2750
G1 X1005.4506 Y1387.1419 Z-1.0000 F2750
G1 X1007.3038 Y1385.4905 Z-1.0000 F2750
G1 X1009.6708 Y1384.0777 Z-1.0000 F2750
G1 X1018.8634 Y1379.3437 Z-1.0000 F2750
G1 X1020.7717 Y1378.2428 Z-1.0000 F2750
G1 X1022.8084 Y1376.5547 Z-1.0000 F2750
G1 X1024.3497 Y1373.8758 Z-1.0000 F2750
G1 X1024.8818 Y1369.8758 Z-1.0000 F2750
G1 X1023.7625 Y1365.7107 Z-1.0000 F2750
G1 X1021.0836 Y1362.7199 Z-1.0000 F2750
G1 X1017.2671 Y1360.9768 Z-1.0000 F2750
G1 X1012.7717 Y1360.5180 Z-1.0000 F2750
G1 X1008.6433 Y1360.9951 Z-1.0000 F2750
G1 X1005.5240 Y1362.2428 Z-1.0000 F2750
G1 X1003.1020 Y1364.2979 Z-1.0000 F2750
G1 X1003.1020 Y1364.2979 Z10.0000 F9999
G1 X1041.1754 Y1381.3804 Z10.0000 F9999
G1 X1041.1754 Y1381.3804 Z-1.0000 F2000
G1 X1063.8359 Y1360.5180 Z-1.0000 F2750
G1 X1041.1754 Y1381.3804 Z-1.0000 F2750
G1 X1063.7258 Y1401.6190 Z-1.0000 F2750
G1 X1041.1754 Y1381.3804 Z-1.0000 F2750
G1 X1041.1754 Y1401.6190 Z-1.0000 F2750
G1 X1041.1754 Y1360.5180 Z-1.0000 F2750
G1 X1041.1754 Y1360.5180 Z10.0000 F9999
G1 X1079.9277 Y1401.6190 Z10.0000 F9999
G1 X1079.9277 Y1401.6190 Z-1.0000 F2000
G1 X1079.9277 Y1360.5180 Z-1.0000 F2750
G1 X1079.9277 Y1401.6190 Z-1.0000 F2750
G1 X1079.9277 Y1401.6190 Z10.0000 F9999
G1 X1125.4873 Y1411.0134 Z10.0000 F9999
G1 X1125.4873 Y1411.0134 Z-1.0000 F2000
G1 X1095.1020 Y1358.1694 Z-1.0000 F2750
G1 X1125.4873 Y1411.0134 Z-1.0000 F2750
G1 X1125.4873 Y1411.0134 Z10.0000 F9999
G1 X1152.2212 Y1401.6190 Z10.0000 F9999
G1 X1152.2212 Y1401.6190 Z-1.0000 F2000
G1 X1168.2763 Y1360.5180 Z-1.0000 F2750
G1 X1152.2212 Y1401.6190 Z-1.0000 F2750
G1 X1136.2029 Y1360.5180 Z-1.0000 F2750
G1 X1136.2029 Y1360.5180 Z10.0000 F9999
G1 X1162.5332 Y1375.2153 Z10.0000 F9999
G1 X1162.5332 Y1375.2153 Z-1.0000 F2000
G1 X1141.8359 Y1375.2153 Z-1.0000 F2750
G1 X1162.5332 Y1375.2153 Z-1.0000 F2750
G1 X1162.5332 Y1375.2153 Z10.0000 F9999
G1 X97.6705 Y1954.4961 Z10.0000 F9999
G1 X97.6705 Y1954.4961 Z-1.0000 F2000
G1 X66.8448 Y1926.6704 Z-1.0000 F2750
G1 X97.6705 Y1926.6704 Z-1.0000 F2750
G1 X66.8448 Y1926.6704 Z-1.0000 F2750
G1 X97.6705 Y1954.4961 Z-1.0000 F2750
G1 X66.8448 Y1954.4961 Z-1.0000 F2750
G1 X66.8448 Y1954.4961 Z10.0000 F9999
G1 X97.6705 Y1969.4685 Z10.0000 F9999
G1 X97.6705 Y1969.4685 Z-1.0000 F2000
G1 X66.8448 Y1969.4685 Z-1.0000 F2750
G1 X97.6705 Y1969.4685 Z-1.0000 F2750
G1 X97.6705 Y1969.4685 Z10.0000 F9999
G1 X104.7163 Y1981.0970 Z10.0000 F9999
G1 X104.7163 Y1981.0970 Z-1.0000 F2000
G1 X65.0833 Y2003.8860 Z-1.0000 F2750
G1 X104.7163 Y1981.0970 Z-1.0000 F2750
G1 X104.7163 Y1981.0970 Z10.0000 F9999
G1 X97.6705 Y2017.1795 Z10.0000 F9999
G1 X97.6705 Y2017.1795 Z-1.0000 F2000
G1 X72.6246 Y2033.8309 Z-1.0000 F2750
G1 X72.6246 Y2012.2254 Z-1.0000 F2750
G1 X72.6246 Y2033.8309 Z-1.0000 F2750
G1 X97.6705 Y2017.1795 Z-1.0000 F2750
G1 X66.8448 Y2017.1795 Z-1.0000 F2750
G1 X66.8448 Y2017.1795 Z10.0000 F9999
G1 X71.9640 Y2060.2529 Z10.0000 F9999
G1 X71.9640 Y2060.2529 Z-1.0000 F2000
G1 X69.6796 Y2058.7942 Z-1.0000 F2750
G1 X68.1383 Y2056.9777 Z-1.0000 F2750
G1 X67.2026 Y2054.6383 Z-1.0000 F2750
G1 X66.8448 Y2051.5419 Z-1.0000 F2750
G1 X67.1888 Y2048.1704 Z-1.0000 F2750
G1 X68.4961 Y2045.3080 Z-1.0000 F2750
G1 X70.7393 Y2043.2988 Z-1.0000 F2750
G1 X73.8631 Y2042.4594 Z-1.0000 F2750
G1 X76.8631 Y2042.8584 Z-1.0000 F2750
G1 X78.8723 Y2044.0144 Z-1.0000 F2750
G1 X80.1383 Y2045.5419 Z-1.0000 F2750
G1 X80.9640 Y2046.9731 Z-1.0000 F2750
G1 X84.5145 Y2053.8676 Z-1.0000 F2750
G1 X85.5741 Y2055.6428 Z-1.0000 F2750
G1 X86.8127 Y2057.0328 Z-1.0000 F2750
G1 X88.4503 Y2057.9685 Z-1.0000 F2750
G1 X90.6108 Y2058.3539 Z-1.0000 F2750
G1 X93.0741 Y2057.9548 Z-1.0000 F2750
G1 X95.3448 Y2056.5786 Z-1.0000 F2750
G1 X97.0099 Y2054.2254 Z-1.0000 F2750
G1 X97.6705 Y2050.9502 Z-1.0000 F2750
G1 X97.1613 Y2047.7575 Z-1.0000 F2750
G1 X96.0604 Y2045.6245 Z-1.0000 F2750
G1 X94.4503 Y2044.0557 Z-1.0000 F2750
G1 X96.0604 Y2045.6245 Z-1.0000 F2750
G1 X97.1613 Y2047.7575 Z-1.0000 F2750
G1 X97.6705 Y2050.9502 Z-1.0000 F2750
G1 X97.0099 Y2054.2254 Z-1.0000 F2750
G1 X95.3448 Y2056.5786 Z-1.0000 F2750
G1 X93.0741 Y2057.9548 Z-1.0000 F2750
G1 X90.6108 Y2058.3539 Z-1.0000 F2750
G1 X88.4503 Y2057.9685 Z-1.0000 F2750
G1 X86.8127 Y2057.0328 Z-1.0000 F2750
G1 X85.5741 Y2055.6428 Z-1.0000 F2750
G1 X84.5145 Y2053.8676 Z-1.0000 F2750
G1 X80.9640 Y2046.9731 Z-1.0000 F2750
G1 X80.1383 Y2045.5419 Z-1.0000 F2750
G1 X78.8723 Y2044.0144 Z-1.0000 F2750
G1 X76.8631 Y2042.8584 Z-1.0000 F2750
G1 X73.8631 Y2042.4594 Z-1.0000 F2750
G1 X70.7393 Y2043.2988 Z-1.0000 F2750
G1 X68.4961 Y2045.3080 Z-1.0000 F2750
G1 X67.1888 Y2048.1704 Z-1.0000 F2750
G1 X66.8448 Y2051.5419 Z-1.0000 F2750
G1 X67.2026 Y2054.6383 Z-1.0000 F2750
G1 X68.1383 Y2056.9777 Z-1.0000 F2750
G1 X69.6796 Y2058.7942 Z-1.0000 F2750
G1 X69.6796 Y2058.7942 Z10.0000 F9999
G1 X104.7163 Y2068.2896 Z10.0000 F9999
G1 X104.7163 Y2068.2896 Z-1.0000 F2000
G1 X65.0833 Y2091.0786 Z-1.0000 F2750
G1 X104.7163 Y2068.2896 Z-1.0000 F2750
G1 X104.7163 Y2068.2896 Z10.0000 F9999
G1 X97.6705 Y2111.6520 Z10.0000 F9999
G1 X97.6705 Y2111.6520 Z-1.0000 F2000
G1 X66.8448 Y2099.6107 Z-1.0000 F2750
G1 X97.6705 Y2111.6520 Z-1.0000 F2750
G1 X66.8448 Y2123.6658 Z-1.0000 F2750
G1 X66.8448 Y2123.6658 Z10.0000 F9999
G1 X85.3402 Y2131.6750 Z10.0000 F9999
G1 X85.3402 Y2131.6750 Z-1.0000 F2000
G1 X85.3402 Y2153.6107 Z-1.0000 F2750
G1 X85.3402 Y2131.6750 Z-1.0000 F2750
G1 X85.3402 Y2131.6750 Z10.0000 F9999
G1 X77.8677 Y2103.9181 Z10.0000 F9999
G1 X77.8677 Y2103.9181 Z-1.0000 F2000
G1 X77.8677 Y2119.4410 Z-1.0000 F2750
G1 X77.8677 Y2103.9181 Z-1.0000 F2750
G1 X77.8677 Y2103.9181 Z10.0000 F9999
G1 X77.8677 Y2166.4502 Z10.0000 F9999
G1 X77.8677 Y2166.4502 Z-1.0000 F2000
G1 X77.8677 Y2181.9731 Z-1.0000 F2750
G1 X77.8677 Y2166.4502 Z-1.0000 F2750
G1 X77.8677 Y2166.4502 Z10.0000 F9999
G1 X97.6705 Y2174.1841 Z10.0000 F9999
G1 X97.6705 Y2174.1841 Z-1.0000 F2000
G1 X66.8448 Y2162.1428 Z-1.0000 F2750
G1 X97.6705 Y2174.1841 Z-1.0000 F2750
G1 X66.8448 Y2186.1979 Z-1.0000 F2750
G1 X66.8448 Y2186.1979 Z10.0000 F9999
G1 X66.8448 Y2194.2071 Z10.0000 F9999
G1 X66.8448 Y2194.2071 Z-1.0000 F2000
G1 X81.9549 Y2204.1291 Z-1.0000 F2750
G1 X66.8448 Y2194.2071 Z-1.0000 F2750
G1 X66.8448 Y2194.2071 Z10.0000 F9999
G1 X66.8448 Y2207.2667 Z10.0000 F9999
G1 X66.8448 Y2207.2667 Z-1.0000 F2000
G1 X97.6705 Y2207.2667 Z-1.0000 F2750
G1 X97.6705 Y2201.8997 Z-1.0000 F2750
G1 X97.2163 Y2198.9961 Z-1.0000 F2750
G1 X95.8539 Y2196.5878 Z-1.0000 F2750
G1 X93.4870 Y2194.9227 Z-1.0000 F2750
G1 X90.0053 Y2194.2896 Z-1.0000 F2750
G1 X86.4961 Y2195.1566 Z-1.0000 F2750
G1 X84.0053 Y2197.2346 Z-1.0000 F2750
G1 X82.5328 Y2199.7254 Z-1.0000 F2750
G1 X82.0374 Y2201.8997 Z-1.0000 F2750
G1 X82.0374 Y2207.2667 Z-1.0000 F2750
G1 X82.0374 Y2201.8997 Z-1.0000 F2750
G1 X82.5328 Y2199.7254 Z-1.0000 F2750
G1 X84.0053 Y2197.2346 Z-1.0000 F2750
G1 X86.4961 Y2195.1566 Z-1.0000 F2750
G1 X90.0053 Y2194.2896 Z-1.0000 F2750
G1 X93.4870 Y2194.9227 Z-1.0000 F2750
G1 X95.8539 Y2196.5878 Z-1.0000 F2750
G1 X97.2163 Y2198.9961 Z-1.0000 F2750
G1 X97.6705 Y2201.8997 Z-1.0000 F2750
G1 X97.6705 Y2207.2667 Z-1.0000 F2750
G1 X97.6705 Y2207.2667 Z10.0000 F9999
G1 X83.9503 Y2230.1658 Z10.0000 F9999
G1 X83.9503 Y2230.1658 Z-1.0000 F2000
G1 X83.9503 Y2219.3355 Z-1.0000 F2750
G1 X83.9503 Y2230.1658 Z-1.0000 F2750
G1 X97.6705 Y2230.1658 Z-1.0000 F2750
G1 X97.6705 Y2218.8263 Z-1.0000 F2750
G1 X97.6705 Y2230.1658 Z-1.0000 F2750
G1 X66.8448 Y2230.1658 Z-1.0000 F2750
G1 X66.8448 Y2230.1658 Z10.0000 F9999
(Tool Number:1) (7.998 mm dia. slot drill)
M3 S19000
G1 X267.9786 Y364.1396 Z10.0000 F9999
G1 X267.9786 Y364.1396 Z1.0000 F2000
G1 X246.0580 Y386.0602 Z-6.9547 F2000
G1 X247.4743 Y384.6467 Z-7.4682 F2000
G1 X247.9140 Y384.2668 Z-7.6173 F2000
G1 X248.4299 Y383.9407 Z-7.7739 F2000
G1 X249.0123 Y383.6891 Z-7.9367 F2000
G1 X249.6440 Y383.5299 Z-8.1038 F2000
G1 X250.3020 Y383.4754 Z-8.2733 F2000
G1 X250.9601 Y383.5299 Z-8.4427 F2000
G1 X251.5918 Y383.6891 Z-8.6099 F2000
G1 X252.1741 Y383.9407 Z-8.7726 F2000
G1 X252.6901 Y384.2668 Z-8.9293 F2000
G1 X252.8987 Y384.4470 Z-9.0000 F2000
G1 X252.6901 Y384.2668 Z-9.0707 F2000
G1 X252.1741 Y383.9407 Z-9.2274 F2000
G1 X251.5918 Y383.6891 Z-9.3901 F2000
G1 X250.9601 Y383.5299 Z-9.5573 F2000
G1 X250.3020 Y383.4754 Z-9.7267 F2000
G1 X249.6440 Y383.5299 Z-9.8962 F2000
G1 X249.0123 Y383.6891 Z-10.0633 F2000
G1 X248.4299 Y383.9407 Z-10.2261 F2000
G1 X247.9140 Y384.2668 Z-10.3827 F2000
G1 X247.4743 Y384.6467 Z-10.5318 F2000
G1 X246.0580 Y386.0602 Z-11.0453 F2000
G1 X267.9786 Y364.1396 Z-19.0000 F2000
G1 X246.0580 Y386.0602 Z-19.0000 F2750
G1 X247.4743 Y384.6467 Z-19.0000 F2750
G1 X247.9140 Y384.2668 Z-19.0000 F2750
G1 X248.4299 Y383.9407 Z-19.0000 F2750
G1 X249.0123 Y383.6891 Z-19.0000 F2750
G1 X249.6440 Y383.5299 Z-19.0000 F2750
G1 X250.3020 Y383.4754 Z-19.0000 F2750
G1 X250.9601 Y383.5299 Z-19.0000 F2750
G1 X251.5918 Y383.6891 Z-19.0000 F2750
G1 X252.1741 Y383.9407 Z-19.0000 F2750
G1 X252.6901 Y384.2668 Z-19.0000 F2750
G1 X253.1298 Y384.6467 Z-19.0000 F2750
G1 X261.6157 Y393.1327 Z-19.0000 F2750
G1 X260.2022 Y391.7163 Z-19.0000 F2750
G1 X259.8223 Y391.2767 Z-19.0000 F2750
G1 X259.4962 Y390.7607 Z-19.0000 F2750
G1 X259.2446 Y390.1784 Z-19.0000 F2750
G1 X259.0855 Y389.5467 Z-19.0000 F2750
G1 X259.0309 Y388.8886 Z-19.0000 F2750
G1 X259.0855 Y388.2306 Z-19.0000 F2750
G1 X259.2446 Y387.5989 Z-19.0000 F2750
G1 X259.4962 Y387.0165 Z-19.0000 F2750
G1 X259.8223 Y386.5005 Z-19.0000 F2750
G1 X260.2022 Y386.0609 Z-19.0000 F2750
G1 X291.3147 Y354.9484 Z-19.0000 F2750
G1 X291.7856 Y354.5454 Z-19.0000 F2750
G1 X292.3235 Y354.2147 Z-19.0000 F2750
G1 X292.9104 Y353.9716 Z-19.0000 F2750
G1 X293.5246 Y353.8251 Z-19.0000 F2750
G1 X294.1425 Y353.7771 Z-19.0000 F2750
G1 X294.7603 Y353.8251 Z-19.0000 F2750
G1 X295.3745 Y353.9716 Z-19.0000 F2750
G1 X295.9615 Y354.2147 Z-19.0000 F2750
G1 X296.4993 Y354.5454 Z-19.0000 F2750
G1 X296.9702 Y354.9484 Z-19.0000 F2750
G1 X298.3851 Y356.3633 Z-19.0000 F2750
G1 X289.9006 Y347.8759 Z-19.0000 F2750
G1 X289.4976 Y347.4050 Z-19.0000 F2750
G1 X289.1669 Y346.8672 Z-19.0000 F2750
G1 X288.9238 Y346.2802 Z-19.0000 F2750
G1 X288.7773 Y345.6661 Z-19.0000 F2750
G1 X288.7293 Y345.0482 Z-19.0000 F2750
G1 X288.7773 Y344.4303 Z-19.0000 F2750
G1 X288.9238 Y343.8162 Z-19.0000 F2750
G1 X289.1669 Y343.2292 Z-19.0000 F2750
G1 X289.4976 Y342.6913 Z-19.0000 F2750
G1 X289.9006 Y342.2205 Z-19.0000 F2750
G1 X291.3155 Y340.8055 Z-19.0000 F2750
G1 X279.6412 Y352.4668 Z-19.0000 F2750
G1 X267.9786 Y364.1396 Z-19.0000 F2750
G1 X267.9786 Y364.1396 Z10.0000 F9999
G1 X440.5142 Y533.8454 Z10.0000 F9999
G1 X440.5142 Y533.8454 Z1.0000 F2000
G1 X462.4348 Y511.9249 Z-6.9547 F2000
G1 X461.0185 Y513.3384 Z-7.4682 F2000
G1 X460.5788 Y513.7183 Z-7.6173 F2000
G1 X460.0628 Y514.0444 Z-7.7739 F2000
G1 X459.4805 Y514.2960 Z-7.9367 F2000
G1 X458.8488 Y514.4551 Z-8.1038 F2000
G1 X458.1907 Y514.5097 Z-8.2733 F2000
G1 X457.5327 Y514.4551 Z-8.4427 F2000
G1 X456.9010 Y514.2960 Z-8.6099 F2000
G1 X456.3186 Y514.0444 Z-8.7726 F2000
G1 X455.8027 Y513.7183 Z-8.9293 F2000
G1 X455.5941 Y513.5380 Z-9.0000 F2000
G1 X455.8027 Y513.7183 Z-9.0707 F2000
G1 X456.3186 Y514.0444 Z-9.2274 F2000
G1 X456.9010 Y514.2960 Z-9.3901 F2000
G1 X457.5327 Y514.4551 Z-9.5573 F2000
G1 X458.1907 Y514.5097 Z-9.7267 F2000
G1 X458.8488 Y514.4551 Z-9.8962 F2000
G1 X459.4805 Y514.2960 Z-10.0633 F2000
G1 X460.0628 Y514.0444 Z-10.2261 F2000
G1 X460.5788 Y513.7183 Z-10.3827 F2000
G1 X461.0185 Y513.3384 Z-10.5318 F2000
G1 X462.4348 Y511.9249 Z-11.0453 F2000
G1 X440.5142 Y533.8454 Z-19.0000 F2000
G1 X462.4348 Y511.9249 Z-19.0000 F2750
G1 X461.0185 Y513.3384 Z-19.0000 F2750
G1 X460.5788 Y513.7183 Z-19.0000 F2750
G1 X460.0628 Y514.0444 Z-19.0000 F2750
G1 X459.4805 Y514.2960 Z-19.0000 F2750
G1 X458.8488 Y514.4551 Z-19.0000 F2750
G1 X458.1907 Y514.5097 Z-19.0000 F2750
G1 X457.5327 Y514.4551 Z-19.0000 F2750
G1 X456.9010 Y514.2960 Z-19.0000 F2750
G1 X456.3186 Y514.0444 Z-19.0000 F2750
G1 X455.8027 Y513.7183 Z-19.0000 F2750
G1 X455.3630 Y513.3384 Z-19.0000 F2750
G1 X446.8771 Y504.8524 Z-19.0000 F2750
G1 X448.2906 Y506.2687 Z-19.0000 F2750
G1 X448.6935 Y506.7396 Z-19.0000 F2750
G1 X449.0242 Y507.2775 Z-19.0000 F2750
G1 X449.2673 Y507.8644 Z-19.0000 F2750
G1 X449.4138 Y508.4786 Z-19.0000 F2750
G1 X449.4618 Y509.0965 Z-19.0000 F2750
G1 X449.4138 Y509.7143 Z-19.0000 F2750
G1 X449.2673 Y510.3285 Z-19.0000 F2750
G1 X449.0242 Y510.9155 Z-19.0000 F2750
G1 X448.6935 Y511.4533 Z-19.0000 F2750
G1 X448.2906 Y511.9242 Z-19.0000 F2750
G1 X417.1780 Y543.0367 Z-19.0000 F2750
G1 X416.7384 Y543.4166 Z-19.0000 F2750
G1 X416.2224 Y543.7427 Z-19.0000 F2750
G1 X415.6401 Y543.9943 Z-19.0000 F2750
G1 X415.0084 Y544.1535 Z-19.0000 F2750
G1 X414.3503 Y544.2080 Z-19.0000 F2750
G1 X413.6923 Y544.1535 Z-19.0000 F2750
G1 X413.0606 Y543.9943 Z-19.0000 F2750
G1 X412.4782 Y543.7427 Z-19.0000 F2750
G1 X411.9622 Y543.4166 Z-19.0000 F2750
G1 X411.5226 Y543.0367 Z-19.0000 F2750
G1 X410.1077 Y541.6218 Z-19.0000 F2750
G1 X418.5922 Y550.1092 Z-19.0000 F2750
G1 X418.9952 Y550.5800 Z-19.0000 F2750
G1 X419.3259 Y551.1179 Z-19.0000 F2750
G1 X419.5690 Y551.7049 Z-19.0000 F2750
G1 X419.7155 Y552.3190 Z-19.0000 F2750
G1 X419.7635 Y552.9369 Z-19.0000 F2750
G1 X419.7155 Y553.5548 Z-19.0000 F2750
G1 X419.5690 Y554.1689 Z-19.0000 F2750
G1 X419.3259 Y554.7559 Z-19.0000 F2750
G1 X418.9952 Y555.2938 Z-19.0000 F2750
G1 X418.5922 Y555.7646 Z-19.0000 F2750
G1 X417.1773 Y557.1795 Z-19.0000 F2750
G1 X428.8516 Y545.5183 Z-19.0000 F2750
G1 X440.5142 Y533.8454 Z-19.0000 F2750
G1 X440.5142 Y533.8454 Z10.0000 F9999
G1 X684.6038 Y383.2562 Z10.0000 F9999
G1 X684.6038 Y383.2562 Z1.0000 F2000
G1 X662.6832 Y405.1767 Z-6.9547 F2000
G1 X664.0995 Y403.7632 Z-7.4682 F2000
G1 X664.5392 Y403.3833 Z-7.6173 F2000
G1 X665.0551 Y403.0572 Z-7.7739 F2000
G1 X665.6375 Y402.8056 Z-7.9367 F2000
G1 X666.2692 Y402.6465 Z-8.1038 F2000
G1 X666.9272 Y402.5920 Z-8.2733 F2000
G1 X667.5853 Y402.6465 Z-8.4427 F2000
G1 X668.2170 Y402.8056 Z-8.6099 F2000
G1 X668.7993 Y403.0572 Z-8.7726 F2000
G1 X669.3153 Y403.3833 Z-8.9293 F2000
G1 X669.5239 Y403.5636 Z-9.0000 F2000
G1 X669.3153 Y403.3833 Z-9.0707 F2000
G1 X668.7993 Y403.0572 Z-9.2274 F2000
G1 X668.2170 Y402.8056 Z-9.3901 F2000
G1 X667.5853 Y402.6465 Z-9.5573 F2000
G1 X666.9272 Y402.5920 Z-9.7267 F2000
G1 X666.2692 Y402.6465 Z-9.8962 F2000
G1 X665.6375 Y402.8056 Z-10.0633 F2000
G1 X665.0551 Y403.0572 Z-10.2261 F2000
G1 X664.5392 Y403.3833 Z-10.3827 F2000
G1 X664.0995 Y403.7632 Z-10.5318 F2000
G1 X662.6832 Y405.1767 Z-11.0453 F2000
G1 X684.6038 Y383.2562 Z-19.0000 F2000
G1 X662.6832 Y405.1767 Z-19.0000 F2750
G1 X664.0995 Y403.7632 Z-19.0000 F2750
G1 X664.5392 Y403.3833 Z-19.0000 F2750
G1 X665.0551 Y403.0572 Z-19.0000 F2750
G1 X665.6375 Y402.8056 Z-19.0000 F2750
G1 X666.2692 Y402.6465 Z-19.0000 F2750
G1 X666.9272 Y402.5920 Z-19.0000 F2750
G1 X667.5853 Y402.6465 Z-19.0000 F2750
G1 X668.2170 Y402.8056 Z-19.0000 F2750
G1 X668.7993 Y403.0572 Z-19.0000 F2750
G1 X669.3153 Y403.3833 Z-19.0000 F2750
G1 X669.7550 Y403.7632 Z-19.0000 F2750
G1 X678.2409 Y412.2492 Z-19.0000 F2750
G1 X676.8274 Y410.8329 Z-19.0000 F2750
G1 X676.4245 Y410.3620 Z-19.0000 F2750
G1 X676.0938 Y409.8242 Z-19.0000 F2750
G1 X675.8506 Y409.2372 Z-19.0000 F2750
G1 X675.7042 Y408.6230 Z-19.0000 F2750
G1 X675.6561 Y408.0051 Z-19.0000 F2750
G1 X675.7042 Y407.3873 Z-19.0000 F2750
G1 X675.8506 Y406.7731 Z-19.0000 F2750
G1 X676.0938 Y406.1861 Z-19.0000 F2750
G1 X676.4245 Y405.6483 Z-19.0000 F2750
G1 X676.8274 Y405.1774 Z-19.0000 F2750
G1 X707.9399 Y374.0649 Z-19.0000 F2750
G1 X708.3796 Y373.6850 Z-19.0000 F2750
G1 X708.8956 Y373.3589 Z-19.0000 F2750
G1 X709.4779 Y373.1073 Z-19.0000 F2750
G1 X710.1096 Y372.9481 Z-19.0000 F2750
G1 X710.7677 Y372.8936 Z-19.0000 F2750
G1 X711.4257 Y372.9481 Z-19.0000 F2750
G1 X712.0574 Y373.1073 Z-19.0000 F2750
G1 X712.6398 Y373.3589 Z-19.0000 F2750
G1 X713.1557 Y373.6850 Z-19.0000 F2750
G1 X713.5954 Y374.0649 Z-19.0000 F2750
G1 X715.0103 Y375.4798 Z-19.0000 F2750
G1 X706.5258 Y366.9924 Z-19.0000 F2750
G1 X706.1228 Y366.5216 Z-19.0000 F2750
G1 X705.7921 Y365.9837 Z-19.0000 F2750
G1 X705.5490 Y365.3967 Z-19.0000 F2750
G1 X705.4025 Y364.7826 Z-19.0000 F2750
G1 X705.3545 Y364.1647 Z-19.0000 F2750
G1 X705.4025 Y363.5468 Z-19.0000 F2750
G1 X705.5490 Y362.9327 Z-19.0000 F2750
G1 X705.7921 Y362.3457 Z-19.0000 F2750
G1 X706.1228 Y361.8079 Z-19.0000 F2750
G1 X706.5258 Y361.3370 Z-19.0000 F2750
G1 X707.9407 Y359.9221 Z-19.0000 F2750
G1 X696.2664 Y371.5833 Z-19.0000 F2750
G1 X684.6038 Y383.2562 Z-19.0000 F2750
G1 X684.6038 Y383.2562 Z10.0000 F9999
G1 X652.6464 Y321.7139 Z10.0000 F9999
G1 X652.6464 Y321.7139 Z1.0000 F2000
G1 X674.5670 Y299.7934 Z-6.9547 F2000
G1 X673.1507 Y301.2069 Z-7.4682 F2000
G1 X672.7110 Y301.5868 Z-7.6173 F2000
G1 X672.1950 Y301.9129 Z-7.7739 F2000
G1 X671.6127 Y302.1644 Z-7.9367 F2000
G1 X670.9810 Y302.3236 Z-8.1038 F2000
G1 X670.3230 Y302.3781 Z-8.2733 F2000
G1 X669.6649 Y302.3236 Z-8.4427 F2000
G1 X669.0332 Y302.1644 Z-8.6099 F2000
G1 X668.4509 Y301.9129 Z-8.7726 F2000
G1 X667.9349 Y301.5868 Z-8.9293 F2000
G1 X667.7263 Y301.4065 Z-9.0000 F2000
G1 X667.9349 Y301.5868 Z-9.0707 F2000
G1 X668.4509 Y301.9129 Z-9.2274 F2000
G1 X669.0332 Y302.1644 Z-9.3901 F2000
G1 X669.6649 Y302.3236 Z-9.5573 F2000
G1 X670.3230 Y302.3781 Z-9.7267 F2000
G1 X670.9810 Y302.3236 Z-9.8962 F2000
G1 X671.6127 Y302.1644 Z-10.0633 F2000
G1 X672.1950 Y301.9129 Z-10.2261 F2000
G1 X672.7110 Y301.5868 Z-10.3827 F2000
G1 X673.1507 Y301.2069 Z-10.5318 F2000
G1 X674.5670 Y299.7934 Z-11.0453 F2000
G1 X652.6464 Y321.7139 Z-19.0000 F2000
G1 X674.5670 Y299.7934 Z-19.0000 F2750
G1 X673.1507 Y301.2069 Z-19.0000 F2750
G1 X672.7110 Y301.5868 Z-19.0000 F2750
G1 X672.1950 Y301.9129 Z-19.0000 F2750
G1 X671.6127 Y302.1644 Z-19.0000 F2750
G1 X670.9810 Y302.3236 Z-19.0000 F2750
G1 X670.3230 Y302.3781 Z-19.0000 F2750
G1 X669.6649 Y302.3236 Z-19.0000 F2750
G1 X669.0332 Y302.1644 Z-19.0000 F2750
G1 X668.4509 Y301.9129 Z-19.0000 F2750
G1 X667.9349 Y301.5868 Z-19.0000 F2750
G1 X667.4952 Y301.2069 Z-19.0000 F2750
G1 X659.0093 Y292.7209 Z-19.0000 F2750
G1 X660.4228 Y294.1372 Z-19.0000 F2750
G1 X660.8027 Y294.5769 Z-19.0000 F2750
G1 X661.1288 Y295.0928 Z-19.0000 F2750
G1 X661.3804 Y295.6752 Z-19.0000 F2750
G1 X661.5395 Y296.3069 Z-19.0000 F2750
G1 X661.5940 Y296.9649 Z-19.0000 F2750
G1 X661.5395 Y297.6230 Z-19.0000 F2750
G1 X661.3804 Y298.2547 Z-19.0000 F2750
G1 X661.1288 Y298.8370 Z-19.0000 F2750
G1 X660.8027 Y299.3530 Z-19.0000 F2750
G1 X660.4228 Y299.7927 Z-19.0000 F2750
G1 X629.3102 Y330.9052 Z-19.0000 F2750
G1 X628.8394 Y331.3081 Z-19.0000 F2750
G1 X628.3015 Y331.6388 Z-19.0000 F2750
G1 X627.7145 Y331.8820 Z-19.0000 F2750
G1 X627.1004 Y332.0284 Z-19.0000 F2750
G1 X626.4825 Y332.0765 Z-19.0000 F2750
G1 X625.8647 Y332.0284 Z-19.0000 F2750
G1 X625.2505 Y331.8820 Z-19.0000 F2750
G1 X624.6635 Y331.6388 Z-19.0000 F2750
G1 X624.1257 Y331.3081 Z-19.0000 F2750
G1 X623.6548 Y330.9052 Z-19.0000 F2750
G1 X622.2399 Y329.4903 Z-19.0000 F2750
G1 X630.7244 Y337.9777 Z-19.0000 F2750
G1 X631.1044 Y338.4173 Z-19.0000 F2750
G1 X631.4304 Y338.9333 Z-19.0000 F2750
G1 X631.6820 Y339.5156 Z-19.0000 F2750
G1 X631.8412 Y340.1473 Z-19.0000 F2750
G1 X631.8957 Y340.8054 Z-19.0000 F2750
G1 X631.8412 Y341.4634 Z-19.0000 F2750
G1 X631.6820 Y342.0951 Z-19.0000 F2750
G1 X631.4304 Y342.6775 Z-19.0000 F2750
G1 X631.1044 Y343.1934 Z-19.0000 F2750
G1 X630.7244 Y343.6331 Z-19.0000 F2750
G1 X629.3095 Y345.0480 Z-19.0000 F2750
G1 X640.9838 Y333.3868 Z-19.0000 F2750
G1 X652.6464 Y321.7139 Z-19.0000 F2750
G1 X652.6464 Y321.7139 Z10.0000 F9999
G1 X480.1108 Y152.0081 Z10.0000 F9999
G1 X480.1108 Y152.0081 Z1.0000 F2000
G1 X458.1902 Y173.9287 Z-6.9547 F2000
G1 X459.6065 Y172.5152 Z-7.4682 F2000
G1 X460.0462 Y172.1352 Z-7.6173 F2000
G1 X460.5622 Y171.8092 Z-7.7739 F2000
G1 X461.1445 Y171.5576 Z-7.9367 F2000
G1 X461.7762 Y171.3984 Z-8.1038 F2000
G1 X462.4342 Y171.3439 Z-8.2733 F2000
G1 X463.0923 Y171.3984 Z-8.4427 F2000
G1 X463.7240 Y171.5576 Z-8.6099 F2000
G1 X464.3063 Y171.8092 Z-8.7726 F2000
G1 X464.8223 Y172.1352 Z-8.9293 F2000
G1 X465.0309 Y172.3155 Z-9.0000 F2000
G1 X464.8223 Y172.1352 Z-9.0707 F2000
G1 X464.3063 Y171.8092 Z-9.2274 F2000
G1 X463.7240 Y171.5576 Z-9.3901 F2000
G1 X463.0923 Y171.3984 Z-9.5573 F2000
G1 X462.4342 Y171.3439 Z-9.7267 F2000
G1 X461.7762 Y171.3984 Z-9.8962 F2000
G1 X461.1445 Y171.5576 Z-10.0633 F2000
G1 X460.5622 Y171.8092 Z-10.2261 F2000
G1 X460.0462 Y172.1352 Z-10.3827 F2000
G1 X459.6065 Y172.5152 Z-10.5318 F2000
G1 X458.1902 Y173.9287 Z-11.0453 F2000
G1 X480.1108 Y152.0081 Z-19.0000 F2000
G1 X458.1902 Y173.9287 Z-19.0000 F2750
G1 X459.6065 Y172.5152 Z-19.0000 F2750
G1 X460.0462 Y172.1352 Z-19.0000 F2750
G1 X460.5622 Y171.8092 Z-19.0000 F2750
G1 X461.1445 Y171.5576 Z-19.0000 F2750
G1 X461.7762 Y171.3984 Z-19.0000 F2750
G1 X462.4342 Y171.3439 Z-19.0000 F2750
G1 X463.0923 Y171.3984 Z-19.0000 F2750
G1 X463.7240 Y171.5576 Z-19.0000 F2750
G1 X464.3063 Y171.8092 Z-19.0000 F2750
G1 X464.8223 Y172.1352 Z-19.0000 F2750
G1 X465.2620 Y172.5152 Z-19.0000 F2750
G1 X473.7479 Y181.0011 Z-19.0000 F2750
G1 X472.3344 Y179.5848 Z-19.0000 F2750
G1 X471.9545 Y179.1452 Z-19.0000 F2750
G1 X471.6284 Y178.6292 Z-19.0000 F2750
G1 X471.3768 Y178.0468 Z-19.0000 F2750
G1 X471.2177 Y177.4152 Z-19.0000 F2750
G1 X471.1631 Y176.7571 Z-19.0000 F2750
G1 X471.2177 Y176.0990 Z-19.0000 F2750
G1 X471.3768 Y175.4673 Z-19.0000 F2750
G1 X471.6284 Y174.8850 Z-19.0000 F2750
G1 X471.9545 Y174.3690 Z-19.0000 F2750
G1 X472.3344 Y173.9294 Z-19.0000 F2750
G1 X503.4470 Y142.8168 Z-19.0000 F2750
G1 X503.8866 Y142.4369 Z-19.0000 F2750
G1 X504.4026 Y142.1108 Z-19.0000 F2750
G1 X504.9849 Y141.8593 Z-19.0000 F2750
G1 X505.6166 Y141.7001 Z-19.0000 F2750
G1 X506.2747 Y141.6456 Z-19.0000 F2750
G1 X506.9327 Y141.7001 Z-19.0000 F2750
G1 X507.5644 Y141.8593 Z-19.0000 F2750
G1 X508.1468 Y142.1108 Z-19.0000 F2750
G1 X508.6628 Y142.4369 Z-19.0000 F2750
G1 X509.1024 Y142.8168 Z-19.0000 F2750
G1 X510.5173 Y144.2318 Z-19.0000 F2750
G1 X502.0328 Y135.7444 Z-19.0000 F2750
G1 X501.6528 Y135.3047 Z-19.0000 F2750
G1 X501.3267 Y134.7888 Z-19.0000 F2750
G1 X501.0752 Y134.2064 Z-19.0000 F2750
G1 X500.9160 Y133.5747 Z-19.0000 F2750
G1 X500.8615 Y132.9167 Z-19.0000 F2750
G1 X500.9160 Y132.2586 Z-19.0000 F2750
G1 X501.0752 Y131.6269 Z-19.0000 F2750
G1 X501.3267 Y131.0446 Z-19.0000 F2750
G1 X501.6528 Y130.5286 Z-19.0000 F2750
G1 X502.0328 Y130.0889 Z-19.0000 F2750
G1 X503.4477 Y128.6740 Z-19.0000 F2750
G1 X491.7734 Y140.3352 Z-19.0000 F2750
G1 X480.1108 Y152.0081 Z-19.0000 F2750
G1 X480.1108 Y152.0081 Z10.0000 F9999
G1 X896.7360 Y171.1246 Z10.0000 F9999
G1 X896.7360 Y171.1246 Z1.0000 F2000
G1 X874.8154 Y193.0452 Z-6.9547 F2000
G1 X876.2317 Y191.6317 Z-7.4682 F2000
G1 X876.6714 Y191.2518 Z-7.6173 F2000
G1 X877.1873 Y190.9257 Z-7.7739 F2000
G1 X877.7697 Y190.6741 Z-7.9367 F2000
G1 X878.4014 Y190.5150 Z-8.1038 F2000
G1 X879.0594 Y190.4604 Z-8.2733 F2000
G1 X879.7175 Y190.5150 Z-8.4427 F2000
G1 X880.3492 Y190.6741 Z-8.6099 F2000
G1 X880.9315 Y190.9257 Z-8.7726 F2000
G1 X881.4475 Y191.2518 Z-8.9293 F2000
G1 X881.6561 Y191.4321 Z-9.0000 F2000
G1 X881.4475 Y191.2518 Z-9.0707 F2000
G1 X880.9315 Y190.9257 Z-9.2274 F2000
G1 X880.3492 Y190.6741 Z-9.3901 F2000
G1 X879.7175 Y190.5150 Z-9.5573 F2000
G1 X879.0594 Y190.4604 Z-9.7267 F2000
G1 X878.4014 Y190.5150 Z-9.8962 F2000
G1 X877.7697 Y190.6741 Z-10.0633 F2000
G1 X877.1873 Y190.9257 Z-10.2261 F2000
G1 X876.6714 Y191.2518 Z-10.3827 F2000
G1 X876.2317 Y191.6317 Z-10.5318 F2000
G1 X874.8154 Y193.0452 Z-11.0453 F2000
G1 X896.7360 Y171.1246 Z-19.0000 F2000
G1 X874.8154 Y193.0452 Z-19.0000 F2750
G1 X876.2317 Y191.6317 Z-19.0000 F2750
G1 X876.6714 Y191.2518 Z-19.0000 F2750
G1 X877.1873 Y190.9257 Z-19.0000 F2750
G1 X877.7697 Y190.6741 Z-19.0000 F2750
G1 X878.4014 Y190.5150 Z-19.0000 F2750
G1 X879.0594 Y190.4604 Z-19.0000 F2750
G1 X879.7175 Y190.5150 Z-19.0000 F2750
G1 X880.3492 Y190.6741 Z-19.0000 F2750
G1 X880.9315 Y190.9257 Z-19.0000 F2750
G1 X881.4475 Y191.2518 Z-19.0000 F2750
G1 X881.8872 Y191.6317 Z-19.0000 F2750
G1 X890.3731 Y200.1177 Z-19.0000 F2750
G1 X888.9596 Y198.7013 Z-19.0000 F2750
G1 X888.5797 Y198.2617 Z-19.0000 F2750
G1 X888.2536 Y197.7457 Z-19.0000 F2750
G1 X888.0020 Y197.1634 Z-19.0000 F2750
G1 X887.8429 Y196.5317 Z-19.0000 F2750
G1 X887.7883 Y195.8736 Z-19.0000 F2750
G1 X887.8429 Y195.2156 Z-19.0000 F2750
G1 X888.0020 Y194.5839 Z-19.0000 F2750
G1 X888.2536 Y194.0015 Z-19.0000 F2750
G1 X888.5797 Y193.4856 Z-19.0000 F2750
G1 X888.9596 Y193.0459 Z-19.0000 F2750
G1 X920.0721 Y161.9334 Z-19.0000 F2750
G1 X920.5118 Y161.5534 Z-19.0000 F2750
G1 X921.0278 Y161.2274 Z-19.0000 F2750
G1 X921.6101 Y160.9758 Z-19.0000 F2750
G1 X922.2418 Y160.8166 Z-19.0000 F2750
G1 X922.8999 Y160.7621 Z-19.0000 F2750
G1 X923.5579 Y160.8166 Z-19.0000 F2750
G1 X924.1896 Y160.9758 Z-19.0000 F2750
G1 X924.7720 Y161.2274 Z-19.0000 F2750
G1 X925.2879 Y161.5534 Z-19.0000 F2750
G1 X925.7276 Y161.9334 Z-19.0000 F2750
G1 X927.1425 Y163.3483 Z-19.0000 F2750
G1 X918.6580 Y154.8609 Z-19.0000 F2750
G1 X918.2550 Y154.3901 Z-19.0000 F2750
G1 X917.9243 Y153.8522 Z-19.0000 F2750
G1 X917.6812 Y153.2652 Z-19.0000 F2750
G1 X917.5347 Y152.6511 Z-19.0000 F2750
G1 X917.4867 Y152.0332 Z-19.0000 F2750
G1 X917.5347 Y151.4153 Z-19.0000 F2750
G1 X917.6812 Y150.8012 Z-19.0000 F2750
G1 X917.9243 Y150.2142 Z-19.0000 F2750
G1 X918.2550 Y149.6763 Z-19.0000 F2750
G1 X918.6580 Y149.2055 Z-19.0000 F2750
G1 X920.0729 Y147.7906 Z-19.0000 F2750
G1 X908.3986 Y159.4518 Z-19.0000 F2750
G1 X896.7360 Y171.1246 Z-19.0000 F2750
G1 X896.7360 Y171.1246 Z10.0000 F9999
G1 X1069.2716 Y340.8305 Z10.0000 F9999
G1 X1069.2716 Y340.8305 Z1.0000 F2000
G1 X1091.1922 Y318.9099 Z-6.9547 F2000
G1 X1089.7759 Y320.3234 Z-7.4682 F2000
G1 X1089.3362 Y320.7033 Z-7.6173 F2000
G1 X1088.8202 Y321.0294 Z-7.7739 F2000
G1 X1088.2379 Y321.2810 Z-7.9367 F2000
G1 X1087.6062 Y321.4402 Z-8.1038 F2000
G1 X1086.9481 Y321.4947 Z-8.2733 F2000
G1 X1086.2901 Y321.4402 Z-8.4427 F2000
G1 X1085.6584 Y321.2810 Z-8.6099 F2000
G1 X1085.0761 Y321.0294 Z-8.7726 F2000
G1 X1084.5601 Y320.7033 Z-8.9293 F2000
G1 X1084.3515 Y320.5231 Z-9.0000 F2000
G1 X1084.5601 Y320.7033 Z-9.0707 F2000
G1 X1085.0761 Y321.0294 Z-9.2274 F2000
G1 X1085.6584 Y321.2810 Z-9.3901 F2000
G1 X1086.2901 Y321.4402 Z-9.5573 F2000
G1 X1086.9481 Y321.4947 Z-9.7267 F2000
G1 X1087.6062 Y321.4402 Z-9.8962 F2000
G1 X1088.2379 Y321.2810 Z-10.0633 F2000
G1 X1088.8202 Y321.0294 Z-10.2261 F2000
G1 X1089.3362 Y320.7033 Z-10.3827 F2000
G1 X1089.7759 Y320.3234 Z-10.5318 F2000
G1 X1091.1922 Y318.9099 Z-11.0453 F2000
G1 X1069.2716 Y340.8305 Z-19.0000 F2000
G1 X1091.1922 Y318.9099 Z-19.0000 F2750
G1 X1089.7759 Y320.3234 Z-19.0000 F2750
G1 X1089.3362 Y320.7033 Z-19.0000 F2750
G1 X1088.8202 Y321.0294 Z-19.0000 F2750
G1 X1088.2379 Y321.2810 Z-19.0000 F2750
G1 X1087.6062 Y321.4402 Z-19.0000 F2750
G1 X1086.9481 Y321.4947 Z-19.0000 F2750
G1 X1086.2901 Y321.4402 Z-19.0000 F2750
G1 X1085.6584 Y321.2810 Z-19.0000 F2750
G1 X1085.0761 Y321.0294 Z-19.0000 F2750
G1 X1084.5601 Y320.7033 Z-19.0000 F2750
G1 X1084.1204 Y320.3234 Z-19.0000 F2750
G1 X1075.6345 Y311.8374 Z-19.0000 F2750
G1 X1077.0480 Y313.2538 Z-19.0000 F2750
G1 X1077.4509 Y313.7246 Z-19.0000 F2750
G1 X1077.7816 Y314.2625 Z-19.0000 F2750
G1 X1078.0247 Y314.8495 Z-19.0000 F2750
G1 X1078.1712 Y315.4636 Z-19.0000 F2750
G1 X1078.2192 Y316.0815 Z-19.0000 F2750
G1 X1078.1712 Y316.6994 Z-19.0000 F2750
G1 X1078.0247 Y317.3135 Z-19.0000 F2750
G1 X1077.7816 Y317.9005 Z-19.0000 F2750
G1 X1077.4509 Y318.4383 Z-19.0000 F2750
G1 X1077.0480 Y318.9092 Z-19.0000 F2750
G1 X1045.9354 Y350.0217 Z-19.0000 F2750
G1 X1045.4958 Y350.4017 Z-19.0000 F2750
G1 X1044.9798 Y350.7277 Z-19.0000 F2750
G1 X1044.3975 Y350.9793 Z-19.0000 F2750
G1 X1043.7658 Y351.1385 Z-19.0000 F2750
G1 X1043.1077 Y351.1930 Z-19.0000 F2750
G1 X1042.4497 Y351.1385 Z-19.0000 F2750
G1 X1041.8180 Y350.9793 Z-19.0000 F2750
G1 X1041.2356 Y350.7277 Z-19.0000 F2750
G1 X1040.7196 Y350.4017 Z-19.0000 F2750
G1 X1040.2800 Y350.0217 Z-19.0000 F2750
G1 X1038.8651 Y348.6068 Z-19.0000 F2750
G1 X1047.3496 Y357.0942 Z-19.0000 F2750
G1 X1047.7296 Y357.5338 Z-19.0000 F2750
G1 X1048.0556 Y358.0498 Z-19.0000 F2750
G1 X1048.3072 Y358.6322 Z-19.0000 F2750
G1 X1048.4664 Y359.2638 Z-19.0000 F2750
G1 X1048.5209 Y359.9219 Z-19.0000 F2750
G1 X1048.4664 Y360.5800 Z-19.0000 F2750
G1 X1048.3072 Y361.2117 Z-19.0000 F2750
G1 X1048.0556 Y361.7940 Z-19.0000 F2750
G1 X1047.7296 Y362.3100 Z-19.0000 F2750
G1 X1047.3496 Y362.7496 Z-19.0000 F2750
G1 X1045.9347 Y364.1645 Z-19.0000 F2750
G1 X1057.6090 Y352.5033 Z-19.0000 F2750
G1 X1069.2716 Y340.8305 Z-19.0000 F2750
G1 X1069.2716 Y340.8305 Z10.0000 F9999
G1 X857.1394 Y552.9620 Z10.0000 F9999
G1 X857.1394 Y552.9620 Z1.0000 F2000
G1 X879.0600 Y531.0414 Z-6.9547 F2000
G1 X877.6437 Y532.4549 Z-7.4682 F2000
G1 X877.2040 Y532.8348 Z-7.6173 F2000
G1 X876.6880 Y533.1609 Z-7.7739 F2000
G1 X876.1057 Y533.4125 Z-7.9367 F2000
G1 X875.4740 Y533.5717 Z-8.1038 F2000
G1 X874.8159 Y533.6262 Z-8.2733 F2000
G1 X874.1579 Y533.5717 Z-8.4427 F2000
G1 X873.5262 Y533.4125 Z-8.6099 F2000
G1 X872.9438 Y533.1609 Z-8.7726 F2000
G1 X872.4279 Y532.8348 Z-8.9293 F2000
G1 X872.2193 Y532.6546 Z-9.0000 F2000
G1 X872.4279 Y532.8348 Z-9.0707 F2000
G1 X872.9438 Y533.1609 Z-9.2274 F2000
G1 X873.5262 Y533.4125 Z-9.3901 F2000
G1 X874.1579 Y533.5717 Z-9.5573 F2000
G1 X874.8159 Y533.6262 Z-9.7267 F2000
G1 X875.4740 Y533.5717 Z-9.8962 F2000
G1 X876.1057 Y533.4125 Z-10.0633 F2000
G1 X876.6880 Y533.1609 Z-10.2261 F2000
G1 X877.2040 Y532.8348 Z-10.3827 F2000
G1 X877.6437 Y532.4549 Z-10.5318 F2000
G1 X879.0600 Y531.0414 Z-11.0453 F2000
G1 X857.1394 Y552.9620 Z-19.0000 F2000
G1 X879.0600 Y531.0414 Z-19.0000 F2750
G1 X877.6437 Y532.4549 Z-19.0000 F2750
G1 X877.2040 Y532.8348 Z-19.0000 F2750
G1 X876.6880 Y533.1609 Z-19.0000 F2750
G1 X876.1057 Y533.4125 Z-19.0000 F2750
G1 X875.4740 Y533.5717 Z-19.0000 F2750
G1 X874.8159 Y533.6262 Z-19.0000 F2750
G1 X874.1579 Y533.5717 Z-19.0000 F2750
G1 X873.5262 Y533.4125 Z-19.0000 F2750
G1 X872.9438 Y533.1609 Z-19.0000 F2750
G1 X872.4279 Y532.8348 Z-19.0000 F2750
G1 X871.9882 Y532.4549 Z-19.0000 F2750
G1 X863.5023 Y523.9689 Z-19.0000 F2750
G1 X864.9158 Y525.3853 Z-19.0000 F2750
G1 X865.3187 Y525.8561 Z-19.0000 F2750
G1 X865.6494 Y526.3940 Z-19.0000 F2750
G1 X865.8925 Y526.9810 Z-19.0000 F2750
G1 X866.0390 Y527.5951 Z-19.0000 F2750
G1 X866.0870 Y528.2130 Z-19.0000 F2750
G1 X866.0390 Y528.8309 Z-19.0000 F2750
G1 X865.8925 Y529.4450 Z-19.0000 F2750
G1 X865.6494 Y530.0320 Z-19.0000 F2750
G1 X865.3187 Y530.5699 Z-19.0000 F2750
G1 X864.9158 Y531.0407 Z-19.0000 F2750
G1 X833.8032 Y562.1532 Z-19.0000 F2750
G1 X833.3324 Y562.5562 Z-19.0000 F2750
G1 X832.7945 Y562.8869 Z-19.0000 F2750
G1 X832.2075 Y563.1300 Z-19.0000 F2750
G1 X831.5934 Y563.2765 Z-19.0000 F2750
G1 X830.9755 Y563.3245 Z-19.0000 F2750
G1 X830.3576 Y563.2765 Z-19.0000 F2750
G1 X829.7435 Y563.1300 Z-19.0000 F2750
G1 X829.1565 Y562.8869 Z-19.0000 F2750
G1 X828.6187 Y562.5562 Z-19.0000 F2750
G1 X828.1478 Y562.1532 Z-19.0000 F2750
G1 X826.7329 Y560.7383 Z-19.0000 F2750
G1 X835.2174 Y569.2257 Z-19.0000 F2750
G1 X835.5974 Y569.6653 Z-19.0000 F2750
G1 X835.9234 Y570.1813 Z-19.0000 F2750
G1 X836.1750 Y570.7637 Z-19.0000 F2750
G1 X836.3342 Y571.3954 Z-19.0000 F2750
G1 X836.3887 Y572.0534 Z-19.0000 F2750
G1 X836.3342 Y572.7115 Z-19.0000 F2750
G1 X836.1750 Y573.3432 Z-19.0000 F2750
G1 X835.9234 Y573.9255 Z-19.0000 F2750
G1 X835.5974 Y574.4415 Z-19.0000 F2750
G1 X835.2174 Y574.8811 Z-19.0000 F2750
G1 X833.8025 Y576.2961 Z-19.0000 F2750
G1 X845.4768 Y564.6349 Z-19.0000 F2750
G1 X857.1394 Y552.9620 Z-19.0000 F2750
G1 X857.1394 Y552.9620 Z10.0000 F9999
G1 X1023.9639 Y640.3107 Z10.0000 F9999
G1 X1023.9639 Y640.3107 Z1.0000 F2000
G1 X1023.9639 Y601.3396 Z-9.0000 F2000
G1 X1023.9639 Y640.3107 Z-19.0000 F2000
G1 X1023.9639 Y560.3109 Z-19.0000 F2750
G1 X1023.9996 Y559.7773 Z-19.0000 F2750
G1 X1024.1122 Y559.2318 Z-19.0000 F2750
G1 X1024.3067 Y558.6910 Z-19.0000 F2750
G1 X1024.5834 Y558.1729 Z-19.0000 F2750
G1 X1024.9372 Y557.6961 Z-19.0000 F2750
G1 X1025.3577 Y557.2769 Z-19.0000 F2750
G1 X1025.8302 Y556.9280 Z-19.0000 F2750
G1 X1026.3372 Y556.6572 Z-19.0000 F2750
G1 X1026.8605 Y556.4668 Z-19.0000 F2750
G1 X1027.3833 Y556.3541 Z-19.0000 F2750
G1 X1028.1728 Y556.3042 Z-19.0000 F2750
G1 X1028.9639 Y556.3119 Z-19.0000 F2750
G1 X1028.9639 Y554.3099 Z-19.0000 F2750
G1 X1008.9619 Y554.3099 Z-19.0000 F2750
G1 X1008.9619 Y556.3119 Z-19.0000 F2750
G1 X1009.7529 Y556.3042 Z-19.0000 F2750
G1 X1010.5424 Y556.3541 Z-19.0000 F2750
G1 X1011.0652 Y556.4668 Z-19.0000 F2750
G1 X1011.5886 Y556.6572 Z-19.0000 F2750
G1 X1012.0955 Y556.9280 Z-19.0000 F2750
G1 X1012.5680 Y557.2769 Z-19.0000 F2750
G1 X1012.9886 Y557.6961 Z-19.0000 F2750
G1 X1013.3424 Y558.1729 Z-19.0000 F2750
G1 X1013.6191 Y558.6910 Z-19.0000 F2750
G1 X1013.8135 Y559.2318 Z-19.0000 F2750
G1 X1013.9261 Y559.7773 Z-19.0000 F2750
G1 X1013.9619 Y560.3109 Z-19.0000 F2750
G1 X1013.9619 Y720.3106 Z-19.0000 F2750
G1 X1013.9261 Y720.8442 Z-19.0000 F2750
G1 X1013.8135 Y721.3896 Z-19.0000 F2750
G1 X1013.6191 Y721.9305 Z-19.0000 F2750
G1 X1013.3424 Y722.4485 Z-19.0000 F2750
G1 X1012.9886 Y722.9254 Z-19.0000 F2750
G1 X1012.5680 Y723.3446 Z-19.0000 F2750
G1 X1012.0955 Y723.6934 Z-19.0000 F2750
G1 X1011.5886 Y723.9642 Z-19.0000 F2750
G1 X1011.0652 Y724.1546 Z-19.0000 F2750
G1 X1010.5424 Y724.2673 Z-19.0000 F2750
G1 X1009.7529 Y724.3172 Z-19.0000 F2750
G1 X1008.9619 Y724.3096 Z-19.0000 F2750
G1 X1008.9619 Y726.3115 Z-19.0000 F2750
G1 X1028.9639 Y726.3115 Z-19.0000 F2750
G1 X1028.9639 Y724.3096 Z-19.0000 F2750
G1 X1028.1728 Y724.3172 Z-19.0000 F2750
G1 X1027.3833 Y724.2673 Z-19.0000 F2750
G1 X1026.8605 Y724.1546 Z-19.0000 F2750
G1 X1026.3372 Y723.9642 Z-19.0000 F2750
G1 X1025.8302 Y723.6934 Z-19.0000 F2750
G1 X1025.3577 Y723.3446 Z-19.0000 F2750
G1 X1024.9372 Y722.9254 Z-19.0000 F2750
G1 X1024.5834 Y722.4485 Z-19.0000 F2750
G1 X1024.3067 Y721.9305 Z-19.0000 F2750
G1 X1024.1122 Y721.3896 Z-19.0000 F2750
G1 X1023.9996 Y720.8442 Z-19.0000 F2750
G1 X1023.9639 Y720.3106 Z-19.0000 F2750
G1 X1023.9639 Y640.3107 Z-19.0000 F2750
G1 X1023.9639 Y640.3107 Z10.0000 F9999
G1 X1155.9636 Y640.3107 Z10.0000 F9999
G1 X1155.9636 Y640.3107 Z1.0000 F2000
G1 X1155.9636 Y601.3396 Z-9.0000 F2000
G1 X1155.9636 Y640.3107 Z-19.0000 F2000
G1 X1155.9636 Y560.3109 Z-19.0000 F2750
G1 X1155.9994 Y559.7773 Z-19.0000 F2750
G1 X1156.1120 Y559.2318 Z-19.0000 F2750
G1 X1156.3064 Y558.6910 Z-19.0000 F2750
G1 X1156.5831 Y558.1729 Z-19.0000 F2750
G1 X1156.9369 Y557.6961 Z-19.0000 F2750
G1 X1157.3575 Y557.2769 Z-19.0000 F2750
G1 X1157.8299 Y556.9280 Z-19.0000 F2750
G1 X1158.3369 Y556.6572 Z-19.0000 F2750
G1 X1158.8603 Y556.4668 Z-19.0000 F2750
G1 X1159.3831 Y556.3541 Z-19.0000 F2750
G1 X1160.1726 Y556.3042 Z-19.0000 F2750
G1 X1160.9636 Y556.3119 Z-19.0000 F2750
G1 X1160.9636 Y554.3099 Z-19.0000 F2750
G1 X1140.9616 Y554.3099 Z-19.0000 F2750
G1 X1140.9616 Y556.3119 Z-19.0000 F2750
G1 X1141.7527 Y556.3042 Z-19.0000 F2750
G1 X1142.5422 Y556.3541 Z-19.0000 F2750
G1 X1143.0650 Y556.4668 Z-19.0000 F2750
G1 X1143.5883 Y556.6572 Z-19.0000 F2750
G1 X1144.0953 Y556.9280 Z-19.0000 F2750
G1 X1144.5678 Y557.2769 Z-19.0000 F2750
G1 X1144.9883 Y557.6961 Z-19.0000 F2750
G1 X1145.3421 Y558.1729 Z-19.0000 F2750
G1 X1145.6188 Y558.6910 Z-19.0000 F2750
G1 X1145.8133 Y559.2318 Z-19.0000 F2750
G1 X1145.9259 Y559.7773 Z-19.0000 F2750
G1 X1145.9616 Y560.3109 Z-19.0000 F2750
G1 X1145.9616 Y720.3106 Z-19.0000 F2750
G1 X1145.9259 Y720.8442 Z-19.0000 F2750
G1 X1145.8133 Y721.3896 Z-19.0000 F2750
G1 X1145.6188 Y721.9305 Z-19.0000 F2750
G1 X1145.3421 Y722.4485 Z-19.0000 F2750
G1 X1144.9883 Y722.9254 Z-19.0000 F2750
G1 X1144.5678 Y723.3446 Z-19.0000 F2750
G1 X1144.0953 Y723.6934 Z-19.0000 F2750
G1 X1143.5883 Y723.9642 Z-19.0000 F2750
G1 X1143.0650 Y724.1546 Z-19.0000 F2750
G1 X1142.5422 Y724.2673 Z-19.0000 F2750
G1 X1141.7527 Y724.3172 Z-19.0000 F2750
G1 X1140.9616 Y724.3096 Z-19.0000 F2750
G1 X1140.9616 Y726.3115 Z-19.0000 F2750
G1 X1160.9636 Y726.3115 Z-19.0000 F2750
G1 X1160.9636 Y724.3096 Z-19.0000 F2750
G1 X1160.1726 Y724.3172 Z-19.0000 F2750
G1 X1159.3831 Y724.2673 Z-19.0000 F2750
G1 X1158.8603 Y724.1546 Z-19.0000 F2750
G1 X1158.3369 Y723.9642 Z-19.0000 F2750
G1 X1157.8299 Y723.6934 Z-19.0000 F2750
G1 X1157.3575 Y723.3446 Z-19.0000 F2750
G1 X1156.9369 Y722.9254 Z-19.0000 F2750
G1 X1156.5831 Y722.4485 Z-19.0000 F2750
G1 X1156.3064 Y721.9305 Z-19.0000 F2750
G1 X1156.1120 Y721.3896 Z-19.0000 F2750
G1 X1155.9994 Y720.8442 Z-19.0000 F2750
G1 X1155.9636 Y720.3106 Z-19.0000 F2750
G1 X1155.9636 Y640.3107 Z-19.0000 F2750
G1 X1155.9636 Y640.3107 Z10.0000 F9999
G1 X1155.9636 Y940.3101 Z10.0000 F9999
G1 X1155.9636 Y940.3101 Z1.0000 F2000
G1 X1155.9636 Y901.3390 Z-9.0000 F2000
G1 X1155.9636 Y940.3101 Z-19.0000 F2000
G1 X1155.9636 Y860.3103 Z-19.0000 F2750
G1 X1155.9994 Y859.7766 Z-19.0000 F2750
G1 X1156.1120 Y859.2312 Z-19.0000 F2750
G1 X1156.3064 Y858.6903 Z-19.0000 F2750
G1 X1156.5831 Y858.1723 Z-19.0000 F2750
G1 X1156.9369 Y857.6955 Z-19.0000 F2750
G1 X1157.3575 Y857.2763 Z-19.0000 F2750
G1 X1157.8299 Y856.9274 Z-19.0000 F2750
G1 X1158.3369 Y856.6566 Z-19.0000 F2750
G1 X1158.8603 Y856.4662 Z-19.0000 F2750
G1 X1159.3831 Y856.3535 Z-19.0000 F2750
G1 X1160.1726 Y856.3036 Z-19.0000 F2750
G1 X1160.9636 Y856.3113 Z-19.0000 F2750
G1 X1160.9636 Y854.3093 Z-19.0000 F2750
G1 X1140.9616 Y854.3093 Z-19.0000 F2750
G1 X1140.9616 Y856.3113 Z-19.0000 F2750
G1 X1141.7527 Y856.3036 Z-19.0000 F2750
G1 X1142.5422 Y856.3535 Z-19.0000 F2750
G1 X1143.0650 Y856.4662 Z-19.0000 F2750
G1 X1143.5883 Y856.6566 Z-19.0000 F2750
G1 X1144.0953 Y856.9274 Z-19.0000 F2750
G1 X1144.5678 Y857.2763 Z-19.0000 F2750
G1 X1144.9883 Y857.6955 Z-19.0000 F2750
G1 X1145.3421 Y858.1723 Z-19.0000 F2750
G1 X1145.6188 Y858.6903 Z-19.0000 F2750
G1 X1145.8133 Y859.2312 Z-19.0000 F2750
G1 X1145.9259 Y859.7766 Z-19.0000 F2750
G1 X1145.9616 Y860.3103 Z-19.0000 F2750
G1 X1145.9616 Y1020.3100 Z-19.0000 F2750
G1 X1145.9259 Y1020.8436 Z-19.0000 F2750
G1 X1145.8133 Y1021.3890 Z-19.0000 F2750
G1 X1145.6188 Y1021.9299 Z-19.0000 F2750
G1 X1145.3421 Y1022.4480 Z-19.0000 F2750
G1 X1144.9883 Y1022.9248 Z-19.0000 F2750
G1 X1144.5678 Y1023.3440 Z-19.0000 F2750
G1 X1144.0953 Y1023.6928 Z-19.0000 F2750
G1 X1143.5883 Y1023.9636 Z-19.0000 F2750
G1 X1143.0650 Y1024.1541 Z-19.0000 F2750
G1 X1142.5422 Y1024.2668 Z-19.0000 F2750
G1 X1141.7527 Y1024.3166 Z-19.0000 F2750
G1 X1140.9616 Y1024.3090 Z-19.0000 F2750
G1 X1140.9616 Y1026.3109 Z-19.0000 F2750
G1 X1160.9636 Y1026.3109 Z-19.0000 F2750
G1 X1160.9636 Y1024.3090 Z-19.0000 F2750
G1 X1160.1726 Y1024.3166 Z-19.0000 F2750
G1 X1159.3831 Y1024.2668 Z-19.0000 F2750
G1 X1158.8603 Y1024.1541 Z-19.0000 F2750
G1 X1158.3369 Y1023.9636 Z-19.0000 F2750
G1 X1157.8299 Y1023.6928 Z-19.0000 F2750
G1 X1157.3575 Y1023.3440 Z-19.0000 F2750
G1 X1156.9369 Y1022.9248 Z-19.0000 F2750
G1 X1156.5831 Y1022.4480 Z-19.0000 F2750
G1 X1156.3064 Y1021.9299 Z-19.0000 F2750
G1 X1156.1120 Y1021.3890 Z-19.0000 F2750
G1 X1155.9994 Y1020.8436 Z-19.0000 F2750
G1 X1155.9636 Y1020.3100 Z-19.0000 F2750
G1 X1155.9636 Y940.3101 Z-19.0000 F2750
G1 X1155.9636 Y940.3101 Z10.0000 F9999
G1 X1023.9639 Y940.3101 Z10.0000 F9999
G1 X1023.9639 Y940.3101 Z1.0000 F2000
G1 X1023.9639 Y901.3390 Z-9.0000 F2000
G1 X1023.9639 Y940.3101 Z-19.0000 F2000
G1 X1023.9639 Y860.3103 Z-19.0000 F2750
G1 X1023.9996 Y859.7766 Z-19.0000 F2750
G1 X1024.1122 Y859.2312 Z-19.0000 F2750
G1 X1024.3067 Y858.6903 Z-19.0000 F2750
G1 X1024.5834 Y858.1723 Z-19.0000 F2750
G1 X1024.9372 Y857.6955 Z-19.0000 F2750
G1 X1025.3577 Y857.2763 Z-19.0000 F2750
G1 X1025.8302 Y856.9274 Z-19.0000 F2750
G1 X1026.3372 Y856.6566 Z-19.0000 F2750
G1 X1026.8605 Y856.4662 Z-19.0000 F2750
G1 X1027.3833 Y856.3535 Z-19.0000 F2750
G1 X1028.1728 Y856.3036 Z-19.0000 F2750
G1 X1028.9639 Y856.3113 Z-19.0000 F2750
G1 X1028.9639 Y854.3093 Z-19.0000 F2750
G1 X1008.9619 Y854.3093 Z-19.0000 F2750
G1 X1008.9619 Y856.3113 Z-19.0000 F2750
G1 X1009.7529 Y856.3036 Z-19.0000 F2750
G1 X1010.5424 Y856.3535 Z-19.0000 F2750
G1 X1011.0652 Y856.4662 Z-19.0000 F2750
G1 X1011.5886 Y856.6566 Z-19.0000 F2750
G1 X1012.0955 Y856.9274 Z-19.0000 F2750
G1 X1012.5680 Y857.2763 Z-19.0000 F2750
G1 X1012.9886 Y857.6955 Z-19.0000 F2750
G1 X1013.3424 Y858.1723 Z-19.0000 F2750
G1 X1013.6191 Y858.6903 Z-19.0000 F2750
G1 X1013.8135 Y859.2312 Z-19.0000 F2750
G1 X1013.9261 Y859.7766 Z-19.0000 F2750
G1 X1013.9619 Y860.3103 Z-19.0000 F2750
G1 X1013.9619 Y1020.3100 Z-19.0000 F2750
G1 X1013.9261 Y1020.8436 Z-19.0000 F2750
G1 X1013.8135 Y1021.3890 Z-19.0000 F2750
G1 X1013.6191 Y1021.9299 Z-19.0000 F2750
G1 X1013.3424 Y1022.4480 Z-19.0000 F2750
G1 X1012.9886 Y1022.9248 Z-19.0000 F2750
G1 X1012.5680 Y1023.3440 Z-19.0000 F2750
G1 X1012.0955 Y1023.6928 Z-19.0000 F2750
G1 X1011.5886 Y1023.9636 Z-19.0000 F2750
G1 X1011.0652 Y1024.1541 Z-19.0000 F2750
G1 X1010.5424 Y1024.2668 Z-19.0000 F2750
G1 X1009.7529 Y1024.3166 Z-19.0000 F2750
G1 X1008.9619 Y1024.3090 Z-19.0000 F2750
G1 X1008.9619 Y1026.3109 Z-19.0000 F2750
G1 X1028.9639 Y1026.3109 Z-19.0000 F2750
G1 X1028.9639 Y1024.3090 Z-19.0000 F2750
G1 X1028.1728 Y1024.3166 Z-19.0000 F2750
G1 X1027.3833 Y1024.2668 Z-19.0000 F2750
G1 X1026.8605 Y1024.1541 Z-19.0000 F2750
G1 X1026.3372 Y1023.9636 Z-19.0000 F2750
G1 X1025.8302 Y1023.6928 Z-19.0000 F2750
G1 X1025.3577 Y1023.3440 Z-19.0000 F2750
G1 X1024.9372 Y1022.9248 Z-19.0000 F2750
G1 X1024.5834 Y1022.4480 Z-19.0000 F2750
G1 X1024.3067 Y1021.9299 Z-19.0000 F2750
G1 X1024.1122 Y1021.3890 Z-19.0000 F2750
G1 X1023.9996 Y1020.8436 Z-19.0000 F2750
G1 X1023.9639 Y1020.3100 Z-19.0000 F2750
G1 X1023.9639 Y940.3101 Z-19.0000 F2750
G1 X1023.9639 Y940.3101 Z10.0000 F9999
G1 X1013.9619 Y1240.3095 Z10.0000 F9999
G1 X1013.9619 Y1240.3095 Z1.0000 F2000
G1 X1013.9619 Y1279.2806 Z-9.0000 F2000
G1 X1013.9619 Y1240.3095 Z-19.0000 F2000
G1 X1013.9619 Y1320.3093 Z-19.0000 F2750
G1 X1013.9261 Y1320.8429 Z-19.0000 F2750
G1 X1013.8135 Y1321.3883 Z-19.0000 F2750
G1 X1013.6191 Y1321.9292 Z-19.0000 F2750
G1 X1013.3424 Y1322.4472 Z-19.0000 F2750
G1 X1012.9886 Y1322.9241 Z-19.0000 F2750
G1 X1012.5680 Y1323.3433 Z-19.0000 F2750
G1 X1012.0955 Y1323.6921 Z-19.0000 F2750
G1 X1011.5886 Y1323.9629 Z-19.0000 F2750
G1 X1011.0652 Y1324.1533 Z-19.0000 F2750
G1 X1010.5424 Y1324.2660 Z-19.0000 F2750
G1 X1009.7529 Y1324.3159 Z-19.0000 F2750
G1 X1008.9619 Y1324.3083 Z-19.0000 F2750
G1 X1008.9619 Y1326.3104 Z-19.0000 F2750
G1 X1028.9639 Y1326.3104 Z-19.0000 F2750
G1 X1028.9639 Y1324.3083 Z-19.0000 F2750
G1 X1028.1728 Y1324.3159 Z-19.0000 F2750
G1 X1027.3833 Y1324.2660 Z-19.0000 F2750
G1 X1026.8605 Y1324.1533 Z-19.0000 F2750
G1 X1026.3372 Y1323.9629 Z-19.0000 F2750
G1 X1025.8302 Y1323.6921 Z-19.0000 F2750
G1 X1025.3577 Y1323.3433 Z-19.0000 F2750
G1 X1024.9372 Y1322.9241 Z-19.0000 F2750
G1 X1024.5834 Y1322.4472 Z-19.0000 F2750
G1 X1024.3067 Y1321.9292 Z-19.0000 F2750
G1 X1024.1122 Y1321.3883 Z-19.0000 F2750
G1 X1023.9996 Y1320.8429 Z-19.0000 F2750
G1 X1023.9639 Y1320.3093 Z-19.0000 F2750
G1 X1023.9639 Y1249.3094 Z-19.0000 F2750
G1 X1024.0119 Y1248.6916 Z-19.0000 F2750
G1 X1024.1584 Y1248.0774 Z-19.0000 F2750
G1 X1024.4015 Y1247.4904 Z-19.0000 F2750
G1 X1024.7322 Y1246.9526 Z-19.0000 F2750
G1 X1025.1352 Y1246.4817 Z-19.0000 F2750
G1 X1025.6060 Y1246.0788 Z-19.0000 F2750
G1 X1026.1439 Y1245.7481 Z-19.0000 F2750
G1 X1026.7309 Y1245.5049 Z-19.0000 F2750
G1 X1027.3450 Y1245.3585 Z-19.0000 F2750
G1 X1027.9629 Y1245.3104 Z-19.0000 F2750
G1 X1048.9628 Y1245.3104 Z-19.0000 F2750
G1 X1049.4964 Y1245.3462 Z-19.0000 F2750
G1 X1050.0419 Y1245.4588 Z-19.0000 F2750
G1 X1050.5827 Y1245.6532 Z-19.0000 F2750
G1 X1051.1008 Y1245.9299 Z-19.0000 F2750
G1 X1051.5776 Y1246.2838 Z-19.0000 F2750
G1 X1051.9968 Y1246.7043 Z-19.0000 F2750
G1 X1052.3457 Y1247.1768 Z-19.0000 F2750
G1 X1052.6165 Y1247.6837 Z-19.0000 F2750
G1 X1052.8069 Y1248.2071 Z-19.0000 F2750
G1 X1052.9196 Y1248.7299 Z-19.0000 F2750
G1 X1052.9694 Y1249.5194 Z-19.0000 F2750
G1 X1052.9618 Y1250.3105 Z-19.0000 F2750
G1 X1054.9638 Y1250.3105 Z-19.0000 F2750
G1 X1054.9638 Y1230.3085 Z-19.0000 F2750
G1 X1052.9618 Y1230.3085 Z-19.0000 F2750
G1 X1052.9694 Y1231.0996 Z-19.0000 F2750
G1 X1052.9196 Y1231.8891 Z-19.0000 F2750
G1 X1052.8069 Y1232.4119 Z-19.0000 F2750
G1 X1052.6165 Y1232.9353 Z-19.0000 F2750
G1 X1052.3457 Y1233.4422 Z-19.0000 F2750
G1 X1051.9968 Y1233.9147 Z-19.0000 F2750
G1 X1051.5776 Y1234.3352 Z-19.0000 F2750
G1 X1051.1008 Y1234.6891 Z-19.0000 F2750
G1 X1050.5827 Y1234.9658 Z-19.0000 F2750
G1 X1050.0419 Y1235.1602 Z-19.0000 F2750
G1 X1049.4964 Y1235.2728 Z-19.0000 F2750
G1 X1048.9628 Y1235.3086 Z-19.0000 F2750
G1 X1027.9629 Y1235.3086 Z-19.0000 F2750
G1 X1027.3833 Y1235.2663 Z-19.0000 F2750
G1 X1026.7879 Y1235.1321 Z-19.0000 F2750
G1 X1026.1982 Y1234.8982 Z-19.0000 F2750
G1 X1025.6390 Y1234.5640 Z-19.0000 F2750
G1 X1025.1352 Y1234.1373 Z-19.0000 F2750
G1 X1024.7084 Y1233.6334 Z-19.0000 F2750
G1 X1024.3743 Y1233.0742 Z-19.0000 F2750
G1 X1024.1404 Y1232.4845 Z-19.0000 F2750
G1 X1024.0061 Y1231.8891 Z-19.0000 F2750
G1 X1023.9639 Y1231.3096 Z-19.0000 F2750
G1 X1023.9639 Y1160.3097 Z-19.0000 F2750
G1 X1023.9996 Y1159.7761 Z-19.0000 F2750
G1 X1024.1122 Y1159.2306 Z-19.0000 F2750
G1 X1024.3067 Y1158.6898 Z-19.0000 F2750
G1 X1024.5834 Y1158.1717 Z-19.0000 F2750
G1 X1024.9372 Y1157.6949 Z-19.0000 F2750
G1 X1025.3577 Y1157.2757 Z-19.0000 F2750
G1 X1025.8302 Y1156.9268 Z-19.0000 F2750
G1 X1026.3372 Y1156.6560 Z-19.0000 F2750
G1 X1026.8605 Y1156.4656 Z-19.0000 F2750
G1 X1027.3833 Y1156.3529 Z-19.0000 F2750
G1 X1028.1728 Y1156.3030 Z-19.0000 F2750
G1 X1028.9639 Y1156.3107 Z-19.0000 F2750
G1 X1028.9639 Y1154.3087 Z-19.0000 F2750
G1 X1008.9619 Y1154.3087 Z-19.0000 F2750
G1 X1008.9619 Y1156.3107 Z-19.0000 F2750
G1 X1009.7529 Y1156.3030 Z-19.0000 F2750
G1 X1010.5424 Y1156.3529 Z-19.0000 F2750
G1 X1011.0652 Y1156.4656 Z-19.0000 F2750
G1 X1011.5886 Y1156.6560 Z-19.0000 F2750
G1 X1012.0955 Y1156.9268 Z-19.0000 F2750
G1 X1012.5680 Y1157.2757 Z-19.0000 F2750
G1 X1012.9886 Y1157.6949 Z-19.0000 F2750
G1 X1013.3424 Y1158.1717 Z-19.0000 F2750
G1 X1013.6191 Y1158.6898 Z-19.0000 F2750
G1 X1013.8135 Y1159.2306 Z-19.0000 F2750
G1 X1013.9261 Y1159.7761 Z-19.0000 F2750
G1 X1013.9619 Y1160.3097 Z-19.0000 F2750
G1 X1013.9619 Y1240.3095 Z-19.0000 F2750
G1 X1013.9619 Y1240.3095 Z10.0000 F9999
G1 X1155.9636 Y1240.3095 Z10.0000 F9999
G1 X1155.9636 Y1240.3095 Z1.0000 F2000
G1 X1155.9636 Y1201.3383 Z-9.0000 F2000
G1 X1155.9636 Y1240.3095 Z-19.0000 F2000
G1 X1155.9636 Y1160.3097 Z-19.0000 F2750
G1 X1155.9994 Y1159.7761 Z-19.0000 F2750
G1 X1156.1120 Y1159.2306 Z-19.0000 F2750
G1 X1156.3064 Y1158.6898 Z-19.0000 F2750
G1 X1156.5831 Y1158.1717 Z-19.0000 F2750
G1 X1156.9369 Y1157.6949 Z-19.0000 F2750
G1 X1157.3575 Y1157.2757 Z-19.0000 F2750
G1 X1157.8299 Y1156.9268 Z-19.0000 F2750
G1 X1158.3369 Y1156.6560 Z-19.0000 F2750
G1 X1158.8603 Y1156.4656 Z-19.0000 F2750
G1 X1159.3831 Y1156.3529 Z-19.0000 F2750
G1 X1160.1726 Y1156.3030 Z-19.0000 F2750
G1 X1160.9636 Y1156.3107 Z-19.0000 F2750
G1 X1160.9636 Y1154.3087 Z-19.0000 F2750
G1 X1140.9616 Y1154.3087 Z-19.0000 F2750
G1 X1140.9616 Y1156.3107 Z-19.0000 F2750
G1 X1141.7527 Y1156.3030 Z-19.0000 F2750
G1 X1142.5422 Y1156.3529 Z-19.0000 F2750
G1 X1143.0650 Y1156.4656 Z-19.0000 F2750
G1 X1143.5883 Y1156.6560 Z-19.0000 F2750
G1 X1144.0953 Y1156.9268 Z-19.0000 F2750
G1 X1144.5678 Y1157.2757 Z-19.0000 F2750
G1 X1144.9883 Y1157.6949 Z-19.0000 F2750
G1 X1145.3421 Y1158.1717 Z-19.0000 F2750
G1 X1145.6188 Y1158.6898 Z-19.0000 F2750
G1 X1145.8133 Y1159.2306 Z-19.0000 F2750
G1 X1145.9259 Y1159.7761 Z-19.0000 F2750
G1 X1145.9616 Y1160.3097 Z-19.0000 F2750
G1 X1145.9616 Y1231.3096 Z-19.0000 F2750
G1 X1145.9194 Y1231.8891 Z-19.0000 F2750
G1 X1145.7851 Y1232.4845 Z-19.0000 F2750
G1 X1145.5512 Y1233.0742 Z-19.0000 F2750
G1 X1145.2171 Y1233.6334 Z-19.0000 F2750
G1 X1144.7903 Y1234.1373 Z-19.0000 F2750
G1 X1144.2865 Y1234.5640 Z-19.0000 F2750
G1 X1143.7273 Y1234.8982 Z-19.0000 F2750
G1 X1143.1376 Y1235.1321 Z-19.0000 F2750
G1 X1142.5422 Y1235.2663 Z-19.0000 F2750
G1 X1141.9626 Y1235.3086 Z-19.0000 F2750
G1 X1120.9627 Y1235.3086 Z-19.0000 F2750
G1 X1120.4291 Y1235.2728 Z-19.0000 F2750
G1 X1119.8836 Y1235.1602 Z-19.0000 F2750
G1 X1119.3428 Y1234.9658 Z-19.0000 F2750
G1 X1118.8247 Y1234.6891 Z-19.0000 F2750
G1 X1118.3479 Y1234.3352 Z-19.0000 F2750
G1 X1117.9287 Y1233.9147 Z-19.0000 F2750
G1 X1117.5798 Y1233.4422 Z-19.0000 F2750
G1 X1117.3090 Y1232.9353 Z-19.0000 F2750
G1 X1117.1186 Y1232.4119 Z-19.0000 F2750
G1 X1117.0059 Y1231.8891 Z-19.0000 F2750
G1 X1116.9560 Y1231.0996 Z-19.0000 F2750
G1 X1116.9637 Y1230.3085 Z-19.0000 F2750
G1 X1114.9617 Y1230.3085 Z-19.0000 F2750
G1 X1114.9617 Y1250.3105 Z-19.0000 F2750
G1 X1116.9637 Y1250.3105 Z-19.0000 F2750
G1 X1116.9560 Y1249.5194 Z-19.0000 F2750
G1 X1117.0059 Y1248.7299 Z-19.0000 F2750
G1 X1117.1186 Y1248.2071 Z-19.0000 F2750
G1 X1117.3090 Y1247.6837 Z-19.0000 F2750
G1 X1117.5798 Y1247.1768 Z-19.0000 F2750
G1 X1117.9287 Y1246.7043 Z-19.0000 F2750
G1 X1118.3479 Y1246.2838 Z-19.0000 F2750
G1 X1118.8247 Y1245.9299 Z-19.0000 F2750
G1 X1119.3428 Y1245.6532 Z-19.0000 F2750
G1 X1119.8836 Y1245.4588 Z-19.0000 F2750
G1 X1120.4291 Y1245.3462 Z-19.0000 F2750
G1 X1120.9627 Y1245.3104 Z-19.0000 F2750
G1 X1141.9626 Y1245.3104 Z-19.0000 F2750
G1 X1142.5422 Y1245.3527 Z-19.0000 F2750
G1 X1143.1376 Y1245.4869 Z-19.0000 F2750
G1 X1143.7273 Y1245.7208 Z-19.0000 F2750
G1 X1144.2865 Y1246.0549 Z-19.0000 F2750
G1 X1144.7903 Y1246.4817 Z-19.0000 F2750
G1 X1145.2171 Y1246.9856 Z-19.0000 F2750
G1 X1145.5512 Y1247.5448 Z-19.0000 F2750
G1 X1145.7851 Y1248.1345 Z-19.0000 F2750
G1 X1145.9194 Y1248.7299 Z-19.0000 F2750
G1 X1145.9616 Y1249.3094 Z-19.0000 F2750
G1 X1145.9616 Y1320.3093 Z-19.0000 F2750
G1 X1145.9259 Y1320.8429 Z-19.0000 F2750
G1 X1145.8133 Y1321.3883 Z-19.0000 F2750
G1 X1145.6188 Y1321.9292 Z-19.0000 F2750
G1 X1145.3421 Y1322.4472 Z-19.0000 F2750
G1 X1144.9883 Y1322.9241 Z-19.0000 F2750
G1 X1144.5678 Y1323.3433 Z-19.0000 F2750
G1 X1144.0953 Y1323.6921 Z-19.0000 F2750
G1 X1143.5883 Y1323.9629 Z-19.0000 F2750
G1 X1143.0650 Y1324.1533 Z-19.0000 F2750
G1 X1142.5422 Y1324.2660 Z-19.0000 F2750
G1 X1141.7527 Y1324.3159 Z-19.0000 F2750
G1 X1140.9616 Y1324.3083 Z-19.0000 F2750
G1 X1140.9616 Y1326.3104 Z-19.0000 F2750
G1 X1160.9636 Y1326.3104 Z-19.0000 F2750
G1 X1160.9636 Y1324.3083 Z-19.0000 F2750
G1 X1160.1726 Y1324.3159 Z-19.0000 F2750
G1 X1159.3831 Y1324.2660 Z-19.0000 F2750
G1 X1158.8603 Y1324.1533 Z-19.0000 F2750
G1 X1158.3369 Y1323.9629 Z-19.0000 F2750
G1 X1157.8299 Y1323.6921 Z-19.0000 F2750
G1 X1157.3575 Y1323.3433 Z-19.0000 F2750
G1 X1156.9369 Y1322.9241 Z-19.0000 F2750
G1 X1156.5831 Y1322.4472 Z-19.0000 F2750
G1 X1156.3064 Y1321.9292 Z-19.0000 F2750
G1 X1156.1120 Y1321.3883 Z-19.0000 F2750
G1 X1155.9994 Y1320.8429 Z-19.0000 F2750
G1 X1155.9636 Y1320.3093 Z-19.0000 F2750
G1 X1155.9636 Y1240.3095 Z-19.0000 F2750
G1 X1155.9636 Y1240.3095 Z10.0000 F9999
G1 X1145.9616 Y1540.3089 Z10.0000 F9999
G1 X1145.9616 Y1540.3089 Z1.0000 F2000
G1 X1145.9616 Y1579.2800 Z-9.0000 F2000
G1 X1145.9616 Y1540.3089 Z-19.0000 F2000
G1 X1145.9616 Y1620.3087 Z-19.0000 F2750
G1 X1145.9259 Y1620.8423 Z-19.0000 F2750
G1 X1145.8133 Y1621.3878 Z-19.0000 F2750
G1 X1145.6188 Y1621.9286 Z-19.0000 F2750
G1 X1145.3421 Y1622.4467 Z-19.0000 F2750
G1 X1144.9883 Y1622.9235 Z-19.0000 F2750
G1 X1144.5678 Y1623.3427 Z-19.0000 F2750
G1 X1144.0953 Y1623.6916 Z-19.0000 F2750
G1 X1143.5883 Y1623.9623 Z-19.0000 F2750
G1 X1143.0650 Y1624.1528 Z-19.0000 F2750
G1 X1142.5422 Y1624.2655 Z-19.0000 F2750
G1 X1141.7527 Y1624.3153 Z-19.0000 F2750
G1 X1140.9616 Y1624.3077 Z-19.0000 F2750
G1 X1140.9616 Y1626.3097 Z-19.0000 F2750
G1 X1160.9636 Y1626.3097 Z-19.0000 F2750
G1 X1160.9636 Y1624.3077 Z-19.0000 F2750
G1 X1160.1726 Y1624.3153 Z-19.0000 F2750
G1 X1159.3831 Y1624.2655 Z-19.0000 F2750
G1 X1158.8603 Y1624.1528 Z-19.0000 F2750
G1 X1158.3369 Y1623.9623 Z-19.0000 F2750
G1 X1157.8299 Y1623.6916 Z-19.0000 F2750
G1 X1157.3575 Y1623.3427 Z-19.0000 F2750
G1 X1156.9369 Y1622.9235 Z-19.0000 F2750
G1 X1156.5831 Y1622.4467 Z-19.0000 F2750
G1 X1156.3064 Y1621.9286 Z-19.0000 F2750
G1 X1156.1120 Y1621.3878 Z-19.0000 F2750
G1 X1155.9994 Y1620.8423 Z-19.0000 F2750
G1 X1155.9636 Y1620.3087 Z-19.0000 F2750
G1 X1155.9636 Y1460.3091 Z-19.0000 F2750
G1 X1155.9994 Y1459.7755 Z-19.0000 F2750
G1 X1156.1120 Y1459.2300 Z-19.0000 F2750
G1 X1156.3064 Y1458.6891 Z-19.0000 F2750
G1 X1156.5831 Y1458.1711 Z-19.0000 F2750
G1 X1156.9369 Y1457.6943 Z-19.0000 F2750
G1 X1157.3575 Y1457.2751 Z-19.0000 F2750
G1 X1157.8299 Y1456.9262 Z-19.0000 F2750
G1 X1158.3369 Y1456.6554 Z-19.0000 F2750
G1 X1158.8603 Y1456.4650 Z-19.0000 F2750
G1 X1159.3831 Y1456.3523 Z-19.0000 F2750
G1 X1160.1726 Y1456.3024 Z-19.0000 F2750
G1 X1160.9636 Y1456.3101 Z-19.0000 F2750
G1 X1160.9636 Y1454.3081 Z-19.0000 F2750
G1 X1140.9616 Y1454.3081 Z-19.0000 F2750
G1 X1140.9616 Y1456.3101 Z-19.0000 F2750
G1 X1141.7527 Y1456.3024 Z-19.0000 F2750
G1 X1142.5422 Y1456.3523 Z-19.0000 F2750
G1 X1143.0650 Y1456.4650 Z-19.0000 F2750
G1 X1143.5883 Y1456.6554 Z-19.0000 F2750
G1 X1144.0953 Y1456.9262 Z-19.0000 F2750
G1 X1144.5678 Y1457.2751 Z-19.0000 F2750
G1 X1144.9883 Y1457.6943 Z-19.0000 F2750
G1 X1145.3421 Y1458.1711 Z-19.0000 F2750
G1 X1145.6188 Y1458.6891 Z-19.0000 F2750
G1 X1145.8133 Y1459.2300 Z-19.0000 F2750
G1 X1145.9259 Y1459.7755 Z-19.0000 F2750
G1 X1145.9616 Y1460.3091 Z-19.0000 F2750
G1 X1145.9616 Y1540.3089 Z-19.0000 F2750
G1 X1145.9616 Y1540.3089 Z10.0000 F9999
G1 X1023.9639 Y1540.3089 Z10.0000 F9999
G1 X1023.9639 Y1540.3089 Z1.0000 F2000
G1 X1023.9639 Y1501.3377 Z-9.0000 F2000
G1 X1023.9639 Y1540.3089 Z-19.0000 F2000
G1 X1023.9639 Y1460.3091 Z-19.0000 F2750
G1 X1023.9996 Y1459.7755 Z-19.0000 F2750
G1 X1024.1122 Y1459.2300 Z-19.0000 F2750
G1 X1024.3067 Y1458.6891 Z-19.0000 F2750
G1 X1024.5834 Y1458.1711 Z-19.0000 F2750
G1 X1024.9372 Y1457.6943 Z-19.0000 F2750
G1 X1025.3577 Y1457.2751 Z-19.0000 F2750
G1 X1025.8302 Y1456.9262 Z-19.0000 F2750
G1 X1026.3372 Y1456.6554 Z-19.0000 F2750
G1 X1026.8605 Y1456.4650 Z-19.0000 F2750
G1 X1027.3833 Y1456.3523 Z-19.0000 F2750
G1 X1028.1728 Y1456.3024 Z-19.0000 F2750
G1 X1028.9639 Y1456.3101 Z-19.0000 F2750
G1 X1028.9639 Y1454.3081 Z-19.0000 F2750
G1 X1008.9619 Y1454.3081 Z-19.0000 F2750
G1 X1008.9619 Y1456.3101 Z-19.0000 F2750
G1 X1009.7529 Y1456.3024 Z-19.0000 F2750
G1 X1010.5424 Y1456.3523 Z-19.0000 F2750
G1 X1011.0652 Y1456.4650 Z-19.0000 F2750
G1 X1011.5886 Y1456.6554 Z-19.0000 F2750
G1 X1012.0955 Y1456.9262 Z-19.0000 F2750
G1 X1012.5680 Y1457.2751 Z-19.0000 F2750
G1 X1012.9886 Y1457.6943 Z-19.0000 F2750
G1 X1013.3424 Y1458.1711 Z-19.0000 F2750
G1 X1013.6191 Y1458.6891 Z-19.0000 F2750
G1 X1013.8135 Y1459.2300 Z-19.0000 F2750
G1 X1013.9261 Y1459.7755 Z-19.0000 F2750
G1 X1013.9619 Y1460.3091 Z-19.0000 F2750
G1 X1013.9619 Y1620.3087 Z-19.0000 F2750
G1 X1013.9261 Y1620.8423 Z-19.0000 F2750
G1 X1013.8135 Y1621.3878 Z-19.0000 F2750
G1 X1013.6191 Y1621.9286 Z-19.0000 F2750
G1 X1013.3424 Y1622.4467 Z-19.0000 F2750
G1 X1012.9886 Y1622.9235 Z-19.0000 F2750
G1 X1012.5680 Y1623.3427 Z-19.0000 F2750
G1 X1012.0955 Y1623.6916 Z-19.0000 F2750
G1 X1011.5886 Y1623.9623 Z-19.0000 F2750
G1 X1011.0652 Y1624.1528 Z-19.0000 F2750
G1 X1010.5424 Y1624.2655 Z-19.0000 F2750
G1 X1009.7529 Y1624.3153 Z-19.0000 F2750
G1 X1008.9619 Y1624.3077 Z-19.0000 F2750
G1 X1008.9619 Y1626.3097 Z-19.0000 F2750
G1 X1028.9639 Y1626.3097 Z-19.0000 F2750
G1 X1028.9639 Y1624.3077 Z-19.0000 F2750
G1 X1028.1728 Y1624.3153 Z-19.0000 F2750
G1 X1027.3833 Y1624.2655 Z-19.0000 F2750
G1 X1026.8605 Y1624.1528 Z-19.0000 F2750
G1 X1026.3372 Y1623.9623 Z-19.0000 F2750
G1 X1025.8302 Y1623.6916 Z-19.0000 F2750
G1 X1025.3577 Y1623.3427 Z-19.0000 F2750
G1 X1024.9372 Y1622.9235 Z-19.0000 F2750
G1 X1024.5834 Y1622.4467 Z-19.0000 F2750
G1 X1024.3067 Y1621.9286 Z-19.0000 F2750
G1 X1024.1122 Y1621.3878 Z-19.0000 F2750
G1 X1023.9996 Y1620.8423 Z-19.0000 F2750
G1 X1023.9639 Y1620.3087 Z-19.0000 F2750
G1 X1023.9639 Y1540.3089 Z-19.0000 F2750
G1 X1023.9639 Y1540.3089 Z10.0000 F9999
G1 X795.0011 Y1556.0366 Z10.0000 F9999
G1 X795.0011 Y1556.0366 Z1.0000 F2000
G1 X790.9912 Y1525.2966 Z-6.9547 F2000
G1 X791.2481 Y1527.2811 Z-7.4682 F2000
G1 X791.2812 Y1527.8612 Z-7.6173 F2000
G1 X791.2250 Y1528.4690 Z-7.7739 F2000
G1 X791.0694 Y1529.0840 Z-7.9367 F2000
G1 X790.8104 Y1529.6817 Z-8.1038 F2000
G1 X790.4524 Y1530.2365 Z-8.2733 F2000
G1 X790.0080 Y1530.7249 Z-8.4427 F2000
G1 X789.4967 Y1531.1285 Z-8.6099 F2000
G1 X788.9422 Y1531.4367 Z-8.7726 F2000
G1 X788.3691 Y1531.6469 Z-8.9293 F2000
G1 X788.0991 Y1531.7024 Z-9.0000 F2000
G1 X788.3691 Y1531.6469 Z-9.0707 F2000
G1 X788.9422 Y1531.4367 Z-9.2274 F2000
G1 X789.4967 Y1531.1285 Z-9.3901 F2000
G1 X790.0080 Y1530.7249 Z-9.5573 F2000
G1 X790.4524 Y1530.2365 Z-9.7267 F2000
G1 X790.8104 Y1529.6817 Z-9.8962 F2000
G1 X791.0694 Y1529.0840 Z-10.0633 F2000
G1 X791.2250 Y1528.4690 Z-10.2261 F2000
G1 X791.2812 Y1527.8612 Z-10.3827 F2000
G1 X791.2481 Y1527.2811 Z-10.5318 F2000
G1 X790.9912 Y1525.2966 Z-11.0453 F2000
G1 X795.0011 Y1556.0366 Z-19.0000 F2000
G1 X790.9912 Y1525.2966 Z-19.0000 F2750
G1 X791.2481 Y1527.2811 Z-19.0000 F2750
G1 X791.2812 Y1527.8612 Z-19.0000 F2750
G1 X791.2250 Y1528.4690 Z-19.0000 F2750
G1 X791.0694 Y1529.0840 Z-19.0000 F2750
G1 X790.8104 Y1529.6817 Z-19.0000 F2750
G1 X790.4524 Y1530.2365 Z-19.0000 F2750
G1 X790.0080 Y1530.7249 Z-19.0000 F2750
G1 X789.4967 Y1531.1285 Z-19.0000 F2750
G1 X788.9422 Y1531.4367 Z-19.0000 F2750
G1 X788.3691 Y1531.6469 Z-19.0000 F2750
G1 X787.7999 Y1531.7637 Z-19.0000 F2750
G1 X775.8998 Y1533.3161 Z-19.0000 F2750
G1 X777.8842 Y1533.0592 Z-19.0000 F2750
G1 X778.4644 Y1533.0261 Z-19.0000 F2750
G1 X779.0721 Y1533.0823 Z-19.0000 F2750
G1 X779.6871 Y1533.2379 Z-19.0000 F2750
G1 X780.2849 Y1533.4969 Z-19.0000 F2750
G1 X780.8397 Y1533.8549 Z-19.0000 F2750
G1 X781.3281 Y1534.2993 Z-19.0000 F2750
G1 X781.7317 Y1534.8106 Z-19.0000 F2750
G1 X782.0399 Y1535.3651 Z-19.0000 F2750
G1 X782.2501 Y1535.9381 Z-19.0000 F2750
G1 X782.3669 Y1536.5074 Z-19.0000 F2750
G1 X788.0582 Y1580.1375 Z-19.0000 F2750
G1 X788.0913 Y1580.7176 Z-19.0000 F2750
G1 X788.0352 Y1581.3254 Z-19.0000 F2750
G1 X787.8795 Y1581.9404 Z-19.0000 F2750
G1 X787.6206 Y1582.5381 Z-19.0000 F2750
G1 X787.2625 Y1583.0929 Z-19.0000 F2750
G1 X786.8181 Y1583.5813 Z-19.0000 F2750
G1 X786.3068 Y1583.9849 Z-19.0000 F2750
G1 X785.7523 Y1584.2931 Z-19.0000 F2750
G1 X785.1793 Y1584.5033 Z-19.0000 F2750
G1 X784.6101 Y1584.6201 Z-19.0000 F2750
G1 X782.6259 Y1584.8790 Z-19.0000 F2750
G1 X794.5263 Y1583.3286 Z-19.0000 F2750
G1 X795.1064 Y1583.2955 Z-19.0000 F2750
G1 X795.7142 Y1583.3517 Z-19.0000 F2750
G1 X796.3292 Y1583.5073 Z-19.0000 F2750
G1 X796.9269 Y1583.7663 Z-19.0000 F2750
G1 X797.4818 Y1584.1243 Z-19.0000 F2750
G1 X797.9701 Y1584.5688 Z-19.0000 F2750
G1 X798.3738 Y1585.0801 Z-19.0000 F2750
G1 X798.6820 Y1585.6345 Z-19.0000 F2750
G1 X798.8922 Y1586.2076 Z-19.0000 F2750
G1 X799.0090 Y1586.7768 Z-19.0000 F2750
G1 X799.2678 Y1588.7610 Z-19.0000 F2750
G1 X797.1426 Y1572.3977 Z-19.0000 F2750
G1 X795.0011 Y1556.0366 Z-19.0000 F2750
G1 X795.0011 Y1556.0366 Z10.0000 F9999
G1 X674.5017 Y1567.7194 Z10.0000 F9999
G1 X674.5017 Y1567.7194 Z1.0000 F2000
G1 X662.6033 Y1569.2781 Z-2.0792 F2000
G1 X661.9842 Y1569.3107 Z-2.2383 F2000
G1 X661.3561 Y1569.2452 Z-2.4004 F2000
G1 X660.7423 Y1569.0802 Z-2.5634 F2000
G1 X660.1659 Y1568.8220 Z-2.7255 F2000
G1 X659.6466 Y1568.4833 Z-2.8846 F2000
G1 X659.1858 Y1568.0685 Z-3.0437 F2000
G1 X658.7881 Y1567.5779 Z-3.2057 F2000
G1 X658.4709 Y1567.0271 Z-3.3688 F2000
G1 X658.2461 Y1566.4369 Z-3.5309 F2000
G1 X658.1185 Y1565.8302 Z-3.6900 F2000
G1 X657.8589 Y1563.8551 Z-4.2011 F2000
G1 X660.2777 Y1582.3997 Z-9.0000 F2000
G1 X657.8589 Y1563.8551 Z-13.7989 F2000
G1 X658.1185 Y1565.8302 Z-14.3100 F2000
G1 X658.2461 Y1566.4369 Z-14.4691 F2000
G1 X658.4709 Y1567.0271 Z-14.6312 F2000
G1 X658.7881 Y1567.5779 Z-14.7943 F2000
G1 X659.1858 Y1568.0685 Z-14.9563 F2000
G1 X659.6466 Y1568.4833 Z-15.1154 F2000
G1 X660.1659 Y1568.8220 Z-15.2745 F2000
G1 X660.7423 Y1569.0802 Z-15.4366 F2000
G1 X661.3561 Y1569.2452 Z-15.5996 F2000
G1 X661.9842 Y1569.3107 Z-15.7617 F2000
G1 X662.6033 Y1569.2781 Z-15.9208 F2000
G1 X674.5017 Y1567.7194 Z-19.0000 F2000
G1 X662.6033 Y1569.2781 Z-19.0000 F2750
G1 X661.9842 Y1569.3107 Z-19.0000 F2750
G1 X661.3561 Y1569.2452 Z-19.0000 F2750
G1 X660.7423 Y1569.0802 Z-19.0000 F2750
G1 X660.1659 Y1568.8220 Z-19.0000 F2750
G1 X659.6466 Y1568.4833 Z-19.0000 F2750
G1 X659.1858 Y1568.0685 Z-19.0000 F2750
G1 X658.7881 Y1567.5779 Z-19.0000 F2750
G1 X658.4709 Y1567.0271 Z-19.0000 F2750
G1 X658.2461 Y1566.4369 Z-19.0000 F2750
G1 X658.1185 Y1565.8302 Z-19.0000 F2750
G1 X657.8589 Y1563.8551 Z-19.0000 F2750
G1 X660.7017 Y1585.6502 Z-19.0000 F2750
G1 X660.4448 Y1583.6657 Z-19.0000 F2750
G1 X660.4117 Y1583.0856 Z-19.0000 F2750
G1 X660.4679 Y1582.4778 Z-19.0000 F2750
G1 X660.6236 Y1581.8628 Z-19.0000 F2750
G1 X660.8825 Y1581.2651 Z-19.0000 F2750
G1 X661.2405 Y1580.7103 Z-19.0000 F2750
G1 X661.6850 Y1580.2219 Z-19.0000 F2750
G1 X662.1963 Y1579.8183 Z-19.0000 F2750
G1 X662.7508 Y1579.5101 Z-19.0000 F2750
G1 X663.3238 Y1579.2999 Z-19.0000 F2750
G1 X663.8930 Y1579.1831 Z-19.0000 F2750
G1 X687.6914 Y1576.0790 Z-19.0000 F2750
G1 X688.3103 Y1576.0467 Z-19.0000 F2750
G1 X688.9383 Y1576.1125 Z-19.0000 F2750
G1 X689.5518 Y1576.2777 Z-19.0000 F2750
G1 X690.1279 Y1576.5360 Z-19.0000 F2750
G1 X690.6469 Y1576.8747 Z-19.0000 F2750
G1 X691.1074 Y1577.2895 Z-19.0000 F2750
G1 X691.5048 Y1577.7801 Z-19.0000 F2750
G1 X691.8219 Y1578.3307 Z-19.0000 F2750
G1 X692.0465 Y1578.9207 Z-19.0000 F2750
G1 X692.1741 Y1579.5272 Z-19.0000 F2750
G1 X692.4329 Y1581.5114 Z-19.0000 F2750
G1 X689.5921 Y1559.7160 Z-19.0000 F2750
G1 X689.8460 Y1561.6784 Z-19.0000 F2750
G1 X689.8791 Y1562.2583 Z-19.0000 F2750
G1 X689.8230 Y1562.8659 Z-19.0000 F2750
G1 X689.6675 Y1563.4807 Z-19.0000 F2750
G1 X689.4087 Y1564.0783 Z-19.0000 F2750
G1 X689.0510 Y1564.6330 Z-19.0000 F2750
G1 X688.6069 Y1565.1213 Z-19.0000 F2750
G1 X688.0959 Y1565.5249 Z-19.0000 F2750
G1 X687.5418 Y1565.8333 Z-19.0000 F2750
G1 X686.9690 Y1566.0436 Z-19.0000 F2750
G1 X686.4000 Y1566.1607 Z-19.0000 F2750
G1 X674.5017 Y1567.7194 Z-19.0000 F2750
G1 X674.5017 Y1567.7194 Z10.0000 F9999
G1 X555.2913 Y1589.3213 Z10.0000 F9999
G1 X555.2913 Y1589.3213 Z1.0000 F2000
G1 X559.3009 Y1620.0613 Z-6.9547 F2000
G1 X559.0441 Y1618.0769 Z-7.4682 F2000
G1 X559.0110 Y1617.4967 Z-7.6173 F2000
G1 X559.0672 Y1616.8889 Z-7.7739 F2000
G1 X559.2228 Y1616.2740 Z-7.9367 F2000
G1 X559.4818 Y1615.6762 Z-8.1038 F2000
G1 X559.8398 Y1615.1214 Z-8.2733 F2000
G1 X560.2842 Y1614.6330 Z-8.4427 F2000
G1 X560.7956 Y1614.2294 Z-8.6099 F2000
G1 X561.3500 Y1613.9212 Z-8.7726 F2000
G1 X561.9231 Y1613.7110 Z-8.9293 F2000
G1 X562.1932 Y1613.6556 Z-9.0000 F2000
G1 X561.9231 Y1613.7110 Z-9.0707 F2000
G1 X561.3500 Y1613.9212 Z-9.2274 F2000
G1 X560.7956 Y1614.2294 Z-9.3901 F2000
G1 X560.2842 Y1614.6330 Z-9.5573 F2000
G1 X559.8398 Y1615.1214 Z-9.7267 F2000
G1 X559.4818 Y1615.6762 Z-9.8962 F2000
G1 X559.2228 Y1616.2740 Z-10.0633 F2000
G1 X559.0672 Y1616.8889 Z-10.2261 F2000
G1 X559.0110 Y1617.4967 Z-10.3827 F2000
G1 X559.0441 Y1618.0769 Z-10.5318 F2000
G1 X559.3009 Y1620.0613 Z-11.0453 F2000
G1 X555.2913 Y1589.3213 Z-19.0000 F2000
G1 X559.3009 Y1620.0613 Z-19.0000 F2750
G1 X559.0441 Y1618.0769 Z-19.0000 F2750
G1 X559.0110 Y1617.4967 Z-19.0000 F2750
G1 X559.0672 Y1616.8889 Z-19.0000 F2750
G1 X559.2228 Y1616.2740 Z-19.0000 F2750
G1 X559.4818 Y1615.6762 Z-19.0000 F2750
G1 X559.8398 Y1615.1214 Z-19.0000 F2750
G1 X560.2842 Y1614.6330 Z-19.0000 F2750
G1 X560.7956 Y1614.2294 Z-19.0000 F2750
G1 X561.3500 Y1613.9212 Z-19.0000 F2750
G1 X561.9231 Y1613.7110 Z-19.0000 F2750
G1 X562.4923 Y1613.5942 Z-19.0000 F2750
G1 X574.3924 Y1612.0420 Z-19.0000 F2750
G1 X572.4080 Y1612.2988 Z-19.0000 F2750
G1 X571.8279 Y1612.3319 Z-19.0000 F2750
G1 X571.2201 Y1612.2758 Z-19.0000 F2750
G1 X570.6051 Y1612.1201 Z-19.0000 F2750
G1 X570.0074 Y1611.8611 Z-19.0000 F2750
G1 X569.4525 Y1611.5031 Z-19.0000 F2750
G1 X568.9642 Y1611.0587 Z-19.0000 F2750
G1 X568.5605 Y1610.5474 Z-19.0000 F2750
G1 X568.2523 Y1609.9929 Z-19.0000 F2750
G1 X568.0422 Y1609.4198 Z-19.0000 F2750
G1 X567.9253 Y1608.8506 Z-19.0000 F2750
G1 X562.2343 Y1565.2205 Z-19.0000 F2750
G1 X562.2012 Y1564.6404 Z-19.0000 F2750
G1 X562.2573 Y1564.0326 Z-19.0000 F2750
G1 X562.4130 Y1563.4176 Z-19.0000 F2750
G1 X562.6720 Y1562.8198 Z-19.0000 F2750
G1 X563.0300 Y1562.2650 Z-19.0000 F2750
G1 X563.4744 Y1561.7767 Z-19.0000 F2750
G1 X563.9857 Y1561.3730 Z-19.0000 F2750
G1 X564.5402 Y1561.0648 Z-19.0000 F2750
G1 X565.1133 Y1560.8546 Z-19.0000 F2750
G1 X565.6825 Y1560.7378 Z-19.0000 F2750
G1 X567.6667 Y1560.4790 Z-19.0000 F2750
G1 X555.7662 Y1562.0293 Z-19.0000 F2750
G1 X555.1473 Y1562.0616 Z-19.0000 F2750
G1 X554.5194 Y1561.9957 Z-19.0000 F2750
G1 X553.9059 Y1561.8306 Z-19.0000 F2750
G1 X553.3298 Y1561.5722 Z-19.0000 F2750
G1 X552.8108 Y1561.2336 Z-19.0000 F2750
G1 X552.3503 Y1560.8188 Z-19.0000 F2750
G1 X551.9528 Y1560.3282 Z-19.0000 F2750
G1 X551.6358 Y1559.7776 Z-19.0000 F2750
G1 X551.4111 Y1559.1876 Z-19.0000 F2750
G1 X551.2836 Y1558.5811 Z-19.0000 F2750
G1 X551.0248 Y1556.5969 Z-19.0000 F2750
G1 X553.1498 Y1572.9602 Z-19.0000 F2750
G1 X555.2913 Y1589.3213 Z-19.0000 F2750
G1 X555.2913 Y1589.3213 Z10.0000 F9999
G1 X378.3759 Y1536.9200 Z10.0000 F9999
G1 X378.3759 Y1536.9200 Z1.0000 F2000
G1 X374.3660 Y1506.1801 Z-6.9547 F2000
G1 X374.6229 Y1508.1645 Z-7.4682 F2000
G1 X374.6552 Y1508.7834 Z-7.6272 F2000
G1 X374.5894 Y1509.4114 Z-7.7892 F2000
G1 X374.4242 Y1510.0249 Z-7.9522 F2000
G1 X374.1659 Y1510.6010 Z-8.1142 F2000
G1 X373.8272 Y1511.1200 Z-8.2733 F2000
G1 X373.4124 Y1511.5805 Z-8.4323 F2000
G1 X372.9219 Y1511.9779 Z-8.5943 F2000
G1 X372.3712 Y1512.2950 Z-8.7573 F2000
G1 X371.7812 Y1512.5197 Z-8.9193 F2000
G1 X371.4736 Y1512.5844 Z-9.0000 F2000
G1 X371.7812 Y1512.5197 Z-9.0807 F2000
G1 X372.3712 Y1512.2950 Z-9.2427 F2000
G1 X372.9219 Y1511.9779 Z-9.4057 F2000
G1 X373.4124 Y1511.5805 Z-9.5677 F2000
G1 X373.8272 Y1511.1200 Z-9.7267 F2000
G1 X374.1659 Y1510.6010 Z-9.8858 F2000
G1 X374.4242 Y1510.0249 Z-10.0478 F2000
G1 X374.5894 Y1509.4114 Z-10.2108 F2000
G1 X374.6552 Y1508.7834 Z-10.3728 F2000
G1 X374.6229 Y1508.1645 Z-10.5318 F2000
G1 X374.3660 Y1506.1801 Z-11.0453 F2000
G1 X378.3759 Y1536.9200 Z-19.0000 F2000
G1 X374.3660 Y1506.1801 Z-19.0000 F2750
G1 X374.6229 Y1508.1645 Z-19.0000 F2750
G1 X374.6552 Y1508.7834 Z-19.0000 F2750
G1 X374.5894 Y1509.4114 Z-19.0000 F2750
G1 X374.4242 Y1510.0249 Z-19.0000 F2750
G1 X374.1659 Y1510.6010 Z-19.0000 F2750
G1 X373.8272 Y1511.1200 Z-19.0000 F2750
G1 X373.4124 Y1511.5805 Z-19.0000 F2750
G1 X372.9219 Y1511.9779 Z-19.0000 F2750
G1 X372.3712 Y1512.2950 Z-19.0000 F2750
G1 X371.7812 Y1512.5197 Z-19.0000 F2750
G1 X371.1747 Y1512.6472 Z-19.0000 F2750
G1 X359.2746 Y1514.1995 Z-19.0000 F2750
G1 X361.2590 Y1513.9427 Z-19.0000 F2750
G1 X361.8392 Y1513.9096 Z-19.0000 F2750
G1 X362.4469 Y1513.9657 Z-19.0000 F2750
G1 X363.0619 Y1514.1214 Z-19.0000 F2750
G1 X363.6597 Y1514.3803 Z-19.0000 F2750
G1 X364.2145 Y1514.7384 Z-19.0000 F2750
G1 X364.7029 Y1515.1828 Z-19.0000 F2750
G1 X365.1065 Y1515.6941 Z-19.0000 F2750
G1 X365.4147 Y1516.2486 Z-19.0000 F2750
G1 X365.6249 Y1516.8216 Z-19.0000 F2750
G1 X365.7417 Y1517.3908 Z-19.0000 F2750
G1 X371.4330 Y1561.0209 Z-19.0000 F2750
G1 X371.4661 Y1561.6011 Z-19.0000 F2750
G1 X371.4100 Y1562.2089 Z-19.0000 F2750
G1 X371.2543 Y1562.8238 Z-19.0000 F2750
G1 X370.9954 Y1563.4216 Z-19.0000 F2750
G1 X370.6374 Y1563.9764 Z-19.0000 F2750
G1 X370.1929 Y1564.4648 Z-19.0000 F2750
G1 X369.6816 Y1564.8684 Z-19.0000 F2750
G1 X369.1271 Y1565.1766 Z-19.0000 F2750
G1 X368.5541 Y1565.3868 Z-19.0000 F2750
G1 X367.9849 Y1565.5036 Z-19.0000 F2750
G1 X366.0007 Y1565.7624 Z-19.0000 F2750
G1 X377.9011 Y1564.2121 Z-19.0000 F2750
G1 X378.4812 Y1564.1790 Z-19.0000 F2750
G1 X379.0890 Y1564.2351 Z-19.0000 F2750
G1 X379.7040 Y1564.3908 Z-19.0000 F2750
G1 X380.3017 Y1564.6498 Z-19.0000 F2750
G1 X380.8566 Y1565.0078 Z-19.0000 F2750
G1 X381.3449 Y1565.4522 Z-19.0000 F2750
G1 X381.7486 Y1565.9635 Z-19.0000 F2750
G1 X382.0568 Y1566.5180 Z-19.0000 F2750
G1 X382.2670 Y1567.0910 Z-19.0000 F2750
G1 X382.3838 Y1567.6602 Z-19.0000 F2750
G1 X382.6426 Y1569.6444 Z-19.0000 F2750
G1 X380.5174 Y1553.2812 Z-19.0000 F2750
G1 X378.3759 Y1536.9200 Z-19.0000 F2750
G1 X378.3759 Y1536.9200 Z10.0000 F9999
G1 X257.8765 Y1548.6029 Z10.0000 F9999
G1 X257.8765 Y1548.6029 Z1.0000 F2000
G1 X245.9781 Y1550.1616 Z-2.0792 F2000
G1 X245.3591 Y1550.1942 Z-2.2383 F2000
G1 X244.7309 Y1550.1286 Z-2.4004 F2000
G1 X244.1171 Y1549.9637 Z-2.5634 F2000
G1 X243.5407 Y1549.7054 Z-2.7255 F2000
G1 X243.0214 Y1549.3668 Z-2.8846 F2000
G1 X242.5606 Y1548.9520 Z-3.0437 F2000
G1 X242.1629 Y1548.4613 Z-3.2057 F2000
G1 X241.8457 Y1547.9106 Z-3.3688 F2000
G1 X241.6209 Y1547.3203 Z-3.5309 F2000
G1 X241.4933 Y1546.7137 Z-3.6900 F2000
G1 X241.2337 Y1544.7386 Z-4.2011 F2000
G1 X243.6525 Y1563.2832 Z-9.0000 F2000
G1 X241.2337 Y1544.7386 Z-13.7989 F2000
G1 X241.4933 Y1546.7137 Z-14.3100 F2000
G1 X241.6209 Y1547.3203 Z-14.4691 F2000
G1 X241.8457 Y1547.9106 Z-14.6312 F2000
G1 X242.1629 Y1548.4613 Z-14.7943 F2000
G1 X242.5606 Y1548.9520 Z-14.9563 F2000
G1 X243.0214 Y1549.3668 Z-15.1154 F2000
G1 X243.5407 Y1549.7054 Z-15.2745 F2000
G1 X244.1171 Y1549.9637 Z-15.4366 F2000
G1 X244.7309 Y1550.1286 Z-15.5996 F2000
G1 X245.3591 Y1550.1942 Z-15.7617 F2000
G1 X245.9781 Y1550.1616 Z-15.9208 F2000
G1 X257.8765 Y1548.6029 Z-19.0000 F2000
G1 X245.9781 Y1550.1616 Z-19.0000 F2750
G1 X245.3591 Y1550.1942 Z-19.0000 F2750
G1 X244.7309 Y1550.1286 Z-19.0000 F2750
G1 X244.1171 Y1549.9637 Z-19.0000 F2750
G1 X243.5407 Y1549.7054 Z-19.0000 F2750
G1 X243.0214 Y1549.3668 Z-19.0000 F2750
G1 X242.5606 Y1548.9520 Z-19.0000 F2750
G1 X242.1629 Y1548.4613 Z-19.0000 F2750
G1 X241.8457 Y1547.9106 Z-19.0000 F2750
G1 X241.6209 Y1547.3203 Z-19.0000 F2750
G1 X241.4933 Y1546.7137 Z-19.0000 F2750
G1 X241.2337 Y1544.7386 Z-19.0000 F2750
G1 X244.0765 Y1566.5336 Z-19.0000 F2750
G1 X243.8196 Y1564.5492 Z-19.0000 F2750
G1 X243.7865 Y1563.9691 Z-19.0000 F2750
G1 X243.8427 Y1563.3613 Z-19.0000 F2750
G1 X243.9984 Y1562.7463 Z-19.0000 F2750
G1 X244.2573 Y1562.1486 Z-19.0000 F2750
G1 X244.6154 Y1561.5937 Z-19.0000 F2750
G1 X245.0598 Y1561.1054 Z-19.0000 F2750
G1 X245.5711 Y1560.7017 Z-19.0000 F2750
G1 X246.1256 Y1560.3935 Z-19.0000 F2750
G1 X246.6986 Y1560.1834 Z-19.0000 F2750
G1 X247.2678 Y1560.0666 Z-19.0000 F2750
G1 X271.0662 Y1556.9625 Z-19.0000 F2750
G1 X271.6464 Y1556.9294 Z-19.0000 F2750
G1 X272.2542 Y1556.9855 Z-19.0000 F2750
G1 X272.8691 Y1557.1412 Z-19.0000 F2750
G1 X273.4669 Y1557.4002 Z-19.0000 F2750
G1 X274.0217 Y1557.7582 Z-19.0000 F2750
G1 X274.5101 Y1558.2026 Z-19.0000 F2750
G1 X274.9137 Y1558.7139 Z-19.0000 F2750
G1 X275.2219 Y1559.2684 Z-19.0000 F2750
G1 X275.4321 Y1559.8414 Z-19.0000 F2750
G1 X275.5489 Y1560.4107 Z-19.0000 F2750
G1 X275.8077 Y1562.3948 Z-19.0000 F2750
G1 X272.9669 Y1540.5995 Z-19.0000 F2750
G1 X273.2208 Y1542.5618 Z-19.0000 F2750
G1 X273.2539 Y1543.1418 Z-19.0000 F2750
G1 X273.1978 Y1543.7494 Z-19.0000 F2750
G1 X273.0423 Y1544.3642 Z-19.0000 F2750
G1 X272.7835 Y1544.9617 Z-19.0000 F2750
G1 X272.4258 Y1545.5164 Z-19.0000 F2750
G1 X271.9817 Y1546.0047 Z-19.0000 F2750
G1 X271.4707 Y1546.4084 Z-19.0000 F2750
G1 X270.9166 Y1546.7167 Z-19.0000 F2750
G1 X270.3438 Y1546.9271 Z-19.0000 F2750
G1 X269.7748 Y1547.0442 Z-19.0000 F2750
G1 X257.8765 Y1548.6029 Z-19.0000 F2750
G1 X257.8765 Y1548.6029 Z10.0000 F9999
G1 X138.6661 Y1570.2048 Z10.0000 F9999
G1 X138.6661 Y1570.2048 Z1.0000 F2000
G1 X142.6757 Y1600.9448 Z-6.9547 F2000
G1 X142.4189 Y1598.9603 Z-7.4682 F2000
G1 X142.3866 Y1598.3414 Z-7.6272 F2000
G1 X142.4524 Y1597.7135 Z-7.7892 F2000
G1 X142.6176 Y1597.1000 Z-7.9522 F2000
G1 X142.8760 Y1596.5239 Z-8.1142 F2000
G1 X143.2146 Y1596.0049 Z-8.2733 F2000
G1 X143.6294 Y1595.5444 Z-8.4323 F2000
G1 X144.1200 Y1595.1469 Z-8.5943 F2000
G1 X144.6706 Y1594.8299 Z-8.7573 F2000
G1 X145.2606 Y1594.6052 Z-8.9193 F2000
G1 X145.5682 Y1594.5405 Z-9.0000 F2000
G1 X145.2606 Y1594.6052 Z-9.0807 F2000
G1 X144.6706 Y1594.8299 Z-9.2427 F2000
G1 X144.1200 Y1595.1469 Z-9.4057 F2000
G1 X143.6294 Y1595.5444 Z-9.5677 F2000
G1 X143.2146 Y1596.0049 Z-9.7267 F2000
G1 X142.8760 Y1596.5239 Z-9.8858 F2000
G1 X142.6176 Y1597.1000 Z-10.0478 F2000
G1 X142.4524 Y1597.7135 Z-10.2108 F2000
G1 X142.3866 Y1598.3414 Z-10.3728 F2000
G1 X142.4189 Y1598.9603 Z-10.5318 F2000
G1 X142.6757 Y1600.9448 Z-11.0453 F2000
G1 X138.6661 Y1570.2048 Z-19.0000 F2000
G1 X142.6757 Y1600.9448 Z-19.0000 F2750
G1 X142.4189 Y1598.9603 Z-19.0000 F2750
G1 X142.3866 Y1598.3414 Z-19.0000 F2750
G1 X142.4524 Y1597.7135 Z-19.0000 F2750
G1 X142.6176 Y1597.1000 Z-19.0000 F2750
G1 X142.8760 Y1596.5239 Z-19.0000 F2750
G1 X143.2146 Y1596.0049 Z-19.0000 F2750
G1 X143.6294 Y1595.5444 Z-19.0000 F2750
G1 X144.1200 Y1595.1469 Z-19.0000 F2750
G1 X144.6706 Y1594.8299 Z-19.0000 F2750
G1 X145.2606 Y1594.6052 Z-19.0000 F2750
G1 X145.8671 Y1594.4777 Z-19.0000 F2750
G1 X157.7672 Y1592.9254 Z-19.0000 F2750
G1 X155.7828 Y1593.1823 Z-19.0000 F2750
G1 X155.2027 Y1593.2154 Z-19.0000 F2750
G1 X154.5949 Y1593.1592 Z-19.0000 F2750
G1 X153.9799 Y1593.0036 Z-19.0000 F2750
G1 X153.3822 Y1592.7446 Z-19.0000 F2750
G1 X152.8273 Y1592.3866 Z-19.0000 F2750
G1 X152.3390 Y1591.9421 Z-19.0000 F2750
G1 X151.9353 Y1591.4308 Z-19.0000 F2750
G1 X151.6271 Y1590.8764 Z-19.0000 F2750
G1 X151.4170 Y1590.3033 Z-19.0000 F2750
G1 X151.3001 Y1589.7341 Z-19.0000 F2750
G1 X145.6091 Y1546.1039 Z-19.0000 F2750
G1 X145.5760 Y1545.5238 Z-19.0000 F2750
G1 X145.6321 Y1544.9160 Z-19.0000 F2750
G1 X145.7878 Y1544.3011 Z-19.0000 F2750
G1 X146.0468 Y1543.7033 Z-19.0000 F2750
G1 X146.4048 Y1543.1485 Z-19.0000 F2750
G1 X146.8492 Y1542.6601 Z-19.0000 F2750
G1 X147.3605 Y1542.2565 Z-19.0000 F2750
G1 X147.9150 Y1541.9483 Z-19.0000 F2750
G1 X148.4881 Y1541.7381 Z-19.0000 F2750
G1 X149.0573 Y1541.6213 Z-19.0000 F2750
G1 X151.0415 Y1541.3625 Z-19.0000 F2750
G1 X139.1410 Y1542.9127 Z-19.0000 F2750
G1 X138.5221 Y1542.9450 Z-19.0000 F2750
G1 X137.8942 Y1542.8792 Z-19.0000 F2750
G1 X137.2807 Y1542.7140 Z-19.0000 F2750
G1 X136.7046 Y1542.4557 Z-19.0000 F2750
G1 X136.1856 Y1542.1170 Z-19.0000 F2750
G1 X135.7251 Y1541.7023 Z-19.0000 F2750
G1 X135.3276 Y1541.2117 Z-19.0000 F2750
G1 X135.0106 Y1540.6611 Z-19.0000 F2750
G1 X134.7859 Y1540.0710 Z-19.0000 F2750
G1 X134.6584 Y1539.4646 Z-19.0000 F2750
G1 X134.3996 Y1537.4804 Z-19.0000 F2750
G1 X136.5246 Y1553.8437 Z-19.0000 F2750
G1 X138.6661 Y1570.2048 Z-19.0000 F2750
G1 X138.6661 Y1570.2048 Z10.0000 F9999
G1 X99.8648 Y1272.7250 Z10.0000 F9999
G1 X99.8648 Y1272.7250 Z1.0000 F2000
G1 X103.8744 Y1303.4649 Z-6.9547 F2000
G1 X103.6176 Y1301.4805 Z-7.4682 F2000
G1 X103.5845 Y1300.9004 Z-7.6173 F2000
G1 X103.6406 Y1300.2926 Z-7.7739 F2000
G1 X103.7963 Y1299.6776 Z-7.9367 F2000
G1 X104.0553 Y1299.0799 Z-8.1038 F2000
G1 X104.4133 Y1298.5250 Z-8.2733 F2000
G1 X104.8577 Y1298.0367 Z-8.4427 F2000
G1 X105.3690 Y1297.6330 Z-8.6099 F2000
G1 X105.9235 Y1297.3248 Z-8.7726 F2000
G1 X106.4966 Y1297.1147 Z-8.9293 F2000
G1 X106.7666 Y1297.0592 Z-9.0000 F2000
G1 X106.4966 Y1297.1147 Z-9.0707 F2000
G1 X105.9235 Y1297.3248 Z-9.2274 F2000
G1 X105.3690 Y1297.6330 Z-9.3901 F2000
G1 X104.8577 Y1298.0367 Z-9.5573 F2000
G1 X104.4133 Y1298.5250 Z-9.7267 F2000
G1 X104.0553 Y1299.0799 Z-9.8962 F2000
G1 X103.7963 Y1299.6776 Z-10.0633 F2000
G1 X103.6406 Y1300.2926 Z-10.2261 F2000
G1 X103.5845 Y1300.9004 Z-10.3827 F2000
G1 X103.6176 Y1301.4805 Z-10.5318 F2000
G1 X103.8744 Y1303.4649 Z-11.0453 F2000
G1 X99.8648 Y1272.7250 Z-19.0000 F2000
G1 X103.8744 Y1303.4649 Z-19.0000 F2750
G1 X103.6176 Y1301.4805 Z-19.0000 F2750
G1 X103.5845 Y1300.9004 Z-19.0000 F2750
G1 X103.6406 Y1300.2926 Z-19.0000 F2750
G1 X103.7963 Y1299.6776 Z-19.0000 F2750
G1 X104.0553 Y1299.0799 Z-19.0000 F2750
G1 X104.4133 Y1298.5250 Z-19.0000 F2750
G1 X104.8577 Y1298.0367 Z-19.0000 F2750
G1 X105.3690 Y1297.6330 Z-19.0000 F2750
G1 X105.9235 Y1297.3248 Z-19.0000 F2750
G1 X106.4966 Y1297.1147 Z-19.0000 F2750
G1 X107.0658 Y1296.9978 Z-19.0000 F2750
G1 X118.9659 Y1295.4456 Z-19.0000 F2750
G1 X116.9815 Y1295.7024 Z-19.0000 F2750
G1 X116.3626 Y1295.7347 Z-19.0000 F2750
G1 X115.7346 Y1295.6689 Z-19.0000 F2750
G1 X115.1211 Y1295.5037 Z-19.0000 F2750
G1 X114.5450 Y1295.2454 Z-19.0000 F2750
G1 X114.0260 Y1294.9067 Z-19.0000 F2750
G1 X113.5655 Y1294.4920 Z-19.0000 F2750
G1 X113.1681 Y1294.0014 Z-19.0000 F2750
G1 X112.8511 Y1293.4508 Z-19.0000 F2750
G1 X112.6264 Y1292.8607 Z-19.0000 F2750
G1 X112.4988 Y1292.2543 Z-19.0000 F2750
G1 X106.8078 Y1248.6241 Z-19.0000 F2750
G1 X106.7755 Y1248.0052 Z-19.0000 F2750
G1 X106.8413 Y1247.3773 Z-19.0000 F2750
G1 X107.0065 Y1246.7638 Z-19.0000 F2750
G1 X107.2648 Y1246.1877 Z-19.0000 F2750
G1 X107.6035 Y1245.6686 Z-19.0000 F2750
G1 X108.0183 Y1245.2082 Z-19.0000 F2750
G1 X108.5088 Y1244.8107 Z-19.0000 F2750
G1 X109.0594 Y1244.4937 Z-19.0000 F2750
G1 X109.6495 Y1244.2690 Z-19.0000 F2750
G1 X110.2559 Y1244.1415 Z-19.0000 F2750
G1 X112.2401 Y1243.8826 Z-19.0000 F2750
G1 X100.3397 Y1245.4329 Z-19.0000 F2750
G1 X99.7596 Y1245.4660 Z-19.0000 F2750
G1 X99.1518 Y1245.4099 Z-19.0000 F2750
G1 X98.5368 Y1245.2542 Z-19.0000 F2750
G1 X97.9391 Y1244.9952 Z-19.0000 F2750
G1 X97.3843 Y1244.6372 Z-19.0000 F2750
G1 X96.8959 Y1244.1928 Z-19.0000 F2750
G1 X96.4923 Y1243.6815 Z-19.0000 F2750
G1 X96.1841 Y1243.1270 Z-19.0000 F2750
G1 X95.9739 Y1242.5539 Z-19.0000 F2750
G1 X95.8571 Y1241.9847 Z-19.0000 F2750
G1 X95.5983 Y1240.0005 Z-19.0000 F2750
G1 X97.7233 Y1256.3638 Z-19.0000 F2750
G1 X99.8648 Y1272.7250 Z-19.0000 F2750
G1 X99.8648 Y1272.7250 Z10.0000 F9999
G1 X339.5746 Y1239.4402 Z10.0000 F9999
G1 X339.5746 Y1239.4402 Z1.0000 F2000
G1 X335.5647 Y1208.7003 Z-6.9547 F2000
G1 X335.8216 Y1210.6847 Z-7.4682 F2000
G1 X335.8539 Y1211.3036 Z-7.6272 F2000
G1 X335.7880 Y1211.9315 Z-7.7892 F2000
G1 X335.6229 Y1212.5450 Z-7.9522 F2000
G1 X335.3645 Y1213.1212 Z-8.1142 F2000
G1 X335.0259 Y1213.6402 Z-8.2733 F2000
G1 X334.6111 Y1214.1006 Z-8.4323 F2000
G1 X334.1205 Y1214.4981 Z-8.5943 F2000
G1 X333.5699 Y1214.8151 Z-8.7573 F2000
G1 X332.9799 Y1215.0398 Z-8.9193 F2000
G1 X332.6723 Y1215.1045 Z-9.0000 F2000
G1 X332.9799 Y1215.0398 Z-9.0807 F2000
G1 X333.5699 Y1214.8151 Z-9.2427 F2000
G1 X334.1205 Y1214.4981 Z-9.4057 F2000
G1 X334.6111 Y1214.1006 Z-9.5677 F2000
G1 X335.0259 Y1213.6402 Z-9.7267 F2000
G1 X335.3645 Y1213.1212 Z-9.8858 F2000
G1 X335.6229 Y1212.5450 Z-10.0478 F2000
G1 X335.7880 Y1211.9315 Z-10.2108 F2000
G1 X335.8539 Y1211.3036 Z-10.3728 F2000
G1 X335.8216 Y1210.6847 Z-10.5318 F2000
G1 X335.5647 Y1208.7003 Z-11.0453 F2000
G1 X339.5746 Y1239.4402 Z-19.0000 F2000
G1 X335.5647 Y1208.7003 Z-19.0000 F2750
G1 X335.8216 Y1210.6847 Z-19.0000 F2750
G1 X335.8539 Y1211.3036 Z-19.0000 F2750
G1 X335.7880 Y1211.9315 Z-19.0000 F2750
G1 X335.6229 Y1212.5450 Z-19.0000 F2750
G1 X335.3645 Y1213.1212 Z-19.0000 F2750
G1 X335.0259 Y1213.6402 Z-19.0000 F2750
G1 X334.6111 Y1214.1006 Z-19.0000 F2750
G1 X334.1205 Y1214.4981 Z-19.0000 F2750
G1 X333.5699 Y1214.8151 Z-19.0000 F2750
G1 X332.9799 Y1215.0398 Z-19.0000 F2750
G1 X332.3734 Y1215.1674 Z-19.0000 F2750
G1 X320.4733 Y1216.7197 Z-19.0000 F2750
G1 X322.4577 Y1216.4628 Z-19.0000 F2750
G1 X323.0378 Y1216.4297 Z-19.0000 F2750
G1 X323.6456 Y1216.4859 Z-19.0000 F2750
G1 X324.2606 Y1216.6415 Z-19.0000 F2750
G1 X324.8583 Y1216.9005 Z-19.0000 F2750
G1 X325.4132 Y1217.2585 Z-19.0000 F2750
G1 X325.9015 Y1217.7030 Z-19.0000 F2750
G1 X326.3052 Y1218.2143 Z-19.0000 F2750
G1 X326.6134 Y1218.7687 Z-19.0000 F2750
G1 X326.8236 Y1219.3418 Z-19.0000 F2750
G1 X326.9404 Y1219.9110 Z-19.0000 F2750
G1 X332.6317 Y1263.5411 Z-19.0000 F2750
G1 X332.6640 Y1264.1600 Z-19.0000 F2750
G1 X332.5982 Y1264.7879 Z-19.0000 F2750
G1 X332.4330 Y1265.4014 Z-19.0000 F2750
G1 X332.1747 Y1265.9776 Z-19.0000 F2750
G1 X331.8360 Y1266.4966 Z-19.0000 F2750
G1 X331.4213 Y1266.9570 Z-19.0000 F2750
G1 X330.9307 Y1267.3545 Z-19.0000 F2750
G1 X330.3801 Y1267.6715 Z-19.0000 F2750
G1 X329.7900 Y1267.8962 Z-19.0000 F2750
G1 X329.1836 Y1268.0238 Z-19.0000 F2750
G1 X327.1994 Y1268.2826 Z-19.0000 F2750
G1 X339.0998 Y1266.7323 Z-19.0000 F2750
G1 X339.6799 Y1266.6992 Z-19.0000 F2750
G1 X340.2877 Y1266.7553 Z-19.0000 F2750
G1 X340.9027 Y1266.9110 Z-19.0000 F2750
G1 X341.5004 Y1267.1699 Z-19.0000 F2750
G1 X342.0553 Y1267.5280 Z-19.0000 F2750
G1 X342.5436 Y1267.9724 Z-19.0000 F2750
G1 X342.9473 Y1268.4837 Z-19.0000 F2750
G1 X343.2555 Y1269.0382 Z-19.0000 F2750
G1 X343.4656 Y1269.6112 Z-19.0000 F2750
G1 X343.5825 Y1270.1804 Z-19.0000 F2750
G1 X343.8413 Y1272.1646 Z-19.0000 F2750
G1 X341.7161 Y1255.8013 Z-19.0000 F2750
G1 X339.5746 Y1239.4402 Z-19.0000 F2750
G1 X339.5746 Y1239.4402 Z10.0000 F9999
