(plotsheet 2n3_nested_153 sheets_final v1_0_sheet 156_S156.1_8 screws_CC8 - HSM MRR 5.5~11mil)
(Material Size) (X=1220.000, Y=2440.000, Z=21.000)
(LinuxCNC_NoArcs_MM_TC_medium_50um_G1_verbose.con)
G90 G80 G21 G49
G64 P0.050
M6 T1
(Tool Number:1) (7.998 mm dia. slot drill)
G43 H1 G0Z80.0000
M3 S9000
G04 P10
G1 X425.2877 Y143.5914 Z10.0000 F9999
G1 X425.2877 Y143.5914 Z2.0000 F9999
G1 X425.2877 Y143.5914 Z-1.0000 F2500
G1 X425.2877 Y143.5914 Z10.0000 F9999
G1 X425.2877 Y428.8139 Z10.0000 F9999
G1 X425.2877 Y428.8139 Z2.0000 F9999
G1 X425.2877 Y428.8139 Z-1.0000 F2500
G1 X425.2877 Y428.8139 Z10.0000 F9999
G1 X425.2877 Y720.5331 Z10.0000 F9999
G1 X425.2877 Y720.5331 Z2.0000 F9999
G1 X425.2877 Y720.5331 Z-1.0000 F2500
G1 X425.2877 Y720.5331 Z10.0000 F9999
G1 X425.2877 Y1006.6702 Z10.0000 F9999
G1 X425.2877 Y1006.6702 Z2.0000 F9999
G1 X425.2877 Y1006.6702 Z-1.0000 F2500
G1 X425.2877 Y1006.6702 Z10.0000 F9999
G1 X425.2877 Y1298.6509 Z10.0000 F9999
G1 X425.2877 Y1298.6509 Z2.0000 F9999
G1 X425.2877 Y1298.6509 Z-1.0000 F2500
G1 X425.2877 Y1298.6509 Z10.0000 F9999
G1 X424.2221 Y1705.9558 Z10.0000 F9999
G1 X424.2221 Y1705.9558 Z2.0000 F9999
G1 X424.2221 Y1705.9558 Z-1.0000 F2500
G1 X424.2221 Y1705.9558 Z10.0000 F9999
G1 X424.2221 Y1997.6749 Z10.0000 F9999
G1 X424.2221 Y1997.6749 Z2.0000 F9999
G1 X424.2221 Y1997.6749 Z-1.0000 F2500
G1 X424.2221 Y1997.6749 Z10.0000 F9999
G1 X424.2221 Y2283.8120 Z10.0000 F9999
G1 X424.2221 Y2283.8120 Z2.0000 F9999
G1 X424.2221 Y2283.8120 Z-1.0000 F2500
G1 X424.2221 Y2283.8120 Z10.0000 F9999
G1 X1900.0000 Y2800.0000 Z80.0000 F9999
G1 Z80.0000 F9999
G1 X1900.0000 Y2800.0000 F9999
M5
M30
