(plotsheet 2n3_nested_153 sheets_final v1_0_sheet 151b_S151.1_text_CC8 - stepover 1mm)
(Material Size) (X=1220.000, Y=2440.000, Z=20.000)
(LinuxCNC_NoArcs_MM_TC_medium_50um_G1_verbose.con)
G90 G80 G21 G49
G64 P0.050
M6 T1
(Tool Number:1) (7.998 mm dia. slot drill)
G43 H1 G0Z80.0000
M3 S18000
G04 P10
G1 X124.4080 Y2218.6739 Z10.0000 F9999
G1 X124.4080 Y2218.6739 Z-1.0000 F2500
G1 X126.8300 Y2216.6188 Z-1.0000 F5000
G1 X129.9493 Y2215.3711 Z-1.0000 F5000
G1 X134.0777 Y2214.8941 Z-1.0000 F5000
G1 X138.5732 Y2215.3528 Z-1.0000 F5000
G1 X142.3897 Y2217.0959 Z-1.0000 F5000
G1 X145.0686 Y2220.0867 Z-1.0000 F5000
G1 X146.1878 Y2224.2519 Z-1.0000 F5000
G1 X145.6557 Y2228.2519 Z-1.0000 F5000
G1 X144.1144 Y2230.9308 Z-1.0000 F5000
G1 X142.0777 Y2232.6188 Z-1.0000 F5000
G1 X140.1695 Y2233.7198 Z-1.0000 F5000
G1 X130.9768 Y2238.4537 Z-1.0000 F5000
G1 X128.6099 Y2239.8666 Z-1.0000 F5000
G1 X126.7566 Y2241.5179 Z-1.0000 F5000
G1 X125.5089 Y2243.7014 Z-1.0000 F5000
G1 X124.9952 Y2246.5821 Z-1.0000 F5000
G1 X125.5273 Y2249.8666 Z-1.0000 F5000
G1 X127.3621 Y2252.8941 Z-1.0000 F5000
G1 X130.4998 Y2255.1143 Z-1.0000 F5000
G1 X134.8667 Y2255.9950 Z-1.0000 F5000
G1 X139.1236 Y2255.3161 Z-1.0000 F5000
G1 X141.9676 Y2253.8482 Z-1.0000 F5000
G1 X144.0594 Y2251.7014 Z-1.0000 F5000
G1 X141.9676 Y2253.8482 Z-1.0000 F5000
G1 X139.1236 Y2255.3161 Z-1.0000 F5000
G1 X134.8667 Y2255.9950 Z-1.0000 F5000
G1 X130.4998 Y2255.1143 Z-1.0000 F5000
G1 X127.3621 Y2252.8941 Z-1.0000 F5000
G1 X125.5273 Y2249.8666 Z-1.0000 F5000
G1 X124.9952 Y2246.5821 Z-1.0000 F5000
G1 X125.5089 Y2243.7014 Z-1.0000 F5000
G1 X126.7566 Y2241.5179 Z-1.0000 F5000
G1 X128.6099 Y2239.8666 Z-1.0000 F5000
G1 X130.9768 Y2238.4537 Z-1.0000 F5000
G1 X140.1695 Y2233.7198 Z-1.0000 F5000
G1 X142.0777 Y2232.6188 Z-1.0000 F5000
G1 X144.1144 Y2230.9308 Z-1.0000 F5000
G1 X145.6557 Y2228.2519 Z-1.0000 F5000
G1 X146.1878 Y2224.2519 Z-1.0000 F5000
G1 X145.0686 Y2220.0867 Z-1.0000 F5000
G1 X142.3897 Y2217.0959 Z-1.0000 F5000
G1 X138.5732 Y2215.3528 Z-1.0000 F5000
G1 X134.0777 Y2214.8941 Z-1.0000 F5000
G1 X129.9493 Y2215.3711 Z-1.0000 F5000
G1 X126.8300 Y2216.6188 Z-1.0000 F5000
G1 X124.4080 Y2218.6739 Z-1.0000 F5000
G1 X122.4631 Y2221.7198 Z-1.0000 F5000
G1 X122.4631 Y2221.7198 Z10.0000 F9999
G1 X198.7933 Y2221.7198 Z10.0000 F9999
G1 X198.7933 Y2221.7198 Z-1.0000 F2500
G1 X200.7383 Y2218.6739 Z-1.0000 F5000
G1 X203.1603 Y2216.6188 Z-1.0000 F5000
G1 X206.2796 Y2215.3711 Z-1.0000 F5000
G1 X210.4080 Y2214.8941 Z-1.0000 F5000
G1 X214.9034 Y2215.3528 Z-1.0000 F5000
G1 X218.7199 Y2217.0959 Z-1.0000 F5000
G1 X221.3988 Y2220.0867 Z-1.0000 F5000
G1 X222.5181 Y2224.2519 Z-1.0000 F5000
G1 X221.9860 Y2228.2519 Z-1.0000 F5000
G1 X220.4447 Y2230.9308 Z-1.0000 F5000
G1 X218.4080 Y2232.6188 Z-1.0000 F5000
G1 X216.4998 Y2233.7198 Z-1.0000 F5000
G1 X207.3071 Y2238.4537 Z-1.0000 F5000
G1 X204.9401 Y2239.8666 Z-1.0000 F5000
G1 X203.0869 Y2241.5179 Z-1.0000 F5000
G1 X201.8392 Y2243.7014 Z-1.0000 F5000
G1 X201.3254 Y2246.5821 Z-1.0000 F5000
G1 X201.8576 Y2249.8666 Z-1.0000 F5000
G1 X203.6924 Y2252.8941 Z-1.0000 F5000
G1 X206.8300 Y2255.1143 Z-1.0000 F5000
G1 X211.1970 Y2255.9950 Z-1.0000 F5000
G1 X215.4539 Y2255.3161 Z-1.0000 F5000
G1 X218.2979 Y2253.8482 Z-1.0000 F5000
G1 X220.3897 Y2251.7014 Z-1.0000 F5000
G1 X218.2979 Y2253.8482 Z-1.0000 F5000
G1 X215.4539 Y2255.3161 Z-1.0000 F5000
G1 X211.1970 Y2255.9950 Z-1.0000 F5000
G1 X206.8300 Y2255.1143 Z-1.0000 F5000
G1 X203.6924 Y2252.8941 Z-1.0000 F5000
G1 X201.8576 Y2249.8666 Z-1.0000 F5000
G1 X201.3254 Y2246.5821 Z-1.0000 F5000
G1 X201.8392 Y2243.7014 Z-1.0000 F5000
G1 X203.0869 Y2241.5179 Z-1.0000 F5000
G1 X204.9401 Y2239.8666 Z-1.0000 F5000
G1 X207.3071 Y2238.4537 Z-1.0000 F5000
G1 X216.4998 Y2233.7198 Z-1.0000 F5000
G1 X218.4080 Y2232.6188 Z-1.0000 F5000
G1 X220.4447 Y2230.9308 Z-1.0000 F5000
G1 X221.9860 Y2228.2519 Z-1.0000 F5000
G1 X222.5181 Y2224.2519 Z-1.0000 F5000
G1 X221.3988 Y2220.0867 Z-1.0000 F5000
G1 X218.7199 Y2217.0959 Z-1.0000 F5000
G1 X214.9034 Y2215.3528 Z-1.0000 F5000
G1 X210.4080 Y2214.8941 Z-1.0000 F5000
G1 X206.2796 Y2215.3711 Z-1.0000 F5000
G1 X203.1603 Y2216.6188 Z-1.0000 F5000
G1 X200.7383 Y2218.6739 Z-1.0000 F5000
G1 X200.7383 Y2218.6739 Z10.0000 F9999
G1 X188.0777 Y2265.3895 Z10.0000 F9999
G1 X188.0777 Y2265.3895 Z-1.0000 F2500
G1 X157.6924 Y2212.5454 Z-1.0000 F5000
G1 X188.0777 Y2265.3895 Z-1.0000 F5000
G1 X188.0777 Y2265.3895 Z10.0000 F9999
G1 X188.0777 Y2094.2439 Z10.0000 F9999
G1 X188.0777 Y2094.2439 Z-1.0000 F2500
G1 X157.6924 Y2041.3999 Z-1.0000 F5000
G1 X188.0777 Y2094.2439 Z-1.0000 F5000
G1 X188.0777 Y2094.2439 Z10.0000 F9999
G1 X198.7933 Y2050.5742 Z10.0000 F9999
G1 X198.7933 Y2050.5742 Z-1.0000 F2500
G1 X200.7383 Y2047.5283 Z-1.0000 F5000
G1 X203.1603 Y2045.4733 Z-1.0000 F5000
G1 X206.2796 Y2044.2256 Z-1.0000 F5000
G1 X210.4080 Y2043.7485 Z-1.0000 F5000
G1 X214.9034 Y2044.2072 Z-1.0000 F5000
G1 X218.7199 Y2045.9503 Z-1.0000 F5000
G1 X221.3988 Y2048.9412 Z-1.0000 F5000
G1 X222.5181 Y2053.1063 Z-1.0000 F5000
G1 X221.9860 Y2057.1063 Z-1.0000 F5000
G1 X220.4447 Y2059.7852 Z-1.0000 F5000
G1 X218.4080 Y2061.4733 Z-1.0000 F5000
G1 X216.4998 Y2062.5742 Z-1.0000 F5000
G1 X207.3071 Y2067.3081 Z-1.0000 F5000
G1 X204.9401 Y2068.7210 Z-1.0000 F5000
G1 X203.0869 Y2070.3724 Z-1.0000 F5000
G1 X201.8392 Y2072.5558 Z-1.0000 F5000
G1 X201.3254 Y2075.4366 Z-1.0000 F5000
G1 X201.8576 Y2078.7210 Z-1.0000 F5000
G1 X203.6924 Y2081.7485 Z-1.0000 F5000
G1 X206.8300 Y2083.9687 Z-1.0000 F5000
G1 X211.1970 Y2084.8494 Z-1.0000 F5000
G1 X215.4539 Y2084.1705 Z-1.0000 F5000
G1 X218.2979 Y2082.7026 Z-1.0000 F5000
G1 X220.3897 Y2080.5558 Z-1.0000 F5000
G1 X218.2979 Y2082.7026 Z-1.0000 F5000
G1 X215.4539 Y2084.1705 Z-1.0000 F5000
G1 X211.1970 Y2084.8494 Z-1.0000 F5000
G1 X206.8300 Y2083.9687 Z-1.0000 F5000
G1 X203.6924 Y2081.7485 Z-1.0000 F5000
G1 X201.8576 Y2078.7210 Z-1.0000 F5000
G1 X201.3254 Y2075.4366 Z-1.0000 F5000
G1 X201.8392 Y2072.5558 Z-1.0000 F5000
G1 X203.0869 Y2070.3724 Z-1.0000 F5000
G1 X204.9401 Y2068.7210 Z-1.0000 F5000
G1 X207.3071 Y2067.3081 Z-1.0000 F5000
G1 X216.4998 Y2062.5742 Z-1.0000 F5000
G1 X218.4080 Y2061.4733 Z-1.0000 F5000
G1 X220.4447 Y2059.7852 Z-1.0000 F5000
G1 X221.9860 Y2057.1063 Z-1.0000 F5000
G1 X222.5181 Y2053.1063 Z-1.0000 F5000
G1 X221.3988 Y2048.9412 Z-1.0000 F5000
G1 X218.7199 Y2045.9503 Z-1.0000 F5000
G1 X214.9034 Y2044.2072 Z-1.0000 F5000
G1 X210.4080 Y2043.7485 Z-1.0000 F5000
G1 X206.2796 Y2044.2256 Z-1.0000 F5000
G1 X203.1603 Y2045.4733 Z-1.0000 F5000
G1 X200.7383 Y2047.5283 Z-1.0000 F5000
G1 X200.7383 Y2047.5283 Z10.0000 F9999
G1 X122.4631 Y2050.5742 Z10.0000 F9999
G1 X122.4631 Y2050.5742 Z-1.0000 F2500
G1 X124.4080 Y2047.5283 Z-1.0000 F5000
G1 X126.8300 Y2045.4733 Z-1.0000 F5000
G1 X129.9493 Y2044.2256 Z-1.0000 F5000
G1 X134.0777 Y2043.7485 Z-1.0000 F5000
G1 X138.5732 Y2044.2072 Z-1.0000 F5000
G1 X142.3897 Y2045.9503 Z-1.0000 F5000
G1 X145.0686 Y2048.9412 Z-1.0000 F5000
G1 X146.1878 Y2053.1063 Z-1.0000 F5000
G1 X145.6557 Y2057.1063 Z-1.0000 F5000
G1 X144.1144 Y2059.7852 Z-1.0000 F5000
G1 X142.0777 Y2061.4733 Z-1.0000 F5000
G1 X140.1695 Y2062.5742 Z-1.0000 F5000
G1 X130.9768 Y2067.3081 Z-1.0000 F5000
G1 X128.6099 Y2068.7210 Z-1.0000 F5000
G1 X126.7566 Y2070.3724 Z-1.0000 F5000
G1 X125.5089 Y2072.5558 Z-1.0000 F5000
G1 X124.9952 Y2075.4366 Z-1.0000 F5000
G1 X125.5273 Y2078.7210 Z-1.0000 F5000
G1 X127.3621 Y2081.7485 Z-1.0000 F5000
G1 X130.4998 Y2083.9687 Z-1.0000 F5000
G1 X134.8667 Y2084.8494 Z-1.0000 F5000
G1 X139.1236 Y2084.1705 Z-1.0000 F5000
G1 X141.9676 Y2082.7026 Z-1.0000 F5000
G1 X144.0594 Y2080.5558 Z-1.0000 F5000
G1 X141.9676 Y2082.7026 Z-1.0000 F5000
G1 X139.1236 Y2084.1705 Z-1.0000 F5000
G1 X134.8667 Y2084.8494 Z-1.0000 F5000
G1 X130.4998 Y2083.9687 Z-1.0000 F5000
G1 X127.3621 Y2081.7485 Z-1.0000 F5000
G1 X125.5273 Y2078.7210 Z-1.0000 F5000
G1 X124.9952 Y2075.4366 Z-1.0000 F5000
G1 X125.5089 Y2072.5558 Z-1.0000 F5000
G1 X126.7566 Y2070.3724 Z-1.0000 F5000
G1 X128.6099 Y2068.7210 Z-1.0000 F5000
G1 X130.9768 Y2067.3081 Z-1.0000 F5000
G1 X140.1695 Y2062.5742 Z-1.0000 F5000
G1 X142.0777 Y2061.4733 Z-1.0000 F5000
G1 X144.1144 Y2059.7852 Z-1.0000 F5000
G1 X145.6557 Y2057.1063 Z-1.0000 F5000
G1 X146.1878 Y2053.1063 Z-1.0000 F5000
G1 X145.0686 Y2048.9412 Z-1.0000 F5000
G1 X142.3897 Y2045.9503 Z-1.0000 F5000
G1 X138.5732 Y2044.2072 Z-1.0000 F5000
G1 X134.0777 Y2043.7485 Z-1.0000 F5000
G1 X129.9493 Y2044.2256 Z-1.0000 F5000
G1 X126.8300 Y2045.4733 Z-1.0000 F5000
G1 X124.4080 Y2047.5283 Z-1.0000 F5000
G1 X124.4080 Y2047.5283 Z10.0000 F9999
G1 X413.5551 Y2221.4728 Z10.0000 F9999
G1 X413.5551 Y2221.4728 Z-1.0000 F2500
G1 X466.3991 Y2191.0875 Z-1.0000 F5000
G1 X413.5551 Y2221.4728 Z-1.0000 F5000
G1 X413.5551 Y2221.4728 Z10.0000 F9999
G1 X460.2707 Y2234.1334 Z10.0000 F9999
G1 X460.2707 Y2234.1334 Z-1.0000 F2500
G1 X462.3257 Y2236.5554 Z-1.0000 F5000
G1 X463.5734 Y2239.6747 Z-1.0000 F5000
G1 X464.0505 Y2243.8031 Z-1.0000 F5000
G1 X463.5918 Y2248.2985 Z-1.0000 F5000
G1 X461.8487 Y2252.1150 Z-1.0000 F5000
G1 X458.8578 Y2254.7939 Z-1.0000 F5000
G1 X454.6927 Y2255.9132 Z-1.0000 F5000
G1 X450.6927 Y2255.3811 Z-1.0000 F5000
G1 X448.0138 Y2253.8398 Z-1.0000 F5000
G1 X446.3257 Y2251.8031 Z-1.0000 F5000
G1 X445.2248 Y2249.8949 Z-1.0000 F5000
G1 X440.4909 Y2240.7022 Z-1.0000 F5000
G1 X439.0780 Y2238.3352 Z-1.0000 F5000
G1 X437.4267 Y2236.4820 Z-1.0000 F5000
G1 X435.2432 Y2235.2343 Z-1.0000 F5000
G1 X432.3624 Y2234.7205 Z-1.0000 F5000
G1 X429.0780 Y2235.2527 Z-1.0000 F5000
G1 X426.0505 Y2237.0875 Z-1.0000 F5000
G1 X423.8303 Y2240.2251 Z-1.0000 F5000
G1 X422.9496 Y2244.5921 Z-1.0000 F5000
G1 X423.6285 Y2248.8490 Z-1.0000 F5000
G1 X425.0964 Y2251.6930 Z-1.0000 F5000
G1 X427.2432 Y2253.7848 Z-1.0000 F5000
G1 X425.0964 Y2251.6930 Z-1.0000 F5000
G1 X423.6285 Y2248.8490 Z-1.0000 F5000
G1 X422.9496 Y2244.5921 Z-1.0000 F5000
G1 X423.8303 Y2240.2251 Z-1.0000 F5000
G1 X426.0505 Y2237.0875 Z-1.0000 F5000
G1 X429.0780 Y2235.2527 Z-1.0000 F5000
G1 X432.3624 Y2234.7205 Z-1.0000 F5000
G1 X435.2432 Y2235.2343 Z-1.0000 F5000
G1 X437.4267 Y2236.4820 Z-1.0000 F5000
G1 X439.0780 Y2238.3352 Z-1.0000 F5000
G1 X440.4909 Y2240.7022 Z-1.0000 F5000
G1 X445.2248 Y2249.8949 Z-1.0000 F5000
G1 X446.3257 Y2251.8031 Z-1.0000 F5000
G1 X448.0138 Y2253.8398 Z-1.0000 F5000
G1 X450.6927 Y2255.3811 Z-1.0000 F5000
G1 X454.6927 Y2255.9132 Z-1.0000 F5000
G1 X458.8578 Y2254.7939 Z-1.0000 F5000
G1 X461.8487 Y2252.1150 Z-1.0000 F5000
G1 X463.5918 Y2248.2985 Z-1.0000 F5000
G1 X464.0505 Y2243.8031 Z-1.0000 F5000
G1 X463.5734 Y2239.6747 Z-1.0000 F5000
G1 X462.3257 Y2236.5554 Z-1.0000 F5000
G1 X460.2707 Y2234.1334 Z-1.0000 F5000
G1 X457.2248 Y2232.1884 Z-1.0000 F5000
G1 X457.2248 Y2232.1884 Z10.0000 F9999
G1 X457.2248 Y2155.8582 Z10.0000 F9999
G1 X457.2248 Y2155.8582 Z-1.0000 F2500
G1 X460.2707 Y2157.8031 Z-1.0000 F5000
G1 X462.3257 Y2160.2251 Z-1.0000 F5000
G1 X463.5734 Y2163.3444 Z-1.0000 F5000
G1 X464.0505 Y2167.4728 Z-1.0000 F5000
G1 X463.5918 Y2171.9682 Z-1.0000 F5000
G1 X461.8487 Y2175.7848 Z-1.0000 F5000
G1 X458.8578 Y2178.4637 Z-1.0000 F5000
G1 X454.6927 Y2179.5829 Z-1.0000 F5000
G1 X450.6927 Y2179.0508 Z-1.0000 F5000
G1 X448.0138 Y2177.5095 Z-1.0000 F5000
G1 X446.3257 Y2175.4728 Z-1.0000 F5000
G1 X445.2248 Y2173.5646 Z-1.0000 F5000
G1 X440.4909 Y2164.3719 Z-1.0000 F5000
G1 X439.0780 Y2162.0049 Z-1.0000 F5000
G1 X437.4267 Y2160.1517 Z-1.0000 F5000
G1 X435.2432 Y2158.9040 Z-1.0000 F5000
G1 X432.3624 Y2158.3903 Z-1.0000 F5000
G1 X429.0780 Y2158.9224 Z-1.0000 F5000
G1 X426.0505 Y2160.7572 Z-1.0000 F5000
G1 X423.8303 Y2163.8949 Z-1.0000 F5000
G1 X422.9496 Y2168.2618 Z-1.0000 F5000
G1 X423.6285 Y2172.5187 Z-1.0000 F5000
G1 X425.0964 Y2175.3627 Z-1.0000 F5000
G1 X427.2432 Y2177.4545 Z-1.0000 F5000
G1 X425.0964 Y2175.3627 Z-1.0000 F5000
G1 X423.6285 Y2172.5187 Z-1.0000 F5000
G1 X422.9496 Y2168.2618 Z-1.0000 F5000
G1 X423.8303 Y2163.8949 Z-1.0000 F5000
G1 X426.0505 Y2160.7572 Z-1.0000 F5000
G1 X429.0780 Y2158.9224 Z-1.0000 F5000
G1 X432.3624 Y2158.3903 Z-1.0000 F5000
G1 X435.2432 Y2158.9040 Z-1.0000 F5000
G1 X437.4267 Y2160.1517 Z-1.0000 F5000
G1 X439.0780 Y2162.0049 Z-1.0000 F5000
G1 X440.4909 Y2164.3719 Z-1.0000 F5000
G1 X445.2248 Y2173.5646 Z-1.0000 F5000
G1 X446.3257 Y2175.4728 Z-1.0000 F5000
G1 X448.0138 Y2177.5095 Z-1.0000 F5000
G1 X450.6927 Y2179.0508 Z-1.0000 F5000
G1 X454.6927 Y2179.5829 Z-1.0000 F5000
G1 X458.8578 Y2178.4637 Z-1.0000 F5000
G1 X461.8487 Y2175.7848 Z-1.0000 F5000
G1 X463.5918 Y2171.9682 Z-1.0000 F5000
G1 X464.0505 Y2167.4728 Z-1.0000 F5000
G1 X463.5734 Y2163.3444 Z-1.0000 F5000
G1 X462.3257 Y2160.2251 Z-1.0000 F5000
G1 X460.2707 Y2157.8031 Z-1.0000 F5000
G1 X460.2707 Y2157.8031 Z10.0000 F9999
G1 X582.9723 Y2164.9092 Z10.0000 F9999
G1 X582.9723 Y2164.9092 Z-1.0000 F2500
G1 X598.0824 Y2174.8312 Z-1.0000 F5000
G1 X582.9723 Y2164.9092 Z-1.0000 F5000
G1 X582.9723 Y2164.9092 Z10.0000 F9999
G1 X613.7980 Y2177.9689 Z10.0000 F9999
G1 X613.7980 Y2177.9689 Z-1.0000 F2500
G1 X613.7980 Y2172.6019 Z-1.0000 F5000
G1 X613.3438 Y2169.6982 Z-1.0000 F5000
G1 X611.9815 Y2167.2900 Z-1.0000 F5000
G1 X609.6145 Y2165.6248 Z-1.0000 F5000
G1 X606.1328 Y2164.9918 Z-1.0000 F5000
G1 X602.6237 Y2165.8588 Z-1.0000 F5000
G1 X600.1328 Y2167.9367 Z-1.0000 F5000
G1 X598.6604 Y2170.4276 Z-1.0000 F5000
G1 X598.1649 Y2172.6019 Z-1.0000 F5000
G1 X598.1649 Y2177.9689 Z-1.0000 F5000
G1 X598.1649 Y2172.6019 Z-1.0000 F5000
G1 X598.6604 Y2170.4276 Z-1.0000 F5000
G1 X600.1328 Y2167.9367 Z-1.0000 F5000
G1 X602.6237 Y2165.8588 Z-1.0000 F5000
G1 X606.1328 Y2164.9918 Z-1.0000 F5000
G1 X609.6145 Y2165.6248 Z-1.0000 F5000
G1 X611.9815 Y2167.2900 Z-1.0000 F5000
G1 X613.3438 Y2169.6982 Z-1.0000 F5000
G1 X613.7980 Y2172.6019 Z-1.0000 F5000
G1 X613.7980 Y2177.9689 Z-1.0000 F5000
G1 X582.9723 Y2177.9689 Z-1.0000 F5000
G1 X582.9723 Y2177.9689 Z10.0000 F9999
G1 X582.9723 Y2200.8679 Z10.0000 F9999
G1 X582.9723 Y2200.8679 Z-1.0000 F2500
G1 X613.7980 Y2200.8679 Z-1.0000 F5000
G1 X613.7980 Y2189.5285 Z-1.0000 F5000
G1 X613.7980 Y2200.8679 Z-1.0000 F5000
G1 X600.0778 Y2200.8679 Z-1.0000 F5000
G1 X600.0778 Y2190.0377 Z-1.0000 F5000
G1 X600.0778 Y2200.8679 Z-1.0000 F5000
G1 X600.0778 Y2200.8679 Z10.0000 F9999
G1 X582.9723 Y2156.9000 Z10.0000 F9999
G1 X582.9723 Y2156.9000 Z-1.0000 F2500
G1 X613.7980 Y2144.8863 Z-1.0000 F5000
G1 X582.9723 Y2132.8450 Z-1.0000 F5000
G1 X613.7980 Y2144.8863 Z-1.0000 F5000
G1 X613.7980 Y2144.8863 Z10.0000 F9999
G1 X593.9952 Y2137.1523 Z10.0000 F9999
G1 X593.9952 Y2137.1523 Z-1.0000 F2500
G1 X593.9952 Y2152.6753 Z-1.0000 F5000
G1 X593.9952 Y2137.1523 Z-1.0000 F5000
G1 X593.9952 Y2137.1523 Z10.0000 F9999
G1 X601.4677 Y2102.3771 Z10.0000 F9999
G1 X601.4677 Y2102.3771 Z-1.0000 F2500
G1 X601.4677 Y2124.3129 Z-1.0000 F5000
G1 X601.4677 Y2102.3771 Z-1.0000 F5000
G1 X601.4677 Y2102.3771 Z10.0000 F9999
G1 X582.9723 Y2094.3679 Z10.0000 F9999
G1 X582.9723 Y2094.3679 Z-1.0000 F2500
G1 X613.7980 Y2082.3542 Z-1.0000 F5000
G1 X582.9723 Y2070.3129 Z-1.0000 F5000
G1 X613.7980 Y2082.3542 Z-1.0000 F5000
G1 X613.7980 Y2082.3542 Z10.0000 F9999
G1 X593.9952 Y2074.6202 Z10.0000 F9999
G1 X593.9952 Y2074.6202 Z-1.0000 F2500
G1 X593.9952 Y2090.1432 Z-1.0000 F5000
G1 X593.9952 Y2074.6202 Z-1.0000 F5000
G1 X593.9952 Y2074.6202 Z10.0000 F9999
G1 X588.0916 Y2030.9551 Z10.0000 F9999
G1 X588.0916 Y2030.9551 Z-1.0000 F2500
G1 X585.8072 Y2029.4964 Z-1.0000 F5000
G1 X584.2659 Y2027.6799 Z-1.0000 F5000
G1 X583.3301 Y2025.3404 Z-1.0000 F5000
G1 X582.9723 Y2022.2441 Z-1.0000 F5000
G1 X583.3163 Y2018.8725 Z-1.0000 F5000
G1 X584.6237 Y2016.0101 Z-1.0000 F5000
G1 X586.8668 Y2014.0010 Z-1.0000 F5000
G1 X589.9906 Y2013.1615 Z-1.0000 F5000
G1 X592.9906 Y2013.5606 Z-1.0000 F5000
G1 X594.9998 Y2014.7166 Z-1.0000 F5000
G1 X596.2659 Y2016.2441 Z-1.0000 F5000
G1 X597.0916 Y2017.6753 Z-1.0000 F5000
G1 X600.6420 Y2024.5698 Z-1.0000 F5000
G1 X601.7016 Y2026.3450 Z-1.0000 F5000
G1 X602.9402 Y2027.7349 Z-1.0000 F5000
G1 X604.5778 Y2028.6707 Z-1.0000 F5000
G1 X606.7383 Y2029.0560 Z-1.0000 F5000
G1 X609.2016 Y2028.6569 Z-1.0000 F5000
G1 X611.4723 Y2027.2808 Z-1.0000 F5000
G1 X613.1374 Y2024.9276 Z-1.0000 F5000
G1 X613.7980 Y2021.6523 Z-1.0000 F5000
G1 X613.2888 Y2018.4597 Z-1.0000 F5000
G1 X612.1879 Y2016.3267 Z-1.0000 F5000
G1 X610.5778 Y2014.7578 Z-1.0000 F5000
G1 X612.1879 Y2016.3267 Z-1.0000 F5000
G1 X613.2888 Y2018.4597 Z-1.0000 F5000
G1 X613.7980 Y2021.6523 Z-1.0000 F5000
G1 X613.1374 Y2024.9276 Z-1.0000 F5000
G1 X611.4723 Y2027.2808 Z-1.0000 F5000
G1 X609.2016 Y2028.6569 Z-1.0000 F5000
G1 X606.7383 Y2029.0560 Z-1.0000 F5000
G1 X604.5778 Y2028.6707 Z-1.0000 F5000
G1 X602.9402 Y2027.7349 Z-1.0000 F5000
G1 X601.7016 Y2026.3450 Z-1.0000 F5000
G1 X600.6420 Y2024.5698 Z-1.0000 F5000
G1 X597.0916 Y2017.6753 Z-1.0000 F5000
G1 X596.2659 Y2016.2441 Z-1.0000 F5000
G1 X594.9998 Y2014.7166 Z-1.0000 F5000
G1 X592.9906 Y2013.5606 Z-1.0000 F5000
G1 X589.9906 Y2013.1615 Z-1.0000 F5000
G1 X586.8668 Y2014.0010 Z-1.0000 F5000
G1 X584.6237 Y2016.0101 Z-1.0000 F5000
G1 X583.3163 Y2018.8725 Z-1.0000 F5000
G1 X582.9723 Y2022.2441 Z-1.0000 F5000
G1 X583.3301 Y2025.3404 Z-1.0000 F5000
G1 X584.2659 Y2027.6799 Z-1.0000 F5000
G1 X585.8072 Y2029.4964 Z-1.0000 F5000
G1 X585.8072 Y2029.4964 Z10.0000 F9999
G1 X620.8438 Y2038.9918 Z10.0000 F9999
G1 X620.8438 Y2038.9918 Z-1.0000 F2500
G1 X581.2108 Y2061.7808 Z-1.0000 F5000
G1 X620.8438 Y2038.9918 Z-1.0000 F5000
G1 X620.8438 Y2038.9918 Z10.0000 F9999
G1 X606.9035 Y1997.4734 Z10.0000 F9999
G1 X606.9035 Y1997.4734 Z-1.0000 F2500
G1 X599.9402 Y2002.3725 Z-1.0000 F5000
G1 X598.8530 Y2003.0881 Z-1.0000 F5000
G1 X593.4448 Y2004.5331 Z-1.0000 F5000
G1 X589.3714 Y2003.7074 Z-1.0000 F5000
G1 X586.0549 Y2001.4918 Z-1.0000 F5000
G1 X583.7980 Y1998.2166 Z-1.0000 F5000
G1 X582.9723 Y1994.1707 Z-1.0000 F5000
G1 X583.7980 Y1990.1248 Z-1.0000 F5000
G1 X586.0549 Y1986.7945 Z-1.0000 F5000
G1 X589.3714 Y1984.5514 Z-1.0000 F5000
G1 X593.4448 Y1983.7257 Z-1.0000 F5000
G1 X597.5044 Y1984.5514 Z-1.0000 F5000
G1 X600.8209 Y1986.7945 Z-1.0000 F5000
G1 X603.0503 Y1990.1248 Z-1.0000 F5000
G1 X603.8760 Y1994.1707 Z-1.0000 F5000
G1 X602.4861 Y1999.3588 Z-1.0000 F5000
G1 X598.8530 Y2003.0881 Z-1.0000 F5000
G1 X602.4861 Y1999.3588 Z-1.0000 F5000
G1 X603.8760 Y1994.1707 Z-1.0000 F5000
G1 X603.0503 Y1990.1248 Z-1.0000 F5000
G1 X600.8209 Y1986.7945 Z-1.0000 F5000
G1 X597.5044 Y1984.5514 Z-1.0000 F5000
G1 X593.4448 Y1983.7257 Z-1.0000 F5000
G1 X589.3714 Y1984.5514 Z-1.0000 F5000
G1 X586.0549 Y1986.7945 Z-1.0000 F5000
G1 X583.7980 Y1990.1248 Z-1.0000 F5000
G1 X582.9723 Y1994.1707 Z-1.0000 F5000
G1 X583.7980 Y1998.2166 Z-1.0000 F5000
G1 X586.0549 Y2001.4918 Z-1.0000 F5000
G1 X589.3714 Y2003.7074 Z-1.0000 F5000
G1 X593.4448 Y2004.5331 Z-1.0000 F5000
G1 X598.8530 Y2003.0881 Z-1.0000 F5000
G1 X603.8628 Y1999.6237 Z-1.0000 F5000
G1 X608.8447 Y1996.1190 Z-1.0000 F5000
G1 X613.7980 Y1992.5744 Z-1.0000 F5000
G1 X613.7980 Y1992.5744 Z10.0000 F9999
G1 X620.8438 Y1952.6799 Z10.0000 F9999
G1 X620.8438 Y1952.6799 Z-1.0000 F2500
G1 X581.2108 Y1975.4689 Z-1.0000 F5000
G1 X620.8438 Y1952.6799 Z-1.0000 F5000
G1 X620.8438 Y1952.6799 Z10.0000 F9999
G1 X582.9723 Y1927.7303 Z10.0000 F9999
G1 X582.9723 Y1927.7303 Z-1.0000 F2500
G1 X582.9723 Y1941.0514 Z-1.0000 F5000
G1 X613.7980 Y1941.0514 Z-1.0000 F5000
G1 X613.7980 Y1927.7303 Z-1.0000 F5000
G1 X613.7980 Y1941.0514 Z-1.0000 F5000
G1 X600.0778 Y1941.0514 Z-1.0000 F5000
G1 X600.0778 Y1928.7074 Z-1.0000 F5000
G1 X600.0778 Y1941.0514 Z-1.0000 F5000
G1 X582.9723 Y1941.0514 Z-1.0000 F5000
G1 X582.9723 Y1941.0514 Z10.0000 F9999
G1 X582.9723 Y1919.9826 Z10.0000 F9999
G1 X582.9723 Y1919.9826 Z-1.0000 F2500
G1 X598.8805 Y1910.9276 Z-1.0000 F5000
G1 X613.7980 Y1919.9826 Z-1.0000 F5000
G1 X598.8805 Y1910.9276 Z-1.0000 F5000
G1 X613.7980 Y1901.9689 Z-1.0000 F5000
G1 X598.8805 Y1910.9276 Z-1.0000 F5000
G1 X582.9723 Y1901.9689 Z-1.0000 F5000
G1 X598.8805 Y1910.9276 Z-1.0000 F5000
G1 X598.8805 Y1910.9276 Z10.0000 F9999
G1 X755.6091 Y1927.7303 Z10.0000 F9999
G1 X755.6091 Y1927.7303 Z-1.0000 F2500
G1 X755.6091 Y1941.0514 Z-1.0000 F5000
G1 X786.4348 Y1941.0514 Z-1.0000 F5000
G1 X786.4348 Y1927.7303 Z-1.0000 F5000
G1 X786.4348 Y1941.0514 Z-1.0000 F5000
G1 X772.7146 Y1941.0514 Z-1.0000 F5000
G1 X772.7146 Y1928.7074 Z-1.0000 F5000
G1 X772.7146 Y1941.0514 Z-1.0000 F5000
G1 X755.6091 Y1941.0514 Z-1.0000 F5000
G1 X755.6091 Y1941.0514 Z10.0000 F9999
G1 X755.6091 Y1919.9826 Z10.0000 F9999
G1 X755.6091 Y1919.9826 Z-1.0000 F2500
G1 X771.5174 Y1910.9276 Z-1.0000 F5000
G1 X786.4348 Y1919.9826 Z-1.0000 F5000
G1 X771.5174 Y1910.9276 Z-1.0000 F5000
G1 X786.4348 Y1901.9689 Z-1.0000 F5000
G1 X771.5174 Y1910.9276 Z-1.0000 F5000
G1 X755.6091 Y1901.9689 Z-1.0000 F5000
G1 X771.5174 Y1910.9276 Z-1.0000 F5000
G1 X771.5174 Y1910.9276 Z10.0000 F9999
G1 X793.4807 Y1952.6799 Z10.0000 F9999
G1 X793.4807 Y1952.6799 Z-1.0000 F2500
G1 X753.8477 Y1975.4689 Z-1.0000 F5000
G1 X793.4807 Y1952.6799 Z-1.0000 F5000
G1 X793.4807 Y1952.6799 Z10.0000 F9999
G1 X779.5403 Y1997.4734 Z10.0000 F9999
G1 X779.5403 Y1997.4734 Z-1.0000 F2500
G1 X772.5770 Y2002.3725 Z-1.0000 F5000
G1 X771.4899 Y2003.0881 Z-1.0000 F5000
G1 X766.0816 Y2004.5331 Z-1.0000 F5000
G1 X762.0082 Y2003.7074 Z-1.0000 F5000
G1 X758.6917 Y2001.4918 Z-1.0000 F5000
G1 X756.4348 Y1998.2166 Z-1.0000 F5000
G1 X755.6091 Y1994.1707 Z-1.0000 F5000
G1 X756.4348 Y1990.1248 Z-1.0000 F5000
G1 X758.6917 Y1986.7945 Z-1.0000 F5000
G1 X762.0082 Y1984.5514 Z-1.0000 F5000
G1 X766.0816 Y1983.7257 Z-1.0000 F5000
G1 X770.1412 Y1984.5514 Z-1.0000 F5000
G1 X773.4577 Y1986.7945 Z-1.0000 F5000
G1 X775.6871 Y1990.1248 Z-1.0000 F5000
G1 X776.5128 Y1994.1707 Z-1.0000 F5000
G1 X775.1229 Y1999.3588 Z-1.0000 F5000
G1 X771.4899 Y2003.0881 Z-1.0000 F5000
G1 X775.1229 Y1999.3588 Z-1.0000 F5000
G1 X776.5128 Y1994.1707 Z-1.0000 F5000
G1 X775.6871 Y1990.1248 Z-1.0000 F5000
G1 X773.4577 Y1986.7945 Z-1.0000 F5000
G1 X770.1412 Y1984.5514 Z-1.0000 F5000
G1 X766.0816 Y1983.7257 Z-1.0000 F5000
G1 X762.0082 Y1984.5514 Z-1.0000 F5000
G1 X758.6917 Y1986.7945 Z-1.0000 F5000
G1 X756.4348 Y1990.1248 Z-1.0000 F5000
G1 X755.6091 Y1994.1707 Z-1.0000 F5000
G1 X756.4348 Y1998.2166 Z-1.0000 F5000
G1 X758.6917 Y2001.4918 Z-1.0000 F5000
G1 X762.0082 Y2003.7074 Z-1.0000 F5000
G1 X766.0816 Y2004.5331 Z-1.0000 F5000
G1 X771.4899 Y2003.0881 Z-1.0000 F5000
G1 X776.4997 Y1999.6237 Z-1.0000 F5000
G1 X781.4815 Y1996.1190 Z-1.0000 F5000
G1 X786.4348 Y1992.5744 Z-1.0000 F5000
G1 X786.4348 Y1992.5744 Z10.0000 F9999
G1 X760.7284 Y2030.9551 Z10.0000 F9999
G1 X760.7284 Y2030.9551 Z-1.0000 F2500
G1 X758.4440 Y2029.4964 Z-1.0000 F5000
G1 X756.9027 Y2027.6799 Z-1.0000 F5000
G1 X755.9669 Y2025.3404 Z-1.0000 F5000
G1 X755.6091 Y2022.2441 Z-1.0000 F5000
G1 X755.9532 Y2018.8725 Z-1.0000 F5000
G1 X757.2605 Y2016.0101 Z-1.0000 F5000
G1 X759.5036 Y2014.0010 Z-1.0000 F5000
G1 X762.6275 Y2013.1615 Z-1.0000 F5000
G1 X765.6275 Y2013.5606 Z-1.0000 F5000
G1 X767.6366 Y2014.7166 Z-1.0000 F5000
G1 X768.9027 Y2016.2441 Z-1.0000 F5000
G1 X769.7284 Y2017.6753 Z-1.0000 F5000
G1 X773.2788 Y2024.5698 Z-1.0000 F5000
G1 X774.3385 Y2026.3450 Z-1.0000 F5000
G1 X775.5770 Y2027.7349 Z-1.0000 F5000
G1 X777.2146 Y2028.6707 Z-1.0000 F5000
G1 X779.3752 Y2029.0560 Z-1.0000 F5000
G1 X781.8385 Y2028.6569 Z-1.0000 F5000
G1 X784.1091 Y2027.2808 Z-1.0000 F5000
G1 X785.7743 Y2024.9276 Z-1.0000 F5000
G1 X786.4348 Y2021.6523 Z-1.0000 F5000
G1 X785.9256 Y2018.4597 Z-1.0000 F5000
G1 X784.8247 Y2016.3267 Z-1.0000 F5000
G1 X783.2146 Y2014.7578 Z-1.0000 F5000
G1 X784.8247 Y2016.3267 Z-1.0000 F5000
G1 X785.9256 Y2018.4597 Z-1.0000 F5000
G1 X786.4348 Y2021.6523 Z-1.0000 F5000
G1 X785.7743 Y2024.9276 Z-1.0000 F5000
G1 X784.1091 Y2027.2808 Z-1.0000 F5000
G1 X781.8385 Y2028.6569 Z-1.0000 F5000
G1 X779.3752 Y2029.0560 Z-1.0000 F5000
G1 X777.2146 Y2028.6707 Z-1.0000 F5000
G1 X775.5770 Y2027.7349 Z-1.0000 F5000
G1 X774.3385 Y2026.3450 Z-1.0000 F5000
G1 X773.2788 Y2024.5698 Z-1.0000 F5000
G1 X769.7284 Y2017.6753 Z-1.0000 F5000
G1 X768.9027 Y2016.2441 Z-1.0000 F5000
G1 X767.6366 Y2014.7166 Z-1.0000 F5000
G1 X765.6275 Y2013.5606 Z-1.0000 F5000
G1 X762.6275 Y2013.1615 Z-1.0000 F5000
G1 X759.5036 Y2014.0010 Z-1.0000 F5000
G1 X757.2605 Y2016.0101 Z-1.0000 F5000
G1 X755.9532 Y2018.8725 Z-1.0000 F5000
G1 X755.6091 Y2022.2441 Z-1.0000 F5000
G1 X755.9669 Y2025.3404 Z-1.0000 F5000
G1 X756.9027 Y2027.6799 Z-1.0000 F5000
G1 X758.4440 Y2029.4964 Z-1.0000 F5000
G1 X758.4440 Y2029.4964 Z10.0000 F9999
G1 X793.4807 Y2038.9918 Z10.0000 F9999
G1 X793.4807 Y2038.9918 Z-1.0000 F2500
G1 X753.8477 Y2061.7808 Z-1.0000 F5000
G1 X793.4807 Y2038.9918 Z-1.0000 F5000
G1 X793.4807 Y2038.9918 Z10.0000 F9999
G1 X755.6091 Y2094.3679 Z10.0000 F9999
G1 X755.6091 Y2094.3679 Z-1.0000 F2500
G1 X786.4348 Y2082.3542 Z-1.0000 F5000
G1 X755.6091 Y2070.3129 Z-1.0000 F5000
G1 X786.4348 Y2082.3542 Z-1.0000 F5000
G1 X786.4348 Y2082.3542 Z10.0000 F9999
G1 X774.1045 Y2102.3771 Z10.0000 F9999
G1 X774.1045 Y2102.3771 Z-1.0000 F2500
G1 X774.1045 Y2124.3129 Z-1.0000 F5000
G1 X774.1045 Y2102.3771 Z-1.0000 F5000
G1 X774.1045 Y2102.3771 Z10.0000 F9999
G1 X766.6321 Y2074.6202 Z10.0000 F9999
G1 X766.6321 Y2074.6202 Z-1.0000 F2500
G1 X766.6321 Y2090.1432 Z-1.0000 F5000
G1 X766.6321 Y2074.6202 Z-1.0000 F5000
G1 X766.6321 Y2074.6202 Z10.0000 F9999
G1 X766.6321 Y2137.1523 Z10.0000 F9999
G1 X766.6321 Y2137.1523 Z-1.0000 F2500
G1 X766.6321 Y2152.6753 Z-1.0000 F5000
G1 X766.6321 Y2137.1523 Z-1.0000 F5000
G1 X766.6321 Y2137.1523 Z10.0000 F9999
G1 X755.6091 Y2156.9000 Z10.0000 F9999
G1 X755.6091 Y2156.9000 Z-1.0000 F2500
G1 X786.4348 Y2144.8863 Z-1.0000 F5000
G1 X755.6091 Y2132.8450 Z-1.0000 F5000
G1 X786.4348 Y2144.8863 Z-1.0000 F5000
G1 X786.4348 Y2144.8863 Z10.0000 F9999
G1 X755.6091 Y2164.9092 Z10.0000 F9999
G1 X755.6091 Y2164.9092 Z-1.0000 F2500
G1 X770.7192 Y2174.8312 Z-1.0000 F5000
G1 X755.6091 Y2164.9092 Z-1.0000 F5000
G1 X755.6091 Y2164.9092 Z10.0000 F9999
G1 X786.4348 Y2177.9689 Z10.0000 F9999
G1 X786.4348 Y2177.9689 Z-1.0000 F2500
G1 X786.4348 Y2172.6019 Z-1.0000 F5000
G1 X785.9807 Y2169.6982 Z-1.0000 F5000
G1 X784.6183 Y2167.2900 Z-1.0000 F5000
G1 X782.2513 Y2165.6248 Z-1.0000 F5000
G1 X778.7697 Y2164.9918 Z-1.0000 F5000
G1 X775.2605 Y2165.8588 Z-1.0000 F5000
G1 X772.7697 Y2167.9367 Z-1.0000 F5000
G1 X771.2972 Y2170.4276 Z-1.0000 F5000
G1 X770.8018 Y2172.6019 Z-1.0000 F5000
G1 X770.8018 Y2177.9689 Z-1.0000 F5000
G1 X770.8018 Y2172.6019 Z-1.0000 F5000
G1 X771.2972 Y2170.4276 Z-1.0000 F5000
G1 X772.7697 Y2167.9367 Z-1.0000 F5000
G1 X775.2605 Y2165.8588 Z-1.0000 F5000
G1 X778.7697 Y2164.9918 Z-1.0000 F5000
G1 X782.2513 Y2165.6248 Z-1.0000 F5000
G1 X784.6183 Y2167.2900 Z-1.0000 F5000
G1 X785.9807 Y2169.6982 Z-1.0000 F5000
G1 X786.4348 Y2172.6019 Z-1.0000 F5000
G1 X786.4348 Y2177.9689 Z-1.0000 F5000
G1 X755.6091 Y2177.9689 Z-1.0000 F5000
G1 X755.6091 Y2177.9689 Z10.0000 F9999
G1 X755.6091 Y2200.8679 Z10.0000 F9999
G1 X755.6091 Y2200.8679 Z-1.0000 F2500
G1 X786.4348 Y2200.8679 Z-1.0000 F5000
G1 X786.4348 Y2189.5285 Z-1.0000 F5000
G1 X786.4348 Y2200.8679 Z-1.0000 F5000
G1 X772.7146 Y2200.8679 Z-1.0000 F5000
G1 X772.7146 Y2190.0377 Z-1.0000 F5000
G1 X772.7146 Y2200.8679 Z-1.0000 F5000
G1 X772.7146 Y2200.8679 Z10.0000 F9999
G1 X957.5533 Y2177.9689 Z10.0000 F9999
G1 X957.5533 Y2177.9689 Z-1.0000 F2500
G1 X957.5533 Y2172.6019 Z-1.0000 F5000
G1 X957.0992 Y2169.6982 Z-1.0000 F5000
G1 X955.7368 Y2167.2900 Z-1.0000 F5000
G1 X953.3698 Y2165.6248 Z-1.0000 F5000
G1 X949.8882 Y2164.9918 Z-1.0000 F5000
G1 X946.3790 Y2165.8588 Z-1.0000 F5000
G1 X943.8882 Y2167.9367 Z-1.0000 F5000
G1 X942.4157 Y2170.4276 Z-1.0000 F5000
G1 X941.9203 Y2172.6019 Z-1.0000 F5000
G1 X941.9203 Y2177.9689 Z-1.0000 F5000
G1 X941.9203 Y2172.6019 Z-1.0000 F5000
G1 X942.4157 Y2170.4276 Z-1.0000 F5000
G1 X943.8882 Y2167.9367 Z-1.0000 F5000
G1 X946.3790 Y2165.8588 Z-1.0000 F5000
G1 X949.8882 Y2164.9918 Z-1.0000 F5000
G1 X953.3698 Y2165.6248 Z-1.0000 F5000
G1 X955.7368 Y2167.2900 Z-1.0000 F5000
G1 X957.0992 Y2169.6982 Z-1.0000 F5000
G1 X957.5533 Y2172.6019 Z-1.0000 F5000
G1 X957.5533 Y2177.9689 Z-1.0000 F5000
G1 X926.7276 Y2177.9689 Z-1.0000 F5000
G1 X926.7276 Y2177.9689 Z10.0000 F9999
G1 X926.7276 Y2200.8679 Z10.0000 F9999
G1 X926.7276 Y2200.8679 Z-1.0000 F2500
G1 X957.5533 Y2200.8679 Z-1.0000 F5000
G1 X957.5533 Y2189.5285 Z-1.0000 F5000
G1 X957.5533 Y2200.8679 Z-1.0000 F5000
G1 X943.8331 Y2200.8679 Z-1.0000 F5000
G1 X943.8331 Y2190.0377 Z-1.0000 F5000
G1 X943.8331 Y2200.8679 Z-1.0000 F5000
G1 X943.8331 Y2200.8679 Z10.0000 F9999
G1 X926.7276 Y2164.9092 Z10.0000 F9999
G1 X926.7276 Y2164.9092 Z-1.0000 F2500
G1 X941.8377 Y2174.8312 Z-1.0000 F5000
G1 X926.7276 Y2164.9092 Z-1.0000 F5000
G1 X926.7276 Y2164.9092 Z10.0000 F9999
G1 X937.7506 Y2137.1523 Z10.0000 F9999
G1 X937.7506 Y2137.1523 Z-1.0000 F2500
G1 X937.7506 Y2152.6753 Z-1.0000 F5000
G1 X937.7506 Y2137.1523 Z-1.0000 F5000
G1 X937.7506 Y2137.1523 Z10.0000 F9999
G1 X926.7276 Y2156.9000 Z10.0000 F9999
G1 X926.7276 Y2156.9000 Z-1.0000 F2500
G1 X957.5533 Y2144.8863 Z-1.0000 F5000
G1 X926.7276 Y2132.8450 Z-1.0000 F5000
G1 X957.5533 Y2144.8863 Z-1.0000 F5000
G1 X957.5533 Y2144.8863 Z10.0000 F9999
G1 X945.2231 Y2102.3771 Z10.0000 F9999
G1 X945.2231 Y2102.3771 Z-1.0000 F2500
G1 X945.2231 Y2124.3129 Z-1.0000 F5000
G1 X945.2231 Y2102.3771 Z-1.0000 F5000
G1 X945.2231 Y2102.3771 Z10.0000 F9999
G1 X926.7276 Y2094.3679 Z10.0000 F9999
G1 X926.7276 Y2094.3679 Z-1.0000 F2500
G1 X957.5533 Y2082.3542 Z-1.0000 F5000
G1 X926.7276 Y2070.3129 Z-1.0000 F5000
G1 X957.5533 Y2082.3542 Z-1.0000 F5000
G1 X957.5533 Y2082.3542 Z10.0000 F9999
G1 X937.7506 Y2074.6202 Z10.0000 F9999
G1 X937.7506 Y2074.6202 Z-1.0000 F2500
G1 X937.7506 Y2090.1432 Z-1.0000 F5000
G1 X937.7506 Y2074.6202 Z-1.0000 F5000
G1 X937.7506 Y2074.6202 Z10.0000 F9999
G1 X929.5625 Y2029.4964 Z10.0000 F9999
G1 X929.5625 Y2029.4964 Z-1.0000 F2500
G1 X928.0212 Y2027.6799 Z-1.0000 F5000
G1 X927.0854 Y2025.3404 Z-1.0000 F5000
G1 X926.7276 Y2022.2441 Z-1.0000 F5000
G1 X927.0717 Y2018.8725 Z-1.0000 F5000
G1 X928.3790 Y2016.0101 Z-1.0000 F5000
G1 X930.6221 Y2014.0010 Z-1.0000 F5000
G1 X933.7460 Y2013.1615 Z-1.0000 F5000
G1 X936.7460 Y2013.5606 Z-1.0000 F5000
G1 X938.7552 Y2014.7166 Z-1.0000 F5000
G1 X940.0212 Y2016.2441 Z-1.0000 F5000
G1 X940.8469 Y2017.6753 Z-1.0000 F5000
G1 X944.3974 Y2024.5698 Z-1.0000 F5000
G1 X945.4570 Y2026.3450 Z-1.0000 F5000
G1 X946.6955 Y2027.7349 Z-1.0000 F5000
G1 X948.3331 Y2028.6707 Z-1.0000 F5000
G1 X950.4937 Y2029.0560 Z-1.0000 F5000
G1 X952.9570 Y2028.6569 Z-1.0000 F5000
G1 X955.2276 Y2027.2808 Z-1.0000 F5000
G1 X956.8928 Y2024.9276 Z-1.0000 F5000
G1 X957.5533 Y2021.6523 Z-1.0000 F5000
G1 X957.0442 Y2018.4597 Z-1.0000 F5000
G1 X955.9432 Y2016.3267 Z-1.0000 F5000
G1 X954.3331 Y2014.7578 Z-1.0000 F5000
G1 X955.9432 Y2016.3267 Z-1.0000 F5000
G1 X957.0442 Y2018.4597 Z-1.0000 F5000
G1 X957.5533 Y2021.6523 Z-1.0000 F5000
G1 X956.8928 Y2024.9276 Z-1.0000 F5000
G1 X955.2276 Y2027.2808 Z-1.0000 F5000
G1 X952.9570 Y2028.6569 Z-1.0000 F5000
G1 X950.4937 Y2029.0560 Z-1.0000 F5000
G1 X948.3331 Y2028.6707 Z-1.0000 F5000
G1 X946.6955 Y2027.7349 Z-1.0000 F5000
G1 X945.4570 Y2026.3450 Z-1.0000 F5000
G1 X944.3974 Y2024.5698 Z-1.0000 F5000
G1 X940.8469 Y2017.6753 Z-1.0000 F5000
G1 X940.0212 Y2016.2441 Z-1.0000 F5000
G1 X938.7552 Y2014.7166 Z-1.0000 F5000
G1 X936.7460 Y2013.5606 Z-1.0000 F5000
G1 X933.7460 Y2013.1615 Z-1.0000 F5000
G1 X930.6221 Y2014.0010 Z-1.0000 F5000
G1 X928.3790 Y2016.0101 Z-1.0000 F5000
G1 X927.0717 Y2018.8725 Z-1.0000 F5000
G1 X926.7276 Y2022.2441 Z-1.0000 F5000
G1 X927.0854 Y2025.3404 Z-1.0000 F5000
G1 X928.0212 Y2027.6799 Z-1.0000 F5000
G1 X929.5625 Y2029.4964 Z-1.0000 F5000
G1 X931.8469 Y2030.9551 Z-1.0000 F5000
G1 X931.8469 Y2030.9551 Z10.0000 F9999
G1 X964.5992 Y2038.9918 Z10.0000 F9999
G1 X964.5992 Y2038.9918 Z-1.0000 F2500
G1 X924.9662 Y2061.7808 Z-1.0000 F5000
G1 X964.5992 Y2038.9918 Z-1.0000 F5000
G1 X964.5992 Y2038.9918 Z10.0000 F9999
G1 X950.6588 Y1997.4734 Z10.0000 F9999
G1 X950.6588 Y1997.4734 Z-1.0000 F2500
G1 X943.6955 Y2002.3725 Z-1.0000 F5000
G1 X942.6084 Y2003.0881 Z-1.0000 F5000
G1 X937.2001 Y2004.5331 Z-1.0000 F5000
G1 X933.1267 Y2003.7074 Z-1.0000 F5000
G1 X929.8102 Y2001.4918 Z-1.0000 F5000
G1 X927.5533 Y1998.2166 Z-1.0000 F5000
G1 X926.7276 Y1994.1707 Z-1.0000 F5000
G1 X927.5533 Y1990.1248 Z-1.0000 F5000
G1 X929.8102 Y1986.7945 Z-1.0000 F5000
G1 X933.1267 Y1984.5514 Z-1.0000 F5000
G1 X937.2001 Y1983.7257 Z-1.0000 F5000
G1 X941.2597 Y1984.5514 Z-1.0000 F5000
G1 X944.5763 Y1986.7945 Z-1.0000 F5000
G1 X946.8056 Y1990.1248 Z-1.0000 F5000
G1 X947.6313 Y1994.1707 Z-1.0000 F5000
G1 X946.2414 Y1999.3588 Z-1.0000 F5000
G1 X942.6084 Y2003.0881 Z-1.0000 F5000
G1 X946.2414 Y1999.3588 Z-1.0000 F5000
G1 X947.6313 Y1994.1707 Z-1.0000 F5000
G1 X946.8056 Y1990.1248 Z-1.0000 F5000
G1 X944.5763 Y1986.7945 Z-1.0000 F5000
G1 X941.2597 Y1984.5514 Z-1.0000 F5000
G1 X937.2001 Y1983.7257 Z-1.0000 F5000
G1 X933.1267 Y1984.5514 Z-1.0000 F5000
G1 X929.8102 Y1986.7945 Z-1.0000 F5000
G1 X927.5533 Y1990.1248 Z-1.0000 F5000
G1 X926.7276 Y1994.1707 Z-1.0000 F5000
G1 X927.5533 Y1998.2166 Z-1.0000 F5000
G1 X929.8102 Y2001.4918 Z-1.0000 F5000
G1 X933.1267 Y2003.7074 Z-1.0000 F5000
G1 X937.2001 Y2004.5331 Z-1.0000 F5000
G1 X942.6084 Y2003.0881 Z-1.0000 F5000
G1 X947.6182 Y1999.6237 Z-1.0000 F5000
G1 X952.6000 Y1996.1190 Z-1.0000 F5000
G1 X957.5533 Y1992.5744 Z-1.0000 F5000
G1 X957.5533 Y1992.5744 Z10.0000 F9999
G1 X964.5992 Y1952.6799 Z10.0000 F9999
G1 X964.5992 Y1952.6799 Z-1.0000 F2500
G1 X924.9662 Y1975.4689 Z-1.0000 F5000
G1 X964.5992 Y1952.6799 Z-1.0000 F5000
G1 X964.5992 Y1952.6799 Z10.0000 F9999
G1 X926.7276 Y1927.7303 Z10.0000 F9999
G1 X926.7276 Y1927.7303 Z-1.0000 F2500
G1 X926.7276 Y1941.0514 Z-1.0000 F5000
G1 X957.5533 Y1941.0514 Z-1.0000 F5000
G1 X957.5533 Y1927.7303 Z-1.0000 F5000
G1 X957.5533 Y1941.0514 Z-1.0000 F5000
G1 X943.8331 Y1941.0514 Z-1.0000 F5000
G1 X943.8331 Y1928.7074 Z-1.0000 F5000
G1 X943.8331 Y1941.0514 Z-1.0000 F5000
G1 X926.7276 Y1941.0514 Z-1.0000 F5000
G1 X926.7276 Y1941.0514 Z10.0000 F9999
G1 X926.7276 Y1919.9826 Z10.0000 F9999
G1 X926.7276 Y1919.9826 Z-1.0000 F2500
G1 X942.6359 Y1910.9276 Z-1.0000 F5000
G1 X957.5533 Y1919.9826 Z-1.0000 F5000
G1 X942.6359 Y1910.9276 Z-1.0000 F5000
G1 X957.5533 Y1901.9689 Z-1.0000 F5000
G1 X942.6359 Y1910.9276 Z-1.0000 F5000
G1 X926.7276 Y1901.9689 Z-1.0000 F5000
G1 X942.6359 Y1910.9276 Z-1.0000 F5000
G1 X942.6359 Y1910.9276 Z10.0000 F9999
G1 X1100.6197 Y1927.7303 Z10.0000 F9999
G1 X1100.6197 Y1927.7303 Z-1.0000 F2500
G1 X1100.6197 Y1941.0514 Z-1.0000 F5000
G1 X1131.4454 Y1941.0514 Z-1.0000 F5000
G1 X1131.4454 Y1927.7303 Z-1.0000 F5000
G1 X1131.4454 Y1941.0514 Z-1.0000 F5000
G1 X1117.7252 Y1941.0514 Z-1.0000 F5000
G1 X1117.7252 Y1928.7074 Z-1.0000 F5000
G1 X1117.7252 Y1941.0514 Z-1.0000 F5000
G1 X1100.6197 Y1941.0514 Z-1.0000 F5000
G1 X1100.6197 Y1941.0514 Z10.0000 F9999
G1 X1100.6197 Y1919.9826 Z10.0000 F9999
G1 X1100.6197 Y1919.9826 Z-1.0000 F2500
G1 X1116.5279 Y1910.9276 Z-1.0000 F5000
G1 X1131.4454 Y1919.9826 Z-1.0000 F5000
G1 X1116.5279 Y1910.9276 Z-1.0000 F5000
G1 X1131.4454 Y1901.9689 Z-1.0000 F5000
G1 X1116.5279 Y1910.9276 Z-1.0000 F5000
G1 X1100.6197 Y1901.9689 Z-1.0000 F5000
G1 X1116.5279 Y1910.9276 Z-1.0000 F5000
G1 X1116.5279 Y1910.9276 Z10.0000 F9999
G1 X1138.4912 Y1952.6799 Z10.0000 F9999
G1 X1138.4912 Y1952.6799 Z-1.0000 F2500
G1 X1098.8582 Y1975.4689 Z-1.0000 F5000
G1 X1138.4912 Y1952.6799 Z-1.0000 F5000
G1 X1138.4912 Y1952.6799 Z10.0000 F9999
G1 X1124.5509 Y1997.4734 Z10.0000 F9999
G1 X1124.5509 Y1997.4734 Z-1.0000 F2500
G1 X1117.5876 Y2002.3725 Z-1.0000 F5000
G1 X1116.5004 Y2003.0881 Z-1.0000 F5000
G1 X1111.0922 Y2004.5331 Z-1.0000 F5000
G1 X1107.0188 Y2003.7074 Z-1.0000 F5000
G1 X1103.7023 Y2001.4918 Z-1.0000 F5000
G1 X1101.4454 Y1998.2166 Z-1.0000 F5000
G1 X1100.6197 Y1994.1707 Z-1.0000 F5000
G1 X1101.4454 Y1990.1248 Z-1.0000 F5000
G1 X1103.7023 Y1986.7945 Z-1.0000 F5000
G1 X1107.0188 Y1984.5514 Z-1.0000 F5000
G1 X1111.0922 Y1983.7257 Z-1.0000 F5000
G1 X1115.1518 Y1984.5514 Z-1.0000 F5000
G1 X1118.4683 Y1986.7945 Z-1.0000 F5000
G1 X1120.6977 Y1990.1248 Z-1.0000 F5000
G1 X1121.5234 Y1994.1707 Z-1.0000 F5000
G1 X1120.1334 Y1999.3588 Z-1.0000 F5000
G1 X1116.5004 Y2003.0881 Z-1.0000 F5000
G1 X1120.1334 Y1999.3588 Z-1.0000 F5000
G1 X1121.5234 Y1994.1707 Z-1.0000 F5000
G1 X1120.6977 Y1990.1248 Z-1.0000 F5000
G1 X1118.4683 Y1986.7945 Z-1.0000 F5000
G1 X1115.1518 Y1984.5514 Z-1.0000 F5000
G1 X1111.0922 Y1983.7257 Z-1.0000 F5000
G1 X1107.0188 Y1984.5514 Z-1.0000 F5000
G1 X1103.7023 Y1986.7945 Z-1.0000 F5000
G1 X1101.4454 Y1990.1248 Z-1.0000 F5000
G1 X1100.6197 Y1994.1707 Z-1.0000 F5000
G1 X1101.4454 Y1998.2166 Z-1.0000 F5000
G1 X1103.7023 Y2001.4918 Z-1.0000 F5000
G1 X1107.0188 Y2003.7074 Z-1.0000 F5000
G1 X1111.0922 Y2004.5331 Z-1.0000 F5000
G1 X1116.5004 Y2003.0881 Z-1.0000 F5000
G1 X1121.5102 Y1999.6237 Z-1.0000 F5000
G1 X1126.4921 Y1996.1190 Z-1.0000 F5000
G1 X1131.4454 Y1992.5744 Z-1.0000 F5000
G1 X1131.4454 Y1992.5744 Z10.0000 F9999
G1 X1105.7390 Y2030.9551 Z10.0000 F9999
G1 X1105.7390 Y2030.9551 Z-1.0000 F2500
G1 X1103.4546 Y2029.4964 Z-1.0000 F5000
G1 X1101.9133 Y2027.6799 Z-1.0000 F5000
G1 X1100.9775 Y2025.3404 Z-1.0000 F5000
G1 X1100.6197 Y2022.2441 Z-1.0000 F5000
G1 X1100.9637 Y2018.8725 Z-1.0000 F5000
G1 X1102.2711 Y2016.0101 Z-1.0000 F5000
G1 X1104.5142 Y2014.0010 Z-1.0000 F5000
G1 X1107.6380 Y2013.1615 Z-1.0000 F5000
G1 X1110.6380 Y2013.5606 Z-1.0000 F5000
G1 X1112.6472 Y2014.7166 Z-1.0000 F5000
G1 X1113.9133 Y2016.2441 Z-1.0000 F5000
G1 X1114.7390 Y2017.6753 Z-1.0000 F5000
G1 X1118.2894 Y2024.5698 Z-1.0000 F5000
G1 X1119.3490 Y2026.3450 Z-1.0000 F5000
G1 X1120.5876 Y2027.7349 Z-1.0000 F5000
G1 X1122.2252 Y2028.6707 Z-1.0000 F5000
G1 X1124.3857 Y2029.0560 Z-1.0000 F5000
G1 X1126.8490 Y2028.6569 Z-1.0000 F5000
G1 X1129.1197 Y2027.2808 Z-1.0000 F5000
G1 X1130.7848 Y2024.9276 Z-1.0000 F5000
G1 X1131.4454 Y2021.6523 Z-1.0000 F5000
G1 X1130.9362 Y2018.4597 Z-1.0000 F5000
G1 X1129.8353 Y2016.3267 Z-1.0000 F5000
G1 X1128.2252 Y2014.7578 Z-1.0000 F5000
G1 X1129.8353 Y2016.3267 Z-1.0000 F5000
G1 X1130.9362 Y2018.4597 Z-1.0000 F5000
G1 X1131.4454 Y2021.6523 Z-1.0000 F5000
G1 X1130.7848 Y2024.9276 Z-1.0000 F5000
G1 X1129.1197 Y2027.2808 Z-1.0000 F5000
G1 X1126.8490 Y2028.6569 Z-1.0000 F5000
G1 X1124.3857 Y2029.0560 Z-1.0000 F5000
G1 X1122.2252 Y2028.6707 Z-1.0000 F5000
G1 X1120.5876 Y2027.7349 Z-1.0000 F5000
G1 X1119.3490 Y2026.3450 Z-1.0000 F5000
G1 X1118.2894 Y2024.5698 Z-1.0000 F5000
G1 X1114.7390 Y2017.6753 Z-1.0000 F5000
G1 X1113.9133 Y2016.2441 Z-1.0000 F5000
G1 X1112.6472 Y2014.7166 Z-1.0000 F5000
G1 X1110.6380 Y2013.5606 Z-1.0000 F5000
G1 X1107.6380 Y2013.1615 Z-1.0000 F5000
G1 X1104.5142 Y2014.0010 Z-1.0000 F5000
G1 X1102.2711 Y2016.0101 Z-1.0000 F5000
G1 X1100.9637 Y2018.8725 Z-1.0000 F5000
G1 X1100.6197 Y2022.2441 Z-1.0000 F5000
G1 X1100.9775 Y2025.3404 Z-1.0000 F5000
G1 X1101.9133 Y2027.6799 Z-1.0000 F5000
G1 X1103.4546 Y2029.4964 Z-1.0000 F5000
G1 X1103.4546 Y2029.4964 Z10.0000 F9999
G1 X1138.4912 Y2038.9918 Z10.0000 F9999
G1 X1138.4912 Y2038.9918 Z-1.0000 F2500
G1 X1098.8582 Y2061.7808 Z-1.0000 F5000
G1 X1138.4912 Y2038.9918 Z-1.0000 F5000
G1 X1138.4912 Y2038.9918 Z10.0000 F9999
G1 X1100.6197 Y2094.3679 Z10.0000 F9999
G1 X1100.6197 Y2094.3679 Z-1.0000 F2500
G1 X1131.4454 Y2082.3542 Z-1.0000 F5000
G1 X1100.6197 Y2070.3129 Z-1.0000 F5000
G1 X1131.4454 Y2082.3542 Z-1.0000 F5000
G1 X1131.4454 Y2082.3542 Z10.0000 F9999
G1 X1119.1151 Y2102.3771 Z10.0000 F9999
G1 X1119.1151 Y2102.3771 Z-1.0000 F2500
G1 X1119.1151 Y2124.3129 Z-1.0000 F5000
G1 X1119.1151 Y2102.3771 Z-1.0000 F5000
G1 X1119.1151 Y2102.3771 Z10.0000 F9999
G1 X1111.6426 Y2074.6202 Z10.0000 F9999
G1 X1111.6426 Y2074.6202 Z-1.0000 F2500
G1 X1111.6426 Y2090.1432 Z-1.0000 F5000
G1 X1111.6426 Y2074.6202 Z-1.0000 F5000
G1 X1111.6426 Y2074.6202 Z10.0000 F9999
G1 X1111.6426 Y2137.1523 Z10.0000 F9999
G1 X1111.6426 Y2137.1523 Z-1.0000 F2500
G1 X1111.6426 Y2152.6753 Z-1.0000 F5000
G1 X1111.6426 Y2137.1523 Z-1.0000 F5000
G1 X1111.6426 Y2137.1523 Z10.0000 F9999
G1 X1100.6197 Y2156.9000 Z10.0000 F9999
G1 X1100.6197 Y2156.9000 Z-1.0000 F2500
G1 X1131.4454 Y2144.8863 Z-1.0000 F5000
G1 X1100.6197 Y2132.8450 Z-1.0000 F5000
G1 X1131.4454 Y2144.8863 Z-1.0000 F5000
G1 X1131.4454 Y2144.8863 Z10.0000 F9999
G1 X1100.6197 Y2164.9092 Z10.0000 F9999
G1 X1100.6197 Y2164.9092 Z-1.0000 F2500
G1 X1115.7298 Y2174.8312 Z-1.0000 F5000
G1 X1100.6197 Y2164.9092 Z-1.0000 F5000
G1 X1100.6197 Y2164.9092 Z10.0000 F9999
G1 X1131.4454 Y2177.9689 Z10.0000 F9999
G1 X1131.4454 Y2177.9689 Z-1.0000 F2500
G1 X1131.4454 Y2172.6019 Z-1.0000 F5000
G1 X1130.9912 Y2169.6982 Z-1.0000 F5000
G1 X1129.6289 Y2167.2900 Z-1.0000 F5000
G1 X1127.2619 Y2165.6248 Z-1.0000 F5000
G1 X1123.7802 Y2164.9918 Z-1.0000 F5000
G1 X1120.2711 Y2165.8588 Z-1.0000 F5000
G1 X1117.7802 Y2167.9367 Z-1.0000 F5000
G1 X1116.3078 Y2170.4276 Z-1.0000 F5000
G1 X1115.8123 Y2172.6019 Z-1.0000 F5000
G1 X1115.8123 Y2177.9689 Z-1.0000 F5000
G1 X1115.8123 Y2172.6019 Z-1.0000 F5000
G1 X1116.3078 Y2170.4276 Z-1.0000 F5000
G1 X1117.7802 Y2167.9367 Z-1.0000 F5000
G1 X1120.2711 Y2165.8588 Z-1.0000 F5000
G1 X1123.7802 Y2164.9918 Z-1.0000 F5000
G1 X1127.2619 Y2165.6248 Z-1.0000 F5000
G1 X1129.6289 Y2167.2900 Z-1.0000 F5000
G1 X1130.9912 Y2169.6982 Z-1.0000 F5000
G1 X1131.4454 Y2172.6019 Z-1.0000 F5000
G1 X1131.4454 Y2177.9689 Z-1.0000 F5000
G1 X1100.6197 Y2177.9689 Z-1.0000 F5000
G1 X1100.6197 Y2177.9689 Z10.0000 F9999
G1 X1100.6197 Y2200.8679 Z10.0000 F9999
G1 X1100.6197 Y2200.8679 Z-1.0000 F2500
G1 X1131.4454 Y2200.8679 Z-1.0000 F5000
G1 X1131.4454 Y2189.5285 Z-1.0000 F5000
G1 X1131.4454 Y2200.8679 Z-1.0000 F5000
G1 X1117.7252 Y2200.8679 Z-1.0000 F5000
G1 X1117.7252 Y2190.0377 Z-1.0000 F5000
G1 X1117.7252 Y2200.8679 Z-1.0000 F5000
G1 X1117.7252 Y2200.8679 Z10.0000 F9999
G1 X449.1366 Y794.5389 Z10.0000 F9999
G1 X449.1366 Y794.5389 Z-1.0000 F2500
G1 X408.0357 Y794.5389 Z-1.0000 F5000
G1 X449.1366 Y831.6398 Z-1.0000 F5000
G1 X408.0357 Y831.6398 Z-1.0000 F5000
G1 X449.1366 Y831.6398 Z-1.0000 F5000
G1 X408.0357 Y794.5389 Z-1.0000 F5000
G1 X408.0357 Y794.5389 Z10.0000 F9999
G1 X408.0357 Y774.5756 Z10.0000 F9999
G1 X408.0357 Y774.5756 Z-1.0000 F2500
G1 X449.1366 Y774.5756 Z-1.0000 F5000
G1 X408.0357 Y774.5756 Z-1.0000 F5000
G1 X408.0357 Y774.5756 Z10.0000 F9999
G1 X398.6412 Y759.0710 Z10.0000 F9999
G1 X398.6412 Y759.0710 Z-1.0000 F2500
G1 X451.4852 Y728.6857 Z-1.0000 F5000
G1 X398.6412 Y759.0710 Z-1.0000 F5000
G1 X398.6412 Y759.0710 Z10.0000 F9999
G1 X443.8705 Y696.5573 Z10.0000 F9999
G1 X443.8705 Y696.5573 Z-1.0000 F2500
G1 X446.4394 Y698.2821 Z-1.0000 F5000
G1 X448.3843 Y701.2362 Z-1.0000 F5000
G1 X449.1366 Y705.7866 Z-1.0000 F5000
G1 X446.5127 Y714.3004 Z-1.0000 F5000
G1 X438.5311 Y717.4013 Z-1.0000 F5000
G1 X433.7971 Y716.5206 Z-1.0000 F5000
G1 X430.4394 Y714.2087 Z-1.0000 F5000
G1 X428.4394 Y710.9976 Z-1.0000 F5000
G1 X427.7605 Y707.4197 Z-1.0000 F5000
G1 X427.0265 Y710.8876 Z-1.0000 F5000
G1 X424.8063 Y713.8417 Z-1.0000 F5000
G1 X421.4302 Y715.9334 Z-1.0000 F5000
G1 X417.2283 Y716.7224 Z-1.0000 F5000
G1 X415.6137 Y716.6857 Z-1.0000 F5000
G1 X413.6687 Y716.4105 Z-1.0000 F5000
G1 X411.6504 Y715.6215 Z-1.0000 F5000
G1 X409.8155 Y714.0986 Z-1.0000 F5000
G1 X408.5127 Y711.5481 Z-1.0000 F5000
G1 X408.0357 Y707.8050 Z-1.0000 F5000
G1 X408.8614 Y702.4288 Z-1.0000 F5000
G1 X410.8797 Y699.3279 Z-1.0000 F5000
G1 X413.5403 Y697.8050 Z-1.0000 F5000
G1 X416.2742 Y697.2178 Z-1.0000 F5000
G1 X413.5403 Y697.8050 Z-1.0000 F5000
G1 X410.8797 Y699.3279 Z-1.0000 F5000
G1 X408.8614 Y702.4288 Z-1.0000 F5000
G1 X408.0357 Y707.8050 Z-1.0000 F5000
G1 X408.5127 Y711.5481 Z-1.0000 F5000
G1 X409.8155 Y714.0986 Z-1.0000 F5000
G1 X411.6504 Y715.6215 Z-1.0000 F5000
G1 X413.6687 Y716.4105 Z-1.0000 F5000
G1 X415.6504 Y716.6857 Z-1.0000 F5000
G1 X417.2283 Y716.7224 Z-1.0000 F5000
G1 X421.4302 Y715.9334 Z-1.0000 F5000
G1 X424.8063 Y713.8417 Z-1.0000 F5000
G1 X427.0265 Y710.8876 Z-1.0000 F5000
G1 X427.7605 Y707.4197 Z-1.0000 F5000
G1 X428.4394 Y710.9976 Z-1.0000 F5000
G1 X430.4394 Y714.2087 Z-1.0000 F5000
G1 X433.7971 Y716.5206 Z-1.0000 F5000
G1 X438.5311 Y717.4013 Z-1.0000 F5000
G1 X446.5127 Y714.3004 Z-1.0000 F5000
G1 X449.1366 Y705.7866 Z-1.0000 F5000
G1 X448.3843 Y701.2362 Z-1.0000 F5000
G1 X446.4394 Y698.2821 Z-1.0000 F5000
G1 X443.8705 Y696.5573 Z-1.0000 F5000
G1 X441.1916 Y695.8050 Z-1.0000 F5000
G1 X441.1916 Y695.8050 Z10.0000 F9999
G1 X445.3568 Y662.5206 Z10.0000 F9999
G1 X445.3568 Y662.5206 Z-1.0000 F2500
G1 X447.4118 Y664.9426 Z-1.0000 F5000
G1 X448.6595 Y668.0619 Z-1.0000 F5000
G1 X449.1366 Y672.1903 Z-1.0000 F5000
G1 X448.6779 Y676.6857 Z-1.0000 F5000
G1 X446.9348 Y680.5022 Z-1.0000 F5000
G1 X443.9439 Y683.1811 Z-1.0000 F5000
G1 X439.7788 Y684.3004 Z-1.0000 F5000
G1 X435.7788 Y683.7683 Z-1.0000 F5000
G1 X433.0999 Y682.2270 Z-1.0000 F5000
G1 X431.4118 Y680.1903 Z-1.0000 F5000
G1 X430.3109 Y678.2821 Z-1.0000 F5000
G1 X425.5770 Y669.0894 Z-1.0000 F5000
G1 X424.1641 Y666.7224 Z-1.0000 F5000
G1 X422.5127 Y664.8692 Z-1.0000 F5000
G1 X420.3293 Y663.6215 Z-1.0000 F5000
G1 X417.4485 Y663.1077 Z-1.0000 F5000
G1 X414.1641 Y663.6398 Z-1.0000 F5000
G1 X411.1366 Y665.4747 Z-1.0000 F5000
G1 X408.9164 Y668.6123 Z-1.0000 F5000
G1 X408.0357 Y672.9793 Z-1.0000 F5000
G1 X408.7146 Y677.2362 Z-1.0000 F5000
G1 X410.1825 Y680.0802 Z-1.0000 F5000
G1 X412.3293 Y682.1720 Z-1.0000 F5000
G1 X410.1825 Y680.0802 Z-1.0000 F5000
G1 X408.7146 Y677.2362 Z-1.0000 F5000
G1 X408.0357 Y672.9793 Z-1.0000 F5000
G1 X408.9164 Y668.6123 Z-1.0000 F5000
G1 X411.1366 Y665.4747 Z-1.0000 F5000
G1 X414.1641 Y663.6398 Z-1.0000 F5000
G1 X417.4485 Y663.1077 Z-1.0000 F5000
G1 X420.3293 Y663.6215 Z-1.0000 F5000
G1 X422.5127 Y664.8692 Z-1.0000 F5000
G1 X424.1641 Y666.7224 Z-1.0000 F5000
G1 X425.5770 Y669.0894 Z-1.0000 F5000
G1 X430.3109 Y678.2821 Z-1.0000 F5000
G1 X431.4118 Y680.1903 Z-1.0000 F5000
G1 X433.0999 Y682.2270 Z-1.0000 F5000
G1 X435.7788 Y683.7683 Z-1.0000 F5000
G1 X439.7788 Y684.3004 Z-1.0000 F5000
G1 X443.9439 Y683.1811 Z-1.0000 F5000
G1 X446.9348 Y680.5022 Z-1.0000 F5000
G1 X448.6779 Y676.6857 Z-1.0000 F5000
G1 X449.1366 Y672.1903 Z-1.0000 F5000
G1 X448.6595 Y668.0619 Z-1.0000 F5000
G1 X447.4118 Y664.9426 Z-1.0000 F5000
G1 X445.3568 Y662.5206 Z-1.0000 F5000
G1 X442.3109 Y660.5756 Z-1.0000 F5000
G1 X442.3109 Y660.5756 Z10.0000 F9999
G1 X398.6412 Y649.8600 Z10.0000 F9999
G1 X398.6412 Y649.8600 Z-1.0000 F2500
G1 X451.4852 Y619.4747 Z-1.0000 F5000
G1 X398.6412 Y649.8600 Z-1.0000 F5000
G1 X398.6412 Y649.8600 Z10.0000 F9999
G1 X449.1366 Y576.0252 Z10.0000 F9999
G1 X449.1366 Y576.0252 Z-1.0000 F2500
G1 X408.0357 Y592.0435 Z-1.0000 F5000
G1 X449.1366 Y608.0986 Z-1.0000 F5000
G1 X408.0357 Y592.0435 Z-1.0000 F5000
G1 X408.0357 Y592.0435 Z10.0000 F9999
G1 X424.4760 Y565.3463 Z10.0000 F9999
G1 X424.4760 Y565.3463 Z-1.0000 F2500
G1 X424.4760 Y536.0986 Z-1.0000 F5000
G1 X424.4760 Y565.3463 Z-1.0000 F5000
G1 X424.4760 Y565.3463 Z10.0000 F9999
G1 X434.4394 Y602.3554 Z10.0000 F9999
G1 X434.4394 Y602.3554 Z-1.0000 F2500
G1 X434.4394 Y581.6582 Z-1.0000 F5000
G1 X434.4394 Y602.3554 Z-1.0000 F5000
G1 X434.4394 Y602.3554 Z10.0000 F9999
G1 X434.4394 Y518.9793 Z10.0000 F9999
G1 X434.4394 Y518.9793 Z-1.0000 F2500
G1 X434.4394 Y498.2821 Z-1.0000 F5000
G1 X434.4394 Y518.9793 Z-1.0000 F5000
G1 X434.4394 Y518.9793 Z10.0000 F9999
G1 X449.1366 Y492.6490 Z10.0000 F9999
G1 X449.1366 Y492.6490 Z-1.0000 F2500
G1 X408.0357 Y508.6674 Z-1.0000 F5000
G1 X449.1366 Y524.7224 Z-1.0000 F5000
G1 X408.0357 Y508.6674 Z-1.0000 F5000
G1 X408.0357 Y508.6674 Z10.0000 F9999
G1 X449.1366 Y481.9701 Z10.0000 F9999
G1 X449.1366 Y481.9701 Z-1.0000 F2500
G1 X428.9898 Y468.7408 Z-1.0000 F5000
G1 X449.1366 Y481.9701 Z-1.0000 F5000
G1 X449.1366 Y481.9701 Z10.0000 F9999
G1 X408.0357 Y464.5573 Z10.0000 F9999
G1 X408.0357 Y464.5573 Z-1.0000 F2500
G1 X408.0357 Y471.7132 Z-1.0000 F5000
G1 X408.6412 Y475.5848 Z-1.0000 F5000
G1 X410.4577 Y478.7958 Z-1.0000 F5000
G1 X413.6137 Y481.0160 Z-1.0000 F5000
G1 X418.2559 Y481.8600 Z-1.0000 F5000
G1 X422.9348 Y480.7041 Z-1.0000 F5000
G1 X426.2559 Y477.9334 Z-1.0000 F5000
G1 X428.2192 Y474.6123 Z-1.0000 F5000
G1 X428.8797 Y471.7132 Z-1.0000 F5000
G1 X428.8797 Y464.5573 Z-1.0000 F5000
G1 X428.8797 Y471.7132 Z-1.0000 F5000
G1 X428.2192 Y474.6123 Z-1.0000 F5000
G1 X426.2559 Y477.9334 Z-1.0000 F5000
G1 X422.9348 Y480.7041 Z-1.0000 F5000
G1 X418.2559 Y481.8600 Z-1.0000 F5000
G1 X413.6137 Y481.0160 Z-1.0000 F5000
G1 X410.4577 Y478.7958 Z-1.0000 F5000
G1 X408.6412 Y475.5848 Z-1.0000 F5000
G1 X408.0357 Y471.7132 Z-1.0000 F5000
G1 X408.0357 Y464.5573 Z-1.0000 F5000
G1 X449.1366 Y464.5573 Z-1.0000 F5000
G1 X449.1366 Y464.5573 Z10.0000 F9999
G1 X426.3293 Y434.0252 Z10.0000 F9999
G1 X426.3293 Y434.0252 Z-1.0000 F2500
G1 X426.3293 Y448.4655 Z-1.0000 F5000
G1 X426.3293 Y434.0252 Z-1.0000 F5000
G1 X408.0357 Y434.0252 Z-1.0000 F5000
G1 X408.0357 Y449.1444 Z-1.0000 F5000
G1 X408.0357 Y434.0252 Z-1.0000 F5000
G1 X449.1366 Y434.0252 Z-1.0000 F5000
G1 X449.1366 Y434.0252 Z10.0000 F9999
G1 X576.9729 Y445.3957 Z10.0000 F9999
G1 X576.9729 Y445.3957 Z-1.0000 F2500
G1 X597.1197 Y458.6251 Z-1.0000 F5000
G1 X576.9729 Y445.3957 Z-1.0000 F5000
G1 X576.9729 Y445.3957 Z10.0000 F9999
G1 X618.0738 Y462.8085 Z10.0000 F9999
G1 X618.0738 Y462.8085 Z-1.0000 F2500
G1 X618.0738 Y455.6526 Z-1.0000 F5000
G1 X617.4683 Y451.7810 Z-1.0000 F5000
G1 X615.6518 Y448.5700 Z-1.0000 F5000
G1 X612.4958 Y446.3498 Z-1.0000 F5000
G1 X607.8536 Y445.5058 Z-1.0000 F5000
G1 X603.1747 Y446.6618 Z-1.0000 F5000
G1 X599.8536 Y449.4324 Z-1.0000 F5000
G1 X597.8903 Y452.7535 Z-1.0000 F5000
G1 X597.2298 Y455.6526 Z-1.0000 F5000
G1 X597.2298 Y462.8085 Z-1.0000 F5000
G1 X597.2298 Y455.6526 Z-1.0000 F5000
G1 X597.8903 Y452.7535 Z-1.0000 F5000
G1 X599.8536 Y449.4324 Z-1.0000 F5000
G1 X603.1747 Y446.6618 Z-1.0000 F5000
G1 X607.8536 Y445.5058 Z-1.0000 F5000
G1 X612.4958 Y446.3498 Z-1.0000 F5000
G1 X615.6518 Y448.5700 Z-1.0000 F5000
G1 X617.4683 Y451.7810 Z-1.0000 F5000
G1 X618.0738 Y455.6526 Z-1.0000 F5000
G1 X618.0738 Y462.8085 Z-1.0000 F5000
G1 X576.9729 Y462.8085 Z-1.0000 F5000
G1 X576.9729 Y462.8085 Z10.0000 F9999
G1 X576.9729 Y493.3407 Z10.0000 F9999
G1 X576.9729 Y493.3407 Z-1.0000 F2500
G1 X618.0738 Y493.3407 Z-1.0000 F5000
G1 X618.0738 Y478.2214 Z-1.0000 F5000
G1 X618.0738 Y493.3407 Z-1.0000 F5000
G1 X599.7802 Y493.3407 Z-1.0000 F5000
G1 X599.7802 Y478.9003 Z-1.0000 F5000
G1 X599.7802 Y493.3407 Z-1.0000 F5000
G1 X599.7802 Y493.3407 Z10.0000 F9999
G1 X576.9729 Y434.7168 Z10.0000 F9999
G1 X576.9729 Y434.7168 Z-1.0000 F2500
G1 X618.0738 Y418.6985 Z-1.0000 F5000
G1 X576.9729 Y402.6434 Z-1.0000 F5000
G1 X618.0738 Y418.6985 Z-1.0000 F5000
G1 X618.0738 Y418.6985 Z10.0000 F9999
G1 X591.6701 Y408.3865 Z10.0000 F9999
G1 X591.6701 Y408.3865 Z-1.0000 F2500
G1 X591.6701 Y429.0838 Z-1.0000 F5000
G1 X591.6701 Y408.3865 Z-1.0000 F5000
G1 X591.6701 Y408.3865 Z10.0000 F9999
G1 X601.6334 Y362.0196 Z10.0000 F9999
G1 X601.6334 Y362.0196 Z-1.0000 F2500
G1 X601.6334 Y391.2673 Z-1.0000 F5000
G1 X601.6334 Y362.0196 Z-1.0000 F5000
G1 X601.6334 Y362.0196 Z10.0000 F9999
G1 X576.9729 Y351.3407 Z10.0000 F9999
G1 X576.9729 Y351.3407 Z-1.0000 F2500
G1 X618.0738 Y335.3223 Z-1.0000 F5000
G1 X576.9729 Y319.2673 Z-1.0000 F5000
G1 X618.0738 Y335.3223 Z-1.0000 F5000
G1 X618.0738 Y335.3223 Z10.0000 F9999
G1 X591.6701 Y325.0104 Z10.0000 F9999
G1 X591.6701 Y325.0104 Z-1.0000 F2500
G1 X591.6701 Y345.7076 Z-1.0000 F5000
G1 X591.6701 Y325.0104 Z-1.0000 F5000
G1 X591.6701 Y325.0104 Z10.0000 F9999
G1 X580.7527 Y264.8452 Z10.0000 F9999
G1 X580.7527 Y264.8452 Z-1.0000 F2500
G1 X578.6976 Y262.4232 Z-1.0000 F5000
G1 X577.4499 Y259.3040 Z-1.0000 F5000
G1 X576.9729 Y255.1755 Z-1.0000 F5000
G1 X577.4316 Y250.6801 Z-1.0000 F5000
G1 X579.1747 Y246.8636 Z-1.0000 F5000
G1 X582.1655 Y244.1847 Z-1.0000 F5000
G1 X586.3307 Y243.0654 Z-1.0000 F5000
G1 X590.3307 Y243.5975 Z-1.0000 F5000
G1 X593.0096 Y245.1388 Z-1.0000 F5000
G1 X594.6976 Y247.1755 Z-1.0000 F5000
G1 X595.7986 Y249.0838 Z-1.0000 F5000
G1 X600.5325 Y258.2764 Z-1.0000 F5000
G1 X601.9454 Y260.6434 Z-1.0000 F5000
G1 X603.5967 Y262.4966 Z-1.0000 F5000
G1 X605.7802 Y263.7443 Z-1.0000 F5000
G1 X608.6610 Y264.2581 Z-1.0000 F5000
G1 X611.9454 Y263.7260 Z-1.0000 F5000
G1 X614.9729 Y261.8911 Z-1.0000 F5000
G1 X617.1931 Y258.7535 Z-1.0000 F5000
G1 X618.0738 Y254.3865 Z-1.0000 F5000
G1 X617.3949 Y250.1296 Z-1.0000 F5000
G1 X615.9270 Y247.2856 Z-1.0000 F5000
G1 X613.7802 Y245.1939 Z-1.0000 F5000
G1 X615.9270 Y247.2856 Z-1.0000 F5000
G1 X617.3949 Y250.1296 Z-1.0000 F5000
G1 X618.0738 Y254.3865 Z-1.0000 F5000
G1 X617.1931 Y258.7535 Z-1.0000 F5000
G1 X614.9729 Y261.8911 Z-1.0000 F5000
G1 X611.9454 Y263.7260 Z-1.0000 F5000
G1 X608.6610 Y264.2581 Z-1.0000 F5000
G1 X605.7802 Y263.7443 Z-1.0000 F5000
G1 X603.5967 Y262.4966 Z-1.0000 F5000
G1 X601.9454 Y260.6434 Z-1.0000 F5000
G1 X600.5325 Y258.2764 Z-1.0000 F5000
G1 X595.7986 Y249.0838 Z-1.0000 F5000
G1 X594.6976 Y247.1755 Z-1.0000 F5000
G1 X593.0096 Y245.1388 Z-1.0000 F5000
G1 X590.3307 Y243.5975 Z-1.0000 F5000
G1 X586.3307 Y243.0654 Z-1.0000 F5000
G1 X582.1655 Y244.1847 Z-1.0000 F5000
G1 X579.1747 Y246.8636 Z-1.0000 F5000
G1 X577.4316 Y250.6801 Z-1.0000 F5000
G1 X576.9729 Y255.1755 Z-1.0000 F5000
G1 X577.4499 Y259.3040 Z-1.0000 F5000
G1 X578.6976 Y262.4232 Z-1.0000 F5000
G1 X580.7527 Y264.8452 Z-1.0000 F5000
G1 X583.7986 Y266.7902 Z-1.0000 F5000
G1 X583.7986 Y266.7902 Z10.0000 F9999
G1 X576.9729 Y231.5608 Z10.0000 F9999
G1 X576.9729 Y231.5608 Z-1.0000 F2500
G1 X594.5876 Y215.8177 Z-1.0000 F5000
G1 X596.6057 Y214.0691 Z-1.0000 F5000
G1 X598.6793 Y212.3865 Z-1.0000 F5000
G1 X600.2391 Y211.3667 Z-1.0000 F5000
G1 X601.8353 Y210.4049 Z-1.0000 F5000
G1 X604.2940 Y209.4691 Z-1.0000 F5000
G1 X607.5784 Y209.0654 Z-1.0000 F5000
G1 X611.3215 Y209.6893 Z-1.0000 F5000
G1 X614.6976 Y211.6159 Z-1.0000 F5000
G1 X617.1380 Y214.9553 Z-1.0000 F5000
G1 X618.0738 Y219.9462 Z-1.0000 F5000
G1 X615.4683 Y228.6618 Z-1.0000 F5000
G1 X608.7160 Y231.4507 Z-1.0000 F5000
G1 X615.4683 Y228.6618 Z-1.0000 F5000
G1 X618.0738 Y219.9462 Z-1.0000 F5000
G1 X617.1380 Y214.9553 Z-1.0000 F5000
G1 X614.6976 Y211.6159 Z-1.0000 F5000
G1 X611.3215 Y209.6893 Z-1.0000 F5000
G1 X607.5784 Y209.0654 Z-1.0000 F5000
G1 X604.2940 Y209.4691 Z-1.0000 F5000
G1 X601.8353 Y210.4049 Z-1.0000 F5000
G1 X600.2391 Y211.3667 Z-1.0000 F5000
G1 X598.6793 Y212.3865 Z-1.0000 F5000
G1 X596.6057 Y214.0691 Z-1.0000 F5000
G1 X594.5876 Y215.8177 Z-1.0000 F5000
G1 X576.9729 Y231.5608 Z-1.0000 F5000
G1 X576.9729 Y209.3590 Z-1.0000 F5000
G1 X576.9729 Y209.3590 Z10.0000 F9999
G1 X627.4683 Y168.2948 Z10.0000 F9999
G1 X627.4683 Y168.2948 Z-1.0000 F2500
G1 X574.6243 Y198.6801 Z-1.0000 F5000
G1 X627.4683 Y168.2948 Z-1.0000 F5000
G1 X627.4683 Y168.2948 Z10.0000 F9999
G1 X618.0738 Y152.7902 Z10.0000 F9999
G1 X618.0738 Y152.7902 Z-1.0000 F2500
G1 X576.9729 Y152.7902 Z-1.0000 F5000
G1 X618.0738 Y152.7902 Z-1.0000 F5000
G1 X618.0738 Y152.7902 Z10.0000 F9999
G1 X576.9729 Y132.8269 Z10.0000 F9999
G1 X576.9729 Y132.8269 Z-1.0000 F2500
G1 X618.0738 Y132.8269 Z-1.0000 F5000
G1 X576.9729 Y95.7260 Z-1.0000 F5000
G1 X618.0738 Y95.7260 Z-1.0000 F5000
G1 X576.9729 Y95.7260 Z-1.0000 F5000
G1 X618.0738 Y132.8269 Z-1.0000 F5000
G1 X618.0738 Y132.8269 Z10.0000 F9999
G1 X627.4683 Y277.5058 Z10.0000 F9999
G1 X627.4683 Y277.5058 Z-1.0000 F2500
G1 X574.6243 Y307.8911 Z-1.0000 F5000
G1 X627.4683 Y277.5058 Z-1.0000 F5000
G1 X627.4683 Y277.5058 Z10.0000 F9999
G1 X760.8650 Y266.7902 Z10.0000 F9999
G1 X760.8650 Y266.7902 Z-1.0000 F2500
G1 X757.8191 Y264.8452 Z-1.0000 F5000
G1 X755.7640 Y262.4232 Z-1.0000 F5000
G1 X754.5163 Y259.3040 Z-1.0000 F5000
G1 X754.0393 Y255.1755 Z-1.0000 F5000
G1 X754.4980 Y250.6801 Z-1.0000 F5000
G1 X756.2411 Y246.8636 Z-1.0000 F5000
G1 X759.2319 Y244.1847 Z-1.0000 F5000
G1 X763.3971 Y243.0654 Z-1.0000 F5000
G1 X767.3971 Y243.5975 Z-1.0000 F5000
G1 X770.0760 Y245.1388 Z-1.0000 F5000
G1 X771.7640 Y247.1755 Z-1.0000 F5000
G1 X772.8650 Y249.0838 Z-1.0000 F5000
G1 X777.5989 Y258.2764 Z-1.0000 F5000
G1 X779.0118 Y260.6434 Z-1.0000 F5000
G1 X780.6631 Y262.4966 Z-1.0000 F5000
G1 X782.8466 Y263.7443 Z-1.0000 F5000
G1 X785.7274 Y264.2581 Z-1.0000 F5000
G1 X789.0118 Y263.7260 Z-1.0000 F5000
G1 X792.0393 Y261.8911 Z-1.0000 F5000
G1 X794.2595 Y258.7535 Z-1.0000 F5000
G1 X795.1402 Y254.3865 Z-1.0000 F5000
G1 X794.4613 Y250.1296 Z-1.0000 F5000
G1 X792.9934 Y247.2856 Z-1.0000 F5000
G1 X790.8466 Y245.1939 Z-1.0000 F5000
G1 X792.9934 Y247.2856 Z-1.0000 F5000
G1 X794.4613 Y250.1296 Z-1.0000 F5000
G1 X795.1402 Y254.3865 Z-1.0000 F5000
G1 X794.2595 Y258.7535 Z-1.0000 F5000
G1 X792.0393 Y261.8911 Z-1.0000 F5000
G1 X789.0118 Y263.7260 Z-1.0000 F5000
G1 X785.7274 Y264.2581 Z-1.0000 F5000
G1 X782.8466 Y263.7443 Z-1.0000 F5000
G1 X780.6631 Y262.4966 Z-1.0000 F5000
G1 X779.0118 Y260.6434 Z-1.0000 F5000
G1 X777.5989 Y258.2764 Z-1.0000 F5000
G1 X772.8650 Y249.0838 Z-1.0000 F5000
G1 X771.7640 Y247.1755 Z-1.0000 F5000
G1 X770.0760 Y245.1388 Z-1.0000 F5000
G1 X767.3971 Y243.5975 Z-1.0000 F5000
G1 X763.3971 Y243.0654 Z-1.0000 F5000
G1 X759.2319 Y244.1847 Z-1.0000 F5000
G1 X756.2411 Y246.8636 Z-1.0000 F5000
G1 X754.4980 Y250.6801 Z-1.0000 F5000
G1 X754.0393 Y255.1755 Z-1.0000 F5000
G1 X754.5163 Y259.3040 Z-1.0000 F5000
G1 X755.7640 Y262.4232 Z-1.0000 F5000
G1 X757.8191 Y264.8452 Z-1.0000 F5000
G1 X757.8191 Y264.8452 Z10.0000 F9999
G1 X754.0393 Y209.3590 Z10.0000 F9999
G1 X754.0393 Y209.3590 Z-1.0000 F2500
G1 X754.0393 Y231.5608 Z-1.0000 F5000
G1 X771.6540 Y215.8177 Z-1.0000 F5000
G1 X773.6721 Y214.0691 Z-1.0000 F5000
G1 X775.7457 Y212.3865 Z-1.0000 F5000
G1 X777.3055 Y211.3667 Z-1.0000 F5000
G1 X778.9017 Y210.4049 Z-1.0000 F5000
G1 X781.3604 Y209.4691 Z-1.0000 F5000
G1 X784.6448 Y209.0654 Z-1.0000 F5000
G1 X788.3879 Y209.6893 Z-1.0000 F5000
G1 X791.7640 Y211.6159 Z-1.0000 F5000
G1 X794.2044 Y214.9553 Z-1.0000 F5000
G1 X795.1402 Y219.9462 Z-1.0000 F5000
G1 X792.5347 Y228.6618 Z-1.0000 F5000
G1 X785.7824 Y231.4507 Z-1.0000 F5000
G1 X792.5347 Y228.6618 Z-1.0000 F5000
G1 X795.1402 Y219.9462 Z-1.0000 F5000
G1 X794.2044 Y214.9553 Z-1.0000 F5000
G1 X791.7640 Y211.6159 Z-1.0000 F5000
G1 X788.3879 Y209.6893 Z-1.0000 F5000
G1 X784.6448 Y209.0654 Z-1.0000 F5000
G1 X781.3604 Y209.4691 Z-1.0000 F5000
G1 X778.9017 Y210.4049 Z-1.0000 F5000
G1 X777.3055 Y211.3667 Z-1.0000 F5000
G1 X775.7457 Y212.3865 Z-1.0000 F5000
G1 X773.6721 Y214.0691 Z-1.0000 F5000
G1 X771.6540 Y215.8177 Z-1.0000 F5000
G1 X762.8336 Y223.6747 Z-1.0000 F5000
G1 X754.0393 Y231.5608 Z-1.0000 F5000
G1 X754.0393 Y231.5608 Z10.0000 F9999
G1 X804.5347 Y168.2948 Z10.0000 F9999
G1 X804.5347 Y168.2948 Z-1.0000 F2500
G1 X751.6907 Y198.6801 Z-1.0000 F5000
G1 X804.5347 Y168.2948 Z-1.0000 F5000
G1 X804.5347 Y168.2948 Z10.0000 F9999
G1 X795.1402 Y152.7902 Z10.0000 F9999
G1 X795.1402 Y152.7902 Z-1.0000 F2500
G1 X754.0393 Y152.7902 Z-1.0000 F5000
G1 X795.1402 Y152.7902 Z-1.0000 F5000
G1 X795.1402 Y152.7902 Z10.0000 F9999
G1 X754.0393 Y132.8269 Z10.0000 F9999
G1 X754.0393 Y132.8269 Z-1.0000 F2500
G1 X795.1402 Y132.8269 Z-1.0000 F5000
G1 X754.0393 Y95.7260 Z-1.0000 F5000
G1 X795.1402 Y95.7260 Z-1.0000 F5000
G1 X754.0393 Y95.7260 Z-1.0000 F5000
G1 X795.1402 Y132.8269 Z-1.0000 F5000
G1 X795.1402 Y132.8269 Z10.0000 F9999
G1 X804.5347 Y277.5058 Z10.0000 F9999
G1 X804.5347 Y277.5058 Z-1.0000 F2500
G1 X751.6907 Y307.8911 Z-1.0000 F5000
G1 X804.5347 Y277.5058 Z-1.0000 F5000
G1 X804.5347 Y277.5058 Z10.0000 F9999
G1 X754.0393 Y351.3407 Z10.0000 F9999
G1 X754.0393 Y351.3407 Z-1.0000 F2500
G1 X795.1402 Y335.3223 Z-1.0000 F5000
G1 X754.0393 Y319.2673 Z-1.0000 F5000
G1 X795.1402 Y335.3223 Z-1.0000 F5000
G1 X795.1402 Y335.3223 Z10.0000 F9999
G1 X778.6998 Y362.0196 Z10.0000 F9999
G1 X778.6998 Y362.0196 Z-1.0000 F2500
G1 X778.6998 Y391.2673 Z-1.0000 F5000
G1 X778.6998 Y362.0196 Z-1.0000 F5000
G1 X778.6998 Y362.0196 Z10.0000 F9999
G1 X768.7365 Y325.0104 Z10.0000 F9999
G1 X768.7365 Y325.0104 Z-1.0000 F2500
G1 X768.7365 Y345.7076 Z-1.0000 F5000
G1 X768.7365 Y325.0104 Z-1.0000 F5000
G1 X768.7365 Y325.0104 Z10.0000 F9999
G1 X768.7365 Y408.3865 Z10.0000 F9999
G1 X768.7365 Y408.3865 Z-1.0000 F2500
G1 X768.7365 Y429.0838 Z-1.0000 F5000
G1 X768.7365 Y408.3865 Z-1.0000 F5000
G1 X768.7365 Y408.3865 Z10.0000 F9999
G1 X754.0393 Y434.7168 Z10.0000 F9999
G1 X754.0393 Y434.7168 Z-1.0000 F2500
G1 X795.1402 Y418.6985 Z-1.0000 F5000
G1 X754.0393 Y402.6434 Z-1.0000 F5000
G1 X795.1402 Y418.6985 Z-1.0000 F5000
G1 X795.1402 Y418.6985 Z10.0000 F9999
G1 X754.0393 Y445.3957 Z10.0000 F9999
G1 X754.0393 Y445.3957 Z-1.0000 F2500
G1 X774.1861 Y458.6251 Z-1.0000 F5000
G1 X754.0393 Y445.3957 Z-1.0000 F5000
G1 X754.0393 Y445.3957 Z10.0000 F9999
G1 X795.1402 Y462.8085 Z10.0000 F9999
G1 X795.1402 Y462.8085 Z-1.0000 F2500
G1 X795.1402 Y455.6526 Z-1.0000 F5000
G1 X794.5347 Y451.7810 Z-1.0000 F5000
G1 X792.7182 Y448.5700 Z-1.0000 F5000
G1 X789.5622 Y446.3498 Z-1.0000 F5000
G1 X784.9200 Y445.5058 Z-1.0000 F5000
G1 X780.2411 Y446.6618 Z-1.0000 F5000
G1 X776.9200 Y449.4324 Z-1.0000 F5000
G1 X774.9567 Y452.7535 Z-1.0000 F5000
G1 X774.2962 Y455.6526 Z-1.0000 F5000
G1 X774.2962 Y462.8085 Z-1.0000 F5000
G1 X774.2962 Y455.6526 Z-1.0000 F5000
G1 X774.9567 Y452.7535 Z-1.0000 F5000
G1 X776.9200 Y449.4324 Z-1.0000 F5000
G1 X780.2411 Y446.6618 Z-1.0000 F5000
G1 X784.9200 Y445.5058 Z-1.0000 F5000
G1 X789.5622 Y446.3498 Z-1.0000 F5000
G1 X792.7182 Y448.5700 Z-1.0000 F5000
G1 X794.5347 Y451.7810 Z-1.0000 F5000
G1 X795.1402 Y455.6526 Z-1.0000 F5000
G1 X795.1402 Y462.8085 Z-1.0000 F5000
G1 X754.0393 Y462.8085 Z-1.0000 F5000
G1 X754.0393 Y462.8085 Z10.0000 F9999
G1 X754.0393 Y493.3407 Z10.0000 F9999
G1 X754.0393 Y493.3407 Z-1.0000 F2500
G1 X795.1402 Y493.3407 Z-1.0000 F5000
G1 X795.1402 Y478.2214 Z-1.0000 F5000
G1 X795.1402 Y493.3407 Z-1.0000 F5000
G1 X776.8466 Y493.3407 Z-1.0000 F5000
G1 X776.8466 Y478.9003 Z-1.0000 F5000
G1 X776.8466 Y493.3407 Z-1.0000 F5000
G1 X776.8466 Y493.3407 Z10.0000 F9999
G1 X921.0705 Y462.8085 Z10.0000 F9999
G1 X921.0705 Y462.8085 Z-1.0000 F2500
G1 X962.1714 Y462.8085 Z-1.0000 F5000
G1 X962.1714 Y455.6526 Z-1.0000 F5000
G1 X961.5659 Y451.7810 Z-1.0000 F5000
G1 X959.7494 Y448.5700 Z-1.0000 F5000
G1 X956.5935 Y446.3498 Z-1.0000 F5000
G1 X951.9513 Y445.5058 Z-1.0000 F5000
G1 X947.2724 Y446.6618 Z-1.0000 F5000
G1 X943.9513 Y449.4324 Z-1.0000 F5000
G1 X941.9879 Y452.7535 Z-1.0000 F5000
G1 X941.3274 Y455.6526 Z-1.0000 F5000
G1 X941.3274 Y462.8085 Z-1.0000 F5000
G1 X941.3274 Y455.6526 Z-1.0000 F5000
G1 X941.9879 Y452.7535 Z-1.0000 F5000
G1 X943.9513 Y449.4324 Z-1.0000 F5000
G1 X947.2724 Y446.6618 Z-1.0000 F5000
G1 X951.9513 Y445.5058 Z-1.0000 F5000
G1 X956.5935 Y446.3498 Z-1.0000 F5000
G1 X959.7494 Y448.5700 Z-1.0000 F5000
G1 X961.5659 Y451.7810 Z-1.0000 F5000
G1 X962.1714 Y455.6526 Z-1.0000 F5000
G1 X962.1714 Y462.8085 Z-1.0000 F5000
G1 X962.1714 Y462.8085 Z10.0000 F9999
G1 X943.8779 Y493.3407 Z10.0000 F9999
G1 X943.8779 Y493.3407 Z-1.0000 F2500
G1 X943.8779 Y478.9003 Z-1.0000 F5000
G1 X943.8779 Y493.3407 Z-1.0000 F5000
G1 X962.1714 Y493.3407 Z-1.0000 F5000
G1 X962.1714 Y478.2214 Z-1.0000 F5000
G1 X962.1714 Y493.3407 Z-1.0000 F5000
G1 X921.0705 Y493.3407 Z-1.0000 F5000
G1 X921.0705 Y493.3407 Z10.0000 F9999
G1 X921.0705 Y445.3957 Z10.0000 F9999
G1 X921.0705 Y445.3957 Z-1.0000 F2500
G1 X941.2173 Y458.6251 Z-1.0000 F5000
G1 X921.0705 Y445.3957 Z-1.0000 F5000
G1 X921.0705 Y445.3957 Z10.0000 F9999
G1 X935.7678 Y408.3865 Z10.0000 F9999
G1 X935.7678 Y408.3865 Z-1.0000 F2500
G1 X935.7678 Y429.0838 Z-1.0000 F5000
G1 X935.7678 Y408.3865 Z-1.0000 F5000
G1 X935.7678 Y408.3865 Z10.0000 F9999
G1 X921.0705 Y434.7168 Z10.0000 F9999
G1 X921.0705 Y434.7168 Z-1.0000 F2500
G1 X962.1714 Y418.6985 Z-1.0000 F5000
G1 X921.0705 Y402.6434 Z-1.0000 F5000
G1 X962.1714 Y418.6985 Z-1.0000 F5000
G1 X962.1714 Y418.6985 Z10.0000 F9999
G1 X945.7311 Y362.0196 Z10.0000 F9999
G1 X945.7311 Y362.0196 Z-1.0000 F2500
G1 X945.7311 Y391.2673 Z-1.0000 F5000
G1 X945.7311 Y362.0196 Z-1.0000 F5000
G1 X945.7311 Y362.0196 Z10.0000 F9999
G1 X921.0705 Y351.3407 Z10.0000 F9999
G1 X921.0705 Y351.3407 Z-1.0000 F2500
G1 X962.1714 Y335.3223 Z-1.0000 F5000
G1 X921.0705 Y319.2673 Z-1.0000 F5000
G1 X962.1714 Y335.3223 Z-1.0000 F5000
G1 X962.1714 Y335.3223 Z10.0000 F9999
G1 X935.7678 Y325.0104 Z10.0000 F9999
G1 X935.7678 Y325.0104 Z-1.0000 F2500
G1 X935.7678 Y345.7076 Z-1.0000 F5000
G1 X935.7678 Y325.0104 Z-1.0000 F5000
G1 X935.7678 Y325.0104 Z10.0000 F9999
G1 X924.8503 Y264.8452 Z10.0000 F9999
G1 X924.8503 Y264.8452 Z-1.0000 F2500
G1 X922.7953 Y262.4232 Z-1.0000 F5000
G1 X921.5476 Y259.3040 Z-1.0000 F5000
G1 X921.0705 Y255.1755 Z-1.0000 F5000
G1 X921.5292 Y250.6801 Z-1.0000 F5000
G1 X923.2724 Y246.8636 Z-1.0000 F5000
G1 X926.2632 Y244.1847 Z-1.0000 F5000
G1 X930.4283 Y243.0654 Z-1.0000 F5000
G1 X934.4283 Y243.5975 Z-1.0000 F5000
G1 X937.1072 Y245.1388 Z-1.0000 F5000
G1 X938.7953 Y247.1755 Z-1.0000 F5000
G1 X939.8962 Y249.0838 Z-1.0000 F5000
G1 X944.6301 Y258.2764 Z-1.0000 F5000
G1 X946.0430 Y260.6434 Z-1.0000 F5000
G1 X947.6944 Y262.4966 Z-1.0000 F5000
G1 X949.8779 Y263.7443 Z-1.0000 F5000
G1 X952.7586 Y264.2581 Z-1.0000 F5000
G1 X956.0430 Y263.7260 Z-1.0000 F5000
G1 X959.0705 Y261.8911 Z-1.0000 F5000
G1 X961.2907 Y258.7535 Z-1.0000 F5000
G1 X962.1714 Y254.3865 Z-1.0000 F5000
G1 X961.4925 Y250.1296 Z-1.0000 F5000
G1 X960.0246 Y247.2856 Z-1.0000 F5000
G1 X957.8779 Y245.1939 Z-1.0000 F5000
G1 X960.0246 Y247.2856 Z-1.0000 F5000
G1 X961.4925 Y250.1296 Z-1.0000 F5000
G1 X962.1714 Y254.3865 Z-1.0000 F5000
G1 X961.2907 Y258.7535 Z-1.0000 F5000
G1 X959.0705 Y261.8911 Z-1.0000 F5000
G1 X956.0430 Y263.7260 Z-1.0000 F5000
G1 X952.7586 Y264.2581 Z-1.0000 F5000
G1 X949.8779 Y263.7443 Z-1.0000 F5000
G1 X947.6944 Y262.4966 Z-1.0000 F5000
G1 X946.0430 Y260.6434 Z-1.0000 F5000
G1 X944.6301 Y258.2764 Z-1.0000 F5000
G1 X939.8962 Y249.0838 Z-1.0000 F5000
G1 X938.7953 Y247.1755 Z-1.0000 F5000
G1 X937.1072 Y245.1388 Z-1.0000 F5000
G1 X934.4283 Y243.5975 Z-1.0000 F5000
G1 X930.4283 Y243.0654 Z-1.0000 F5000
G1 X926.2632 Y244.1847 Z-1.0000 F5000
G1 X923.2724 Y246.8636 Z-1.0000 F5000
G1 X921.5292 Y250.6801 Z-1.0000 F5000
G1 X921.0705 Y255.1755 Z-1.0000 F5000
G1 X921.5476 Y259.3040 Z-1.0000 F5000
G1 X922.7953 Y262.4232 Z-1.0000 F5000
G1 X924.8503 Y264.8452 Z-1.0000 F5000
G1 X927.8962 Y266.7902 Z-1.0000 F5000
G1 X927.8962 Y266.7902 Z10.0000 F9999
G1 X921.0705 Y209.3590 Z10.0000 F9999
G1 X921.0705 Y209.3590 Z-1.0000 F2500
G1 X921.0705 Y231.5608 Z-1.0000 F5000
G1 X938.6852 Y215.8177 Z-1.0000 F5000
G1 X940.7034 Y214.0691 Z-1.0000 F5000
G1 X942.7769 Y212.3865 Z-1.0000 F5000
G1 X944.3367 Y211.3667 Z-1.0000 F5000
G1 X945.9329 Y210.4049 Z-1.0000 F5000
G1 X948.3916 Y209.4691 Z-1.0000 F5000
G1 X951.6760 Y209.0654 Z-1.0000 F5000
G1 X955.4191 Y209.6893 Z-1.0000 F5000
G1 X958.7953 Y211.6159 Z-1.0000 F5000
G1 X961.2357 Y214.9553 Z-1.0000 F5000
G1 X962.1714 Y219.9462 Z-1.0000 F5000
G1 X959.5659 Y228.6618 Z-1.0000 F5000
G1 X952.8136 Y231.4507 Z-1.0000 F5000
G1 X959.5659 Y228.6618 Z-1.0000 F5000
G1 X962.1714 Y219.9462 Z-1.0000 F5000
G1 X961.2357 Y214.9553 Z-1.0000 F5000
G1 X958.7953 Y211.6159 Z-1.0000 F5000
G1 X955.4191 Y209.6893 Z-1.0000 F5000
G1 X951.6760 Y209.0654 Z-1.0000 F5000
G1 X948.3916 Y209.4691 Z-1.0000 F5000
G1 X945.9329 Y210.4049 Z-1.0000 F5000
G1 X944.3367 Y211.3667 Z-1.0000 F5000
G1 X942.7769 Y212.3865 Z-1.0000 F5000
G1 X940.7034 Y214.0691 Z-1.0000 F5000
G1 X938.6852 Y215.8177 Z-1.0000 F5000
G1 X929.8648 Y223.6747 Z-1.0000 F5000
G1 X921.0705 Y231.5608 Z-1.0000 F5000
G1 X921.0705 Y231.5608 Z10.0000 F9999
G1 X971.5659 Y168.2948 Z10.0000 F9999
G1 X971.5659 Y168.2948 Z-1.0000 F2500
G1 X918.7219 Y198.6801 Z-1.0000 F5000
G1 X971.5659 Y168.2948 Z-1.0000 F5000
G1 X971.5659 Y168.2948 Z10.0000 F9999
G1 X962.1714 Y152.7902 Z10.0000 F9999
G1 X962.1714 Y152.7902 Z-1.0000 F2500
G1 X921.0705 Y152.7902 Z-1.0000 F5000
G1 X962.1714 Y152.7902 Z-1.0000 F5000
G1 X962.1714 Y152.7902 Z10.0000 F9999
G1 X921.0705 Y132.8269 Z10.0000 F9999
G1 X921.0705 Y132.8269 Z-1.0000 F2500
G1 X962.1714 Y132.8269 Z-1.0000 F5000
G1 X921.0705 Y95.7260 Z-1.0000 F5000
G1 X962.1714 Y95.7260 Z-1.0000 F5000
G1 X921.0705 Y95.7260 Z-1.0000 F5000
G1 X962.1714 Y132.8269 Z-1.0000 F5000
G1 X962.1714 Y132.8269 Z10.0000 F9999
G1 X971.5659 Y277.5058 Z10.0000 F9999
G1 X971.5659 Y277.5058 Z-1.0000 F2500
G1 X918.7219 Y307.8911 Z-1.0000 F5000
G1 X971.5659 Y277.5058 Z-1.0000 F5000
G1 X971.5659 Y277.5058 Z10.0000 F9999
G1 X1101.9167 Y264.8452 Z10.0000 F9999
G1 X1101.9167 Y264.8452 Z-1.0000 F2500
G1 X1099.8617 Y262.4232 Z-1.0000 F5000
G1 X1098.6140 Y259.3040 Z-1.0000 F5000
G1 X1098.1369 Y255.1755 Z-1.0000 F5000
G1 X1098.5956 Y250.6801 Z-1.0000 F5000
G1 X1100.3388 Y246.8636 Z-1.0000 F5000
G1 X1103.3296 Y244.1847 Z-1.0000 F5000
G1 X1107.4947 Y243.0654 Z-1.0000 F5000
G1 X1111.4947 Y243.5975 Z-1.0000 F5000
G1 X1114.1736 Y245.1388 Z-1.0000 F5000
G1 X1115.8617 Y247.1755 Z-1.0000 F5000
G1 X1116.9626 Y249.0838 Z-1.0000 F5000
G1 X1121.6965 Y258.2764 Z-1.0000 F5000
G1 X1123.1094 Y260.6434 Z-1.0000 F5000
G1 X1124.7608 Y262.4966 Z-1.0000 F5000
G1 X1126.9443 Y263.7443 Z-1.0000 F5000
G1 X1129.8250 Y264.2581 Z-1.0000 F5000
G1 X1133.1094 Y263.7260 Z-1.0000 F5000
G1 X1136.1369 Y261.8911 Z-1.0000 F5000
G1 X1138.3571 Y258.7535 Z-1.0000 F5000
G1 X1139.2378 Y254.3865 Z-1.0000 F5000
G1 X1138.5589 Y250.1296 Z-1.0000 F5000
G1 X1137.0910 Y247.2856 Z-1.0000 F5000
G1 X1134.9443 Y245.1939 Z-1.0000 F5000
G1 X1137.0910 Y247.2856 Z-1.0000 F5000
G1 X1138.5589 Y250.1296 Z-1.0000 F5000
G1 X1139.2378 Y254.3865 Z-1.0000 F5000
G1 X1138.3571 Y258.7535 Z-1.0000 F5000
G1 X1136.1369 Y261.8911 Z-1.0000 F5000
G1 X1133.1094 Y263.7260 Z-1.0000 F5000
G1 X1129.8250 Y264.2581 Z-1.0000 F5000
G1 X1126.9443 Y263.7443 Z-1.0000 F5000
G1 X1124.7608 Y262.4966 Z-1.0000 F5000
G1 X1123.1094 Y260.6434 Z-1.0000 F5000
G1 X1121.6965 Y258.2764 Z-1.0000 F5000
G1 X1116.9626 Y249.0838 Z-1.0000 F5000
G1 X1115.8617 Y247.1755 Z-1.0000 F5000
G1 X1114.1736 Y245.1388 Z-1.0000 F5000
G1 X1111.4947 Y243.5975 Z-1.0000 F5000
G1 X1107.4947 Y243.0654 Z-1.0000 F5000
G1 X1103.3296 Y244.1847 Z-1.0000 F5000
G1 X1100.3388 Y246.8636 Z-1.0000 F5000
G1 X1098.5956 Y250.6801 Z-1.0000 F5000
G1 X1098.1369 Y255.1755 Z-1.0000 F5000
G1 X1098.6140 Y259.3040 Z-1.0000 F5000
G1 X1099.8617 Y262.4232 Z-1.0000 F5000
G1 X1101.9167 Y264.8452 Z-1.0000 F5000
G1 X1104.9626 Y266.7902 Z-1.0000 F5000
G1 X1104.9626 Y266.7902 Z10.0000 F9999
G1 X1098.1369 Y209.3590 Z10.0000 F9999
G1 X1098.1369 Y209.3590 Z-1.0000 F2500
G1 X1098.1369 Y231.5608 Z-1.0000 F5000
G1 X1115.7516 Y215.8177 Z-1.0000 F5000
G1 X1117.7698 Y214.0691 Z-1.0000 F5000
G1 X1119.8433 Y212.3865 Z-1.0000 F5000
G1 X1121.4031 Y211.3667 Z-1.0000 F5000
G1 X1122.9993 Y210.4049 Z-1.0000 F5000
G1 X1125.4580 Y209.4691 Z-1.0000 F5000
G1 X1128.7424 Y209.0654 Z-1.0000 F5000
G1 X1132.4855 Y209.6893 Z-1.0000 F5000
G1 X1135.8617 Y211.6159 Z-1.0000 F5000
G1 X1138.3021 Y214.9553 Z-1.0000 F5000
G1 X1139.2378 Y219.9462 Z-1.0000 F5000
G1 X1136.6323 Y228.6618 Z-1.0000 F5000
G1 X1129.8800 Y231.4507 Z-1.0000 F5000
G1 X1136.6323 Y228.6618 Z-1.0000 F5000
G1 X1139.2378 Y219.9462 Z-1.0000 F5000
G1 X1138.3021 Y214.9553 Z-1.0000 F5000
G1 X1135.8617 Y211.6159 Z-1.0000 F5000
G1 X1132.4855 Y209.6893 Z-1.0000 F5000
G1 X1128.7424 Y209.0654 Z-1.0000 F5000
G1 X1125.4580 Y209.4691 Z-1.0000 F5000
G1 X1122.9993 Y210.4049 Z-1.0000 F5000
G1 X1121.4031 Y211.3667 Z-1.0000 F5000
G1 X1119.8433 Y212.3865 Z-1.0000 F5000
G1 X1117.7698 Y214.0691 Z-1.0000 F5000
G1 X1115.7516 Y215.8177 Z-1.0000 F5000
G1 X1106.9312 Y223.6747 Z-1.0000 F5000
G1 X1098.1369 Y231.5608 Z-1.0000 F5000
G1 X1098.1369 Y231.5608 Z10.0000 F9999
G1 X1148.6323 Y168.2948 Z10.0000 F9999
G1 X1148.6323 Y168.2948 Z-1.0000 F2500
G1 X1095.7883 Y198.6801 Z-1.0000 F5000
G1 X1148.6323 Y168.2948 Z-1.0000 F5000
G1 X1148.6323 Y168.2948 Z10.0000 F9999
G1 X1139.2378 Y152.7902 Z10.0000 F9999
G1 X1139.2378 Y152.7902 Z-1.0000 F2500
G1 X1098.1369 Y152.7902 Z-1.0000 F5000
G1 X1139.2378 Y152.7902 Z-1.0000 F5000
G1 X1139.2378 Y152.7902 Z10.0000 F9999
G1 X1098.1369 Y132.8269 Z10.0000 F9999
G1 X1098.1369 Y132.8269 Z-1.0000 F2500
G1 X1139.2378 Y132.8269 Z-1.0000 F5000
G1 X1098.1369 Y95.7260 Z-1.0000 F5000
G1 X1139.2378 Y95.7260 Z-1.0000 F5000
G1 X1098.1369 Y95.7260 Z-1.0000 F5000
G1 X1139.2378 Y132.8269 Z-1.0000 F5000
G1 X1139.2378 Y132.8269 Z10.0000 F9999
G1 X1148.6323 Y277.5058 Z10.0000 F9999
G1 X1148.6323 Y277.5058 Z-1.0000 F2500
G1 X1095.7883 Y307.8911 Z-1.0000 F5000
G1 X1148.6323 Y277.5058 Z-1.0000 F5000
G1 X1148.6323 Y277.5058 Z10.0000 F9999
G1 X1098.1369 Y351.3407 Z10.0000 F9999
G1 X1098.1369 Y351.3407 Z-1.0000 F2500
G1 X1139.2378 Y335.3223 Z-1.0000 F5000
G1 X1098.1369 Y319.2673 Z-1.0000 F5000
G1 X1139.2378 Y335.3223 Z-1.0000 F5000
G1 X1139.2378 Y335.3223 Z10.0000 F9999
G1 X1122.7975 Y362.0196 Z10.0000 F9999
G1 X1122.7975 Y362.0196 Z-1.0000 F2500
G1 X1122.7975 Y391.2673 Z-1.0000 F5000
G1 X1122.7975 Y362.0196 Z-1.0000 F5000
G1 X1122.7975 Y362.0196 Z10.0000 F9999
G1 X1112.8342 Y325.0104 Z10.0000 F9999
G1 X1112.8342 Y325.0104 Z-1.0000 F2500
G1 X1112.8342 Y345.7076 Z-1.0000 F5000
G1 X1112.8342 Y325.0104 Z-1.0000 F5000
G1 X1112.8342 Y325.0104 Z10.0000 F9999
G1 X1112.8342 Y408.3865 Z10.0000 F9999
G1 X1112.8342 Y408.3865 Z-1.0000 F2500
G1 X1112.8342 Y429.0838 Z-1.0000 F5000
G1 X1112.8342 Y408.3865 Z-1.0000 F5000
G1 X1112.8342 Y408.3865 Z10.0000 F9999
G1 X1098.1369 Y434.7168 Z10.0000 F9999
G1 X1098.1369 Y434.7168 Z-1.0000 F2500
G1 X1139.2378 Y418.6985 Z-1.0000 F5000
G1 X1098.1369 Y402.6434 Z-1.0000 F5000
G1 X1139.2378 Y418.6985 Z-1.0000 F5000
G1 X1139.2378 Y418.6985 Z10.0000 F9999
G1 X1098.1369 Y445.3957 Z10.0000 F9999
G1 X1098.1369 Y445.3957 Z-1.0000 F2500
G1 X1118.2837 Y458.6251 Z-1.0000 F5000
G1 X1098.1369 Y445.3957 Z-1.0000 F5000
G1 X1098.1369 Y445.3957 Z10.0000 F9999
G1 X1139.2378 Y462.8085 Z10.0000 F9999
G1 X1139.2378 Y462.8085 Z-1.0000 F2500
G1 X1139.2378 Y455.6526 Z-1.0000 F5000
G1 X1138.6323 Y451.7810 Z-1.0000 F5000
G1 X1136.8158 Y448.5700 Z-1.0000 F5000
G1 X1133.6599 Y446.3498 Z-1.0000 F5000
G1 X1129.0177 Y445.5058 Z-1.0000 F5000
G1 X1124.3388 Y446.6618 Z-1.0000 F5000
G1 X1121.0177 Y449.4324 Z-1.0000 F5000
G1 X1119.0543 Y452.7535 Z-1.0000 F5000
G1 X1118.3938 Y455.6526 Z-1.0000 F5000
G1 X1118.3938 Y462.8085 Z-1.0000 F5000
G1 X1118.3938 Y455.6526 Z-1.0000 F5000
G1 X1119.0543 Y452.7535 Z-1.0000 F5000
G1 X1121.0177 Y449.4324 Z-1.0000 F5000
G1 X1124.3388 Y446.6618 Z-1.0000 F5000
G1 X1129.0177 Y445.5058 Z-1.0000 F5000
G1 X1133.6599 Y446.3498 Z-1.0000 F5000
G1 X1136.8158 Y448.5700 Z-1.0000 F5000
G1 X1138.6323 Y451.7810 Z-1.0000 F5000
G1 X1139.2378 Y455.6526 Z-1.0000 F5000
G1 X1139.2378 Y462.8085 Z-1.0000 F5000
G1 X1098.1369 Y462.8085 Z-1.0000 F5000
G1 X1098.1369 Y462.8085 Z10.0000 F9999
G1 X1098.1369 Y493.3407 Z10.0000 F9999
G1 X1098.1369 Y493.3407 Z-1.0000 F2500
G1 X1139.2378 Y493.3407 Z-1.0000 F5000
G1 X1139.2378 Y478.2214 Z-1.0000 F5000
G1 X1139.2378 Y493.3407 Z-1.0000 F5000
G1 X1120.9443 Y493.3407 Z-1.0000 F5000
G1 X1120.9443 Y478.9003 Z-1.0000 F5000
G1 X1120.9443 Y493.3407 Z-1.0000 F5000
G1 X1120.9443 Y493.3407 Z10.0000 F9999
G1 X281.0220 Y481.9701 Z10.0000 F9999
G1 X281.0220 Y481.9701 Z-1.0000 F2500
G1 X260.8752 Y468.7408 Z-1.0000 F5000
G1 X281.0220 Y481.9701 Z-1.0000 F5000
G1 X281.0220 Y481.9701 Z10.0000 F9999
G1 X239.9211 Y464.5573 Z10.0000 F9999
G1 X239.9211 Y464.5573 Z-1.0000 F2500
G1 X239.9211 Y471.7132 Z-1.0000 F5000
G1 X240.5266 Y475.5848 Z-1.0000 F5000
G1 X242.3431 Y478.7958 Z-1.0000 F5000
G1 X245.4991 Y481.0160 Z-1.0000 F5000
G1 X250.1413 Y481.8600 Z-1.0000 F5000
G1 X254.8202 Y480.7041 Z-1.0000 F5000
G1 X258.1413 Y477.9334 Z-1.0000 F5000
G1 X260.1046 Y474.6123 Z-1.0000 F5000
G1 X260.7651 Y471.7132 Z-1.0000 F5000
G1 X260.7651 Y464.5573 Z-1.0000 F5000
G1 X260.7651 Y471.7132 Z-1.0000 F5000
G1 X260.1046 Y474.6123 Z-1.0000 F5000
G1 X258.1413 Y477.9334 Z-1.0000 F5000
G1 X254.8202 Y480.7041 Z-1.0000 F5000
G1 X250.1413 Y481.8600 Z-1.0000 F5000
G1 X245.4991 Y481.0160 Z-1.0000 F5000
G1 X242.3431 Y478.7958 Z-1.0000 F5000
G1 X240.5266 Y475.5848 Z-1.0000 F5000
G1 X239.9211 Y471.7132 Z-1.0000 F5000
G1 X239.9211 Y464.5573 Z-1.0000 F5000
G1 X281.0220 Y464.5573 Z-1.0000 F5000
G1 X281.0220 Y464.5573 Z10.0000 F9999
G1 X281.0220 Y434.0252 Z10.0000 F9999
G1 X281.0220 Y434.0252 Z-1.0000 F2500
G1 X239.9211 Y434.0252 Z-1.0000 F5000
G1 X239.9211 Y449.1444 Z-1.0000 F5000
G1 X239.9211 Y434.0252 Z-1.0000 F5000
G1 X258.2147 Y434.0252 Z-1.0000 F5000
G1 X258.2147 Y448.4655 Z-1.0000 F5000
G1 X258.2147 Y434.0252 Z-1.0000 F5000
G1 X258.2147 Y434.0252 Z10.0000 F9999
G1 X281.0220 Y492.6490 Z10.0000 F9999
G1 X281.0220 Y492.6490 Z-1.0000 F2500
G1 X239.9211 Y508.6674 Z-1.0000 F5000
G1 X281.0220 Y524.7224 Z-1.0000 F5000
G1 X239.9211 Y508.6674 Z-1.0000 F5000
G1 X239.9211 Y508.6674 Z10.0000 F9999
G1 X266.3248 Y518.9793 Z10.0000 F9999
G1 X266.3248 Y518.9793 Z-1.0000 F2500
G1 X266.3248 Y498.2821 Z-1.0000 F5000
G1 X266.3248 Y518.9793 Z-1.0000 F5000
G1 X266.3248 Y518.9793 Z10.0000 F9999
G1 X256.3615 Y565.3463 Z10.0000 F9999
G1 X256.3615 Y565.3463 Z-1.0000 F2500
G1 X256.3615 Y536.0986 Z-1.0000 F5000
G1 X256.3615 Y565.3463 Z-1.0000 F5000
G1 X256.3615 Y565.3463 Z10.0000 F9999
G1 X281.0220 Y576.0252 Z10.0000 F9999
G1 X281.0220 Y576.0252 Z-1.0000 F2500
G1 X239.9211 Y592.0435 Z-1.0000 F5000
G1 X281.0220 Y608.0986 Z-1.0000 F5000
G1 X239.9211 Y592.0435 Z-1.0000 F5000
G1 X239.9211 Y592.0435 Z10.0000 F9999
G1 X266.3248 Y602.3554 Z10.0000 F9999
G1 X266.3248 Y602.3554 Z-1.0000 F2500
G1 X266.3248 Y581.6582 Z-1.0000 F5000
G1 X266.3248 Y602.3554 Z-1.0000 F5000
G1 X266.3248 Y602.3554 Z10.0000 F9999
G1 X274.1963 Y660.5756 Z10.0000 F9999
G1 X274.1963 Y660.5756 Z-1.0000 F2500
G1 X277.2422 Y662.5206 Z-1.0000 F5000
G1 X279.2973 Y664.9426 Z-1.0000 F5000
G1 X280.5450 Y668.0619 Z-1.0000 F5000
G1 X281.0220 Y672.1903 Z-1.0000 F5000
G1 X280.5633 Y676.6857 Z-1.0000 F5000
G1 X278.8202 Y680.5022 Z-1.0000 F5000
G1 X275.8294 Y683.1811 Z-1.0000 F5000
G1 X271.6642 Y684.3004 Z-1.0000 F5000
G1 X267.6642 Y683.7683 Z-1.0000 F5000
G1 X264.9853 Y682.2270 Z-1.0000 F5000
G1 X263.2973 Y680.1903 Z-1.0000 F5000
G1 X262.1963 Y678.2821 Z-1.0000 F5000
G1 X257.4624 Y669.0894 Z-1.0000 F5000
G1 X256.0496 Y666.7224 Z-1.0000 F5000
G1 X254.3982 Y664.8692 Z-1.0000 F5000
G1 X252.2147 Y663.6215 Z-1.0000 F5000
G1 X249.3340 Y663.1077 Z-1.0000 F5000
G1 X246.0496 Y663.6398 Z-1.0000 F5000
G1 X243.0220 Y665.4747 Z-1.0000 F5000
G1 X240.8018 Y668.6123 Z-1.0000 F5000
G1 X239.9211 Y672.9793 Z-1.0000 F5000
G1 X240.6000 Y677.2362 Z-1.0000 F5000
G1 X242.0679 Y680.0802 Z-1.0000 F5000
G1 X244.2147 Y682.1720 Z-1.0000 F5000
G1 X242.0679 Y680.0802 Z-1.0000 F5000
G1 X240.6000 Y677.2362 Z-1.0000 F5000
G1 X239.9211 Y672.9793 Z-1.0000 F5000
G1 X240.8018 Y668.6123 Z-1.0000 F5000
G1 X243.0220 Y665.4747 Z-1.0000 F5000
G1 X246.0496 Y663.6398 Z-1.0000 F5000
G1 X249.3340 Y663.1077 Z-1.0000 F5000
G1 X252.2147 Y663.6215 Z-1.0000 F5000
G1 X254.3982 Y664.8692 Z-1.0000 F5000
G1 X256.0496 Y666.7224 Z-1.0000 F5000
G1 X257.4624 Y669.0894 Z-1.0000 F5000
G1 X262.1963 Y678.2821 Z-1.0000 F5000
G1 X263.2973 Y680.1903 Z-1.0000 F5000
G1 X264.9853 Y682.2270 Z-1.0000 F5000
G1 X267.6642 Y683.7683 Z-1.0000 F5000
G1 X271.6642 Y684.3004 Z-1.0000 F5000
G1 X275.8294 Y683.1811 Z-1.0000 F5000
G1 X278.8202 Y680.5022 Z-1.0000 F5000
G1 X280.5633 Y676.6857 Z-1.0000 F5000
G1 X281.0220 Y672.1903 Z-1.0000 F5000
G1 X280.5450 Y668.0619 Z-1.0000 F5000
G1 X279.2973 Y664.9426 Z-1.0000 F5000
G1 X277.2422 Y662.5206 Z-1.0000 F5000
G1 X277.2422 Y662.5206 Z10.0000 F9999
G1 X275.7560 Y696.5573 Z10.0000 F9999
G1 X275.7560 Y696.5573 Z-1.0000 F2500
G1 X278.3248 Y698.2821 Z-1.0000 F5000
G1 X280.2697 Y701.2362 Z-1.0000 F5000
G1 X281.0220 Y705.7866 Z-1.0000 F5000
G1 X278.3982 Y714.3004 Z-1.0000 F5000
G1 X270.4165 Y717.4013 Z-1.0000 F5000
G1 X265.6826 Y716.5206 Z-1.0000 F5000
G1 X262.3248 Y714.2087 Z-1.0000 F5000
G1 X260.3248 Y710.9976 Z-1.0000 F5000
G1 X259.6459 Y707.4197 Z-1.0000 F5000
G1 X258.9119 Y710.8876 Z-1.0000 F5000
G1 X256.6918 Y713.8417 Z-1.0000 F5000
G1 X253.3156 Y715.9334 Z-1.0000 F5000
G1 X249.1138 Y716.7224 Z-1.0000 F5000
G1 X247.4991 Y716.6857 Z-1.0000 F5000
G1 X245.5541 Y716.4105 Z-1.0000 F5000
G1 X243.5358 Y715.6215 Z-1.0000 F5000
G1 X241.7009 Y714.0986 Z-1.0000 F5000
G1 X240.3982 Y711.5481 Z-1.0000 F5000
G1 X239.9211 Y707.8050 Z-1.0000 F5000
G1 X240.7468 Y702.4288 Z-1.0000 F5000
G1 X242.7651 Y699.3279 Z-1.0000 F5000
G1 X245.4257 Y697.8050 Z-1.0000 F5000
G1 X248.1596 Y697.2178 Z-1.0000 F5000
G1 X245.4257 Y697.8050 Z-1.0000 F5000
G1 X242.7651 Y699.3279 Z-1.0000 F5000
G1 X240.7468 Y702.4288 Z-1.0000 F5000
G1 X239.9211 Y707.8050 Z-1.0000 F5000
G1 X240.3982 Y711.5481 Z-1.0000 F5000
G1 X241.7009 Y714.0986 Z-1.0000 F5000
G1 X243.5358 Y715.6215 Z-1.0000 F5000
G1 X245.5541 Y716.4105 Z-1.0000 F5000
G1 X247.5358 Y716.6857 Z-1.0000 F5000
G1 X249.1138 Y716.7224 Z-1.0000 F5000
G1 X253.3156 Y715.9334 Z-1.0000 F5000
G1 X256.6918 Y713.8417 Z-1.0000 F5000
G1 X258.9119 Y710.8876 Z-1.0000 F5000
G1 X259.6459 Y707.4197 Z-1.0000 F5000
G1 X260.3248 Y710.9976 Z-1.0000 F5000
G1 X262.3248 Y714.2087 Z-1.0000 F5000
G1 X265.6826 Y716.5206 Z-1.0000 F5000
G1 X270.4165 Y717.4013 Z-1.0000 F5000
G1 X278.3982 Y714.3004 Z-1.0000 F5000
G1 X281.0220 Y705.7866 Z-1.0000 F5000
G1 X280.2697 Y701.2362 Z-1.0000 F5000
G1 X278.3248 Y698.2821 Z-1.0000 F5000
G1 X275.7560 Y696.5573 Z-1.0000 F5000
G1 X273.0771 Y695.8050 Z-1.0000 F5000
G1 X273.0771 Y695.8050 Z10.0000 F9999
G1 X230.5266 Y649.8600 Z10.0000 F9999
G1 X230.5266 Y649.8600 Z-1.0000 F2500
G1 X283.3707 Y619.4747 Z-1.0000 F5000
G1 X230.5266 Y649.8600 Z-1.0000 F5000
G1 X230.5266 Y649.8600 Z10.0000 F9999
G1 X230.5266 Y759.0710 Z10.0000 F9999
G1 X230.5266 Y759.0710 Z-1.0000 F2500
G1 X283.3707 Y728.6857 Z-1.0000 F5000
G1 X230.5266 Y759.0710 Z-1.0000 F5000
G1 X230.5266 Y759.0710 Z10.0000 F9999
G1 X239.9211 Y774.5756 Z10.0000 F9999
G1 X239.9211 Y774.5756 Z-1.0000 F2500
G1 X281.0220 Y774.5756 Z-1.0000 F5000
G1 X239.9211 Y774.5756 Z-1.0000 F5000
G1 X239.9211 Y774.5756 Z10.0000 F9999
G1 X281.0220 Y794.5389 Z10.0000 F9999
G1 X281.0220 Y794.5389 Z-1.0000 F2500
G1 X239.9211 Y794.5389 Z-1.0000 F5000
G1 X281.0220 Y831.6398 Z-1.0000 F5000
G1 X239.9211 Y831.6398 Z-1.0000 F5000
G1 X281.0220 Y831.6398 Z-1.0000 F5000
G1 X239.9211 Y794.5389 Z-1.0000 F5000
G1 X239.9211 Y794.5389 Z10.0000 F9999
G1 X99.7729 Y696.5573 Z10.0000 F9999
G1 X99.7729 Y696.5573 Z-1.0000 F2500
G1 X102.3417 Y698.2821 Z-1.0000 F5000
G1 X104.2867 Y701.2362 Z-1.0000 F5000
G1 X105.0390 Y705.7866 Z-1.0000 F5000
G1 X102.4151 Y714.3004 Z-1.0000 F5000
G1 X94.4335 Y717.4013 Z-1.0000 F5000
G1 X89.6995 Y716.5206 Z-1.0000 F5000
G1 X86.3417 Y714.2087 Z-1.0000 F5000
G1 X84.3417 Y710.9976 Z-1.0000 F5000
G1 X83.6628 Y707.4197 Z-1.0000 F5000
G1 X82.9289 Y710.8876 Z-1.0000 F5000
G1 X80.7087 Y713.8417 Z-1.0000 F5000
G1 X77.3325 Y715.9334 Z-1.0000 F5000
G1 X73.1307 Y716.7224 Z-1.0000 F5000
G1 X71.5160 Y716.6857 Z-1.0000 F5000
G1 X69.5711 Y716.4105 Z-1.0000 F5000
G1 X67.5527 Y715.6215 Z-1.0000 F5000
G1 X65.7179 Y714.0986 Z-1.0000 F5000
G1 X64.4151 Y711.5481 Z-1.0000 F5000
G1 X63.9380 Y707.8050 Z-1.0000 F5000
G1 X64.7637 Y702.4288 Z-1.0000 F5000
G1 X66.7821 Y699.3279 Z-1.0000 F5000
G1 X69.4426 Y697.8050 Z-1.0000 F5000
G1 X72.1766 Y697.2178 Z-1.0000 F5000
G1 X69.4426 Y697.8050 Z-1.0000 F5000
G1 X66.7821 Y699.3279 Z-1.0000 F5000
G1 X64.7637 Y702.4288 Z-1.0000 F5000
G1 X63.9380 Y707.8050 Z-1.0000 F5000
G1 X64.4151 Y711.5481 Z-1.0000 F5000
G1 X65.7179 Y714.0986 Z-1.0000 F5000
G1 X67.5527 Y715.6215 Z-1.0000 F5000
G1 X69.5711 Y716.4105 Z-1.0000 F5000
G1 X71.5527 Y716.6857 Z-1.0000 F5000
G1 X73.1307 Y716.7224 Z-1.0000 F5000
G1 X77.3325 Y715.9334 Z-1.0000 F5000
G1 X80.7087 Y713.8417 Z-1.0000 F5000
G1 X82.9289 Y710.8876 Z-1.0000 F5000
G1 X83.6628 Y707.4197 Z-1.0000 F5000
G1 X84.3417 Y710.9976 Z-1.0000 F5000
G1 X86.3417 Y714.2087 Z-1.0000 F5000
G1 X89.6995 Y716.5206 Z-1.0000 F5000
G1 X94.4335 Y717.4013 Z-1.0000 F5000
G1 X102.4151 Y714.3004 Z-1.0000 F5000
G1 X105.0390 Y705.7866 Z-1.0000 F5000
G1 X104.2867 Y701.2362 Z-1.0000 F5000
G1 X102.3417 Y698.2821 Z-1.0000 F5000
G1 X99.7729 Y696.5573 Z-1.0000 F5000
G1 X97.0940 Y695.8050 Z-1.0000 F5000
G1 X97.0940 Y695.8050 Z10.0000 F9999
G1 X98.2133 Y660.5756 Z10.0000 F9999
G1 X98.2133 Y660.5756 Z-1.0000 F2500
G1 X101.2591 Y662.5206 Z-1.0000 F5000
G1 X103.3142 Y664.9426 Z-1.0000 F5000
G1 X104.5619 Y668.0619 Z-1.0000 F5000
G1 X105.0390 Y672.1903 Z-1.0000 F5000
G1 X104.5802 Y676.6857 Z-1.0000 F5000
G1 X102.8371 Y680.5022 Z-1.0000 F5000
G1 X99.8463 Y683.1811 Z-1.0000 F5000
G1 X95.6812 Y684.3004 Z-1.0000 F5000
G1 X91.6812 Y683.7683 Z-1.0000 F5000
G1 X89.0023 Y682.2270 Z-1.0000 F5000
G1 X87.3142 Y680.1903 Z-1.0000 F5000
G1 X86.2133 Y678.2821 Z-1.0000 F5000
G1 X81.4793 Y669.0894 Z-1.0000 F5000
G1 X80.0665 Y666.7224 Z-1.0000 F5000
G1 X78.4151 Y664.8692 Z-1.0000 F5000
G1 X76.2316 Y663.6215 Z-1.0000 F5000
G1 X73.3509 Y663.1077 Z-1.0000 F5000
G1 X70.0665 Y663.6398 Z-1.0000 F5000
G1 X67.0390 Y665.4747 Z-1.0000 F5000
G1 X64.8188 Y668.6123 Z-1.0000 F5000
G1 X63.9380 Y672.9793 Z-1.0000 F5000
G1 X64.6169 Y677.2362 Z-1.0000 F5000
G1 X66.0848 Y680.0802 Z-1.0000 F5000
G1 X68.2316 Y682.1720 Z-1.0000 F5000
G1 X66.0848 Y680.0802 Z-1.0000 F5000
G1 X64.6169 Y677.2362 Z-1.0000 F5000
G1 X63.9380 Y672.9793 Z-1.0000 F5000
G1 X64.8188 Y668.6123 Z-1.0000 F5000
G1 X67.0390 Y665.4747 Z-1.0000 F5000
G1 X70.0665 Y663.6398 Z-1.0000 F5000
G1 X73.3509 Y663.1077 Z-1.0000 F5000
G1 X76.2316 Y663.6215 Z-1.0000 F5000
G1 X78.4151 Y664.8692 Z-1.0000 F5000
G1 X80.0665 Y666.7224 Z-1.0000 F5000
G1 X81.4793 Y669.0894 Z-1.0000 F5000
G1 X86.2133 Y678.2821 Z-1.0000 F5000
G1 X87.3142 Y680.1903 Z-1.0000 F5000
G1 X89.0023 Y682.2270 Z-1.0000 F5000
G1 X91.6812 Y683.7683 Z-1.0000 F5000
G1 X95.6812 Y684.3004 Z-1.0000 F5000
G1 X99.8463 Y683.1811 Z-1.0000 F5000
G1 X102.8371 Y680.5022 Z-1.0000 F5000
G1 X104.5802 Y676.6857 Z-1.0000 F5000
G1 X105.0390 Y672.1903 Z-1.0000 F5000
G1 X104.5619 Y668.0619 Z-1.0000 F5000
G1 X103.3142 Y664.9426 Z-1.0000 F5000
G1 X101.2591 Y662.5206 Z-1.0000 F5000
G1 X101.2591 Y662.5206 Z10.0000 F9999
G1 X54.5435 Y649.8600 Z10.0000 F9999
G1 X54.5435 Y649.8600 Z-1.0000 F2500
G1 X107.3876 Y619.4747 Z-1.0000 F5000
G1 X54.5435 Y649.8600 Z-1.0000 F5000
G1 X54.5435 Y649.8600 Z10.0000 F9999
G1 X105.0390 Y576.0252 Z10.0000 F9999
G1 X105.0390 Y576.0252 Z-1.0000 F2500
G1 X63.9380 Y592.0435 Z-1.0000 F5000
G1 X105.0390 Y608.0986 Z-1.0000 F5000
G1 X63.9380 Y592.0435 Z-1.0000 F5000
G1 X63.9380 Y592.0435 Z10.0000 F9999
G1 X80.3784 Y565.3463 Z10.0000 F9999
G1 X80.3784 Y565.3463 Z-1.0000 F2500
G1 X80.3784 Y536.0986 Z-1.0000 F5000
G1 X80.3784 Y565.3463 Z-1.0000 F5000
G1 X80.3784 Y565.3463 Z10.0000 F9999
G1 X90.3417 Y602.3554 Z10.0000 F9999
G1 X90.3417 Y602.3554 Z-1.0000 F2500
G1 X90.3417 Y581.6582 Z-1.0000 F5000
G1 X90.3417 Y602.3554 Z-1.0000 F5000
G1 X90.3417 Y602.3554 Z10.0000 F9999
G1 X90.3417 Y518.9793 Z10.0000 F9999
G1 X90.3417 Y518.9793 Z-1.0000 F2500
G1 X90.3417 Y498.2821 Z-1.0000 F5000
G1 X90.3417 Y518.9793 Z-1.0000 F5000
G1 X90.3417 Y518.9793 Z10.0000 F9999
G1 X105.0390 Y492.6490 Z10.0000 F9999
G1 X105.0390 Y492.6490 Z-1.0000 F2500
G1 X63.9380 Y508.6674 Z-1.0000 F5000
G1 X105.0390 Y524.7224 Z-1.0000 F5000
G1 X63.9380 Y508.6674 Z-1.0000 F5000
G1 X63.9380 Y508.6674 Z10.0000 F9999
G1 X105.0390 Y481.9701 Z10.0000 F9999
G1 X105.0390 Y481.9701 Z-1.0000 F2500
G1 X84.8922 Y468.7408 Z-1.0000 F5000
G1 X105.0390 Y481.9701 Z-1.0000 F5000
G1 X105.0390 Y481.9701 Z10.0000 F9999
G1 X63.9380 Y464.5573 Z10.0000 F9999
G1 X63.9380 Y464.5573 Z-1.0000 F2500
G1 X63.9380 Y471.7132 Z-1.0000 F5000
G1 X64.5435 Y475.5848 Z-1.0000 F5000
G1 X66.3601 Y478.7958 Z-1.0000 F5000
G1 X69.5160 Y481.0160 Z-1.0000 F5000
G1 X74.1582 Y481.8600 Z-1.0000 F5000
G1 X78.8371 Y480.7041 Z-1.0000 F5000
G1 X82.1582 Y477.9334 Z-1.0000 F5000
G1 X84.1215 Y474.6123 Z-1.0000 F5000
G1 X84.7821 Y471.7132 Z-1.0000 F5000
G1 X84.7821 Y464.5573 Z-1.0000 F5000
G1 X84.7821 Y471.7132 Z-1.0000 F5000
G1 X84.1215 Y474.6123 Z-1.0000 F5000
G1 X82.1582 Y477.9334 Z-1.0000 F5000
G1 X78.8371 Y480.7041 Z-1.0000 F5000
G1 X74.1582 Y481.8600 Z-1.0000 F5000
G1 X69.5160 Y481.0160 Z-1.0000 F5000
G1 X66.3601 Y478.7958 Z-1.0000 F5000
G1 X64.5435 Y475.5848 Z-1.0000 F5000
G1 X63.9380 Y471.7132 Z-1.0000 F5000
G1 X63.9380 Y464.5573 Z-1.0000 F5000
G1 X105.0390 Y464.5573 Z-1.0000 F5000
G1 X105.0390 Y464.5573 Z10.0000 F9999
G1 X105.0390 Y434.0252 Z10.0000 F9999
G1 X105.0390 Y434.0252 Z-1.0000 F2500
G1 X63.9380 Y434.0252 Z-1.0000 F5000
G1 X63.9380 Y449.1444 Z-1.0000 F5000
G1 X63.9380 Y434.0252 Z-1.0000 F5000
G1 X82.2316 Y434.0252 Z-1.0000 F5000
G1 X82.2316 Y448.4655 Z-1.0000 F5000
G1 X82.2316 Y434.0252 Z-1.0000 F5000
G1 X82.2316 Y434.0252 Z10.0000 F9999
G1 X54.5435 Y759.0710 Z10.0000 F9999
G1 X54.5435 Y759.0710 Z-1.0000 F2500
G1 X107.3876 Y728.6857 Z-1.0000 F5000
G1 X54.5435 Y759.0710 Z-1.0000 F5000
G1 X54.5435 Y759.0710 Z10.0000 F9999
G1 X63.9380 Y774.5756 Z10.0000 F9999
G1 X63.9380 Y774.5756 Z-1.0000 F2500
G1 X105.0390 Y774.5756 Z-1.0000 F5000
G1 X63.9380 Y774.5756 Z-1.0000 F5000
G1 X63.9380 Y774.5756 Z10.0000 F9999
G1 X105.0390 Y794.5389 Z10.0000 F9999
G1 X105.0390 Y794.5389 Z-1.0000 F2500
G1 X63.9380 Y794.5389 Z-1.0000 F5000
G1 X105.0390 Y831.6398 Z-1.0000 F5000
G1 X63.9380 Y831.6398 Z-1.0000 F5000
G1 X105.0390 Y831.6398 Z-1.0000 F5000
G1 X63.9380 Y794.5389 Z-1.0000 F5000
G1 X63.9380 Y794.5389 Z10.0000 F9999
(Tool Number:1) (7.998 mm dia. slot drill)
M3 S9000
G1 X539.6983 Y499.3976 Z10.0000 F9999
G1 X539.6983 Y499.3976 Z0.0000 F2500
G1 X540.0474 Y459.3991 Z-20.0000 F5000
G1 X540.0474 Y345.4003 Z-20.0000 F5000
G1 X545.0474 Y345.4003 Z-20.0000 F5000
G1 X545.0474 Y343.3983 Z-20.0000 F5000
G1 X527.3899 Y343.3983 Z-20.0000 F5000
G1 X522.0475 Y338.0557 Z-20.0000 F5000
G1 X522.0475 Y280.7430 Z-20.0000 F5000
G1 X527.3900 Y275.4005 Z-20.0000 F5000
G1 X545.0474 Y275.4005 Z-20.0000 F5000
G1 X545.0474 Y273.3985 Z-20.0000 F5000
G1 X540.0474 Y273.3985 Z-20.0000 F5000
G1 X540.0474 Y103.5111 Z-20.0000 F5000
G1 X540.0474 Y103.5111 Z-10.0000 F9999
G1 X540.0474 Y90.5131 Z-10.0000 F5000
G1 X540.0474 Y90.5131 Z-20.0000 F2500
G1 X540.0474 Y45.4009 Z-20.0000 F5000
G1 X545.0474 Y45.4009 Z-20.0000 F5000
G1 X545.0474 Y43.3989 Z-20.0000 F5000
G1 X527.3899 Y43.3989 Z-20.0000 F5000
G1 X522.0475 Y38.0564 Z-20.0000 F5000
G1 X522.0475 Y5.9010 Z-20.0000 F5000
G1 X584.2637 Y5.9010 Z-20.0000 F5000
G1 X586.4143 Y6.2128 Z-20.0000 F5000
G1 X588.7224 Y7.2953 Z-20.0000 F5000
G1 X590.6058 Y9.0135 Z-20.0000 F5000
G1 X591.8660 Y11.1316 Z-20.0000 F5000
G1 X592.4725 Y13.5204 Z-20.0000 F5000
G1 X592.3558 Y16.0670 Z-20.0000 F5000
G1 X591.4891 Y18.4645 Z-20.0000 F5000
G1 X590.1889 Y20.2057 Z-20.0000 F5000
G1 X587.2599 Y23.1347 Z-20.0000 F5000
G1 X586.8430 Y23.6931 Z-20.0000 F5000
G1 X586.7067 Y24.0363 Z-20.0000 F5000
G1 X586.6610 Y24.4121 Z-20.0000 F5000
G1 X586.7127 Y24.7840 Z-20.0000 F5000
G1 X586.8525 Y25.1217 Z-20.0000 F5000
G1 X587.0789 Y25.4212 Z-20.0000 F5000
G1 X587.3770 Y25.6546 Z-20.0000 F5000
G1 X587.7161 Y25.8010 Z-20.0000 F5000
G1 X588.4058 Y25.9010 Z-20.0000 F5000
G1 X613.6868 Y25.9010 Z-20.0000 F5000
G1 X614.3765 Y25.8010 Z-20.0000 F5000
G1 X614.7156 Y25.6546 Z-20.0000 F5000
G1 X615.0136 Y25.4212 Z-20.0000 F5000
G1 X615.2400 Y25.1217 Z-20.0000 F5000
G1 X615.3799 Y24.7840 Z-20.0000 F5000
G1 X615.4316 Y24.4121 Z-20.0000 F5000
G1 X615.3859 Y24.0363 Z-20.0000 F5000
G1 X615.2496 Y23.6931 Z-20.0000 F5000
G1 X614.8326 Y23.1347 Z-20.0000 F5000
G1 X611.9036 Y20.2057 Z-20.0000 F5000
G1 X610.6034 Y18.4645 Z-20.0000 F5000
G1 X609.7368 Y16.0670 Z-20.0000 F5000
G1 X609.6200 Y13.5204 Z-20.0000 F5000
G1 X610.2266 Y11.1316 Z-20.0000 F5000
G1 X611.4867 Y9.0135 Z-20.0000 F5000
G1 X613.3701 Y7.2953 Z-20.0000 F5000
G1 X615.6783 Y6.2128 Z-20.0000 F5000
G1 X617.8289 Y5.9010 Z-20.0000 F5000
G1 X680.0451 Y5.9010 Z-20.0000 F5000
G1 X680.0451 Y38.0564 Z-20.0000 F5000
G1 X674.7026 Y43.3989 Z-20.0000 F5000
G1 X657.0452 Y43.3989 Z-20.0000 F5000
G1 X657.0452 Y45.4009 Z-20.0000 F5000
G1 X662.0452 Y45.4009 Z-20.0000 F5000
G1 X662.0452 Y94.2283 Z-20.0000 F5000
G1 X662.0452 Y94.2283 Z-10.0000 F9999
G1 X662.0452 Y107.2263 Z-10.0000 F5000
G1 X662.0452 Y107.2263 Z-20.0000 F2500
G1 X662.0452 Y273.3985 Z-20.0000 F5000
G1 X657.0452 Y273.3985 Z-20.0000 F5000
G1 X657.0452 Y275.4005 Z-20.0000 F5000
G1 X674.7026 Y275.4005 Z-20.0000 F5000
G1 X680.0451 Y280.7430 Z-20.0000 F5000
G1 X680.0451 Y338.0557 Z-20.0000 F5000
G1 X674.7026 Y343.3983 Z-20.0000 F5000
G1 X657.0452 Y343.3983 Z-20.0000 F5000
G1 X657.0452 Y345.4003 Z-20.0000 F5000
G1 X662.0452 Y345.4003 Z-20.0000 F5000
G1 X662.0452 Y573.3979 Z-20.0000 F5000
G1 X657.0452 Y573.3979 Z-20.0000 F5000
G1 X657.0452 Y575.3999 Z-20.0000 F5000
G1 X674.7026 Y575.3999 Z-20.0000 F5000
G1 X680.0451 Y580.7425 Z-20.0000 F5000
G1 X680.0451 Y604.3979 Z-20.0000 F5000
G1 X633.0472 Y604.3979 Z-20.0000 F5000
G1 X633.0472 Y599.3978 Z-20.0000 F5000
G1 X631.0452 Y599.3978 Z-20.0000 F5000
G1 X631.0452 Y619.3998 Z-20.0000 F5000
G1 X633.0472 Y619.3998 Z-20.0000 F5000
G1 X633.0472 Y614.3997 Z-20.0000 F5000
G1 X680.0451 Y614.3997 Z-20.0000 F5000
G1 X680.0451 Y638.0552 Z-20.0000 F5000
G1 X674.7026 Y643.3977 Z-20.0000 F5000
G1 X657.0452 Y643.3977 Z-20.0000 F5000
G1 X657.0452 Y645.3997 Z-20.0000 F5000
G1 X662.0452 Y645.3997 Z-20.0000 F5000
G1 X662.0452 Y873.3973 Z-20.0000 F5000
G1 X657.0452 Y873.3973 Z-20.0000 F5000
G1 X657.0452 Y875.3993 Z-20.0000 F5000
G1 X674.7026 Y875.3993 Z-20.0000 F5000
G1 X680.0451 Y880.7418 Z-20.0000 F5000
G1 X680.0451 Y938.0546 Z-20.0000 F5000
G1 X674.7026 Y943.3971 Z-20.0000 F5000
G1 X657.0452 Y943.3971 Z-20.0000 F5000
G1 X657.0452 Y945.3991 Z-20.0000 F5000
G1 X662.0452 Y945.3991 Z-20.0000 F5000
G1 X662.0452 Y1063.3970 Z-20.0000 F5000
G1 X639.0452 Y1063.3970 Z-20.0000 F5000
G1 X639.0452 Y1065.3990 Z-20.0000 F5000
G1 X644.0452 Y1065.3990 Z-20.0000 F5000
G1 X644.0452 Y1173.3967 Z-20.0000 F5000
G1 X639.0452 Y1173.3967 Z-20.0000 F5000
G1 X639.0452 Y1175.3987 Z-20.0000 F5000
G1 X674.7026 Y1175.3987 Z-20.0000 F5000
G1 X680.0451 Y1180.7412 Z-20.0000 F5000
G1 X680.0451 Y1238.0539 Z-20.0000 F5000
G1 X674.7026 Y1243.3965 Z-20.0000 F5000
G1 X639.0452 Y1243.3965 Z-20.0000 F5000
G1 X639.0452 Y1245.3985 Z-20.0000 F5000
G1 X644.0452 Y1245.3985 Z-20.0000 F5000
G1 X644.0452 Y1473.3960 Z-20.0000 F5000
G1 X639.0452 Y1473.3960 Z-20.0000 F5000
G1 X639.0452 Y1475.3980 Z-20.0000 F5000
G1 X674.7026 Y1475.3980 Z-20.0000 F5000
G1 X680.0451 Y1480.7406 Z-20.0000 F5000
G1 X680.0451 Y1502.4987 Z-20.0000 F5000
G1 X680.0451 Y1502.4987 Z-10.0000 F9999
G1 X680.0451 Y1515.4967 Z-10.0000 F5000
G1 X680.0451 Y1515.4967 Z-20.0000 F2500
G1 X680.0451 Y1538.0535 Z-20.0000 F5000
G1 X674.7026 Y1543.3960 Z-20.0000 F5000
G1 X639.0452 Y1543.3960 Z-20.0000 F5000
G1 X639.0452 Y1545.3979 Z-20.0000 F5000
G1 X644.0452 Y1545.3979 Z-20.0000 F5000
G1 X644.0452 Y1674.8957 Z-20.0000 F5000
G1 X558.0473 Y1674.8957 Z-20.0000 F5000
G1 X558.0473 Y1545.3979 Z-20.0000 F5000
G1 X563.0473 Y1545.3979 Z-20.0000 F5000
G1 X563.0473 Y1543.3960 Z-20.0000 F5000
G1 X527.3899 Y1543.3960 Z-20.0000 F5000
G1 X522.0475 Y1538.0535 Z-20.0000 F5000
G1 X522.0475 Y1514.3056 Z-20.0000 F5000
G1 X522.0475 Y1514.3056 Z-10.0000 F9999
G1 X522.0475 Y1501.3076 Z-10.0000 F5000
G1 X522.0475 Y1501.3076 Z-20.0000 F2500
G1 X522.0475 Y1480.7406 Z-20.0000 F5000
G1 X527.3899 Y1475.3980 Z-20.0000 F5000
G1 X563.0473 Y1475.3980 Z-20.0000 F5000
G1 X563.0473 Y1473.3960 Z-20.0000 F5000
G1 X558.0473 Y1473.3960 Z-20.0000 F5000
G1 X558.0473 Y1245.3985 Z-20.0000 F5000
G1 X563.0473 Y1245.3985 Z-20.0000 F5000
G1 X563.0473 Y1243.3965 Z-20.0000 F5000
G1 X527.3899 Y1243.3965 Z-20.0000 F5000
G1 X522.0475 Y1238.0539 Z-20.0000 F5000
G1 X522.0475 Y1180.7412 Z-20.0000 F5000
G1 X527.3899 Y1175.3987 Z-20.0000 F5000
G1 X563.0473 Y1175.3987 Z-20.0000 F5000
G1 X563.0473 Y1173.3967 Z-20.0000 F5000
G1 X558.0474 Y1173.3967 Z-20.0000 F5000
G1 X558.0449 Y1065.3990 Z-20.0000 F5000
G1 X563.0450 Y1065.3990 Z-20.0000 F5000
G1 X563.0450 Y1063.3970 Z-20.0000 F5000
G1 X540.0474 Y1063.3970 Z-20.0000 F5000
G1 X540.0474 Y945.3991 Z-20.0000 F5000
G1 X545.0474 Y945.3991 Z-20.0000 F5000
G1 X545.0474 Y943.3971 Z-20.0000 F5000
G1 X527.3899 Y943.3971 Z-20.0000 F5000
G1 X522.0475 Y938.0546 Z-20.0000 F5000
G1 X522.0475 Y880.7418 Z-20.0000 F5000
G1 X527.3899 Y875.3993 Z-20.0000 F5000
G1 X545.0474 Y875.3993 Z-20.0000 F5000
G1 X545.0474 Y873.3973 Z-20.0000 F5000
G1 X540.0474 Y873.3973 Z-20.0000 F5000
G1 X540.0474 Y645.3997 Z-20.0000 F5000
G1 X545.0474 Y645.3997 Z-20.0000 F5000
G1 X545.0474 Y643.3977 Z-20.0000 F5000
G1 X527.3899 Y643.3977 Z-20.0000 F5000
G1 X522.0475 Y638.0552 Z-20.0000 F5000
G1 X522.0475 Y614.3997 Z-20.0000 F5000
G1 X569.0453 Y614.3997 Z-20.0000 F5000
G1 X569.0453 Y619.3998 Z-20.0000 F5000
G1 X571.0473 Y619.3998 Z-20.0000 F5000
G1 X571.0473 Y599.3978 Z-20.0000 F5000
G1 X569.0453 Y599.3978 Z-20.0000 F5000
G1 X569.0453 Y604.3979 Z-20.0000 F5000
G1 X522.0475 Y604.3979 Z-20.0000 F5000
G1 X522.0475 Y580.7425 Z-20.0000 F5000
G1 X527.3899 Y575.3999 Z-20.0000 F5000
G1 X545.0474 Y575.3999 Z-20.0000 F5000
G1 X545.0474 Y573.3979 Z-20.0000 F5000
G1 X540.0474 Y573.3979 Z-20.0000 F5000
G1 X540.0474 Y459.3991 Z-20.0000 F5000
G1 X540.0474 Y439.3991 Z-20.0000 F5000
G1 X539.6983 Y399.4006 Z0.0000 F5000
G1 X539.6983 Y399.4006 Z10.0000 F9999
G1 X711.7472 Y499.3976 Z10.0000 F9999
G1 X711.7472 Y499.3976 Z0.0000 F2500
G1 X712.0962 Y459.3991 Z-20.0000 F5000
G1 X712.0962 Y345.4003 Z-20.0000 F5000
G1 X717.0962 Y345.4003 Z-20.0000 F5000
G1 X717.0962 Y343.3983 Z-20.0000 F5000
G1 X699.4388 Y343.3983 Z-20.0000 F5000
G1 X694.0963 Y338.0557 Z-20.0000 F5000
G1 X694.0963 Y280.7430 Z-20.0000 F5000
G1 X699.4388 Y275.4005 Z-20.0000 F5000
G1 X717.0962 Y275.4005 Z-20.0000 F5000
G1 X717.0962 Y273.3985 Z-20.0000 F5000
G1 X712.0962 Y273.3985 Z-20.0000 F5000
G1 X712.0962 Y106.4832 Z-20.0000 F5000
G1 X712.0962 Y106.4832 Z-10.0000 F9999
G1 X712.0962 Y93.4852 Z-10.0000 F5000
G1 X712.0962 Y93.4852 Z-20.0000 F2500
G1 X712.0962 Y45.4009 Z-20.0000 F5000
G1 X717.0962 Y45.4009 Z-20.0000 F5000
G1 X717.0962 Y43.3989 Z-20.0000 F5000
G1 X699.4388 Y43.3989 Z-20.0000 F5000
G1 X694.0963 Y38.0564 Z-20.0000 F5000
G1 X694.0963 Y5.9010 Z-20.0000 F5000
G1 X756.3125 Y5.9010 Z-20.0000 F5000
G1 X758.4631 Y6.2128 Z-20.0000 F5000
G1 X760.7712 Y7.2953 Z-20.0000 F5000
G1 X762.6546 Y9.0135 Z-20.0000 F5000
G1 X763.9148 Y11.1316 Z-20.0000 F5000
G1 X764.5214 Y13.5204 Z-20.0000 F5000
G1 X764.4046 Y16.0670 Z-20.0000 F5000
G1 X763.5379 Y18.4645 Z-20.0000 F5000
G1 X762.2377 Y20.2057 Z-20.0000 F5000
G1 X759.3088 Y23.1347 Z-20.0000 F5000
G1 X758.8918 Y23.6931 Z-20.0000 F5000
G1 X758.7555 Y24.0363 Z-20.0000 F5000
G1 X758.7098 Y24.4121 Z-20.0000 F5000
G1 X758.7615 Y24.7840 Z-20.0000 F5000
G1 X758.9014 Y25.1217 Z-20.0000 F5000
G1 X759.1278 Y25.4212 Z-20.0000 F5000
G1 X759.4258 Y25.6546 Z-20.0000 F5000
G1 X759.7649 Y25.8010 Z-20.0000 F5000
G1 X760.4546 Y25.9010 Z-20.0000 F5000
G1 X785.7356 Y25.9010 Z-20.0000 F5000
G1 X786.4253 Y25.8010 Z-20.0000 F5000
G1 X786.7644 Y25.6546 Z-20.0000 F5000
G1 X787.0624 Y25.4212 Z-20.0000 F5000
G1 X787.2888 Y25.1217 Z-20.0000 F5000
G1 X787.4287 Y24.7840 Z-20.0000 F5000
G1 X787.4804 Y24.4121 Z-20.0000 F5000
G1 X787.4347 Y24.0363 Z-20.0000 F5000
G1 X787.2984 Y23.6931 Z-20.0000 F5000
G1 X786.8814 Y23.1347 Z-20.0000 F5000
G1 X783.9524 Y20.2057 Z-20.0000 F5000
G1 X782.6523 Y18.4645 Z-20.0000 F5000
G1 X781.7856 Y16.0670 Z-20.0000 F5000
G1 X781.6688 Y13.5204 Z-20.0000 F5000
G1 X782.2754 Y11.1316 Z-20.0000 F5000
G1 X783.5356 Y9.0135 Z-20.0000 F5000
G1 X785.4190 Y7.2953 Z-20.0000 F5000
G1 X787.7271 Y6.2128 Z-20.0000 F5000
G1 X789.8777 Y5.9010 Z-20.0000 F5000
G1 X852.0939 Y5.9010 Z-20.0000 F5000
G1 X852.0939 Y38.0564 Z-20.0000 F5000
G1 X846.7514 Y43.3989 Z-20.0000 F5000
G1 X829.0940 Y43.3989 Z-20.0000 F5000
G1 X829.0940 Y45.4009 Z-20.0000 F5000
G1 X834.0940 Y45.4009 Z-20.0000 F5000
G1 X834.0940 Y92.7422 Z-20.0000 F5000
G1 X834.0940 Y92.7422 Z-10.0000 F9999
G1 X834.0940 Y105.7402 Z-10.0000 F5000
G1 X834.0940 Y105.7402 Z-20.0000 F2500
G1 X834.0940 Y273.3985 Z-20.0000 F5000
G1 X829.0940 Y273.3985 Z-20.0000 F5000
G1 X829.0940 Y275.4005 Z-20.0000 F5000
G1 X846.7514 Y275.4005 Z-20.0000 F5000
G1 X852.0939 Y280.7430 Z-20.0000 F5000
G1 X852.0939 Y338.0557 Z-20.0000 F5000
G1 X846.7514 Y343.3983 Z-20.0000 F5000
G1 X829.0940 Y343.3983 Z-20.0000 F5000
G1 X829.0940 Y345.4003 Z-20.0000 F5000
G1 X834.0940 Y345.4003 Z-20.0000 F5000
G1 X834.0940 Y573.3979 Z-20.0000 F5000
G1 X829.0940 Y573.3979 Z-20.0000 F5000
G1 X829.0940 Y575.3999 Z-20.0000 F5000
G1 X846.7514 Y575.3999 Z-20.0000 F5000
G1 X852.0939 Y580.7425 Z-20.0000 F5000
G1 X852.0939 Y604.3979 Z-20.0000 F5000
G1 X805.0960 Y604.3979 Z-20.0000 F5000
G1 X805.0960 Y599.3978 Z-20.0000 F5000
G1 X803.0940 Y599.3978 Z-20.0000 F5000
G1 X803.0940 Y619.3998 Z-20.0000 F5000
G1 X805.0960 Y619.3998 Z-20.0000 F5000
G1 X805.0960 Y614.3997 Z-20.0000 F5000
G1 X852.0939 Y614.3997 Z-20.0000 F5000
