(plotsheet 2n3_nested_153 sheets_final v1_0_sheet 56 to 58_S56.0_4 screws_CC8 - stepover 1mm)
(Material Size) (X=1220.000, Y=2440.000, Z=21.000)
(LinuxCNC_NoArcs_MM_TC_medium_50um_G1_verbose.con)
G90 G80 G21 G49
G64 P0.050
M6 T1
(Tool Number:1) (7.998 mm dia. slot drill)
G43 H1 G0Z30.0000
M3 S19000
G04 P10
G1 X187.2277 Y139.0665 Z10.0000 F9999
G1 X187.2277 Y139.0665 Z2.0000 F9999
G1 X187.2277 Y139.0665 Z-2.0000 F2000
G1 X187.2277 Y139.0665 Z10.0000 F9999
G1 X1003.4371 Y140.7921 Z10.0000 F9999
G1 X1003.4371 Y140.7921 Z2.0000 F9999
G1 X1003.4371 Y140.7921 Z-2.0000 F2000
G1 X1003.4371 Y140.7921 Z10.0000 F9999
G1 X935.8016 Y2098.6687 Z10.0000 F9999
G1 X935.8016 Y2098.6687 Z2.0000 F9999
G1 X935.8016 Y2098.6687 Z-2.0000 F2000
G1 X935.8016 Y2098.6687 Z10.0000 F9999
G1 X180.3253 Y2104.5261 Z10.0000 F9999
G1 X180.3253 Y2104.5261 Z2.0000 F9999
G1 X180.3253 Y2104.5261 Z-2.0000 F2000
G1 X180.3253 Y2104.5261 Z10.0000 F9999
G1 X1900.0000 Y2800.0000 Z80.0000 F9999
G1 Z80.0000 F9999
G1 X1900.0000 Y2800.0000 F9999
M5
M30
