(plotsheet 2n3_nested_153 sheets_final v1_0_sheet 153a_S153.1_text 1mm_CC8 - stepover 1mm)
(Material Size) (X=1220.000, Y=2440.000, Z=20.000)
(LinuxCNC_NoArcs_MM_TC_medium_50um_G1_verbose.con)
G90 G80 G21 G49
G64 P0.050
M6 T1
(Tool Number:1) (7.998 mm dia. slot drill)
G43 H1 G0Z80.0000
M3 S18000
G04 P10
G1 X210.6748 Y540.9572 Z10.0000 F9999
G1 X210.6748 Y540.9572 Z-1.0000 F2500
G1 X189.4638 Y529.0123 Z-1.0000 F5000
G1 X210.6748 Y540.9572 Z-1.0000 F5000
G1 X230.5647 Y529.0123 Z-1.0000 F5000
G1 X210.6748 Y540.9572 Z-1.0000 F5000
G1 X230.5647 Y553.0306 Z-1.0000 F5000
G1 X210.6748 Y540.9572 Z-1.0000 F5000
G1 X189.4638 Y553.0306 Z-1.0000 F5000
G1 X189.4638 Y553.0306 Z10.0000 F9999
G1 X189.4638 Y581.1224 Z10.0000 F9999
G1 X189.4638 Y581.1224 Z-1.0000 F2500
G1 X212.2712 Y581.1224 Z-1.0000 F5000
G1 X212.2712 Y564.6636 Z-1.0000 F5000
G1 X212.2712 Y581.1224 Z-1.0000 F5000
G1 X230.5647 Y581.1224 Z-1.0000 F5000
G1 X230.5647 Y563.3609 Z-1.0000 F5000
G1 X230.5647 Y581.1224 Z-1.0000 F5000
G1 X189.4638 Y581.1224 Z-1.0000 F5000
G1 X189.4638 Y563.3609 Z-1.0000 F5000
G1 X189.4638 Y563.3609 Z10.0000 F9999
G1 X239.9592 Y596.6270 Z10.0000 F9999
G1 X239.9592 Y596.6270 Z-1.0000 F2500
G1 X187.1152 Y627.0123 Z-1.0000 F5000
G1 X239.9592 Y596.6270 Z-1.0000 F5000
G1 X239.9592 Y596.6270 Z10.0000 F9999
G1 X189.4638 Y659.8930 Z10.0000 F9999
G1 X189.4638 Y659.8930 Z-1.0000 F2500
G1 X207.0785 Y644.1499 Z-1.0000 F5000
G1 X209.0967 Y642.4013 Z-1.0000 F5000
G1 X211.1702 Y640.7187 Z-1.0000 F5000
G1 X212.7300 Y639.6988 Z-1.0000 F5000
G1 X214.3262 Y638.7370 Z-1.0000 F5000
G1 X216.7849 Y637.8013 Z-1.0000 F5000
G1 X220.0693 Y637.3976 Z-1.0000 F5000
G1 X223.8124 Y638.0214 Z-1.0000 F5000
G1 X227.1886 Y639.9481 Z-1.0000 F5000
G1 X229.6290 Y643.2875 Z-1.0000 F5000
G1 X230.5647 Y648.2783 Z-1.0000 F5000
G1 X227.9592 Y656.9939 Z-1.0000 F5000
G1 X221.2069 Y659.7829 Z-1.0000 F5000
G1 X227.9592 Y656.9939 Z-1.0000 F5000
G1 X230.5647 Y648.2783 Z-1.0000 F5000
G1 X229.6290 Y643.2875 Z-1.0000 F5000
G1 X227.1886 Y639.9481 Z-1.0000 F5000
G1 X223.8124 Y638.0214 Z-1.0000 F5000
G1 X220.0693 Y637.3976 Z-1.0000 F5000
G1 X216.7849 Y637.8013 Z-1.0000 F5000
G1 X214.3262 Y638.7370 Z-1.0000 F5000
G1 X212.7300 Y639.6988 Z-1.0000 F5000
G1 X211.1702 Y640.7187 Z-1.0000 F5000
G1 X209.0967 Y642.4013 Z-1.0000 F5000
G1 X207.0785 Y644.1499 Z-1.0000 F5000
G1 X189.4638 Y659.8930 Z-1.0000 F5000
G1 X189.4638 Y637.6912 Z-1.0000 F5000
G1 X189.4638 Y637.6912 Z10.0000 F9999
G1 X196.2895 Y695.1224 Z10.0000 F9999
G1 X196.2895 Y695.1224 Z-1.0000 F2500
G1 X193.2436 Y693.1774 Z-1.0000 F5000
G1 X191.1886 Y690.7554 Z-1.0000 F5000
G1 X189.9409 Y687.6361 Z-1.0000 F5000
G1 X189.4638 Y683.5077 Z-1.0000 F5000
G1 X189.9225 Y679.0123 Z-1.0000 F5000
G1 X191.6657 Y675.1958 Z-1.0000 F5000
G1 X194.6565 Y672.5169 Z-1.0000 F5000
G1 X198.8216 Y671.3976 Z-1.0000 F5000
G1 X202.8216 Y671.9297 Z-1.0000 F5000
G1 X205.5005 Y673.4710 Z-1.0000 F5000
G1 X207.1886 Y675.5077 Z-1.0000 F5000
G1 X208.2895 Y677.4159 Z-1.0000 F5000
G1 X213.0234 Y686.6086 Z-1.0000 F5000
G1 X214.4363 Y688.9756 Z-1.0000 F5000
G1 X216.0877 Y690.8288 Z-1.0000 F5000
G1 X218.2712 Y692.0765 Z-1.0000 F5000
G1 X221.1519 Y692.5903 Z-1.0000 F5000
G1 X224.4363 Y692.0581 Z-1.0000 F5000
G1 X227.4638 Y690.2233 Z-1.0000 F5000
G1 X229.6840 Y687.0857 Z-1.0000 F5000
G1 X230.5647 Y682.7187 Z-1.0000 F5000
G1 X229.8858 Y678.4618 Z-1.0000 F5000
G1 X228.4179 Y675.6178 Z-1.0000 F5000
G1 X226.2712 Y673.5260 Z-1.0000 F5000
G1 X228.4179 Y675.6178 Z-1.0000 F5000
G1 X229.8858 Y678.4618 Z-1.0000 F5000
G1 X230.5647 Y682.7187 Z-1.0000 F5000
G1 X229.6840 Y687.0857 Z-1.0000 F5000
G1 X227.4638 Y690.2233 Z-1.0000 F5000
G1 X224.4363 Y692.0581 Z-1.0000 F5000
G1 X221.1519 Y692.5903 Z-1.0000 F5000
G1 X218.2712 Y692.0765 Z-1.0000 F5000
G1 X216.0877 Y690.8288 Z-1.0000 F5000
G1 X214.4363 Y688.9756 Z-1.0000 F5000
G1 X213.0234 Y686.6086 Z-1.0000 F5000
G1 X208.2895 Y677.4159 Z-1.0000 F5000
G1 X207.1886 Y675.5077 Z-1.0000 F5000
G1 X205.5005 Y673.4710 Z-1.0000 F5000
G1 X202.8216 Y671.9297 Z-1.0000 F5000
G1 X198.8216 Y671.3976 Z-1.0000 F5000
G1 X194.6565 Y672.5169 Z-1.0000 F5000
G1 X191.6657 Y675.1958 Z-1.0000 F5000
G1 X189.9225 Y679.0123 Z-1.0000 F5000
G1 X189.4638 Y683.5077 Z-1.0000 F5000
G1 X189.9409 Y687.6361 Z-1.0000 F5000
G1 X191.1886 Y690.7554 Z-1.0000 F5000
G1 X193.2436 Y693.1774 Z-1.0000 F5000
G1 X193.2436 Y693.1774 Z10.0000 F9999
G1 X239.9592 Y705.8380 Z10.0000 F9999
G1 X239.9592 Y705.8380 Z-1.0000 F2500
G1 X187.1152 Y736.2233 Z-1.0000 F5000
G1 X239.9592 Y705.8380 Z-1.0000 F5000
G1 X239.9592 Y705.8380 Z10.0000 F9999
G1 X230.5647 Y763.6545 Z10.0000 F9999
G1 X230.5647 Y763.6545 Z-1.0000 F2500
G1 X189.4638 Y747.5994 Z-1.0000 F5000
G1 X230.5647 Y763.6545 Z-1.0000 F5000
G1 X189.4638 Y779.6728 Z-1.0000 F5000
G1 X189.4638 Y779.6728 Z10.0000 F9999
G1 X214.1244 Y790.3517 Z10.0000 F9999
G1 X214.1244 Y790.3517 Z-1.0000 F2500
G1 X214.1244 Y819.5994 Z-1.0000 F5000
G1 X214.1244 Y790.3517 Z-1.0000 F5000
G1 X214.1244 Y790.3517 Z10.0000 F9999
G1 X204.1611 Y753.3425 Z10.0000 F9999
G1 X204.1611 Y753.3425 Z-1.0000 F2500
G1 X204.1611 Y774.0398 Z-1.0000 F5000
G1 X204.1611 Y753.3425 Z-1.0000 F5000
G1 X204.1611 Y753.3425 Z10.0000 F9999
G1 X204.1611 Y836.7187 Z10.0000 F9999
G1 X204.1611 Y836.7187 Z-1.0000 F2500
G1 X204.1611 Y857.4159 Z-1.0000 F5000
G1 X204.1611 Y836.7187 Z-1.0000 F5000
G1 X204.1611 Y836.7187 Z10.0000 F9999
G1 X230.5647 Y847.0306 Z10.0000 F9999
G1 X230.5647 Y847.0306 Z-1.0000 F2500
G1 X189.4638 Y830.9756 Z-1.0000 F5000
G1 X230.5647 Y847.0306 Z-1.0000 F5000
G1 X189.4638 Y863.0490 Z-1.0000 F5000
G1 X189.4638 Y863.0490 Z10.0000 F9999
G1 X189.4638 Y873.7279 Z10.0000 F9999
G1 X189.4638 Y873.7279 Z-1.0000 F2500
G1 X209.6106 Y886.9572 Z-1.0000 F5000
G1 X189.4638 Y873.7279 Z-1.0000 F5000
G1 X189.4638 Y873.7279 Z10.0000 F9999
G1 X189.4638 Y891.1407 Z10.0000 F9999
G1 X189.4638 Y891.1407 Z-1.0000 F2500
G1 X230.5647 Y891.1407 Z-1.0000 F5000
G1 X230.5647 Y883.9847 Z-1.0000 F5000
G1 X229.9592 Y880.1132 Z-1.0000 F5000
G1 X228.1427 Y876.9022 Z-1.0000 F5000
G1 X224.9868 Y874.6820 Z-1.0000 F5000
G1 X220.3445 Y873.8380 Z-1.0000 F5000
G1 X215.6657 Y874.9939 Z-1.0000 F5000
G1 X212.3445 Y877.7646 Z-1.0000 F5000
G1 X210.3812 Y881.0857 Z-1.0000 F5000
G1 X209.7207 Y883.9847 Z-1.0000 F5000
G1 X209.7207 Y891.1407 Z-1.0000 F5000
G1 X209.7207 Y883.9847 Z-1.0000 F5000
G1 X210.3812 Y881.0857 Z-1.0000 F5000
G1 X212.3445 Y877.7646 Z-1.0000 F5000
G1 X215.6657 Y874.9939 Z-1.0000 F5000
G1 X220.3445 Y873.8380 Z-1.0000 F5000
G1 X224.9868 Y874.6820 Z-1.0000 F5000
G1 X228.1427 Y876.9022 Z-1.0000 F5000
G1 X229.9592 Y880.1132 Z-1.0000 F5000
G1 X230.5647 Y883.9847 Z-1.0000 F5000
G1 X230.5647 Y891.1407 Z-1.0000 F5000
G1 X230.5647 Y891.1407 Z10.0000 F9999
G1 X212.2712 Y921.6728 Z10.0000 F9999
G1 X212.2712 Y921.6728 Z-1.0000 F2500
G1 X212.2712 Y907.2325 Z-1.0000 F5000
G1 X212.2712 Y921.6728 Z-1.0000 F5000
G1 X230.5647 Y921.6728 Z-1.0000 F5000
G1 X230.5647 Y906.5536 Z-1.0000 F5000
G1 X230.5647 Y921.6728 Z-1.0000 F5000
G1 X189.4638 Y921.6728 Z-1.0000 F5000
G1 X189.4638 Y921.6728 Z10.0000 F9999
G1 X372.4469 Y890.4682 Z10.0000 F9999
G1 X372.4469 Y890.4682 Z-1.0000 F2500
G1 X413.5478 Y890.4682 Z-1.0000 F5000
G1 X413.5478 Y883.3123 Z-1.0000 F5000
G1 X412.9423 Y879.4407 Z-1.0000 F5000
G1 X411.1258 Y876.2297 Z-1.0000 F5000
G1 X407.9698 Y874.0095 Z-1.0000 F5000
G1 X403.3276 Y873.1655 Z-1.0000 F5000
G1 X398.6487 Y874.3214 Z-1.0000 F5000
G1 X395.3276 Y877.0921 Z-1.0000 F5000
G1 X393.3643 Y880.4132 Z-1.0000 F5000
G1 X392.7037 Y883.3123 Z-1.0000 F5000
G1 X392.7037 Y890.4682 Z-1.0000 F5000
G1 X392.7037 Y883.3123 Z-1.0000 F5000
G1 X393.3643 Y880.4132 Z-1.0000 F5000
G1 X395.3276 Y877.0921 Z-1.0000 F5000
G1 X398.6487 Y874.3214 Z-1.0000 F5000
G1 X403.3276 Y873.1655 Z-1.0000 F5000
G1 X407.9698 Y874.0095 Z-1.0000 F5000
G1 X411.1258 Y876.2297 Z-1.0000 F5000
G1 X412.9423 Y879.4407 Z-1.0000 F5000
G1 X413.5478 Y883.3123 Z-1.0000 F5000
G1 X413.5478 Y890.4682 Z-1.0000 F5000
G1 X413.5478 Y890.4682 Z10.0000 F9999
G1 X395.2542 Y921.0003 Z10.0000 F9999
G1 X395.2542 Y921.0003 Z-1.0000 F2500
G1 X395.2542 Y906.5600 Z-1.0000 F5000
G1 X395.2542 Y921.0003 Z-1.0000 F5000
G1 X413.5478 Y921.0003 Z-1.0000 F5000
G1 X413.5478 Y905.8811 Z-1.0000 F5000
G1 X413.5478 Y921.0003 Z-1.0000 F5000
G1 X372.4469 Y921.0003 Z-1.0000 F5000
G1 X372.4469 Y921.0003 Z10.0000 F9999
G1 X372.4469 Y873.0554 Z10.0000 F9999
G1 X372.4469 Y873.0554 Z-1.0000 F2500
G1 X392.5937 Y886.2847 Z-1.0000 F5000
G1 X372.4469 Y873.0554 Z-1.0000 F5000
G1 X372.4469 Y873.0554 Z10.0000 F9999
G1 X387.1441 Y836.0462 Z10.0000 F9999
G1 X387.1441 Y836.0462 Z-1.0000 F2500
G1 X387.1441 Y856.7435 Z-1.0000 F5000
G1 X387.1441 Y836.0462 Z-1.0000 F5000
G1 X387.1441 Y836.0462 Z10.0000 F9999
G1 X413.5478 Y846.3581 Z10.0000 F9999
G1 X413.5478 Y846.3581 Z-1.0000 F2500
G1 X372.4469 Y830.3031 Z-1.0000 F5000
G1 X413.5478 Y846.3581 Z-1.0000 F5000
G1 X372.4469 Y862.3765 Z-1.0000 F5000
G1 X372.4469 Y862.3765 Z10.0000 F9999
G1 X397.1074 Y789.6792 Z10.0000 F9999
G1 X397.1074 Y789.6792 Z-1.0000 F2500
G1 X397.1074 Y818.9269 Z-1.0000 F5000
G1 X397.1074 Y789.6792 Z-1.0000 F5000
G1 X397.1074 Y789.6792 Z10.0000 F9999
G1 X413.5478 Y762.9820 Z10.0000 F9999
G1 X413.5478 Y762.9820 Z-1.0000 F2500
G1 X372.4469 Y746.9269 Z-1.0000 F5000
G1 X413.5478 Y762.9820 Z-1.0000 F5000
G1 X372.4469 Y779.0003 Z-1.0000 F5000
G1 X372.4469 Y779.0003 Z10.0000 F9999
G1 X387.1441 Y752.6701 Z10.0000 F9999
G1 X387.1441 Y752.6701 Z-1.0000 F2500
G1 X387.1441 Y773.3673 Z-1.0000 F5000
G1 X387.1441 Y752.6701 Z-1.0000 F5000
G1 X387.1441 Y752.6701 Z10.0000 F9999
G1 X379.2725 Y694.4499 Z10.0000 F9999
G1 X379.2725 Y694.4499 Z-1.0000 F2500
G1 X376.2267 Y692.5049 Z-1.0000 F5000
G1 X374.1716 Y690.0829 Z-1.0000 F5000
G1 X372.9239 Y686.9636 Z-1.0000 F5000
G1 X372.4469 Y682.8352 Z-1.0000 F5000
G1 X372.9056 Y678.3398 Z-1.0000 F5000
G1 X374.6487 Y674.5233 Z-1.0000 F5000
G1 X377.6395 Y671.8444 Z-1.0000 F5000
G1 X381.8047 Y670.7251 Z-1.0000 F5000
G1 X385.8047 Y671.2572 Z-1.0000 F5000
G1 X388.4836 Y672.7985 Z-1.0000 F5000
G1 X390.1716 Y674.8352 Z-1.0000 F5000
G1 X391.2725 Y676.7435 Z-1.0000 F5000
G1 X396.0065 Y685.9361 Z-1.0000 F5000
G1 X397.4193 Y688.3031 Z-1.0000 F5000
G1 X399.0707 Y690.1563 Z-1.0000 F5000
G1 X401.2542 Y691.4040 Z-1.0000 F5000
G1 X404.1349 Y691.9178 Z-1.0000 F5000
G1 X407.4193 Y691.3857 Z-1.0000 F5000
G1 X410.4469 Y689.5508 Z-1.0000 F5000
G1 X412.6670 Y686.4132 Z-1.0000 F5000
G1 X413.5478 Y682.0462 Z-1.0000 F5000
G1 X412.8689 Y677.7893 Z-1.0000 F5000
G1 X411.4010 Y674.9453 Z-1.0000 F5000
G1 X409.2542 Y672.8535 Z-1.0000 F5000
G1 X411.4010 Y674.9453 Z-1.0000 F5000
G1 X412.8689 Y677.7893 Z-1.0000 F5000
G1 X413.5478 Y682.0462 Z-1.0000 F5000
G1 X412.6670 Y686.4132 Z-1.0000 F5000
G1 X410.4469 Y689.5508 Z-1.0000 F5000
G1 X407.4193 Y691.3857 Z-1.0000 F5000
G1 X404.1349 Y691.9178 Z-1.0000 F5000
G1 X401.2542 Y691.4040 Z-1.0000 F5000
G1 X399.0707 Y690.1563 Z-1.0000 F5000
G1 X397.4193 Y688.3031 Z-1.0000 F5000
G1 X396.0065 Y685.9361 Z-1.0000 F5000
G1 X391.2725 Y676.7435 Z-1.0000 F5000
G1 X390.1716 Y674.8352 Z-1.0000 F5000
G1 X388.4836 Y672.7985 Z-1.0000 F5000
G1 X385.8047 Y671.2572 Z-1.0000 F5000
G1 X381.8047 Y670.7251 Z-1.0000 F5000
G1 X377.6395 Y671.8444 Z-1.0000 F5000
G1 X374.6487 Y674.5233 Z-1.0000 F5000
G1 X372.9056 Y678.3398 Z-1.0000 F5000
G1 X372.4469 Y682.8352 Z-1.0000 F5000
G1 X372.9239 Y686.9636 Z-1.0000 F5000
G1 X374.1716 Y690.0829 Z-1.0000 F5000
G1 X376.2267 Y692.5049 Z-1.0000 F5000
G1 X376.2267 Y692.5049 Z10.0000 F9999
G1 X372.4469 Y659.2205 Z10.0000 F9999
G1 X372.4469 Y659.2205 Z-1.0000 F2500
G1 X390.0615 Y643.4774 Z-1.0000 F5000
G1 X392.0797 Y641.7288 Z-1.0000 F5000
G1 X394.1533 Y640.0462 Z-1.0000 F5000
G1 X395.7130 Y639.0264 Z-1.0000 F5000
G1 X397.3092 Y638.0646 Z-1.0000 F5000
G1 X399.7680 Y637.1288 Z-1.0000 F5000
G1 X403.0524 Y636.7251 Z-1.0000 F5000
G1 X406.7955 Y637.3490 Z-1.0000 F5000
G1 X410.1716 Y639.2756 Z-1.0000 F5000
G1 X412.6120 Y642.6150 Z-1.0000 F5000
G1 X413.5478 Y647.6058 Z-1.0000 F5000
G1 X410.9423 Y656.3214 Z-1.0000 F5000
G1 X404.1900 Y659.1104 Z-1.0000 F5000
G1 X410.9423 Y656.3214 Z-1.0000 F5000
G1 X413.5478 Y647.6058 Z-1.0000 F5000
G1 X412.6120 Y642.6150 Z-1.0000 F5000
G1 X410.1716 Y639.2756 Z-1.0000 F5000
G1 X406.7955 Y637.3490 Z-1.0000 F5000
G1 X403.0524 Y636.7251 Z-1.0000 F5000
G1 X399.7680 Y637.1288 Z-1.0000 F5000
G1 X397.3092 Y638.0646 Z-1.0000 F5000
G1 X395.7130 Y639.0264 Z-1.0000 F5000
G1 X394.1533 Y640.0462 Z-1.0000 F5000
G1 X392.0797 Y641.7288 Z-1.0000 F5000
G1 X390.0615 Y643.4774 Z-1.0000 F5000
G1 X372.4469 Y659.2205 Z-1.0000 F5000
G1 X372.4469 Y637.0187 Z-1.0000 F5000
G1 X372.4469 Y637.0187 Z10.0000 F9999
G1 X372.4469 Y580.4499 Z10.0000 F9999
G1 X372.4469 Y580.4499 Z-1.0000 F2500
G1 X395.2542 Y580.4499 Z-1.0000 F5000
G1 X395.2542 Y563.9912 Z-1.0000 F5000
G1 X395.2542 Y580.4499 Z-1.0000 F5000
G1 X413.5478 Y580.4499 Z-1.0000 F5000
G1 X413.5478 Y562.6884 Z-1.0000 F5000
G1 X413.5478 Y580.4499 Z-1.0000 F5000
G1 X372.4469 Y580.4499 Z-1.0000 F5000
G1 X372.4469 Y562.6884 Z-1.0000 F5000
G1 X372.4469 Y562.6884 Z10.0000 F9999
G1 X393.6579 Y540.2847 Z10.0000 F9999
G1 X393.6579 Y540.2847 Z-1.0000 F2500
G1 X372.4469 Y528.3398 Z-1.0000 F5000
G1 X393.6579 Y540.2847 Z-1.0000 F5000
G1 X413.5478 Y528.3398 Z-1.0000 F5000
G1 X393.6579 Y540.2847 Z-1.0000 F5000
G1 X413.5478 Y552.3581 Z-1.0000 F5000
G1 X393.6579 Y540.2847 Z-1.0000 F5000
G1 X372.4469 Y552.3581 Z-1.0000 F5000
G1 X372.4469 Y552.3581 Z10.0000 F9999
G1 X422.9423 Y595.9545 Z10.0000 F9999
G1 X422.9423 Y595.9545 Z-1.0000 F2500
G1 X370.0982 Y626.3398 Z-1.0000 F5000
G1 X422.9423 Y595.9545 Z-1.0000 F5000
G1 X422.9423 Y595.9545 Z10.0000 F9999
G1 X422.9423 Y705.1655 Z10.0000 F9999
G1 X422.9423 Y705.1655 Z-1.0000 F2500
G1 X370.0982 Y735.5508 Z-1.0000 F5000
G1 X422.9423 Y705.1655 Z-1.0000 F5000
G1 X422.9423 Y705.1655 Z10.0000 F9999
G1 X567.6291 Y693.5143 Z10.0000 F9999
G1 X567.6291 Y693.5143 Z-1.0000 F2500
G1 X564.5832 Y691.5694 Z-1.0000 F5000
G1 X562.5282 Y689.1474 Z-1.0000 F5000
G1 X561.2805 Y686.0281 Z-1.0000 F5000
G1 X560.8034 Y681.8997 Z-1.0000 F5000
G1 X561.2621 Y677.4042 Z-1.0000 F5000
G1 X563.0052 Y673.5877 Z-1.0000 F5000
G1 X565.9961 Y670.9088 Z-1.0000 F5000
G1 X570.1612 Y669.7896 Z-1.0000 F5000
G1 X574.1612 Y670.3217 Z-1.0000 F5000
G1 X576.8401 Y671.8630 Z-1.0000 F5000
G1 X578.5282 Y673.8997 Z-1.0000 F5000
G1 X579.6291 Y675.8079 Z-1.0000 F5000
G1 X584.3630 Y685.0006 Z-1.0000 F5000
G1 X585.7759 Y687.3675 Z-1.0000 F5000
G1 X587.4273 Y689.2208 Z-1.0000 F5000
G1 X589.6107 Y690.4685 Z-1.0000 F5000
G1 X592.4915 Y690.9822 Z-1.0000 F5000
G1 X595.7759 Y690.4501 Z-1.0000 F5000
G1 X598.8034 Y688.6152 Z-1.0000 F5000
G1 X601.0236 Y685.4776 Z-1.0000 F5000
G1 X601.9043 Y681.1107 Z-1.0000 F5000
G1 X601.2254 Y676.8538 Z-1.0000 F5000
G1 X599.7575 Y674.0097 Z-1.0000 F5000
G1 X597.6107 Y671.9180 Z-1.0000 F5000
G1 X599.7575 Y674.0097 Z-1.0000 F5000
G1 X601.2254 Y676.8538 Z-1.0000 F5000
G1 X601.9043 Y681.1107 Z-1.0000 F5000
G1 X601.0236 Y685.4776 Z-1.0000 F5000
G1 X598.8034 Y688.6152 Z-1.0000 F5000
G1 X595.7759 Y690.4501 Z-1.0000 F5000
G1 X592.4915 Y690.9822 Z-1.0000 F5000
G1 X589.6107 Y690.4685 Z-1.0000 F5000
G1 X587.4273 Y689.2208 Z-1.0000 F5000
G1 X585.7759 Y687.3675 Z-1.0000 F5000
G1 X584.3630 Y685.0006 Z-1.0000 F5000
G1 X579.6291 Y675.8079 Z-1.0000 F5000
G1 X578.5282 Y673.8997 Z-1.0000 F5000
G1 X576.8401 Y671.8630 Z-1.0000 F5000
G1 X574.1612 Y670.3217 Z-1.0000 F5000
G1 X570.1612 Y669.7896 Z-1.0000 F5000
G1 X565.9961 Y670.9088 Z-1.0000 F5000
G1 X563.0052 Y673.5877 Z-1.0000 F5000
G1 X561.2621 Y677.4042 Z-1.0000 F5000
G1 X560.8034 Y681.8997 Z-1.0000 F5000
G1 X561.2805 Y686.0281 Z-1.0000 F5000
G1 X562.5282 Y689.1474 Z-1.0000 F5000
G1 X564.5832 Y691.5694 Z-1.0000 F5000
G1 X564.5832 Y691.5694 Z10.0000 F9999
G1 X560.8034 Y658.2850 Z10.0000 F9999
G1 X560.8034 Y658.2850 Z-1.0000 F2500
G1 X578.4181 Y642.5419 Z-1.0000 F5000
G1 X580.4363 Y640.7932 Z-1.0000 F5000
G1 X582.5098 Y639.1107 Z-1.0000 F5000
G1 X584.0696 Y638.0908 Z-1.0000 F5000
G1 X585.6658 Y637.1290 Z-1.0000 F5000
G1 X588.1245 Y636.1932 Z-1.0000 F5000
G1 X591.4089 Y635.7896 Z-1.0000 F5000
G1 X595.1520 Y636.4134 Z-1.0000 F5000
G1 X598.5282 Y638.3400 Z-1.0000 F5000
G1 X600.9685 Y641.6795 Z-1.0000 F5000
G1 X601.9043 Y646.6703 Z-1.0000 F5000
G1 X599.2988 Y655.3859 Z-1.0000 F5000
G1 X592.5465 Y658.1749 Z-1.0000 F5000
G1 X599.2988 Y655.3859 Z-1.0000 F5000
G1 X601.9043 Y646.6703 Z-1.0000 F5000
G1 X600.9685 Y641.6795 Z-1.0000 F5000
G1 X598.5282 Y638.3400 Z-1.0000 F5000
G1 X595.1520 Y636.4134 Z-1.0000 F5000
G1 X591.4089 Y635.7896 Z-1.0000 F5000
G1 X588.1245 Y636.1932 Z-1.0000 F5000
G1 X585.6658 Y637.1290 Z-1.0000 F5000
G1 X584.0696 Y638.0908 Z-1.0000 F5000
G1 X582.5098 Y639.1107 Z-1.0000 F5000
G1 X580.4363 Y640.7932 Z-1.0000 F5000
G1 X578.4181 Y642.5419 Z-1.0000 F5000
G1 X560.8034 Y658.2850 Z-1.0000 F5000
G1 X560.8034 Y636.0831 Z-1.0000 F5000
G1 X560.8034 Y636.0831 Z10.0000 F9999
G1 X560.8034 Y579.5143 Z10.0000 F9999
G1 X560.8034 Y579.5143 Z-1.0000 F2500
G1 X583.6107 Y579.5143 Z-1.0000 F5000
G1 X583.6107 Y563.0556 Z-1.0000 F5000
G1 X583.6107 Y579.5143 Z-1.0000 F5000
G1 X601.9043 Y579.5143 Z-1.0000 F5000
G1 X601.9043 Y561.7529 Z-1.0000 F5000
G1 X601.9043 Y579.5143 Z-1.0000 F5000
G1 X560.8034 Y579.5143 Z-1.0000 F5000
G1 X560.8034 Y561.7529 Z-1.0000 F5000
G1 X560.8034 Y561.7529 Z10.0000 F9999
G1 X582.0144 Y539.3492 Z10.0000 F9999
G1 X582.0144 Y539.3492 Z-1.0000 F2500
G1 X560.8034 Y527.4042 Z-1.0000 F5000
G1 X582.0144 Y539.3492 Z-1.0000 F5000
G1 X601.9043 Y527.4042 Z-1.0000 F5000
G1 X582.0144 Y539.3492 Z-1.0000 F5000
G1 X601.9043 Y551.4226 Z-1.0000 F5000
G1 X582.0144 Y539.3492 Z-1.0000 F5000
G1 X560.8034 Y551.4226 Z-1.0000 F5000
G1 X560.8034 Y551.4226 Z10.0000 F9999
G1 X611.2988 Y595.0189 Z10.0000 F9999
G1 X611.2988 Y595.0189 Z-1.0000 F2500
G1 X558.4548 Y625.4042 Z-1.0000 F5000
G1 X611.2988 Y595.0189 Z-1.0000 F5000
G1 X611.2988 Y595.0189 Z10.0000 F9999
G1 X611.2988 Y704.2299 Z10.0000 F9999
G1 X611.2988 Y704.2299 Z-1.0000 F2500
G1 X558.4548 Y734.6152 Z-1.0000 F5000
G1 X611.2988 Y704.2299 Z-1.0000 F5000
G1 X611.2988 Y704.2299 Z10.0000 F9999
G1 X601.9043 Y762.0464 Z10.0000 F9999
G1 X601.9043 Y762.0464 Z-1.0000 F2500
G1 X560.8034 Y745.9914 Z-1.0000 F5000
G1 X601.9043 Y762.0464 Z-1.0000 F5000
G1 X560.8034 Y778.0648 Z-1.0000 F5000
G1 X560.8034 Y778.0648 Z10.0000 F9999
G1 X585.4640 Y788.7437 Z10.0000 F9999
G1 X585.4640 Y788.7437 Z-1.0000 F2500
G1 X585.4640 Y817.9914 Z-1.0000 F5000
G1 X585.4640 Y788.7437 Z-1.0000 F5000
G1 X585.4640 Y788.7437 Z10.0000 F9999
G1 X575.5007 Y751.7345 Z10.0000 F9999
G1 X575.5007 Y751.7345 Z-1.0000 F2500
G1 X575.5007 Y772.4318 Z-1.0000 F5000
G1 X575.5007 Y751.7345 Z-1.0000 F5000
G1 X575.5007 Y751.7345 Z10.0000 F9999
G1 X575.5007 Y835.1107 Z10.0000 F9999
G1 X575.5007 Y835.1107 Z-1.0000 F2500
G1 X575.5007 Y855.8079 Z-1.0000 F5000
G1 X575.5007 Y835.1107 Z-1.0000 F5000
G1 X575.5007 Y835.1107 Z10.0000 F9999
G1 X601.9043 Y845.4226 Z10.0000 F9999
G1 X601.9043 Y845.4226 Z-1.0000 F2500
G1 X560.8034 Y829.3675 Z-1.0000 F5000
G1 X601.9043 Y845.4226 Z-1.0000 F5000
G1 X560.8034 Y861.4409 Z-1.0000 F5000
G1 X560.8034 Y861.4409 Z10.0000 F9999
G1 X560.8034 Y872.1198 Z10.0000 F9999
G1 X560.8034 Y872.1198 Z-1.0000 F2500
G1 X580.9502 Y885.3492 Z-1.0000 F5000
G1 X560.8034 Y872.1198 Z-1.0000 F5000
G1 X560.8034 Y872.1198 Z10.0000 F9999
G1 X560.8034 Y889.5327 Z10.0000 F9999
G1 X560.8034 Y889.5327 Z-1.0000 F2500
G1 X601.9043 Y889.5327 Z-1.0000 F5000
G1 X601.9043 Y882.3767 Z-1.0000 F5000
G1 X601.2988 Y878.5052 Z-1.0000 F5000
G1 X599.4823 Y875.2941 Z-1.0000 F5000
G1 X596.3263 Y873.0740 Z-1.0000 F5000
G1 X591.6841 Y872.2299 Z-1.0000 F5000
G1 X587.0052 Y873.3859 Z-1.0000 F5000
G1 X583.6841 Y876.1565 Z-1.0000 F5000
G1 X581.7208 Y879.4776 Z-1.0000 F5000
G1 X581.0603 Y882.3767 Z-1.0000 F5000
G1 X581.0603 Y889.5327 Z-1.0000 F5000
G1 X581.0603 Y882.3767 Z-1.0000 F5000
G1 X581.7208 Y879.4776 Z-1.0000 F5000
G1 X583.6841 Y876.1565 Z-1.0000 F5000
G1 X587.0052 Y873.3859 Z-1.0000 F5000
G1 X591.6841 Y872.2299 Z-1.0000 F5000
G1 X596.3263 Y873.0740 Z-1.0000 F5000
G1 X599.4823 Y875.2941 Z-1.0000 F5000
G1 X601.2988 Y878.5052 Z-1.0000 F5000
G1 X601.9043 Y882.3767 Z-1.0000 F5000
G1 X601.9043 Y889.5327 Z-1.0000 F5000
G1 X601.9043 Y889.5327 Z10.0000 F9999
G1 X583.6107 Y920.0648 Z10.0000 F9999
G1 X583.6107 Y920.0648 Z-1.0000 F2500
G1 X583.6107 Y905.6244 Z-1.0000 F5000
G1 X583.6107 Y920.0648 Z-1.0000 F5000
G1 X601.9043 Y920.0648 Z-1.0000 F5000
G1 X601.9043 Y904.9455 Z-1.0000 F5000
G1 X601.9043 Y920.0648 Z-1.0000 F5000
G1 X560.8034 Y920.0648 Z-1.0000 F5000
G1 X560.8034 Y920.0648 Z10.0000 F9999
(Tool Number:1) (7.998 mm dia. slot drill)
M3 S18000
G1 X592.1429 Y85.4220 Z10.0000 F9999
G1 X592.1429 Y85.4220 Z-0.5000 F2500
G1 X591.3907 Y88.1009 Z-0.5000 F5000
G1 X589.6659 Y90.6697 Z-0.5000 F5000
G1 X586.7118 Y92.6147 Z-0.5000 F5000
G1 X582.1613 Y93.3670 Z-0.5000 F5000
G1 X573.6475 Y90.7431 Z-0.5000 F5000
G1 X570.5466 Y82.7615 Z-0.5000 F5000
G1 X571.4274 Y78.0275 Z-0.5000 F5000
G1 X573.7393 Y74.6697 Z-0.5000 F5000
G1 X576.9503 Y72.6697 Z-0.5000 F5000
G1 X580.5283 Y71.9908 Z-0.5000 F5000
G1 X577.0604 Y71.2569 Z-0.5000 F5000
G1 X574.1062 Y69.0367 Z-0.5000 F5000
G1 X572.0145 Y65.6606 Z-0.5000 F5000
G1 X571.2255 Y61.4587 Z-0.5000 F5000
G1 X571.2622 Y59.8807 Z-0.5000 F5000
G1 X571.5374 Y57.8991 Z-0.5000 F5000
G1 X572.3264 Y55.8807 Z-0.5000 F5000
G1 X573.8494 Y54.0459 Z-0.5000 F5000
G1 X576.3998 Y52.7431 Z-0.5000 F5000
G1 X580.1429 Y52.2661 Z-0.5000 F5000
G1 X585.5191 Y53.0917 Z-0.5000 F5000
G1 X588.6200 Y55.1101 Z-0.5000 F5000
G1 X590.1429 Y57.7706 Z-0.5000 F5000
G1 X590.7301 Y60.5046 Z-0.5000 F5000
G1 X590.1429 Y57.7706 Z-0.5000 F5000
G1 X588.6200 Y55.1101 Z-0.5000 F5000
G1 X585.5191 Y53.0917 Z-0.5000 F5000
G1 X580.1429 Y52.2661 Z-0.5000 F5000
G1 X576.3998 Y52.7431 Z-0.5000 F5000
G1 X573.8494 Y54.0459 Z-0.5000 F5000
G1 X572.3264 Y55.8807 Z-0.5000 F5000
G1 X571.5374 Y57.8991 Z-0.5000 F5000
G1 X571.2622 Y59.8440 Z-0.5000 F5000
G1 X571.2255 Y61.4587 Z-0.5000 F5000
G1 X572.0145 Y65.6606 Z-0.5000 F5000
G1 X574.1062 Y69.0367 Z-0.5000 F5000
G1 X577.0604 Y71.2569 Z-0.5000 F5000
G1 X580.5283 Y71.9908 Z-0.5000 F5000
G1 X576.9503 Y72.6697 Z-0.5000 F5000
G1 X573.7393 Y74.6697 Z-0.5000 F5000
G1 X571.4274 Y78.0275 Z-0.5000 F5000
G1 X570.5466 Y82.7615 Z-0.5000 F5000
G1 X573.6475 Y90.7431 Z-0.5000 F5000
G1 X582.1613 Y93.3670 Z-0.5000 F5000
G1 X586.7118 Y92.6147 Z-0.5000 F5000
G1 X589.6659 Y90.6697 Z-0.5000 F5000
G1 X591.3907 Y88.1009 Z-0.5000 F5000
G1 X591.3907 Y88.1009 Z10.0000 F9999
G1 X649.5191 Y93.3670 Z10.0000 F9999
G1 X649.5191 Y93.3670 Z-0.5000 F2500
G1 X633.5741 Y52.2661 Z-0.5000 F5000
G1 X617.6108 Y93.3670 Z-0.5000 F5000
G1 X604.5466 Y52.2661 Z-0.5000 F5000
G1 X617.6108 Y93.3670 Z-0.5000 F5000
G1 X633.5741 Y52.2661 Z-0.5000 F5000
G1 X649.5191 Y93.3670 Z-0.5000 F5000
G1 X662.6017 Y52.2661 Z-0.5000 F5000
G1 X662.6017 Y52.2661 Z10.0000 F9999
(Tool Number:1) (7.998 mm dia. slot drill)
M3 S9000
G1 X151.8529 Y1587.1216 Z10.0000 F9999
G1 X151.8529 Y1587.1216 Z1.0000 F2500
G1 X190.8240 Y1587.1216 Z-9.5000 F2500
G1 X151.8529 Y1587.1216 Z-20.0000 F2500
G1 X719.5757 Y1587.1216 Z-20.0000 F5000
G1 X719.5757 Y113.4583 Z-20.0000 F5000
G1 X719.5757 Y113.4583 Z10.0000 F9999
(Tool Number:1) (7.998 mm dia. slot drill)
M3 S9000
G1 X6.0812 Y1119.7475 Z10.0000 F9999
G1 X6.0812 Y1119.7475 Z1.0000 F2500
G1 X6.0812 Y1080.7763 Z-9.5000 F2500
G1 X6.0812 Y1119.7475 Z-20.0000 F2500
G1 X6.0812 Y22.4573 Z-20.0000 F5000
G1 X1214.0768 Y22.4573 Z-20.0000 F5000
G1 X1214.0768 Y2217.0376 Z-20.0000 F5000
G1 X1131.0749 Y2217.0376 Z-20.0000 F5000
G1 X1131.0749 Y2142.0397 Z-20.0000 F5000
G1 X1172.0778 Y2142.0397 Z-20.0000 F5000
G1 X1172.0778 Y2140.0378 Z-20.0000 F5000
G1 X1167.0793 Y2140.0378 Z-20.0000 F5000
G1 X1167.0793 Y1972.0401 Z-20.0000 F5000
G1 X1172.0778 Y1972.0401 Z-20.0000 F5000
G1 X1172.0778 Y1970.0381 Z-20.0000 F5000
G1 X1131.0778 Y1970.0381 Z-20.0000 F5000
G1 X1131.0778 Y1908.3172 Z-20.0000 F5000
G1 X1131.0778 Y1908.3172 Z-10.0000 F9999
G1 X1131.0778 Y1892.3192 Z-10.0000 F5000
G1 X1131.0778 Y1892.3192 Z-20.0000 F2500
G1 X1131.0778 Y1842.0404 Z-20.0000 F5000
G1 X1172.0778 Y1842.0404 Z-20.0000 F5000
G1 X1172.0778 Y1840.0384 Z-20.0000 F5000
G1 X1167.0793 Y1840.0384 Z-20.0000 F5000
G1 X1167.0793 Y1672.0407 Z-20.0000 F5000
G1 X1172.0778 Y1672.0407 Z-20.0000 F5000
G1 X1172.0778 Y1670.0387 Z-20.0000 F5000
G1 X1131.0778 Y1670.0387 Z-20.0000 F5000
G1 X1131.0778 Y1542.0409 Z-20.0000 F5000
G1 X1154.0793 Y1542.0409 Z-20.0000 F5000
G1 X1154.0793 Y1540.0389 Z-20.0000 F5000
G1 X1149.0783 Y1540.0389 Z-20.0000 F5000
G1 X1149.0783 Y1461.0411 Z-20.0000 F5000
G1 X1178.0773 Y1461.0411 Z-20.0000 F5000
G1 X1178.0773 Y1466.0411 Z-20.0000 F5000
G1 X1180.0788 Y1466.0411 Z-20.0000 F5000
G1 X1180.0788 Y1446.0392 Z-20.0000 F5000
G1 X1178.0773 Y1446.0392 Z-20.0000 F5000
G1 X1178.0773 Y1451.0392 Z-20.0000 F5000
G1 X1149.0783 Y1451.0392 Z-20.0000 F5000
G1 X1149.0783 Y1372.0413 Z-20.0000 F5000
G1 X1154.0793 Y1372.0413 Z-20.0000 F5000
G1 X1154.0793 Y1370.0393 Z-20.0000 F5000
G1 X1131.0778 Y1370.0393 Z-20.0000 F5000
G1 X1131.0778 Y1242.0415 Z-20.0000 F5000
G1 X1154.0793 Y1242.0415 Z-20.0000 F5000
G1 X1154.0793 Y1240.0396 Z-20.0000 F5000
G1 X1149.0783 Y1240.0396 Z-20.0000 F5000
G1 X1149.0783 Y1072.0419 Z-20.0000 F5000
G1 X1154.0793 Y1072.0419 Z-20.0000 F5000
G1 X1154.0793 Y1070.0399 Z-20.0000 F5000
G1 X1131.0778 Y1070.0399 Z-20.0000 F5000
G1 X1131.0778 Y942.0423 Z-20.0000 F5000
G1 X1154.0793 Y942.0423 Z-20.0000 F5000
G1 X1154.0793 Y940.0403 Z-20.0000 F5000
G1 X1149.0783 Y940.0403 Z-20.0000 F5000
G1 X1149.0783 Y861.0424 Z-20.0000 F5000
G1 X1178.0773 Y861.0424 Z-20.0000 F5000
G1 X1178.0773 Y866.0424 Z-20.0000 F5000
G1 X1180.0788 Y866.0424 Z-20.0000 F5000
G1 X1180.0788 Y846.0404 Z-20.0000 F5000
G1 X1178.0773 Y846.0404 Z-20.0000 F5000
G1 X1178.0773 Y851.0404 Z-20.0000 F5000
G1 X1149.0783 Y851.0404 Z-20.0000 F5000
G1 X1149.0783 Y772.0425 Z-20.0000 F5000
G1 X1154.0793 Y772.0425 Z-20.0000 F5000
G1 X1154.0793 Y770.0405 Z-20.0000 F5000
G1 X1131.0778 Y770.0405 Z-20.0000 F5000
G1 X1131.0778 Y642.0427 Z-20.0000 F5000
G1 X1172.0778 Y642.0427 Z-20.0000 F5000
G1 X1172.0778 Y640.0407 Z-20.0000 F5000
G1 X1167.0793 Y640.0407 Z-20.0000 F5000
G1 X1167.0793 Y472.0430 Z-20.0000 F5000
G1 X1172.0778 Y472.0430 Z-20.0000 F5000
G1 X1172.0778 Y470.0410 Z-20.0000 F5000
G1 X1131.0778 Y470.0410 Z-20.0000 F5000
G1 X1131.0778 Y413.0839 Z-20.0000 F5000
G1 X1131.0778 Y413.0839 Z-10.0000 F9999
G1 X1131.0778 Y397.0859 Z-10.0000 F5000
G1 X1131.0778 Y397.0859 Z-20.0000 F2500
G1 X1131.0778 Y342.0434 Z-20.0000 F5000
G1 X1172.0778 Y342.0434 Z-20.0000 F5000
G1 X1172.0778 Y340.0414 Z-20.0000 F5000
G1 X1167.0793 Y340.0414 Z-20.0000 F5000
G1 X1167.0793 Y172.0437 Z-20.0000 F5000
G1 X1172.0778 Y172.0437 Z-20.0000 F5000
G1 X1172.0778 Y170.0417 Z-20.0000 F5000
G1 X1131.0778 Y170.0417 Z-20.0000 F5000
G1 X1131.0778 Y94.0420 Z-20.0000 F5000
G1 X1129.0734 Y94.0420 Z-20.0000 F5000
G1 X1129.0734 Y99.0420 Z-20.0000 F5000
G1 X991.0803 Y99.0420 Z-20.0000 F5000
G1 X991.0803 Y94.0420 Z-20.0000 F5000
G1 X989.0758 Y94.0420 Z-20.0000 F5000
G1 X989.0758 Y117.0417 Z-20.0000 F5000
G1 X831.0778 Y117.0417 Z-20.0000 F5000
G1 X831.0778 Y94.0420 Z-20.0000 F5000
G1 X829.0763 Y94.0420 Z-20.0000 F5000
G1 X829.0763 Y99.0420 Z-20.0000 F5000
G1 X691.0783 Y99.0420 Z-20.0000 F5000
G1 X691.0783 Y94.0420 Z-20.0000 F5000
G1 X689.0787 Y94.0420 Z-20.0000 F5000
G1 X689.0787 Y117.0417 Z-20.0000 F5000
G1 X629.3956 Y117.0417 Z-20.0000 F5000
G1 X629.3956 Y117.0417 Z-10.0000 F9999
G1 X613.3976 Y117.0417 Z-10.0000 F5000
G1 X613.3976 Y117.0417 Z-20.0000 F2500
G1 X531.0812 Y117.0417 Z-20.0000 F5000
G1 X531.0812 Y94.0420 Z-20.0000 F5000
G1 X529.0763 Y94.0420 Z-20.0000 F5000
G1 X529.0763 Y99.0420 Z-20.0000 F5000
G1 X391.0788 Y99.0420 Z-20.0000 F5000
G1 X391.0788 Y94.0420 Z-20.0000 F5000
G1 X389.0797 Y94.0420 Z-20.0000 F5000
G1 X389.0797 Y117.0417 Z-20.0000 F5000
G1 X231.0788 Y117.0417 Z-20.0000 F5000
G1 X231.0788 Y94.0420 Z-20.0000 F5000
G1 X229.0797 Y94.0420 Z-20.0000 F5000
G1 X229.0797 Y99.0420 Z-20.0000 F5000
G1 X91.0817 Y99.0420 Z-20.0000 F5000
G1 X91.0817 Y94.0420 Z-20.0000 F5000
G1 X89.0773 Y94.0420 Z-20.0000 F5000
G1 X89.0773 Y170.0417 Z-20.0000 F5000
G1 X48.0787 Y170.0417 Z-20.0000 F5000
G1 X48.0787 Y172.0437 Z-20.0000 F5000
G1 X53.0783 Y172.0437 Z-20.0000 F5000
G1 X53.0783 Y340.0414 Z-20.0000 F5000
G1 X48.0787 Y340.0414 Z-20.0000 F5000
G1 X48.0787 Y342.0434 Z-20.0000 F5000
G1 X89.0773 Y342.0434 Z-20.0000 F5000
G1 X89.0773 Y395.3603 Z-20.0000 F5000
G1 X89.0773 Y395.3603 Z-10.0000 F9999
G1 X89.0773 Y411.3583 Z-10.0000 F5000
G1 X89.0773 Y411.3583 Z-20.0000 F2500
G1 X89.0773 Y470.0410 Z-20.0000 F5000
G1 X48.0787 Y470.0410 Z-20.0000 F5000
G1 X48.0787 Y472.0430 Z-20.0000 F5000
G1 X53.0783 Y472.0430 Z-20.0000 F5000
G1 X53.0783 Y640.0407 Z-20.0000 F5000
G1 X48.0787 Y640.0407 Z-20.0000 F5000
G1 X48.0787 Y642.0427 Z-20.0000 F5000
G1 X89.0773 Y642.0427 Z-20.0000 F5000
G1 X89.0773 Y770.0405 Z-20.0000 F5000
G1 X66.0778 Y770.0405 Z-20.0000 F5000
G1 X66.0778 Y772.0425 Z-20.0000 F5000
G1 X71.0787 Y772.0425 Z-20.0000 F5000
G1 X71.0787 Y851.0404 Z-20.0000 F5000
G1 X42.0803 Y851.0404 Z-20.0000 F5000
G1 X42.0803 Y846.0404 Z-20.0000 F5000
G1 X40.0787 Y846.0404 Z-20.0000 F5000
G1 X40.0787 Y866.0424 Z-20.0000 F5000
G1 X42.0803 Y866.0424 Z-20.0000 F5000
G1 X42.0803 Y861.0424 Z-20.0000 F5000
G1 X71.0787 Y861.0424 Z-20.0000 F5000
G1 X71.0787 Y940.0403 Z-20.0000 F5000
G1 X66.0778 Y940.0403 Z-20.0000 F5000
G1 X66.0778 Y942.0423 Z-20.0000 F5000
G1 X89.0773 Y942.0423 Z-20.0000 F5000
G1 X89.0773 Y1070.0399 Z-20.0000 F5000
G1 X66.0778 Y1070.0399 Z-20.0000 F5000
G1 X66.0778 Y1072.0419 Z-20.0000 F5000
G1 X71.0787 Y1072.0419 Z-20.0000 F5000
G1 X71.0787 Y1240.0396 Z-20.0000 F5000
G1 X66.0778 Y1240.0396 Z-20.0000 F5000
G1 X66.0778 Y1242.0415 Z-20.0000 F5000
G1 X89.0773 Y1242.0415 Z-20.0000 F5000
G1 X89.0773 Y1370.0393 Z-20.0000 F5000
G1 X66.0778 Y1370.0393 Z-20.0000 F5000
G1 X66.0778 Y1372.0413 Z-20.0000 F5000
G1 X71.0787 Y1372.0413 Z-20.0000 F5000
G1 X71.0787 Y1451.0392 Z-20.0000 F5000
G1 X42.0803 Y1451.0392 Z-20.0000 F5000
G1 X42.0803 Y1446.0392 Z-20.0000 F5000
G1 X40.0787 Y1446.0392 Z-20.0000 F5000
G1 X40.0787 Y1466.0411 Z-20.0000 F5000
G1 X42.0803 Y1466.0411 Z-20.0000 F5000
G1 X42.0803 Y1461.0411 Z-20.0000 F5000
G1 X71.0787 Y1461.0411 Z-20.0000 F5000
G1 X71.0787 Y1540.0389 Z-20.0000 F5000
G1 X66.0778 Y1540.0389 Z-20.0000 F5000
G1 X66.0778 Y1542.0409 Z-20.0000 F5000
G1 X89.0773 Y1542.0409 Z-20.0000 F5000
G1 X89.0773 Y1670.0387 Z-20.0000 F5000
G1 X48.0787 Y1670.0387 Z-20.0000 F5000
G1 X48.0787 Y1672.0407 Z-20.0000 F5000
G1 X53.0783 Y1672.0407 Z-20.0000 F5000
G1 X53.0783 Y1840.0384 Z-20.0000 F5000
G1 X48.0787 Y1840.0384 Z-20.0000 F5000
G1 X48.0787 Y1842.0404 Z-20.0000 F5000
G1 X89.0773 Y1842.0404 Z-20.0000 F5000
G1 X89.0773 Y1891.4564 Z-20.0000 F5000
G1 X89.0773 Y1891.4564 Z-10.0000 F9999
G1 X89.0773 Y1907.4544 Z-10.0000 F5000
G1 X89.0773 Y1907.4544 Z-20.0000 F2500
G1 X89.0773 Y1970.0381 Z-20.0000 F5000
G1 X48.0787 Y1970.0381 Z-20.0000 F5000
G1 X48.0787 Y1972.0401 Z-20.0000 F5000
G1 X53.0783 Y1972.0401 Z-20.0000 F5000
G1 X53.0783 Y2140.0378 Z-20.0000 F5000
G1 X48.0787 Y2140.0378 Z-20.0000 F5000
G1 X48.0787 Y2142.0397 Z-20.0000 F5000
G1 X89.0719 Y2142.0397 Z-20.0000 F5000
G1 X89.0719 Y2217.0376 Z-20.0000 F5000
G1 X6.0812 Y2217.0376 Z-20.0000 F5000
G1 X6.0812 Y1119.7475 Z-20.0000 F5000
G1 X6.0812 Y1119.7475 Z10.0000 F9999
G1 X332.9135 Y613.3455 Z10.0000 F9999
G1 X332.9135 Y613.3455 Z1.0000 F2500
G1 X332.9135 Y574.3743 Z-9.5000 F2500
G1 X332.9135 Y613.3455 Z-20.0000 F2500
G1 X332.9135 Y499.3467 Z-20.0000 F5000
G1 X337.9135 Y499.3467 Z-20.0000 F5000
G1 X337.9135 Y497.3447 Z-20.0000 F5000
G1 X320.2561 Y497.3447 Z-20.0000 F5000
G1 X314.9136 Y492.0021 Z-20.0000 F5000
G1 X314.9136 Y468.3467 Z-20.0000 F5000
G1 X361.9115 Y468.3467 Z-20.0000 F5000
G1 X361.9115 Y473.3468 Z-20.0000 F5000
G1 X363.9135 Y473.3468 Z-20.0000 F5000
G1 X363.9135 Y453.3448 Z-20.0000 F5000
G1 X361.9115 Y453.3448 Z-20.0000 F5000
G1 X361.9115 Y458.3449 Z-20.0000 F5000
G1 X314.9136 Y458.3449 Z-20.0000 F5000
G1 X314.9136 Y434.6894 Z-20.0000 F5000
G1 X320.2561 Y429.3469 Z-20.0000 F5000
G1 X337.9135 Y429.3469 Z-20.0000 F5000
G1 X337.9135 Y427.3449 Z-20.0000 F5000
G1 X332.9135 Y427.3449 Z-20.0000 F5000
G1 X332.9135 Y199.3473 Z-20.0000 F5000
G1 X337.9135 Y199.3473 Z-20.0000 F5000
G1 X337.9135 Y197.3453 Z-20.0000 F5000
G1 X320.2561 Y197.3453 Z-20.0000 F5000
G1 X314.9136 Y192.0027 Z-20.0000 F5000
G1 X314.9136 Y159.8475 Z-20.0000 F5000
G1 X377.1296 Y159.8475 Z-20.0000 F5000
G1 X379.2802 Y160.1591 Z-20.0000 F5000
G1 X381.5887 Y161.2417 Z-20.0000 F5000
G1 X383.4719 Y162.9601 Z-20.0000 F5000
G1 X384.7321 Y165.0777 Z-20.0000 F5000
G1 X385.3387 Y167.4666 Z-20.0000 F5000
G1 X385.2219 Y170.0133 Z-20.0000 F5000
G1 X384.3553 Y172.4107 Z-20.0000 F5000
G1 X383.0551 Y174.1519 Z-20.0000 F5000
G1 X380.1261 Y177.0812 Z-20.0000 F5000
G1 X379.7091 Y177.6395 Z-20.0000 F5000
G1 X379.5728 Y177.9827 Z-20.0000 F5000
G1 X379.5272 Y178.3585 Z-20.0000 F5000
G1 X379.5788 Y178.7303 Z-20.0000 F5000
G1 X379.7187 Y179.0680 Z-20.0000 F5000
G1 X379.9451 Y179.3675 Z-20.0000 F5000
G1 X380.2431 Y179.6009 Z-20.0000 F5000
G1 X380.5822 Y179.7473 Z-20.0000 F5000
G1 X381.2717 Y179.8472 Z-20.0000 F5000
G1 X406.5532 Y179.8472 Z-20.0000 F5000
G1 X407.2427 Y179.7473 Z-20.0000 F5000
G1 X407.5817 Y179.6009 Z-20.0000 F5000
G1 X407.8798 Y179.3675 Z-20.0000 F5000
G1 X408.1062 Y179.0680 Z-20.0000 F5000
G1 X408.2460 Y178.7303 Z-20.0000 F5000
G1 X408.2977 Y178.3585 Z-20.0000 F5000
G1 X408.2520 Y177.9827 Z-20.0000 F5000
G1 X408.1157 Y177.6395 Z-20.0000 F5000
G1 X407.6988 Y177.0812 Z-20.0000 F5000
G1 X404.7697 Y174.1519 Z-20.0000 F5000
G1 X403.4696 Y172.4107 Z-20.0000 F5000
G1 X402.6029 Y170.0133 Z-20.0000 F5000
G1 X402.4862 Y167.4666 Z-20.0000 F5000
G1 X403.0928 Y165.0777 Z-20.0000 F5000
G1 X404.3529 Y162.9601 Z-20.0000 F5000
G1 X406.2361 Y161.2417 Z-20.0000 F5000
G1 X408.5447 Y160.1591 Z-20.0000 F5000
G1 X410.6953 Y159.8475 Z-20.0000 F5000
G1 X472.9112 Y159.8475 Z-20.0000 F5000
G1 X472.9112 Y192.0027 Z-20.0000 F5000
G1 X467.5688 Y197.3453 Z-20.0000 F5000
G1 X449.9113 Y197.3453 Z-20.0000 F5000
G1 X449.9113 Y199.3473 Z-20.0000 F5000
G1 X454.9113 Y199.3473 Z-20.0000 F5000
G1 X454.9113 Y427.3449 Z-20.0000 F5000
G1 X449.9113 Y427.3449 Z-20.0000 F5000
G1 X449.9113 Y429.3469 Z-20.0000 F5000
G1 X467.5688 Y429.3469 Z-20.0000 F5000
G1 X472.9112 Y434.6894 Z-20.0000 F5000
G1 X472.9112 Y458.3449 Z-20.0000 F5000
G1 X425.9134 Y458.3449 Z-20.0000 F5000
G1 X425.9134 Y453.3448 Z-20.0000 F5000
G1 X423.9114 Y453.3448 Z-20.0000 F5000
G1 X423.9114 Y473.3468 Z-20.0000 F5000
G1 X425.9134 Y473.3468 Z-20.0000 F5000
G1 X425.9134 Y468.3467 Z-20.0000 F5000
G1 X472.9112 Y468.3467 Z-20.0000 F5000
G1 X472.9112 Y492.0021 Z-20.0000 F5000
G1 X467.5688 Y497.3447 Z-20.0000 F5000
G1 X449.9113 Y497.3447 Z-20.0000 F5000
G1 X449.9113 Y499.3467 Z-20.0000 F5000
G1 X454.9113 Y499.3467 Z-20.0000 F5000
G1 X454.9113 Y727.3442 Z-20.0000 F5000
G1 X449.9113 Y727.3442 Z-20.0000 F5000
G1 X449.9113 Y729.3462 Z-20.0000 F5000
G1 X467.5688 Y729.3462 Z-20.0000 F5000
G1 X472.9112 Y734.6888 Z-20.0000 F5000
G1 X472.9112 Y792.0015 Z-20.0000 F5000
G1 X467.5688 Y797.3441 Z-20.0000 F5000
G1 X449.9113 Y797.3441 Z-20.0000 F5000
G1 X449.9113 Y799.3461 Z-20.0000 F5000
G1 X454.9113 Y799.3461 Z-20.0000 F5000
G1 X454.9113 Y917.3440 Z-20.0000 F5000
G1 X431.9114 Y917.3440 Z-20.0000 F5000
G1 X431.9114 Y919.3460 Z-20.0000 F5000
G1 X436.9114 Y919.3460 Z-20.0000 F5000
G1 X436.9114 Y1027.3436 Z-20.0000 F5000
G1 X431.9114 Y1027.3436 Z-20.0000 F5000
G1 X431.9114 Y1029.3456 Z-20.0000 F5000
G1 X467.5688 Y1029.3456 Z-20.0000 F5000
G1 X472.9112 Y1034.6882 Z-20.0000 F5000
G1 X472.9112 Y1092.0009 Z-20.0000 F5000
G1 X467.5688 Y1097.3435 Z-20.0000 F5000
G1 X431.9114 Y1097.3435 Z-20.0000 F5000
G1 X431.9114 Y1099.3455 Z-20.0000 F5000
G1 X436.9114 Y1099.3455 Z-20.0000 F5000
G1 X436.9114 Y1327.3430 Z-20.0000 F5000
G1 X431.9114 Y1327.3430 Z-20.0000 F5000
G1 X431.9114 Y1329.3450 Z-20.0000 F5000
G1 X467.5688 Y1329.3450 Z-20.0000 F5000
G1 X472.9112 Y1334.6876 Z-20.0000 F5000
G1 X472.9112 Y1355.2259 Z-20.0000 F5000
G1 X472.9112 Y1355.2259 Z-10.0000 F9999
G1 X472.9112 Y1371.2239 Z-10.0000 F5000
G1 X472.9112 Y1371.2239 Z-20.0000 F2500
G1 X472.9112 Y1392.0004 Z-20.0000 F5000
G1 X467.5688 Y1397.3430 Z-20.0000 F5000
G1 X431.9114 Y1397.3430 Z-20.0000 F5000
G1 X431.9114 Y1399.3449 Z-20.0000 F5000
G1 X436.9114 Y1399.3449 Z-20.0000 F5000
G1 X436.9114 Y1515.3428 Z-20.0000 F5000
G1 X350.9135 Y1515.3428 Z-20.0000 F5000
G1 X350.9135 Y1399.3449 Z-20.0000 F5000
G1 X355.9135 Y1399.3449 Z-20.0000 F5000
G1 X355.9135 Y1397.3430 Z-20.0000 F5000
G1 X320.2561 Y1397.3430 Z-20.0000 F5000
G1 X314.9136 Y1392.0004 Z-20.0000 F5000
G1 X314.9136 Y1371.6553 Z-20.0000 F5000
G1 X314.9136 Y1371.6553 Z-10.0000 F9999
G1 X314.9136 Y1355.6573 Z-10.0000 F5000
G1 X314.9136 Y1355.6573 Z-20.0000 F2500
G1 X314.9136 Y1334.6876 Z-20.0000 F5000
G1 X320.2561 Y1329.3450 Z-20.0000 F5000
G1 X355.9135 Y1329.3450 Z-20.0000 F5000
G1 X355.9135 Y1327.3430 Z-20.0000 F5000
G1 X350.9135 Y1327.3430 Z-20.0000 F5000
G1 X350.9135 Y1099.3455 Z-20.0000 F5000
G1 X355.9135 Y1099.3455 Z-20.0000 F5000
G1 X355.9135 Y1097.3435 Z-20.0000 F5000
G1 X320.2561 Y1097.3435 Z-20.0000 F5000
G1 X314.9136 Y1092.0009 Z-20.0000 F5000
G1 X314.9136 Y1034.6882 Z-20.0000 F5000
G1 X320.2561 Y1029.3456 Z-20.0000 F5000
G1 X355.9135 Y1029.3456 Z-20.0000 F5000
G1 X355.9135 Y1027.3436 Z-20.0000 F5000
G1 X350.9136 Y1027.3436 Z-20.0000 F5000
G1 X350.9111 Y919.3460 Z-20.0000 F5000
G1 X355.9112 Y919.3460 Z-20.0000 F5000
G1 X355.9112 Y917.3440 Z-20.0000 F5000
G1 X332.9135 Y917.3440 Z-20.0000 F5000
G1 X332.9135 Y799.3461 Z-20.0000 F5000
G1 X337.9135 Y799.3461 Z-20.0000 F5000
G1 X337.9135 Y797.3441 Z-20.0000 F5000
G1 X320.2561 Y797.3441 Z-20.0000 F5000
G1 X314.9136 Y792.0015 Z-20.0000 F5000
G1 X314.9136 Y734.6888 Z-20.0000 F5000
G1 X320.2561 Y729.3462 Z-20.0000 F5000
G1 X337.9135 Y729.3462 Z-20.0000 F5000
G1 X337.9135 Y727.3442 Z-20.0000 F5000
G1 X332.9135 Y727.3442 Z-20.0000 F5000
G1 X332.9135 Y613.3455 Z-20.0000 F5000
G1 X332.9135 Y613.3455 Z10.0000 F9999
G1 X149.7347 Y613.6817 Z10.0000 F9999
G1 X149.7347 Y613.6817 Z1.0000 F2500
G1 X149.7347 Y574.7106 Z-9.5000 F2500
G1 X149.7347 Y613.6817 Z-20.0000 F2500
G1 X149.7347 Y499.6829 Z-20.0000 F5000
G1 X154.7347 Y499.6829 Z-20.0000 F5000
G1 X154.7347 Y497.6810 Z-20.0000 F5000
G1 X137.0772 Y497.6810 Z-20.0000 F5000
G1 X131.7347 Y492.3384 Z-20.0000 F5000
G1 X131.7347 Y468.6830 Z-20.0000 F5000
G1 X178.7326 Y468.6830 Z-20.0000 F5000
G1 X178.7326 Y473.6830 Z-20.0000 F5000
G1 X180.7346 Y473.6830 Z-20.0000 F5000
G1 X180.7346 Y453.6810 Z-20.0000 F5000
G1 X178.7326 Y453.6810 Z-20.0000 F5000
G1 X178.7326 Y458.6811 Z-20.0000 F5000
G1 X131.7347 Y458.6811 Z-20.0000 F5000
G1 X131.7347 Y435.0257 Z-20.0000 F5000
G1 X137.0772 Y429.6831 Z-20.0000 F5000
G1 X154.7347 Y429.6831 Z-20.0000 F5000
G1 X154.7347 Y427.6811 Z-20.0000 F5000
G1 X149.7347 Y427.6811 Z-20.0000 F5000
G1 X149.7347 Y199.6835 Z-20.0000 F5000
G1 X154.7347 Y199.6835 Z-20.0000 F5000
G1 X154.7347 Y197.6816 Z-20.0000 F5000
G1 X137.0772 Y197.6816 Z-20.0000 F5000
G1 X131.7347 Y192.3390 Z-20.0000 F5000
G1 X131.7347 Y160.1837 Z-20.0000 F5000
G1 X193.9507 Y160.1837 Z-20.0000 F5000
G1 X196.1013 Y160.4953 Z-20.0000 F5000
G1 X198.4099 Y161.5779 Z-20.0000 F5000
G1 X200.2931 Y163.2963 Z-20.0000 F5000
G1 X201.5532 Y165.4140 Z-20.0000 F5000
G1 X202.1598 Y167.8028 Z-20.0000 F5000
G1 X202.0430 Y170.3495 Z-20.0000 F5000
G1 X201.1764 Y172.7470 Z-20.0000 F5000
G1 X199.8762 Y174.4882 Z-20.0000 F5000
G1 X196.9472 Y177.4174 Z-20.0000 F5000
G1 X196.5302 Y177.9757 Z-20.0000 F5000
G1 X196.3940 Y178.3189 Z-20.0000 F5000
G1 X196.3483 Y178.6947 Z-20.0000 F5000
G1 X196.4000 Y179.0666 Z-20.0000 F5000
G1 X196.5398 Y179.4043 Z-20.0000 F5000
G1 X196.7662 Y179.7037 Z-20.0000 F5000
G1 X197.0643 Y179.9372 Z-20.0000 F5000
G1 X197.4033 Y180.0835 Z-20.0000 F5000
G1 X198.0928 Y180.1834 Z-20.0000 F5000
G1 X223.3743 Y180.1834 Z-20.0000 F5000
G1 X224.0638 Y180.0835 Z-20.0000 F5000
G1 X224.4029 Y179.9372 Z-20.0000 F5000
G1 X224.7009 Y179.7037 Z-20.0000 F5000
G1 X224.9273 Y179.4043 Z-20.0000 F5000
G1 X225.0671 Y179.0666 Z-20.0000 F5000
G1 X225.1188 Y178.6947 Z-20.0000 F5000
G1 X225.0731 Y178.3189 Z-20.0000 F5000
G1 X224.9369 Y177.9757 Z-20.0000 F5000
G1 X224.5199 Y177.4174 Z-20.0000 F5000
G1 X221.5909 Y174.4882 Z-20.0000 F5000
G1 X220.2907 Y172.7470 Z-20.0000 F5000
G1 X219.4241 Y170.3495 Z-20.0000 F5000
G1 X219.3073 Y167.8028 Z-20.0000 F5000
G1 X219.9139 Y165.4140 Z-20.0000 F5000
G1 X221.1740 Y163.2963 Z-20.0000 F5000
G1 X223.0572 Y161.5779 Z-20.0000 F5000
G1 X225.3658 Y160.4953 Z-20.0000 F5000
G1 X227.5164 Y160.1837 Z-20.0000 F5000
G1 X289.7324 Y160.1837 Z-20.0000 F5000
G1 X289.7324 Y192.3390 Z-20.0000 F5000
G1 X284.3899 Y197.6816 Z-20.0000 F5000
G1 X266.7324 Y197.6816 Z-20.0000 F5000
G1 X266.7324 Y199.6835 Z-20.0000 F5000
G1 X271.7324 Y199.6835 Z-20.0000 F5000
G1 X271.7324 Y427.6811 Z-20.0000 F5000
G1 X266.7324 Y427.6811 Z-20.0000 F5000
G1 X266.7324 Y429.6831 Z-20.0000 F5000
G1 X284.3899 Y429.6831 Z-20.0000 F5000
G1 X289.7324 Y435.0257 Z-20.0000 F5000
G1 X289.7324 Y458.6811 Z-20.0000 F5000
G1 X242.7345 Y458.6811 Z-20.0000 F5000
G1 X242.7345 Y453.6810 Z-20.0000 F5000
G1 X240.7325 Y453.6810 Z-20.0000 F5000
G1 X240.7325 Y473.6830 Z-20.0000 F5000
G1 X242.7345 Y473.6830 Z-20.0000 F5000
G1 X242.7345 Y468.6830 Z-20.0000 F5000
G1 X289.7324 Y468.6830 Z-20.0000 F5000
G1 X289.7324 Y492.3384 Z-20.0000 F5000
G1 X284.3899 Y497.6810 Z-20.0000 F5000
G1 X266.7324 Y497.6810 Z-20.0000 F5000
G1 X266.7324 Y499.6829 Z-20.0000 F5000
G1 X271.7324 Y499.6829 Z-20.0000 F5000
G1 X271.7324 Y727.6805 Z-20.0000 F5000
G1 X266.7324 Y727.6805 Z-20.0000 F5000
G1 X266.7324 Y729.6825 Z-20.0000 F5000
G1 X284.3899 Y729.6825 Z-20.0000 F5000
G1 X289.7324 Y735.0251 Z-20.0000 F5000
G1 X289.7324 Y792.3378 Z-20.0000 F5000
G1 X284.3899 Y797.6804 Z-20.0000 F5000
G1 X266.7324 Y797.6804 Z-20.0000 F5000
G1 X266.7324 Y799.6824 Z-20.0000 F5000
G1 X271.7324 Y799.6824 Z-20.0000 F5000
G1 X271.7324 Y917.6802 Z-20.0000 F5000
G1 X248.7325 Y917.6802 Z-20.0000 F5000
G1 X248.7325 Y919.6822 Z-20.0000 F5000
G1 X253.7325 Y919.6822 Z-20.0000 F5000
G1 X253.7325 Y1027.6799 Z-20.0000 F5000
G1 X248.7325 Y1027.6799 Z-20.0000 F5000
G1 X248.7325 Y1029.6819 Z-20.0000 F5000
G1 X284.3899 Y1029.6819 Z-20.0000 F5000
G1 X289.7324 Y1035.0245 Z-20.0000 F5000
G1 X289.7324 Y1092.3372 Z-20.0000 F5000
G1 X284.3899 Y1097.6798 Z-20.0000 F5000
G1 X248.7325 Y1097.6798 Z-20.0000 F5000
G1 X248.7325 Y1099.6818 Z-20.0000 F5000
G1 X253.7325 Y1099.6818 Z-20.0000 F5000
G1 X253.7325 Y1327.6793 Z-20.0000 F5000
G1 X248.7325 Y1327.6793 Z-20.0000 F5000
G1 X248.7325 Y1329.6813 Z-20.0000 F5000
G1 X284.3899 Y1329.6813 Z-20.0000 F5000
G1 X289.7324 Y1335.0238 Z-20.0000 F5000
G1 X289.7324 Y1392.3367 Z-20.0000 F5000
G1 X284.3899 Y1397.6793 Z-20.0000 F5000
G1 X248.7325 Y1397.6793 Z-20.0000 F5000
G1 X248.7325 Y1399.6811 Z-20.0000 F5000
G1 X253.7325 Y1399.6811 Z-20.0000 F5000
G1 X253.7325 Y1515.6790 Z-20.0000 F5000
G1 X167.7346 Y1515.6790 Z-20.0000 F5000
G1 X167.7346 Y1399.6811 Z-20.0000 F5000
G1 X172.7346 Y1399.6811 Z-20.0000 F5000
G1 X172.7346 Y1397.6793 Z-20.0000 F5000
G1 X137.0772 Y1397.6793 Z-20.0000 F5000
G1 X131.7347 Y1392.3367 Z-20.0000 F5000
G1 X131.7347 Y1335.0238 Z-20.0000 F5000
G1 X137.0772 Y1329.6813 Z-20.0000 F5000
G1 X172.7346 Y1329.6813 Z-20.0000 F5000
G1 X172.7346 Y1327.6793 Z-20.0000 F5000
G1 X167.7346 Y1327.6793 Z-20.0000 F5000
G1 X167.7346 Y1099.6818 Z-20.0000 F5000
G1 X172.7346 Y1099.6818 Z-20.0000 F5000
G1 X172.7346 Y1097.6798 Z-20.0000 F5000
G1 X137.0772 Y1097.6798 Z-20.0000 F5000
G1 X131.7347 Y1092.3372 Z-20.0000 F5000
G1 X131.7347 Y1035.0245 Z-20.0000 F5000
G1 X137.0772 Y1029.6819 Z-20.0000 F5000
G1 X172.7346 Y1029.6819 Z-20.0000 F5000
G1 X172.7346 Y1027.6799 Z-20.0000 F5000
G1 X167.7347 Y1027.6799 Z-20.0000 F5000
G1 X167.7322 Y919.6822 Z-20.0000 F5000
G1 X172.7323 Y919.6822 Z-20.0000 F5000
G1 X172.7323 Y917.6802 Z-20.0000 F5000
G1 X149.7347 Y917.6802 Z-20.0000 F5000
G1 X149.7347 Y799.6824 Z-20.0000 F5000
G1 X154.7347 Y799.6824 Z-20.0000 F5000
G1 X154.7347 Y797.6804 Z-20.0000 F5000
G1 X137.0772 Y797.6804 Z-20.0000 F5000
G1 X131.7347 Y792.3378 Z-20.0000 F5000
G1 X131.7347 Y735.0251 Z-20.0000 F5000
G1 X137.0772 Y729.6825 Z-20.0000 F5000
G1 X154.7347 Y729.6825 Z-20.0000 F5000
G1 X154.7347 Y727.6805 Z-20.0000 F5000
G1 X149.7347 Y727.6805 Z-20.0000 F5000
G1 X149.7347 Y613.6817 Z-20.0000 F5000
G1 X149.7347 Y613.6817 Z10.0000 F9999
G1 X641.1678 Y312.8783 Z10.0000 F9999
G1 X641.1678 Y312.8783 Z1.0000 F2500
G1 X641.1678 Y351.8494 Z-9.5000 F2500
G1 X641.1678 Y312.8783 Z-20.0000 F2500
G1 X641.1678 Y426.8771 Z-20.0000 F5000
G1 X636.1678 Y426.8771 Z-20.0000 F5000
G1 X636.1678 Y428.8791 Z-20.0000 F5000
G1 X653.8253 Y428.8791 Z-20.0000 F5000
G1 X659.1678 Y434.2217 Z-20.0000 F5000
G1 X659.1678 Y457.8771 Z-20.0000 F5000
G1 X612.1699 Y457.8771 Z-20.0000 F5000
G1 X612.1699 Y452.8770 Z-20.0000 F5000
G1 X610.1679 Y452.8770 Z-20.0000 F5000
G1 X610.1679 Y472.8790 Z-20.0000 F5000
G1 X612.1699 Y472.8790 Z-20.0000 F5000
G1 X612.1699 Y467.8790 Z-20.0000 F5000
G1 X659.1678 Y467.8790 Z-20.0000 F5000
G1 X659.1678 Y491.5344 Z-20.0000 F5000
G1 X653.8253 Y496.8770 Z-20.0000 F5000
G1 X636.1678 Y496.8770 Z-20.0000 F5000
G1 X636.1678 Y498.8789 Z-20.0000 F5000
G1 X641.1678 Y498.8789 Z-20.0000 F5000
G1 X641.1678 Y726.8765 Z-20.0000 F5000
G1 X636.1678 Y726.8765 Z-20.0000 F5000
G1 X636.1678 Y728.8785 Z-20.0000 F5000
G1 X653.8253 Y728.8785 Z-20.0000 F5000
G1 X659.1678 Y734.2211 Z-20.0000 F5000
G1 X659.1678 Y791.5338 Z-20.0000 F5000
G1 X653.8253 Y796.8763 Z-20.0000 F5000
G1 X636.1678 Y796.8763 Z-20.0000 F5000
G1 X636.1678 Y798.8783 Z-20.0000 F5000
G1 X641.1678 Y798.8783 Z-20.0000 F5000
G1 X641.1678 Y916.8762 Z-20.0000 F5000
G1 X618.1679 Y916.8762 Z-20.0000 F5000
G1 X618.1679 Y918.8782 Z-20.0000 F5000
G1 X623.1679 Y918.8782 Z-20.0000 F5000
G1 X623.1679 Y1026.8759 Z-20.0000 F5000
G1 X618.1679 Y1026.8759 Z-20.0000 F5000
G1 X618.1679 Y1028.8779 Z-20.0000 F5000
G1 X653.8253 Y1028.8779 Z-20.0000 F5000
G1 X659.1678 Y1034.2204 Z-20.0000 F5000
G1 X659.1678 Y1091.5332 Z-20.0000 F5000
G1 X653.8253 Y1096.8757 Z-20.0000 F5000
G1 X618.1679 Y1096.8757 Z-20.0000 F5000
G1 X618.1679 Y1098.8777 Z-20.0000 F5000
G1 X623.1679 Y1098.8777 Z-20.0000 F5000
G1 X623.1679 Y1326.8752 Z-20.0000 F5000
G1 X618.1679 Y1326.8752 Z-20.0000 F5000
G1 X618.1679 Y1328.8772 Z-20.0000 F5000
G1 X653.8253 Y1328.8772 Z-20.0000 F5000
G1 X659.1678 Y1334.2198 Z-20.0000 F5000
G1 X659.1678 Y1391.5327 Z-20.0000 F5000
G1 X653.8253 Y1396.8752 Z-20.0000 F5000
G1 X618.1679 Y1396.8752 Z-20.0000 F5000
G1 X618.1679 Y1398.8771 Z-20.0000 F5000
G1 X623.1679 Y1398.8771 Z-20.0000 F5000
G1 X623.1679 Y1514.8750 Z-20.0000 F5000
G1 X537.1700 Y1514.8750 Z-20.0000 F5000
G1 X537.1700 Y1398.8771 Z-20.0000 F5000
G1 X542.1700 Y1398.8771 Z-20.0000 F5000
G1 X542.1700 Y1396.8752 Z-20.0000 F5000
G1 X506.5126 Y1396.8752 Z-20.0000 F5000
G1 X501.1701 Y1391.5327 Z-20.0000 F5000
G1 X501.1701 Y1334.2198 Z-20.0000 F5000
G1 X506.5126 Y1328.8772 Z-20.0000 F5000
G1 X542.1700 Y1328.8772 Z-20.0000 F5000
G1 X542.1700 Y1326.8752 Z-20.0000 F5000
G1 X537.1700 Y1326.8752 Z-20.0000 F5000
G1 X537.1700 Y1098.8777 Z-20.0000 F5000
G1 X542.1700 Y1098.8777 Z-20.0000 F5000
G1 X542.1700 Y1096.8757 Z-20.0000 F5000
G1 X506.5126 Y1096.8757 Z-20.0000 F5000
G1 X501.1701 Y1091.5332 Z-20.0000 F5000
G1 X501.1701 Y1034.2204 Z-20.0000 F5000
G1 X506.5126 Y1028.8779 Z-20.0000 F5000
G1 X542.1700 Y1028.8779 Z-20.0000 F5000
G1 X542.1700 Y1026.8759 Z-20.0000 F5000
G1 X537.1701 Y1026.8759 Z-20.0000 F5000
G1 X537.1676 Y918.8782 Z-20.0000 F5000
G1 X542.1677 Y918.8782 Z-20.0000 F5000
G1 X542.1677 Y916.8762 Z-20.0000 F5000
G1 X519.1701 Y916.8762 Z-20.0000 F5000
G1 X519.1701 Y798.8783 Z-20.0000 F5000
G1 X524.1701 Y798.8783 Z-20.0000 F5000
G1 X524.1701 Y796.8763 Z-20.0000 F5000
G1 X506.5126 Y796.8763 Z-20.0000 F5000
G1 X501.1701 Y791.5338 Z-20.0000 F5000
G1 X501.1701 Y734.2211 Z-20.0000 F5000
G1 X506.5126 Y728.8785 Z-20.0000 F5000
G1 X524.1701 Y728.8785 Z-20.0000 F5000
G1 X524.1701 Y726.8765 Z-20.0000 F5000
G1 X519.1701 Y726.8765 Z-20.0000 F5000
G1 X519.1701 Y498.8789 Z-20.0000 F5000
G1 X524.1701 Y498.8789 Z-20.0000 F5000
G1 X524.1701 Y496.8770 Z-20.0000 F5000
G1 X506.5126 Y496.8770 Z-20.0000 F5000
G1 X501.1701 Y491.5344 Z-20.0000 F5000
G1 X501.1701 Y467.8790 Z-20.0000 F5000
G1 X548.1680 Y467.8790 Z-20.0000 F5000
G1 X548.1680 Y472.8790 Z-20.0000 F5000
G1 X550.1700 Y472.8790 Z-20.0000 F5000
G1 X550.1700 Y452.8770 Z-20.0000 F5000
G1 X548.1680 Y452.8770 Z-20.0000 F5000
G1 X548.1680 Y457.8771 Z-20.0000 F5000
G1 X501.1701 Y457.8771 Z-20.0000 F5000
G1 X501.1701 Y434.2217 Z-20.0000 F5000
G1 X506.5126 Y428.8791 Z-20.0000 F5000
G1 X524.1701 Y428.8791 Z-20.0000 F5000
G1 X524.1701 Y426.8771 Z-20.0000 F5000
G1 X519.1701 Y426.8771 Z-20.0000 F5000
G1 X519.1701 Y198.8795 Z-20.0000 F5000
G1 X524.1701 Y198.8795 Z-20.0000 F5000
G1 X524.1701 Y196.8775 Z-20.0000 F5000
G1 X506.5126 Y196.8775 Z-20.0000 F5000
G1 X501.1701 Y191.5350 Z-20.0000 F5000
G1 X501.1701 Y159.3797 Z-20.0000 F5000
G1 X563.3861 Y159.3797 Z-20.0000 F5000
G1 X565.5367 Y159.6913 Z-20.0000 F5000
G1 X567.8453 Y160.7739 Z-20.0000 F5000
G1 X569.7285 Y162.4923 Z-20.0000 F5000
G1 X570.9886 Y164.6099 Z-20.0000 F5000
G1 X571.5952 Y166.9988 Z-20.0000 F5000
G1 X571.4784 Y169.5455 Z-20.0000 F5000
G1 X570.6118 Y171.9430 Z-20.0000 F5000
G1 X569.3116 Y173.6842 Z-20.0000 F5000
G1 X566.3826 Y176.6134 Z-20.0000 F5000
G1 X565.9656 Y177.1717 Z-20.0000 F5000
G1 X565.8294 Y177.5149 Z-20.0000 F5000
G1 X565.7837 Y177.8907 Z-20.0000 F5000
G1 X565.8354 Y178.2626 Z-20.0000 F5000
G1 X565.9752 Y178.6002 Z-20.0000 F5000
G1 X566.2016 Y178.8997 Z-20.0000 F5000
G1 X566.4996 Y179.1332 Z-20.0000 F5000
G1 X566.8387 Y179.2795 Z-20.0000 F5000
G1 X567.5282 Y179.3794 Z-20.0000 F5000
G1 X592.8097 Y179.3794 Z-20.0000 F5000
G1 X593.4992 Y179.2795 Z-20.0000 F5000
G1 X593.8383 Y179.1332 Z-20.0000 F5000
G1 X594.1363 Y178.8997 Z-20.0000 F5000
G1 X594.3627 Y178.6002 Z-20.0000 F5000
G1 X594.5025 Y178.2626 Z-20.0000 F5000
G1 X594.5542 Y177.8907 Z-20.0000 F5000
G1 X594.5085 Y177.5149 Z-20.0000 F5000
G1 X594.3723 Y177.1717 Z-20.0000 F5000
G1 X593.9553 Y176.6134 Z-20.0000 F5000
G1 X591.0263 Y173.6842 Z-20.0000 F5000
G1 X589.7261 Y171.9430 Z-20.0000 F5000
G1 X588.8595 Y169.5455 Z-20.0000 F5000
G1 X588.7427 Y166.9988 Z-20.0000 F5000
G1 X589.3493 Y164.6099 Z-20.0000 F5000
G1 X590.6094 Y162.4923 Z-20.0000 F5000
G1 X592.4926 Y160.7739 Z-20.0000 F5000
G1 X594.8012 Y159.6913 Z-20.0000 F5000
G1 X596.9518 Y159.3797 Z-20.0000 F5000
G1 X659.1678 Y159.3797 Z-20.0000 F5000
G1 X659.1678 Y191.5350 Z-20.0000 F5000
G1 X653.8253 Y196.8775 Z-20.0000 F5000
G1 X636.1678 Y196.8775 Z-20.0000 F5000
G1 X636.1678 Y198.8795 Z-20.0000 F5000
G1 X641.1678 Y198.8795 Z-20.0000 F5000
G1 X641.1678 Y312.8783 Z-20.0000 F5000
G1 X641.1678 Y312.8783 Z10.0000 F9999
G1 X1900.0000 Y2800.0000 Z80.0000 F9999
G1 Z80.0000 F9999
G1 X1900.0000 Y2800.0000 F9999
M5
M30
