(plotsheet 2n3_nested_153 sheets_final v1_0_sheet 151b_S151.0_18 screws_CC8 - stepover 1mm)
(Material Size) (X=1220.000, Y=2440.000, Z=20.000)
(LinuxCNC_NoArcs_MM_TC_medium_50um_G1_verbose.con)
G90 G80 G21 G49
G64 P0.050
M6 T1
(Tool Number:1) (7.998 mm dia. slot drill)
G43 H1 G0Z80.0000
M3 S9000
G04 P10
G1 X84.5457 Y230.7136 Z10.0000 F9999
G1 X84.5457 Y230.7136 Z2.0000 F9999
G1 X84.5457 Y230.7136 Z-1.0000 F2500
G1 X84.5457 Y230.7136 Z10.0000 F9999
G1 X428.4541 Y230.7136 Z10.0000 F9999
G1 X428.4541 Y230.7136 Z2.0000 F9999
G1 X428.4541 Y230.7136 Z-1.0000 F2500
G1 X428.4541 Y230.7136 Z10.0000 F9999
G1 X1119.4838 Y536.8109 Z10.0000 F9999
G1 X1119.4838 Y536.8109 Z2.0000 F9999
G1 X1119.4838 Y536.8109 Z-1.0000 F2500
G1 X1119.4838 Y536.8109 Z10.0000 F9999
G1 X945.8757 Y536.8109 Z10.0000 F9999
G1 X945.8757 Y536.8109 Z2.0000 F9999
G1 X945.8757 Y536.8109 Z-1.0000 F2500
G1 X945.8757 Y536.8109 Z10.0000 F9999
G1 X774.3519 Y536.8109 Z10.0000 F9999
G1 X774.3519 Y536.8109 Z2.0000 F9999
G1 X774.3519 Y536.8109 Z-1.0000 F2500
G1 X774.3519 Y536.8109 Z10.0000 F9999
G1 X603.7042 Y536.8109 Z10.0000 F9999
G1 X603.7042 Y536.8109 Z2.0000 F9999
G1 X603.7042 Y536.8109 Z-1.0000 F2500
G1 X603.7042 Y536.8109 Z10.0000 F9999
G1 X428.4541 Y869.3735 Z10.0000 F9999
G1 X428.4541 Y869.3735 Z2.0000 F9999
G1 X428.4541 Y869.3735 Z-1.0000 F2500
G1 X428.4541 Y869.3735 Z10.0000 F9999
G1 X257.2220 Y869.3735 Z10.0000 F9999
G1 X257.2220 Y869.3735 Z2.0000 F9999
G1 X257.2220 Y869.3735 Z-1.0000 F2500
G1 X257.2220 Y869.3735 Z10.0000 F9999
G1 X84.5457 Y869.3735 Z10.0000 F9999
G1 X84.5457 Y869.3735 Z2.0000 F9999
G1 X84.5457 Y869.3735 Z-1.0000 F2500
G1 X84.5457 Y869.3735 Z10.0000 F9999
G1 X87.3566 Y1530.4020 Z10.0000 F9999
G1 X87.3566 Y1530.4020 Z2.0000 F9999
G1 X87.3566 Y1530.4020 Z-1.0000 F2500
G1 X87.3566 Y1530.4020 Z10.0000 F9999
G1 X431.2650 Y1530.4020 Z10.0000 F9999
G1 X431.2650 Y1530.4020 Z2.0000 F9999
G1 X431.2650 Y1530.4020 Z-1.0000 F2500
G1 X431.2650 Y1530.4020 Z10.0000 F9999
G1 X769.8492 Y1509.2294 Z10.0000 F9999
G1 X769.8492 Y1509.2294 Z2.0000 F9999
G1 X769.8492 Y1509.2294 Z-1.0000 F2500
G1 X769.8492 Y1509.2294 Z10.0000 F9999
G1 X1114.9810 Y1509.2294 Z10.0000 F9999
G1 X1114.9810 Y1509.2294 Z2.0000 F9999
G1 X1114.9810 Y1509.2294 Z-1.0000 F2500
G1 X1114.9810 Y1509.2294 Z10.0000 F9999
G1 X1118.5613 Y1872.7847 Z10.0000 F9999
G1 X1118.5613 Y1872.7847 Z2.0000 F9999
G1 X1118.5613 Y1872.7847 Z-1.0000 F2500
G1 X1118.5613 Y1872.7847 Z10.0000 F9999
G1 X773.5507 Y1872.7847 Z10.0000 F9999
G1 X773.5507 Y1872.7847 Z2.0000 F9999
G1 X773.5507 Y1872.7847 Z-1.0000 F2500
G1 X773.5507 Y1872.7847 Z10.0000 F9999
G1 X244.4515 Y2064.6091 Z10.0000 F9999
G1 X244.4515 Y2064.6091 Z2.0000 F9999
G1 X244.4515 Y2064.6091 Z-1.0000 F2500
G1 X244.4515 Y2064.6091 Z10.0000 F9999
G1 X443.1898 Y2277.8467 Z10.0000 F9999
G1 X443.1898 Y2277.8467 Z2.0000 F9999
G1 X443.1898 Y2277.8467 Z-1.0000 F2500
G1 X443.1898 Y2277.8467 Z10.0000 F9999
G1 X244.4515 Y2235.7546 Z10.0000 F9999
G1 X244.4515 Y2235.7546 Z2.0000 F9999
G1 X244.4515 Y2235.7546 Z-1.0000 F2500
G1 X244.4515 Y2235.7546 Z10.0000 F9999
G1 X1900.0000 Y2800.0000 Z80.0000 F9999
G1 Z80.0000 F9999
G1 X1900.0000 Y2800.0000 F9999
M5
M30
