(plotsheet 2n3_nested_153 sheets_final v1_0_sheet 63 to 64_S63.1_text_CC8 - stepover 1mm)
(Material Size) (X=1220.000, Y=2440.000, Z=21.000)
(LinuxCNC_NoArcs_MM_TC_medium_50um_G1_verbose.con)
G90 G80 G21 G49
G64 P0.050
M6 T1
(Tool Number:1) (7.998 mm dia. slot drill)
G43 H1 G0Z30.0000
M3 S19000
G04 P10
G1 X511.7429 Y430.3462 Z10.0000 F9999
G1 X511.7429 Y430.3462 Z-1.5000 F2000
G1 X499.1191 Y430.3462 Z-1.5000 F4000
G1 X499.1191 Y471.4471 Z-1.5000 F4000
G1 X499.1191 Y430.3462 Z-1.5000 F4000
G1 X499.1191 Y430.3462 Z10.0000 F9999
G1 X544.7154 Y471.4471 Z10.0000 F9999
G1 X544.7154 Y471.4471 Z-1.5000 F2000
G1 X522.5136 Y438.0526 Z-1.5000 F4000
G1 X551.3209 Y438.0526 Z-1.5000 F4000
G1 X522.5136 Y438.0526 Z-1.5000 F4000
G1 X544.7154 Y471.4471 Z-1.5000 F4000
G1 X544.7154 Y430.3462 Z-1.5000 F4000
G1 X544.7154 Y430.3462 Z10.0000 F9999
G1 X570.6787 Y471.4471 Z10.0000 F9999
G1 X570.6787 Y471.4471 Z-1.5000 F2000
G1 X564.8622 Y471.4471 Z-1.5000 F4000
G1 X570.6787 Y471.4471 Z-1.5000 F4000
G1 X570.6787 Y430.3462 Z-1.5000 F4000
G1 X570.6787 Y430.3462 Z10.0000 F9999
G1 X511.7429 Y1334.3950 Z10.0000 F9999
G1 X511.7429 Y1334.3950 Z-1.5000 F2000
G1 X499.1191 Y1334.3950 Z-1.5000 F4000
G1 X499.1191 Y1375.4960 Z-1.5000 F4000
G1 X499.1191 Y1334.3950 Z-1.5000 F4000
G1 X499.1191 Y1334.3950 Z10.0000 F9999
G1 X544.7154 Y1375.4960 Z10.0000 F9999
G1 X544.7154 Y1375.4960 Z-1.5000 F2000
G1 X522.5136 Y1342.1015 Z-1.5000 F4000
G1 X551.3209 Y1342.1015 Z-1.5000 F4000
G1 X522.5136 Y1342.1015 Z-1.5000 F4000
G1 X544.7154 Y1375.4960 Z-1.5000 F4000
G1 X544.7154 Y1334.3950 Z-1.5000 F4000
G1 X544.7154 Y1334.3950 Z10.0000 F9999
G1 X570.6787 Y1375.4960 Z10.0000 F9999
G1 X570.6787 Y1375.4960 Z-1.5000 F2000
G1 X564.8622 Y1375.4960 Z-1.5000 F4000
G1 X570.6787 Y1375.4960 Z-1.5000 F4000
G1 X570.6787 Y1334.3950 Z-1.5000 F4000
G1 X570.6787 Y1334.3950 Z10.0000 F9999
G1 X608.7062 Y2185.7930 Z10.0000 F9999
G1 X608.7062 Y2185.7930 Z-1.5000 F2000
G1 X630.9080 Y2219.1875 Z-1.5000 F4000
G1 X602.1007 Y2219.1875 Z-1.5000 F4000
G1 X630.9080 Y2219.1875 Z-1.5000 F4000
G1 X608.7062 Y2185.7930 Z-1.5000 F4000
G1 X608.7062 Y2226.8939 Z-1.5000 F4000
G1 X608.7062 Y2226.8939 Z10.0000 F9999
G1 X577.0548 Y2226.8939 Z10.0000 F9999
G1 X577.0548 Y2226.8939 Z-1.5000 F2000
G1 X581.5135 Y2226.0499 Z-1.5000 F4000
G1 X585.1649 Y2223.7196 Z-1.5000 F4000
G1 X587.6603 Y2220.2517 Z-1.5000 F4000
G1 X588.5594 Y2216.0683 Z-1.5000 F4000
G1 X587.6603 Y2211.9031 Z-1.5000 F4000
G1 X585.1649 Y2208.4719 Z-1.5000 F4000
G1 X581.5135 Y2206.1233 Z-1.5000 F4000
G1 X577.0548 Y2205.2426 Z-1.5000 F4000
G1 X572.5777 Y2206.1233 Z-1.5000 F4000
G1 X568.8897 Y2208.4719 Z-1.5000 F4000
G1 X566.4126 Y2211.9031 Z-1.5000 F4000
G1 X565.4952 Y2216.0683 Z-1.5000 F4000
G1 X566.4126 Y2220.2517 Z-1.5000 F4000
G1 X568.8897 Y2223.7196 Z-1.5000 F4000
G1 X572.5777 Y2226.0499 Z-1.5000 F4000
G1 X577.0548 Y2226.8939 Z-1.5000 F4000
G1 X581.5135 Y2226.0499 Z-1.5000 F4000
G1 X585.1649 Y2223.7196 Z-1.5000 F4000
G1 X587.6603 Y2220.2517 Z-1.5000 F4000
G1 X588.5594 Y2216.0683 Z-1.5000 F4000
G1 X587.6603 Y2211.9031 Z-1.5000 F4000
G1 X585.1649 Y2208.4719 Z-1.5000 F4000
G1 X581.5135 Y2206.1233 Z-1.5000 F4000
G1 X577.0548 Y2205.2426 Z-1.5000 F4000
G1 X572.5777 Y2206.1233 Z-1.5000 F4000
G1 X568.8897 Y2208.4719 Z-1.5000 F4000
G1 X566.4126 Y2211.9031 Z-1.5000 F4000
G1 X565.4952 Y2216.0683 Z-1.5000 F4000
G1 X566.4126 Y2220.2517 Z-1.5000 F4000
G1 X568.8897 Y2223.7196 Z-1.5000 F4000
G1 X572.5777 Y2226.0499 Z-1.5000 F4000
G1 X577.0548 Y2226.8939 Z-1.5000 F4000
G1 X577.0548 Y2226.8939 Z10.0000 F9999
G1 X577.0548 Y2205.2242 Z10.0000 F9999
G1 X577.0548 Y2205.2242 Z-1.5000 F2000
G1 X581.0181 Y2204.4719 Z-1.5000 F4000
G1 X584.2475 Y2202.3802 Z-1.5000 F4000
G1 X586.4493 Y2199.3160 Z-1.5000 F4000
G1 X587.2566 Y2195.5361 Z-1.5000 F4000
G1 X586.4493 Y2191.7380 Z-1.5000 F4000
G1 X584.2475 Y2188.6371 Z-1.5000 F4000
G1 X581.0181 Y2186.5453 Z-1.5000 F4000
G1 X577.0548 Y2185.7930 Z-1.5000 F4000
G1 X573.1098 Y2186.5453 Z-1.5000 F4000
G1 X569.8805 Y2188.6371 Z-1.5000 F4000
G1 X567.6787 Y2191.7380 Z-1.5000 F4000
G1 X566.8530 Y2195.5361 Z-1.5000 F4000
G1 X567.6787 Y2199.3160 Z-1.5000 F4000
G1 X569.8805 Y2202.3802 Z-1.5000 F4000
G1 X573.1098 Y2204.4719 Z-1.5000 F4000
G1 X577.0548 Y2205.2242 Z-1.5000 F4000
G1 X581.0181 Y2204.4719 Z-1.5000 F4000
G1 X584.2475 Y2202.3802 Z-1.5000 F4000
G1 X586.4493 Y2199.3160 Z-1.5000 F4000
G1 X587.2566 Y2195.5361 Z-1.5000 F4000
G1 X586.4493 Y2191.7380 Z-1.5000 F4000
G1 X584.2475 Y2188.6371 Z-1.5000 F4000
G1 X581.0181 Y2186.5453 Z-1.5000 F4000
G1 X577.0548 Y2185.7930 Z-1.5000 F4000
G1 X573.1098 Y2186.5453 Z-1.5000 F4000
G1 X569.8805 Y2188.6371 Z-1.5000 F4000
G1 X567.6787 Y2191.7380 Z-1.5000 F4000
G1 X566.8530 Y2195.5361 Z-1.5000 F4000
G1 X567.6787 Y2199.3160 Z-1.5000 F4000
G1 X569.8805 Y2202.3802 Z-1.5000 F4000
G1 X573.1098 Y2204.4719 Z-1.5000 F4000
G1 X577.0548 Y2205.2242 Z-1.5000 F4000
G1 X577.0548 Y2205.2242 Z10.0000 F9999
G1 X641.6787 Y2226.8939 Z10.0000 F9999
G1 X641.6787 Y2226.8939 Z-1.5000 F2000
G1 X654.3025 Y2226.8939 Z-1.5000 F4000
G1 X654.3025 Y2185.7930 Z-1.5000 F4000
G1 X654.3025 Y2226.8939 Z-1.5000 F4000
G1 X654.3025 Y2226.8939 Z10.0000 F9999
(Tool Number:1) (7.998 mm dia. slot drill)
M3 S19000
G1 X377.3713 Y2041.6230 Z10.0000 F9999
G1 X377.3713 Y2041.6230 Z1.0000 F2000
G1 X376.0358 Y2043.0158 Z0.4554 F2000
G1 X374.7392 Y2044.4878 Z-0.0983 F2000
G1 X373.4875 Y2046.0384 Z-0.6608 F2000
G1 X372.2870 Y2047.6661 Z-1.2317 F2000
G1 X371.1437 Y2049.3691 Z-1.8107 F2000
G1 X370.0640 Y2051.1448 Z-2.3973 F2000
G1 X369.0538 Y2052.9901 Z-2.9911 F2000
G1 X368.1191 Y2054.9012 Z-3.5915 F2000
G1 X367.2656 Y2056.8737 Z-4.1982 F2000
G1 X366.4986 Y2058.9025 Z-4.8104 F2000
G1 X365.8231 Y2060.9820 Z-5.4276 F2000
G1 X365.2435 Y2063.1062 Z-6.0490 F2000
G1 X364.7636 Y2065.2683 Z-6.6742 F2000
G1 X364.3869 Y2067.4614 Z-7.3022 F2000
G1 X364.1159 Y2069.6779 Z-7.9325 F2000
G1 X363.9525 Y2071.9103 Z-8.5643 F2000
G1 X363.8979 Y2074.1506 Z-9.1969 F2000
G1 X363.9525 Y2076.3910 Z-9.8294 F2000
G1 X363.9966 Y2076.9936 Z-10.0000 F2000
G1 X363.9525 Y2076.3910 Z-10.1706 F2000
G1 X363.8979 Y2074.1506 Z-10.8031 F2000
G1 X363.9525 Y2071.9103 Z-11.4357 F2000
G1 X364.1159 Y2069.6779 Z-12.0675 F2000
G1 X364.3869 Y2067.4614 Z-12.6978 F2000
G1 X364.7636 Y2065.2683 Z-13.3258 F2000
G1 X365.2435 Y2063.1062 Z-13.9510 F2000
G1 X365.8231 Y2060.9820 Z-14.5724 F2000
G1 X366.4986 Y2058.9025 Z-15.1896 F2000
G1 X367.2656 Y2056.8737 Z-15.8018 F2000
G1 X368.1191 Y2054.9012 Z-16.4085 F2000
G1 X369.0538 Y2052.9901 Z-17.0089 F2000
G1 X370.0640 Y2051.1448 Z-17.6027 F2000
G1 X371.1437 Y2049.3691 Z-18.1893 F2000
G1 X372.2870 Y2047.6661 Z-18.7683 F2000
G1 X373.4875 Y2046.0384 Z-19.3392 F2000
G1 X374.7392 Y2044.4878 Z-19.9017 F2000
G1 X376.0358 Y2043.0158 Z-20.4554 F2000
G1 X377.3713 Y2041.6230 Z-21.0000 F2000
G1 X376.0358 Y2043.0158 Z-21.0000 F2750
G1 X374.7392 Y2044.4878 Z-21.0000 F2750
G1 X373.4875 Y2046.0384 Z-21.0000 F2750
G1 X372.2870 Y2047.6661 Z-21.0000 F2750
G1 X371.1437 Y2049.3691 Z-21.0000 F2750
G1 X370.0640 Y2051.1448 Z-21.0000 F2750
G1 X369.0538 Y2052.9901 Z-21.0000 F2750
G1 X368.1191 Y2054.9012 Z-21.0000 F2750
G1 X367.2656 Y2056.8737 Z-21.0000 F2750
G1 X366.4986 Y2058.9025 Z-21.0000 F2750
G1 X365.8231 Y2060.9820 Z-21.0000 F2750
G1 X365.2435 Y2063.1062 Z-21.0000 F2750
G1 X364.7636 Y2065.2683 Z-21.0000 F2750
G1 X364.3869 Y2067.4614 Z-21.0000 F2750
G1 X364.1159 Y2069.6779 Z-21.0000 F2750
G1 X363.9525 Y2071.9103 Z-21.0000 F2750
G1 X363.8979 Y2074.1506 Z-21.0000 F2750
G1 X363.9525 Y2076.3910 Z-21.0000 F2750
G1 X364.1159 Y2078.6234 Z-21.0000 F2750
G1 X364.3869 Y2080.8399 Z-21.0000 F2750
G1 X364.7636 Y2083.0330 Z-21.0000 F2750
G1 X365.2435 Y2085.1951 Z-21.0000 F2750
G1 X365.8231 Y2087.3192 Z-21.0000 F2750
G1 X366.4986 Y2089.3988 Z-21.0000 F2750
G1 X367.2656 Y2091.4276 Z-21.0000 F2750
G1 X368.1191 Y2093.4001 Z-21.0000 F2750
G1 X369.0538 Y2095.3111 Z-21.0000 F2750
G1 X370.0640 Y2097.1564 Z-21.0000 F2750
G1 X371.1437 Y2098.9322 Z-21.0000 F2750
G1 X372.2870 Y2100.6352 Z-21.0000 F2750
G1 X373.4875 Y2102.2629 Z-21.0000 F2750
G1 X374.7392 Y2103.8135 Z-21.0000 F2750
G1 X376.0358 Y2105.2855 Z-21.0000 F2750
G1 X377.3713 Y2106.6783 Z-21.0000 F2750
G1 X378.7641 Y2108.0138 Z-21.0000 F2750
G1 X380.2361 Y2109.3104 Z-21.0000 F2750
G1 X381.7866 Y2110.5621 Z-21.0000 F2750
G1 X383.4144 Y2111.7626 Z-21.0000 F2750
G1 X385.1174 Y2112.9059 Z-21.0000 F2750
G1 X386.8931 Y2113.9856 Z-21.0000 F2750
G1 X388.7384 Y2114.9958 Z-21.0000 F2750
G1 X390.6495 Y2115.9304 Z-21.0000 F2750
G1 X392.6220 Y2116.7839 Z-21.0000 F2750
G1 X394.6508 Y2117.5509 Z-21.0000 F2750
G1 X396.7303 Y2118.2265 Z-21.0000 F2750
G1 X398.8545 Y2118.8061 Z-21.0000 F2750
G1 X401.0166 Y2119.2859 Z-21.0000 F2750
G1 X403.2096 Y2119.6627 Z-21.0000 F2750
G1 X405.4262 Y2119.9337 Z-21.0000 F2750
G1 X407.6586 Y2120.0971 Z-21.0000 F2750
G1 X409.8989 Y2120.1516 Z-21.0000 F2750
G1 X412.1393 Y2120.0971 Z-21.0000 F2750
G1 X414.3717 Y2119.9337 Z-21.0000 F2750
G1 X416.5882 Y2119.6627 Z-21.0000 F2750
G1 X418.7813 Y2119.2859 Z-21.0000 F2750
G1 X420.9434 Y2118.8061 Z-21.0000 F2750
G1 X423.0675 Y2118.2265 Z-21.0000 F2750
G1 X425.1471 Y2117.5509 Z-21.0000 F2750
G1 X427.1759 Y2116.7839 Z-21.0000 F2750
G1 X429.1483 Y2115.9304 Z-21.0000 F2750
G1 X431.0594 Y2114.9958 Z-21.0000 F2750
G1 X432.9047 Y2113.9856 Z-21.0000 F2750
G1 X434.6805 Y2112.9059 Z-21.0000 F2750
G1 X436.3835 Y2111.7626 Z-21.0000 F2750
G1 X438.0112 Y2110.5621 Z-21.0000 F2750
G1 X439.5618 Y2109.3104 Z-21.0000 F2750
G1 X441.0338 Y2108.0138 Z-21.0000 F2750
G1 X442.4266 Y2106.6783 Z-21.0000 F2750
G1 X443.7621 Y2105.2855 Z-21.0000 F2750
G1 X445.0587 Y2103.8135 Z-21.0000 F2750
G1 X446.3104 Y2102.2629 Z-21.0000 F2750
G1 X447.5109 Y2100.6352 Z-21.0000 F2750
G1 X448.6542 Y2098.9322 Z-21.0000 F2750
G1 X449.7339 Y2097.1564 Z-21.0000 F2750
G1 X450.7441 Y2095.3111 Z-21.0000 F2750
G1 X451.6787 Y2093.4001 Z-21.0000 F2750
G1 X452.5322 Y2091.4276 Z-21.0000 F2750
G1 X453.2992 Y2089.3988 Z-21.0000 F2750
G1 X453.9748 Y2087.3192 Z-21.0000 F2750
G1 X454.5544 Y2085.1951 Z-21.0000 F2750
G1 X455.0342 Y2083.0330 Z-21.0000 F2750
G1 X455.4110 Y2080.8399 Z-21.0000 F2750
G1 X455.6820 Y2078.6234 Z-21.0000 F2750
G1 X455.8453 Y2076.3910 Z-21.0000 F2750
G1 X455.8999 Y2074.1506 Z-21.0000 F2750
G1 X455.8453 Y2071.9103 Z-21.0000 F2750
G1 X455.6820 Y2069.6779 Z-21.0000 F2750
G1 X455.4110 Y2067.4614 Z-21.0000 F2750
G1 X455.0342 Y2065.2683 Z-21.0000 F2750
G1 X454.5544 Y2063.1062 Z-21.0000 F2750
G1 X453.9748 Y2060.9820 Z-21.0000 F2750
G1 X453.2992 Y2058.9025 Z-21.0000 F2750
G1 X452.5322 Y2056.8737 Z-21.0000 F2750
G1 X451.6787 Y2054.9012 Z-21.0000 F2750
G1 X450.7441 Y2052.9901 Z-21.0000 F2750
G1 X449.7339 Y2051.1448 Z-21.0000 F2750
G1 X448.6542 Y2049.3691 Z-21.0000 F2750
G1 X447.5109 Y2047.6661 Z-21.0000 F2750
G1 X446.3104 Y2046.0384 Z-21.0000 F2750
G1 X445.0587 Y2044.4878 Z-21.0000 F2750
G1 X443.7621 Y2043.0158 Z-21.0000 F2750
G1 X442.4266 Y2041.6230 Z-21.0000 F2750
G1 X441.0338 Y2040.2875 Z-21.0000 F2750
G1 X439.5618 Y2038.9909 Z-21.0000 F2750
G1 X438.0112 Y2037.7392 Z-21.0000 F2750
G1 X436.3835 Y2036.5387 Z-21.0000 F2750
G1 X434.6805 Y2035.3954 Z-21.0000 F2750
G1 X432.9047 Y2034.3157 Z-21.0000 F2750
G1 X431.0594 Y2033.3055 Z-21.0000 F2750
G1 X429.1483 Y2032.3708 Z-21.0000 F2750
G1 X427.1759 Y2031.5173 Z-21.0000 F2750
G1 X425.1471 Y2030.7503 Z-21.0000 F2750
G1 X423.0675 Y2030.0748 Z-21.0000 F2750
G1 X420.9434 Y2029.4952 Z-21.0000 F2750
G1 X418.7813 Y2029.0153 Z-21.0000 F2750
G1 X416.5882 Y2028.6386 Z-21.0000 F2750
G1 X414.3717 Y2028.3676 Z-21.0000 F2750
G1 X412.1393 Y2028.2042 Z-21.0000 F2750
G1 X409.8989 Y2028.1496 Z-21.0000 F2750
G1 X407.6586 Y2028.2042 Z-21.0000 F2750
G1 X405.4262 Y2028.3676 Z-21.0000 F2750
G1 X403.2096 Y2028.6386 Z-21.0000 F2750
G1 X401.0166 Y2029.0153 Z-21.0000 F2750
G1 X398.8545 Y2029.4952 Z-21.0000 F2750
G1 X396.7303 Y2030.0748 Z-21.0000 F2750
G1 X394.6508 Y2030.7503 Z-21.0000 F2750
G1 X392.6220 Y2031.5173 Z-21.0000 F2750
G1 X390.6495 Y2032.3708 Z-21.0000 F2750
G1 X388.7384 Y2033.3055 Z-21.0000 F2750
G1 X386.8931 Y2034.3157 Z-21.0000 F2750
G1 X385.1174 Y2035.3954 Z-21.0000 F2750
G1 X383.4144 Y2036.5387 Z-21.0000 F2750
G1 X381.7866 Y2037.7392 Z-21.0000 F2750
G1 X380.2361 Y2038.9909 Z-21.0000 F2750
G1 X378.7641 Y2040.2875 Z-21.0000 F2750
G1 X377.3713 Y2041.6230 Z-21.0000 F2750
G1 X377.3713 Y2041.6230 Z10.0000 F9999
G1 X577.3713 Y2041.6230 Z10.0000 F9999
G1 X577.3713 Y2041.6230 Z1.0000 F2000
G1 X576.0358 Y2043.0158 Z0.4554 F2000
G1 X574.7392 Y2044.4878 Z-0.0983 F2000
G1 X573.4875 Y2046.0384 Z-0.6608 F2000
G1 X572.2870 Y2047.6661 Z-1.2317 F2000
G1 X571.1437 Y2049.3691 Z-1.8107 F2000
G1 X570.0640 Y2051.1448 Z-2.3973 F2000
G1 X569.0538 Y2052.9901 Z-2.9911 F2000
G1 X568.1191 Y2054.9012 Z-3.5915 F2000
G1 X567.2656 Y2056.8737 Z-4.1982 F2000
G1 X566.4986 Y2058.9025 Z-4.8104 F2000
G1 X565.8231 Y2060.9820 Z-5.4276 F2000
G1 X565.2435 Y2063.1062 Z-6.0490 F2000
G1 X564.7636 Y2065.2683 Z-6.6742 F2000
G1 X564.3869 Y2067.4614 Z-7.3022 F2000
G1 X564.1159 Y2069.6779 Z-7.9325 F2000
G1 X563.9525 Y2071.9103 Z-8.5643 F2000
G1 X563.8979 Y2074.1506 Z-9.1969 F2000
G1 X563.9525 Y2076.3910 Z-9.8294 F2000
G1 X563.9966 Y2076.9936 Z-10.0000 F2000
G1 X563.9525 Y2076.3910 Z-10.1706 F2000
G1 X563.8979 Y2074.1506 Z-10.8031 F2000
G1 X563.9525 Y2071.9103 Z-11.4357 F2000
G1 X564.1159 Y2069.6779 Z-12.0675 F2000
G1 X564.3869 Y2067.4614 Z-12.6978 F2000
G1 X564.7636 Y2065.2683 Z-13.3258 F2000
G1 X565.2435 Y2063.1062 Z-13.9510 F2000
G1 X565.8231 Y2060.9820 Z-14.5724 F2000
G1 X566.4986 Y2058.9025 Z-15.1896 F2000
G1 X567.2656 Y2056.8737 Z-15.8018 F2000
G1 X568.1191 Y2054.9012 Z-16.4085 F2000
G1 X569.0538 Y2052.9901 Z-17.0089 F2000
G1 X570.0640 Y2051.1448 Z-17.6027 F2000
G1 X571.1437 Y2049.3691 Z-18.1893 F2000
G1 X572.2870 Y2047.6661 Z-18.7683 F2000
G1 X573.4875 Y2046.0384 Z-19.3392 F2000
G1 X574.7392 Y2044.4878 Z-19.9017 F2000
G1 X576.0358 Y2043.0158 Z-20.4554 F2000
G1 X577.3713 Y2041.6230 Z-21.0000 F2000
G1 X576.0358 Y2043.0158 Z-21.0000 F2750
G1 X574.7392 Y2044.4878 Z-21.0000 F2750
G1 X573.4875 Y2046.0384 Z-21.0000 F2750
G1 X572.2870 Y2047.6661 Z-21.0000 F2750
G1 X571.1437 Y2049.3691 Z-21.0000 F2750
G1 X570.0640 Y2051.1448 Z-21.0000 F2750
G1 X569.0538 Y2052.9901 Z-21.0000 F2750
G1 X568.1191 Y2054.9012 Z-21.0000 F2750
G1 X567.2656 Y2056.8737 Z-21.0000 F2750
G1 X566.4986 Y2058.9025 Z-21.0000 F2750
G1 X565.8231 Y2060.9820 Z-21.0000 F2750
G1 X565.2435 Y2063.1062 Z-21.0000 F2750
G1 X564.7636 Y2065.2683 Z-21.0000 F2750
G1 X564.3869 Y2067.4614 Z-21.0000 F2750
G1 X564.1159 Y2069.6779 Z-21.0000 F2750
G1 X563.9525 Y2071.9103 Z-21.0000 F2750
G1 X563.8979 Y2074.1506 Z-21.0000 F2750
G1 X563.9525 Y2076.3910 Z-21.0000 F2750
G1 X564.1159 Y2078.6234 Z-21.0000 F2750
G1 X564.3869 Y2080.8399 Z-21.0000 F2750
G1 X564.7636 Y2083.0330 Z-21.0000 F2750
G1 X565.2435 Y2085.1951 Z-21.0000 F2750
G1 X565.8231 Y2087.3192 Z-21.0000 F2750
G1 X566.4986 Y2089.3988 Z-21.0000 F2750
G1 X567.2656 Y2091.4276 Z-21.0000 F2750
G1 X568.1191 Y2093.4001 Z-21.0000 F2750
G1 X569.0538 Y2095.3111 Z-21.0000 F2750
G1 X570.0640 Y2097.1564 Z-21.0000 F2750
G1 X571.1437 Y2098.9322 Z-21.0000 F2750
G1 X572.2870 Y2100.6352 Z-21.0000 F2750
G1 X573.4875 Y2102.2629 Z-21.0000 F2750
G1 X574.7392 Y2103.8135 Z-21.0000 F2750
G1 X576.0358 Y2105.2855 Z-21.0000 F2750
G1 X577.3713 Y2106.6783 Z-21.0000 F2750
G1 X578.7641 Y2108.0138 Z-21.0000 F2750
G1 X580.2361 Y2109.3104 Z-21.0000 F2750
G1 X581.7866 Y2110.5621 Z-21.0000 F2750
G1 X583.4144 Y2111.7626 Z-21.0000 F2750
G1 X585.1174 Y2112.9059 Z-21.0000 F2750
G1 X586.8931 Y2113.9856 Z-21.0000 F2750
G1 X588.7384 Y2114.9958 Z-21.0000 F2750
G1 X590.6495 Y2115.9304 Z-21.0000 F2750
G1 X592.6220 Y2116.7839 Z-21.0000 F2750
G1 X594.6508 Y2117.5509 Z-21.0000 F2750
G1 X596.7303 Y2118.2265 Z-21.0000 F2750
G1 X598.8545 Y2118.8061 Z-21.0000 F2750
G1 X601.0166 Y2119.2859 Z-21.0000 F2750
G1 X603.2096 Y2119.6627 Z-21.0000 F2750
G1 X605.4262 Y2119.9337 Z-21.0000 F2750
G1 X607.6586 Y2120.0971 Z-21.0000 F2750
G1 X609.8989 Y2120.1516 Z-21.0000 F2750
G1 X612.1393 Y2120.0971 Z-21.0000 F2750
G1 X614.3717 Y2119.9337 Z-21.0000 F2750
G1 X616.5882 Y2119.6627 Z-21.0000 F2750
G1 X618.7813 Y2119.2859 Z-21.0000 F2750
G1 X620.9434 Y2118.8061 Z-21.0000 F2750
G1 X623.0675 Y2118.2265 Z-21.0000 F2750
G1 X625.1471 Y2117.5509 Z-21.0000 F2750
G1 X627.1759 Y2116.7839 Z-21.0000 F2750
G1 X629.1483 Y2115.9304 Z-21.0000 F2750
G1 X631.0594 Y2114.9958 Z-21.0000 F2750
G1 X632.9047 Y2113.9856 Z-21.0000 F2750
G1 X634.6805 Y2112.9059 Z-21.0000 F2750
G1 X636.3835 Y2111.7626 Z-21.0000 F2750
G1 X638.0112 Y2110.5621 Z-21.0000 F2750
G1 X639.5618 Y2109.3104 Z-21.0000 F2750
G1 X641.0338 Y2108.0138 Z-21.0000 F2750
G1 X642.4266 Y2106.6783 Z-21.0000 F2750
G1 X643.7621 Y2105.2855 Z-21.0000 F2750
G1 X645.0587 Y2103.8135 Z-21.0000 F2750
G1 X646.3104 Y2102.2629 Z-21.0000 F2750
G1 X647.5109 Y2100.6352 Z-21.0000 F2750
G1 X648.6542 Y2098.9322 Z-21.0000 F2750
G1 X649.7339 Y2097.1564 Z-21.0000 F2750
G1 X650.7441 Y2095.3111 Z-21.0000 F2750
G1 X651.6787 Y2093.4001 Z-21.0000 F2750
G1 X652.5322 Y2091.4276 Z-21.0000 F2750
G1 X653.2992 Y2089.3988 Z-21.0000 F2750
G1 X653.9748 Y2087.3192 Z-21.0000 F2750
G1 X654.5544 Y2085.1951 Z-21.0000 F2750
G1 X655.0342 Y2083.0330 Z-21.0000 F2750
G1 X655.4110 Y2080.8399 Z-21.0000 F2750
G1 X655.6820 Y2078.6234 Z-21.0000 F2750
G1 X655.8453 Y2076.3910 Z-21.0000 F2750
G1 X655.8999 Y2074.1506 Z-21.0000 F2750
G1 X655.8453 Y2071.9103 Z-21.0000 F2750
G1 X655.6820 Y2069.6779 Z-21.0000 F2750
G1 X655.4110 Y2067.4614 Z-21.0000 F2750
G1 X655.0342 Y2065.2683 Z-21.0000 F2750
G1 X654.5544 Y2063.1062 Z-21.0000 F2750
G1 X653.9748 Y2060.9820 Z-21.0000 F2750
G1 X653.2992 Y2058.9025 Z-21.0000 F2750
G1 X652.5322 Y2056.8737 Z-21.0000 F2750
G1 X651.6787 Y2054.9012 Z-21.0000 F2750
G1 X650.7441 Y2052.9901 Z-21.0000 F2750
G1 X649.7339 Y2051.1448 Z-21.0000 F2750
G1 X648.6542 Y2049.3691 Z-21.0000 F2750
G1 X647.5109 Y2047.6661 Z-21.0000 F2750
G1 X646.3104 Y2046.0384 Z-21.0000 F2750
G1 X645.0587 Y2044.4878 Z-21.0000 F2750
G1 X643.7621 Y2043.0158 Z-21.0000 F2750
G1 X642.4266 Y2041.6230 Z-21.0000 F2750
G1 X641.0338 Y2040.2875 Z-21.0000 F2750
G1 X639.5618 Y2038.9909 Z-21.0000 F2750
G1 X638.0112 Y2037.7392 Z-21.0000 F2750
G1 X636.3835 Y2036.5387 Z-21.0000 F2750
G1 X634.6805 Y2035.3954 Z-21.0000 F2750
G1 X632.9047 Y2034.3157 Z-21.0000 F2750
G1 X631.0594 Y2033.3055 Z-21.0000 F2750
G1 X629.1483 Y2032.3708 Z-21.0000 F2750
G1 X627.1759 Y2031.5173 Z-21.0000 F2750
G1 X625.1471 Y2030.7503 Z-21.0000 F2750
G1 X623.0675 Y2030.0748 Z-21.0000 F2750
G1 X620.9434 Y2029.4952 Z-21.0000 F2750
G1 X618.7813 Y2029.0153 Z-21.0000 F2750
G1 X616.5882 Y2028.6386 Z-21.0000 F2750
G1 X614.3717 Y2028.3676 Z-21.0000 F2750
G1 X612.1393 Y2028.2042 Z-21.0000 F2750
G1 X609.8989 Y2028.1496 Z-21.0000 F2750
G1 X607.6586 Y2028.2042 Z-21.0000 F2750
G1 X605.4262 Y2028.3676 Z-21.0000 F2750
G1 X603.2096 Y2028.6386 Z-21.0000 F2750
G1 X601.0166 Y2029.0153 Z-21.0000 F2750
G1 X598.8545 Y2029.4952 Z-21.0000 F2750
G1 X596.7303 Y2030.0748 Z-21.0000 F2750
G1 X594.6508 Y2030.7503 Z-21.0000 F2750
G1 X592.6220 Y2031.5173 Z-21.0000 F2750
G1 X590.6495 Y2032.3708 Z-21.0000 F2750
G1 X588.7384 Y2033.3055 Z-21.0000 F2750
G1 X586.8931 Y2034.3157 Z-21.0000 F2750
G1 X585.1174 Y2035.3954 Z-21.0000 F2750
G1 X583.4144 Y2036.5387 Z-21.0000 F2750
G1 X581.7866 Y2037.7392 Z-21.0000 F2750
G1 X580.2361 Y2038.9909 Z-21.0000 F2750
G1 X578.7641 Y2040.2875 Z-21.0000 F2750
G1 X577.3713 Y2041.6230 Z-21.0000 F2750
G1 X577.3713 Y2041.6230 Z10.0000 F9999
G1 X777.3713 Y2041.6230 Z10.0000 F9999
G1 X777.3713 Y2041.6230 Z1.0000 F2000
G1 X776.0358 Y2043.0158 Z0.4554 F2000
G1 X774.7392 Y2044.4878 Z-0.0983 F2000
G1 X773.4875 Y2046.0384 Z-0.6608 F2000
G1 X772.2870 Y2047.6661 Z-1.2317 F2000
G1 X771.1437 Y2049.3691 Z-1.8107 F2000
G1 X770.0640 Y2051.1448 Z-2.3973 F2000
G1 X769.0538 Y2052.9901 Z-2.9911 F2000
G1 X768.1191 Y2054.9012 Z-3.5915 F2000
G1 X767.2656 Y2056.8737 Z-4.1982 F2000
G1 X766.4986 Y2058.9025 Z-4.8104 F2000
G1 X765.8231 Y2060.9820 Z-5.4276 F2000
G1 X765.2435 Y2063.1062 Z-6.0490 F2000
G1 X764.7636 Y2065.2683 Z-6.6742 F2000
G1 X764.3869 Y2067.4614 Z-7.3022 F2000
G1 X764.1159 Y2069.6779 Z-7.9325 F2000
G1 X763.9525 Y2071.9103 Z-8.5643 F2000
G1 X763.8979 Y2074.1506 Z-9.1969 F2000
G1 X763.9525 Y2076.3910 Z-9.8294 F2000
G1 X763.9966 Y2076.9936 Z-10.0000 F2000
G1 X763.9525 Y2076.3910 Z-10.1706 F2000
G1 X763.8979 Y2074.1506 Z-10.8031 F2000
G1 X763.9525 Y2071.9103 Z-11.4357 F2000
G1 X764.1159 Y2069.6779 Z-12.0675 F2000
G1 X764.3869 Y2067.4614 Z-12.6978 F2000
G1 X764.7636 Y2065.2683 Z-13.3258 F2000
G1 X765.2435 Y2063.1062 Z-13.9510 F2000
G1 X765.8231 Y2060.9820 Z-14.5724 F2000
G1 X766.4986 Y2058.9025 Z-15.1896 F2000
G1 X767.2656 Y2056.8737 Z-15.8018 F2000
G1 X768.1191 Y2054.9012 Z-16.4085 F2000
G1 X769.0538 Y2052.9901 Z-17.0089 F2000
G1 X770.0640 Y2051.1448 Z-17.6027 F2000
G1 X771.1437 Y2049.3691 Z-18.1893 F2000
G1 X772.2870 Y2047.6661 Z-18.7683 F2000
G1 X773.4875 Y2046.0384 Z-19.3392 F2000
G1 X774.7392 Y2044.4878 Z-19.9017 F2000
G1 X776.0358 Y2043.0158 Z-20.4554 F2000
G1 X777.3713 Y2041.6230 Z-21.0000 F2000
G1 X776.0358 Y2043.0158 Z-21.0000 F2750
G1 X774.7392 Y2044.4878 Z-21.0000 F2750
G1 X773.4875 Y2046.0384 Z-21.0000 F2750
G1 X772.2870 Y2047.6661 Z-21.0000 F2750
G1 X771.1437 Y2049.3691 Z-21.0000 F2750
G1 X770.0640 Y2051.1448 Z-21.0000 F2750
G1 X769.0538 Y2052.9901 Z-21.0000 F2750
G1 X768.1191 Y2054.9012 Z-21.0000 F2750
G1 X767.2656 Y2056.8737 Z-21.0000 F2750
G1 X766.4986 Y2058.9025 Z-21.0000 F2750
G1 X765.8231 Y2060.9820 Z-21.0000 F2750
G1 X765.2435 Y2063.1062 Z-21.0000 F2750
G1 X764.7636 Y2065.2683 Z-21.0000 F2750
G1 X764.3869 Y2067.4614 Z-21.0000 F2750
G1 X764.1159 Y2069.6779 Z-21.0000 F2750
G1 X763.9525 Y2071.9103 Z-21.0000 F2750
G1 X763.8979 Y2074.1506 Z-21.0000 F2750
G1 X763.9525 Y2076.3910 Z-21.0000 F2750
G1 X764.1159 Y2078.6234 Z-21.0000 F2750
G1 X764.3869 Y2080.8399 Z-21.0000 F2750
G1 X764.7636 Y2083.0330 Z-21.0000 F2750
G1 X765.2435 Y2085.1951 Z-21.0000 F2750
G1 X765.8231 Y2087.3192 Z-21.0000 F2750
G1 X766.4986 Y2089.3988 Z-21.0000 F2750
G1 X767.2656 Y2091.4276 Z-21.0000 F2750
G1 X768.1191 Y2093.4001 Z-21.0000 F2750
G1 X769.0538 Y2095.3111 Z-21.0000 F2750
G1 X770.0640 Y2097.1564 Z-21.0000 F2750
G1 X771.1437 Y2098.9322 Z-21.0000 F2750
G1 X772.2870 Y2100.6352 Z-21.0000 F2750
G1 X773.4875 Y2102.2629 Z-21.0000 F2750
G1 X774.7392 Y2103.8135 Z-21.0000 F2750
G1 X776.0358 Y2105.2855 Z-21.0000 F2750
G1 X777.3713 Y2106.6783 Z-21.0000 F2750
G1 X778.7641 Y2108.0138 Z-21.0000 F2750
G1 X780.2361 Y2109.3104 Z-21.0000 F2750
G1 X781.7866 Y2110.5621 Z-21.0000 F2750
G1 X783.4144 Y2111.7626 Z-21.0000 F2750
G1 X785.1174 Y2112.9059 Z-21.0000 F2750
G1 X786.8931 Y2113.9856 Z-21.0000 F2750
G1 X788.7384 Y2114.9958 Z-21.0000 F2750
G1 X790.6495 Y2115.9304 Z-21.0000 F2750
G1 X792.6220 Y2116.7839 Z-21.0000 F2750
G1 X794.6508 Y2117.5509 Z-21.0000 F2750
G1 X796.7303 Y2118.2265 Z-21.0000 F2750
G1 X798.8545 Y2118.8061 Z-21.0000 F2750
G1 X801.0166 Y2119.2859 Z-21.0000 F2750
G1 X803.2096 Y2119.6627 Z-21.0000 F2750
G1 X805.4262 Y2119.9337 Z-21.0000 F2750
G1 X807.6586 Y2120.0971 Z-21.0000 F2750
G1 X809.8989 Y2120.1516 Z-21.0000 F2750
G1 X812.1393 Y2120.0971 Z-21.0000 F2750
G1 X814.3717 Y2119.9337 Z-21.0000 F2750
G1 X816.5882 Y2119.6627 Z-21.0000 F2750
G1 X818.7813 Y2119.2859 Z-21.0000 F2750
G1 X820.9434 Y2118.8061 Z-21.0000 F2750
G1 X823.0675 Y2118.2265 Z-21.0000 F2750
G1 X825.1471 Y2117.5509 Z-21.0000 F2750
G1 X827.1759 Y2116.7839 Z-21.0000 F2750
G1 X829.1483 Y2115.9304 Z-21.0000 F2750
G1 X831.0594 Y2114.9958 Z-21.0000 F2750
G1 X832.9047 Y2113.9856 Z-21.0000 F2750
G1 X834.6805 Y2112.9059 Z-21.0000 F2750
G1 X836.3835 Y2111.7626 Z-21.0000 F2750
G1 X838.0112 Y2110.5621 Z-21.0000 F2750
G1 X839.5618 Y2109.3104 Z-21.0000 F2750
G1 X841.0338 Y2108.0138 Z-21.0000 F2750
G1 X842.4266 Y2106.6783 Z-21.0000 F2750
G1 X843.7621 Y2105.2855 Z-21.0000 F2750
G1 X845.0587 Y2103.8135 Z-21.0000 F2750
G1 X846.3104 Y2102.2629 Z-21.0000 F2750
G1 X847.5109 Y2100.6352 Z-21.0000 F2750
G1 X848.6542 Y2098.9322 Z-21.0000 F2750
G1 X849.7339 Y2097.1564 Z-21.0000 F2750
G1 X850.7441 Y2095.3111 Z-21.0000 F2750
G1 X851.6787 Y2093.4001 Z-21.0000 F2750
G1 X852.5322 Y2091.4276 Z-21.0000 F2750
G1 X853.2992 Y2089.3988 Z-21.0000 F2750
G1 X853.9748 Y2087.3192 Z-21.0000 F2750
G1 X854.5544 Y2085.1951 Z-21.0000 F2750
G1 X855.0342 Y2083.0330 Z-21.0000 F2750
G1 X855.4110 Y2080.8399 Z-21.0000 F2750
G1 X855.6820 Y2078.6234 Z-21.0000 F2750
G1 X855.8453 Y2076.3910 Z-21.0000 F2750
G1 X855.8999 Y2074.1506 Z-21.0000 F2750
G1 X855.8453 Y2071.9103 Z-21.0000 F2750
G1 X855.6820 Y2069.6779 Z-21.0000 F2750
G1 X855.4110 Y2067.4614 Z-21.0000 F2750
G1 X855.0342 Y2065.2683 Z-21.0000 F2750
G1 X854.5544 Y2063.1062 Z-21.0000 F2750
G1 X853.9748 Y2060.9820 Z-21.0000 F2750
G1 X853.2992 Y2058.9025 Z-21.0000 F2750
G1 X852.5322 Y2056.8737 Z-21.0000 F2750
G1 X851.6787 Y2054.9012 Z-21.0000 F2750
G1 X850.7441 Y2052.9901 Z-21.0000 F2750
G1 X849.7339 Y2051.1448 Z-21.0000 F2750
G1 X848.6542 Y2049.3691 Z-21.0000 F2750
G1 X847.5109 Y2047.6661 Z-21.0000 F2750
G1 X846.3104 Y2046.0384 Z-21.0000 F2750
G1 X845.0587 Y2044.4878 Z-21.0000 F2750
G1 X843.7621 Y2043.0158 Z-21.0000 F2750
G1 X842.4266 Y2041.6230 Z-21.0000 F2750
G1 X841.0338 Y2040.2875 Z-21.0000 F2750
G1 X839.5618 Y2038.9909 Z-21.0000 F2750
G1 X838.0112 Y2037.7392 Z-21.0000 F2750
G1 X836.3835 Y2036.5387 Z-21.0000 F2750
G1 X834.6805 Y2035.3954 Z-21.0000 F2750
G1 X832.9047 Y2034.3157 Z-21.0000 F2750
G1 X831.0594 Y2033.3055 Z-21.0000 F2750
G1 X829.1483 Y2032.3708 Z-21.0000 F2750
G1 X827.1759 Y2031.5173 Z-21.0000 F2750
G1 X825.1471 Y2030.7503 Z-21.0000 F2750
G1 X823.0675 Y2030.0748 Z-21.0000 F2750
G1 X820.9434 Y2029.4952 Z-21.0000 F2750
G1 X818.7813 Y2029.0153 Z-21.0000 F2750
G1 X816.5882 Y2028.6386 Z-21.0000 F2750
G1 X814.3717 Y2028.3676 Z-21.0000 F2750
G1 X812.1393 Y2028.2042 Z-21.0000 F2750
G1 X809.8989 Y2028.1496 Z-21.0000 F2750
G1 X807.6586 Y2028.2042 Z-21.0000 F2750
G1 X805.4262 Y2028.3676 Z-21.0000 F2750
G1 X803.2096 Y2028.6386 Z-21.0000 F2750
G1 X801.0166 Y2029.0153 Z-21.0000 F2750
G1 X798.8545 Y2029.4952 Z-21.0000 F2750
G1 X796.7303 Y2030.0748 Z-21.0000 F2750
G1 X794.6508 Y2030.7503 Z-21.0000 F2750
G1 X792.6220 Y2031.5173 Z-21.0000 F2750
G1 X790.6495 Y2032.3708 Z-21.0000 F2750
G1 X788.7384 Y2033.3055 Z-21.0000 F2750
G1 X786.8931 Y2034.3157 Z-21.0000 F2750
G1 X785.1174 Y2035.3954 Z-21.0000 F2750
G1 X783.4144 Y2036.5387 Z-21.0000 F2750
G1 X781.7866 Y2037.7392 Z-21.0000 F2750
G1 X780.2361 Y2038.9909 Z-21.0000 F2750
G1 X778.7641 Y2040.2875 Z-21.0000 F2750
G1 X777.3713 Y2041.6230 Z-21.0000 F2750
G1 X777.3713 Y2041.6230 Z10.0000 F9999
G1 X1138.8968 Y2214.1498 Z10.0000 F9999
G1 X1138.8968 Y2214.1498 Z1.0000 F2000
G1 X1138.8968 Y2253.1210 Z-10.0000 F2000
G1 X1138.8968 Y2214.1498 Z-21.0000 F2000
G1 X1138.8968 Y2294.1499 Z-21.0000 F2750
G1 X1138.8530 Y2294.7403 Z-21.0000 F2750
G1 X1138.7147 Y2295.3429 Z-21.0000 F2750
G1 X1138.4762 Y2295.9351 Z-21.0000 F2750
G1 X1138.1390 Y2296.4922 Z-21.0000 F2750
G1 X1137.7128 Y2296.9903 Z-21.0000 F2750
G1 X1137.2145 Y2297.4095 Z-21.0000 F2750
G1 X1136.6662 Y2297.7367 Z-21.0000 F2750
G1 X1136.0922 Y2297.9664 Z-21.0000 F2750
G1 X1135.5157 Y2298.1009 Z-21.0000 F2750
G1 X1134.7072 Y2298.1563 Z-21.0000 F2750
G1 X1133.8969 Y2298.1489 Z-21.0000 F2750
G1 X1133.8969 Y2300.1516 Z-21.0000 F2750
G1 X1171.8987 Y2300.1516 Z-21.0000 F2750
G1 X1171.8987 Y2298.1489 Z-21.0000 F2750
G1 X1171.0884 Y2298.1563 Z-21.0000 F2750
G1 X1170.2799 Y2298.1009 Z-21.0000 F2750
G1 X1169.7033 Y2297.9664 Z-21.0000 F2750
G1 X1169.1293 Y2297.7367 Z-21.0000 F2750
G1 X1168.5811 Y2297.4095 Z-21.0000 F2750
G1 X1168.0828 Y2296.9903 Z-21.0000 F2750
G1 X1167.6565 Y2296.4922 Z-21.0000 F2750
G1 X1167.3193 Y2295.9351 Z-21.0000 F2750
G1 X1167.0808 Y2295.3429 Z-21.0000 F2750
G1 X1166.9426 Y2294.7403 Z-21.0000 F2750
G1 X1166.8987 Y2294.1499 Z-21.0000 F2750
G1 X1166.8987 Y2134.1498 Z-21.0000 F2750
G1 X1166.9426 Y2133.5594 Z-21.0000 F2750
G1 X1167.0808 Y2132.9568 Z-21.0000 F2750
G1 X1167.3193 Y2132.3646 Z-21.0000 F2750
G1 X1167.6565 Y2131.8074 Z-21.0000 F2750
G1 X1168.0828 Y2131.3094 Z-21.0000 F2750
G1 X1168.5811 Y2130.8901 Z-21.0000 F2750
G1 X1169.1293 Y2130.5630 Z-21.0000 F2750
G1 X1169.7033 Y2130.3333 Z-21.0000 F2750
G1 X1170.2799 Y2130.1988 Z-21.0000 F2750
G1 X1171.0884 Y2130.1434 Z-21.0000 F2750
G1 X1171.8987 Y2130.1508 Z-21.0000 F2750
G1 X1171.8987 Y2128.1496 Z-21.0000 F2750
G1 X1133.8969 Y2128.1496 Z-21.0000 F2750
G1 X1133.8969 Y2130.1508 Z-21.0000 F2750
G1 X1134.7072 Y2130.1434 Z-21.0000 F2750
G1 X1135.5157 Y2130.1988 Z-21.0000 F2750
G1 X1136.0922 Y2130.3333 Z-21.0000 F2750
G1 X1136.6662 Y2130.5630 Z-21.0000 F2750
G1 X1137.2145 Y2130.8901 Z-21.0000 F2750
G1 X1137.7128 Y2131.3094 Z-21.0000 F2750
G1 X1138.1390 Y2131.8074 Z-21.0000 F2750
G1 X1138.4762 Y2132.3646 Z-21.0000 F2750
G1 X1138.7147 Y2132.9568 Z-21.0000 F2750
G1 X1138.8530 Y2133.5594 Z-21.0000 F2750
G1 X1138.8968 Y2134.1498 Z-21.0000 F2750
G1 X1138.8968 Y2214.1498 Z-21.0000 F2750
G1 X1138.8968 Y2214.1498 Z10.0000 F9999
G1 X52.8990 Y2214.1498 Z10.0000 F9999
G1 X52.8990 Y2214.1498 Z1.0000 F2000
G1 X52.8990 Y2253.1210 Z-10.0000 F2000
G1 X52.8990 Y2214.1498 Z-21.0000 F2000
G1 X52.8990 Y2294.1499 Z-21.0000 F2750
G1 X52.8552 Y2294.7403 Z-21.0000 F2750
G1 X52.7169 Y2295.3429 Z-21.0000 F2750
G1 X52.4784 Y2295.9351 Z-21.0000 F2750
G1 X52.1412 Y2296.4922 Z-21.0000 F2750
G1 X51.7150 Y2296.9903 Z-21.0000 F2750
G1 X51.2167 Y2297.4095 Z-21.0000 F2750
G1 X50.6684 Y2297.7367 Z-21.0000 F2750
G1 X50.0944 Y2297.9664 Z-21.0000 F2750
G1 X49.5179 Y2298.1009 Z-21.0000 F2750
G1 X48.7094 Y2298.1563 Z-21.0000 F2750
G1 X47.8991 Y2298.1489 Z-21.0000 F2750
G1 X47.8991 Y2300.1516 Z-21.0000 F2750
G1 X85.9010 Y2300.1516 Z-21.0000 F2750
G1 X85.9010 Y2298.1489 Z-21.0000 F2750
G1 X85.0906 Y2298.1563 Z-21.0000 F2750
G1 X84.2821 Y2298.1009 Z-21.0000 F2750
G1 X83.7056 Y2297.9664 Z-21.0000 F2750
G1 X83.1316 Y2297.7367 Z-21.0000 F2750
G1 X82.5833 Y2297.4095 Z-21.0000 F2750
G1 X82.0850 Y2296.9903 Z-21.0000 F2750
G1 X81.6588 Y2296.4922 Z-21.0000 F2750
G1 X81.3216 Y2295.9351 Z-21.0000 F2750
G1 X81.0831 Y2295.3429 Z-21.0000 F2750
G1 X80.9448 Y2294.7403 Z-21.0000 F2750
G1 X80.9010 Y2294.1499 Z-21.0000 F2750
G1 X80.9010 Y2134.1498 Z-21.0000 F2750
G1 X80.9448 Y2133.5594 Z-21.0000 F2750
G1 X81.0831 Y2132.9568 Z-21.0000 F2750
G1 X81.3216 Y2132.3646 Z-21.0000 F2750
G1 X81.6588 Y2131.8074 Z-21.0000 F2750
G1 X82.0850 Y2131.3094 Z-21.0000 F2750
G1 X82.5833 Y2130.8901 Z-21.0000 F2750
G1 X83.1316 Y2130.5630 Z-21.0000 F2750
G1 X83.7056 Y2130.3333 Z-21.0000 F2750
G1 X84.2821 Y2130.1988 Z-21.0000 F2750
G1 X85.0906 Y2130.1434 Z-21.0000 F2750
G1 X85.9010 Y2130.1508 Z-21.0000 F2750
G1 X85.9010 Y2128.1496 Z-21.0000 F2750
G1 X47.8991 Y2128.1496 Z-21.0000 F2750
G1 X47.8991 Y2130.1508 Z-21.0000 F2750
G1 X48.7094 Y2130.1434 Z-21.0000 F2750
G1 X49.5179 Y2130.1988 Z-21.0000 F2750
G1 X50.0944 Y2130.3333 Z-21.0000 F2750
G1 X50.6684 Y2130.5630 Z-21.0000 F2750
G1 X51.2167 Y2130.8901 Z-21.0000 F2750
G1 X51.7150 Y2131.3094 Z-21.0000 F2750
G1 X52.1412 Y2131.8074 Z-21.0000 F2750
G1 X52.4784 Y2132.3646 Z-21.0000 F2750
G1 X52.7169 Y2132.9568 Z-21.0000 F2750
G1 X52.8552 Y2133.5594 Z-21.0000 F2750
G1 X52.8990 Y2134.1498 Z-21.0000 F2750
G1 X52.8990 Y2214.1498 Z-21.0000 F2750
G1 X52.8990 Y2214.1498 Z10.0000 F9999
(Tool Number:1) (7.998 mm dia. slot drill)
M3 S19000
G1 X549.6040 Y1813.9986 Z10.0000 F9999
G1 X549.6040 Y1813.9986 Z1.0000 F2000
G1 X588.5751 Y1813.9986 Z-10.0000 F2000
G1 X549.6040 Y1813.9986 Z-21.0000 F2000
G1 X992.8893 Y1813.9986 Z-21.0000 F2750
G1 X992.8893 Y1813.9986 Z-15.0000 F9999
G1 X1020.8873 Y1813.9986 Z-15.0000 F2750
G1 X1020.8873 Y1813.9986 Z-21.0000 F2000
G1 X1213.8967 Y1813.9986 Z-21.0000 F2750
G1 X1213.8967 Y2335.3995 Z-21.0000 F2750
G1 X1157.1367 Y2335.3995 Z-21.0000 F2750
G1 X1156.1548 Y2335.6331 Z-21.0000 F2750
G1 X1155.7510 Y2335.9740 Z-21.0000 F2750
G1 X1155.5445 Y2336.4587 Z-21.0000 F2750
G1 X1155.6100 Y2337.4669 Z-21.0000 F2750
G1 X1171.6281 Y2389.5254 Z-21.0000 F2750
G1 X1171.8627 Y2393.1387 Z-21.0000 F2750
G1 X1170.2557 Y2396.9135 Z-21.0000 F2750
G1 X1167.1201 Y2399.5616 Z-21.0000 F2750
G1 X1163.5970 Y2400.3995 Z-21.0000 F2750
G1 X1056.1988 Y2400.3995 Z-21.0000 F2750
G1 X1052.6757 Y2399.5616 Z-21.0000 F2750
G1 X1049.5401 Y2396.9135 Z-21.0000 F2750
G1 X1047.9331 Y2393.1387 Z-21.0000 F2750
G1 X1048.1677 Y2389.5254 Z-21.0000 F2750
G1 X1064.1858 Y2337.4669 Z-21.0000 F2750
G1 X1064.2513 Y2336.4587 Z-21.0000 F2750
G1 X1064.0448 Y2335.9740 Z-21.0000 F2750
G1 X1063.6410 Y2335.6331 Z-21.0000 F2750
G1 X1062.6590 Y2335.3995 Z-21.0000 F2750
G1 X957.1372 Y2335.3995 Z-21.0000 F2750
G1 X956.1552 Y2335.6331 Z-21.0000 F2750
G1 X955.7515 Y2335.9740 Z-21.0000 F2750
G1 X955.5449 Y2336.4589 Z-21.0000 F2750
G1 X955.6103 Y2337.4670 Z-21.0000 F2750
G1 X971.6285 Y2389.5254 Z-21.0000 F2750
G1 X971.8631 Y2393.1386 Z-21.0000 F2750
G1 X970.2562 Y2396.9135 Z-21.0000 F2750
G1 X967.1205 Y2399.5616 Z-21.0000 F2750
G1 X963.5974 Y2400.3995 Z-21.0000 F2750
G1 X856.1993 Y2400.3995 Z-21.0000 F2750
G1 X852.6761 Y2399.5616 Z-21.0000 F2750
G1 X849.5404 Y2396.9135 Z-21.0000 F2750
G1 X847.9335 Y2393.1386 Z-21.0000 F2750
G1 X848.1681 Y2389.5254 Z-21.0000 F2750
G1 X864.1863 Y2337.4669 Z-21.0000 F2750
G1 X864.2517 Y2336.4589 Z-21.0000 F2750
G1 X864.0451 Y2335.9740 Z-21.0000 F2750
G1 X863.6414 Y2335.6331 Z-21.0000 F2750
G1 X862.6594 Y2335.3995 Z-21.0000 F2750
G1 X757.1376 Y2335.3995 Z-21.0000 F2750
G1 X756.1554 Y2335.6331 Z-21.0000 F2750
G1 X755.7517 Y2335.9740 Z-21.0000 F2750
G1 X755.5452 Y2336.4587 Z-21.0000 F2750
G1 X755.6107 Y2337.4669 Z-21.0000 F2750
G1 X771.6289 Y2389.5254 Z-21.0000 F2750
G1 X771.8634 Y2393.1386 Z-21.0000 F2750
G1 X770.2566 Y2396.9135 Z-21.0000 F2750
G1 X767.1210 Y2399.5616 Z-21.0000 F2750
G1 X763.5978 Y2400.3995 Z-21.0000 F2750
G1 X656.1997 Y2400.3995 Z-21.0000 F2750
G1 X652.6765 Y2399.5616 Z-21.0000 F2750
G1 X649.5408 Y2396.9135 Z-21.0000 F2750
G1 X647.9339 Y2393.1386 Z-21.0000 F2750
G1 X648.1685 Y2389.5254 Z-21.0000 F2750
G1 X664.1866 Y2337.4668 Z-21.0000 F2750
G1 X664.2521 Y2336.4587 Z-21.0000 F2750
G1 X664.0455 Y2335.9741 Z-21.0000 F2750
G1 X663.6418 Y2335.6331 Z-21.0000 F2750
G1 X662.6598 Y2335.3995 Z-21.0000 F2750
G1 X557.1380 Y2335.3995 Z-21.0000 F2750
G1 X556.1560 Y2335.6331 Z-21.0000 F2750
G1 X555.7522 Y2335.9740 Z-21.0000 F2750
G1 X555.5457 Y2336.4589 Z-21.0000 F2750
G1 X555.6111 Y2337.4670 Z-21.0000 F2750
G1 X571.6293 Y2389.5254 Z-21.0000 F2750
G1 X571.8639 Y2393.1386 Z-21.0000 F2750
G1 X570.2570 Y2396.9135 Z-21.0000 F2750
G1 X567.1213 Y2399.5616 Z-21.0000 F2750
G1 X563.5981 Y2400.3995 Z-21.0000 F2750
G1 X456.2001 Y2400.3995 Z-21.0000 F2750
G1 X452.6769 Y2399.5616 Z-21.0000 F2750
G1 X449.5412 Y2396.9135 Z-21.0000 F2750
G1 X447.9344 Y2393.1386 Z-21.0000 F2750
G1 X448.1689 Y2389.5254 Z-21.0000 F2750
G1 X464.1872 Y2337.4670 Z-21.0000 F2750
G1 X464.2526 Y2336.4589 Z-21.0000 F2750
G1 X464.0459 Y2335.9740 Z-21.0000 F2750
G1 X463.6422 Y2335.6331 Z-21.0000 F2750
G1 X462.6602 Y2335.3995 Z-21.0000 F2750
G1 X357.1384 Y2335.3995 Z-21.0000 F2750
G1 X356.1564 Y2335.6331 Z-21.0000 F2750
G1 X355.7527 Y2335.9741 Z-21.0000 F2750
G1 X355.5461 Y2336.4589 Z-21.0000 F2750
G1 X355.6114 Y2337.4670 Z-21.0000 F2750
G1 X371.6297 Y2389.5254 Z-21.0000 F2750
G1 X371.8642 Y2393.1386 Z-21.0000 F2750
G1 X370.2575 Y2396.9134 Z-21.0000 F2750
G1 X367.1218 Y2399.5616 Z-21.0000 F2750
G1 X363.5985 Y2400.3995 Z-21.0000 F2750
G1 X256.2001 Y2400.3995 Z-21.0000 F2750
G1 X252.6773 Y2399.5615 Z-21.0000 F2750
G1 X249.5416 Y2396.9135 Z-21.0000 F2750
G1 X247.9347 Y2393.1386 Z-21.0000 F2750
G1 X248.1693 Y2389.5254 Z-21.0000 F2750
G1 X264.1875 Y2337.4669 Z-21.0000 F2750
G1 X264.2530 Y2336.4589 Z-21.0000 F2750
G1 X264.0464 Y2335.9741 Z-21.0000 F2750
G1 X263.6426 Y2335.6331 Z-21.0000 F2750
G1 X262.6606 Y2335.3995 Z-21.0000 F2750
G1 X157.1386 Y2335.3995 Z-21.0000 F2750
G1 X156.1567 Y2335.6331 Z-21.0000 F2750
G1 X155.7529 Y2335.9740 Z-21.0000 F2750
G1 X155.5465 Y2336.4587 Z-21.0000 F2750
G1 X155.6119 Y2337.4670 Z-21.0000 F2750
G1 X171.6301 Y2389.5253 Z-21.0000 F2750
G1 X171.8648 Y2393.1385 Z-21.0000 F2750
G1 X170.2578 Y2396.9135 Z-21.0000 F2750
G1 X167.1221 Y2399.5616 Z-21.0000 F2750
G1 X163.5989 Y2400.3995 Z-21.0000 F2750
G1 X56.2006 Y2400.3995 Z-21.0000 F2750
G1 X52.6777 Y2399.5615 Z-21.0000 F2750
G1 X49.5420 Y2396.9134 Z-21.0000 F2750
G1 X47.9353 Y2393.1387 Z-21.0000 F2750
G1 X48.1696 Y2389.5255 Z-21.0000 F2750
G1 X64.1877 Y2337.4670 Z-21.0000 F2750
G1 X64.2531 Y2336.4587 Z-21.0000 F2750
G1 X64.0467 Y2335.9739 Z-21.0000 F2750
G1 X63.6431 Y2335.6331 Z-21.0000 F2750
G1 X62.6610 Y2335.3995 Z-21.0000 F2750
G1 X5.9010 Y2335.3995 Z-21.0000 F2750
G1 X5.9010 Y1813.9986 Z-21.0000 F2750
G1 X78.3207 Y1813.9986 Z-21.0000 F2750
G1 X78.3207 Y1813.9986 Z-15.0000 F9999
G1 X106.3187 Y1813.9986 Z-15.0000 F2750
G1 X106.3187 Y1813.9986 Z-21.0000 F2000
G1 X549.6040 Y1813.9986 Z-21.0000 F2750
G1 X549.6040 Y1813.9986 Z10.0000 F9999
G1 X540.5446 Y909.9498 Z10.0000 F9999
G1 X540.5446 Y909.9498 Z1.0000 F2000
G1 X579.5157 Y909.9498 Z-10.0000 F2000
G1 X540.5446 Y909.9498 Z-21.0000 F2000
G1 X985.9869 Y909.9498 Z-21.0000 F2750
G1 X985.9869 Y909.9498 Z-15.0000 F9999
G1 X1013.9849 Y909.9498 Z-15.0000 F2750
G1 X1013.9849 Y909.9498 Z-21.0000 F2000
G1 X1063.8968 Y909.9498 Z-21.0000 F2750
G1 X1063.8968 Y1799.9412 Z-21.0000 F2750
G1 X1022.1815 Y1799.9412 Z-21.0000 F2750
G1 X1022.1815 Y1799.9412 Z-15.0000 F9999
G1 X994.1835 Y1799.9412 Z-15.0000 F2750
G1 X994.1835 Y1799.9412 Z-21.0000 F2000
G1 X106.7501 Y1799.9412 Z-21.0000 F2750
G1 X106.7501 Y1799.9412 Z-15.0000 F9999
G1 X78.7521 Y1799.9412 Z-15.0000 F2750
G1 X78.7521 Y1799.9412 Z-21.0000 F2000
G1 X5.9010 Y1799.9412 Z-21.0000 F2750
G1 X5.9010 Y909.9498 Z-21.0000 F2750
G1 X67.1043 Y909.9498 Z-21.0000 F2750
G1 X67.1043 Y909.9498 Z-15.0000 F9999
G1 X95.1023 Y909.9498 Z-15.0000 F2750
G1 X95.1023 Y909.9498 Z-21.0000 F2000
G1 X540.5446 Y909.9498 Z-21.0000 F2750
G1 X540.5446 Y909.9498 Z10.0000 F9999
G1 X534.8989 Y5.9010 Z10.0000 F9999
G1 X534.8989 Y5.9010 Z1.0000 F2000
G1 X573.8700 Y5.9010 Z-10.0000 F2000
G1 X534.8989 Y5.9010 Z-21.0000 F2000
G1 X1063.8968 Y5.9010 Z-21.0000 F2750
G1 X1063.8968 Y895.8923 Z-21.0000 F2750
G1 X1014.8477 Y895.8923 Z-21.0000 F2750
G1 X1014.8477 Y895.8923 Z-15.0000 F9999
G1 X986.8497 Y895.8923 Z-15.0000 F2750
G1 X986.8497 Y895.8923 Z-21.0000 F2000
G1 X93.8081 Y895.8923 Z-21.0000 F2750
G1 X93.8081 Y895.8923 Z-15.0000 F9999
G1 X65.8101 Y895.8923 Z-15.0000 F2750
G1 X65.8101 Y895.8923 Z-21.0000 F2000
G1 X5.9010 Y895.8923 Z-21.0000 F2750
G1 X5.9010 Y5.9010 Z-21.0000 F2750
G1 X534.8989 Y5.9010 Z-21.0000 F2750
G1 X534.8989 Y5.9010 Z10.0000 F9999
G1 X1900.0000 Y2800.0000 Z80.0000 F9999
G1 Z80.0000 F9999
G1 X1900.0000 Y2800.0000 F9999
M5
M30
