(plotsheet 2n3_nested_153 sheets_final v1_0_sheet 101 to 106_S101.0_7 screws_CC9.53 - PCD - stepover 1mm)
(Material Size) (X=1220.000, Y=2440.000, Z=21.000)
(LinuxCNC_NoArcs_MM_TC_medium_50um_G1_verbose.con)
G90 G80 G21 G49
G64 P0.050
M6 T1
(Tool Number:1) (9.530 mm dia. slot drill)
G43 H1 G0Z80.0000
M3 S17444
G04 P10
G1 X49.1796 Y55.3748 Z10.0000 F9999
G1 X49.1796 Y55.3748 Z2.0000 F9999
G1 X49.1796 Y55.3748 Z-1.0000 F2500
G1 X49.1796 Y55.3748 Z10.0000 F9999
G1 X351.1598 Y298.6846 Z10.0000 F9999
G1 X351.1598 Y298.6846 Z2.0000 F9999
G1 X351.1598 Y298.6846 Z-1.0000 F2500
G1 X351.1598 Y298.6846 Z10.0000 F9999
G1 X358.0622 Y900.9194 Z10.0000 F9999
G1 X358.0622 Y900.9194 Z2.0000 F9999
G1 X358.0622 Y900.9194 Z-1.0000 F2500
G1 X358.0622 Y900.9194 Z10.0000 F9999
G1 X351.1598 Y1506.6053 Z10.0000 F9999
G1 X351.1598 Y1506.6053 Z2.0000 F9999
G1 X351.1598 Y1506.6053 Z-1.0000 F2500
G1 X351.1598 Y1506.6053 Z10.0000 F9999
G1 X715.9689 Y2109.5474 Z10.0000 F9999
G1 X715.9689 Y2109.5474 Z2.0000 F9999
G1 X715.9689 Y2109.5474 Z-1.0000 F2500
G1 X715.9689 Y2109.5474 Z10.0000 F9999
G1 X58.5253 Y2355.9419 Z10.0000 F9999
G1 X58.5253 Y2355.9419 Z2.0000 F9999
G1 X58.5253 Y2355.9419 Z-1.0000 F2500
G1 X58.5253 Y2355.9419 Z10.0000 F9999
G1 X1010.1589 Y53.1232 Z10.0000 F9999
G1 X1010.1589 Y53.1232 Z2.0000 F9999
G1 X1010.1589 Y53.1232 Z-1.0000 F2500
G1 X1010.1589 Y53.1232 Z10.0000 F9999
G1 X1900.0000 Y2800.0000 Z80.0000 F9999
G1 Z80.0000 F9999
G1 X1900.0000 Y2800.0000 F9999
M5
M30
