(plotsheet 2n3_nested_153 sheets_final v1_0_sheet 67 to 73_S67.0_10 screws_CC8 - stepover 1mm)
(Material Size) (X=1220.000, Y=2440.000, Z=21.000)
(LinuxCNC_NoArcs_MM_TC_medium_50um_G1_verbose.con)
G90 G80 G21 G49
G64 P0.050
M6 T1
(Tool Number:1) (7.998 mm dia. slot drill)
G43 H1 G0Z80.0000
M3 S19000
G04 P10
G1 X81.1033 Y82.9844 Z10.0000 F9999
G1 X81.1033 Y82.9844 Z2.0000 F9999
G1 X81.1033 Y82.9844 Z-1.0000 F2000
G1 X81.1033 Y82.9844 Z10.0000 F9999
G1 X583.2532 Y227.9349 Z10.0000 F9999
G1 X583.2532 Y227.9349 Z2.0000 F9999
G1 X583.2532 Y227.9349 Z-1.0000 F2000
G1 X583.2532 Y227.9349 Z10.0000 F9999
G1 X1002.5743 Y236.5629 Z10.0000 F9999
G1 X1002.5743 Y236.5629 Z2.0000 F9999
G1 X1002.5743 Y236.5629 Z-1.0000 F2000
G1 X1002.5743 Y236.5629 Z10.0000 F9999
G1 X564.2715 Y749.0665 Z10.0000 F9999
G1 X564.2715 Y749.0665 Z2.0000 F9999
G1 X564.2715 Y749.0665 Z-1.0000 F2000
G1 X564.2715 Y749.0665 Z10.0000 F9999
G1 X113.8897 Y711.1033 Z10.0000 F9999
G1 X113.8897 Y711.1033 Z2.0000 F9999
G1 X113.8897 Y711.1033 Z-1.0000 F2000
G1 X113.8897 Y711.1033 Z10.0000 F9999
G1 X864.5262 Y1163.2107 Z10.0000 F9999
G1 X864.5262 Y1163.2107 Z2.0000 F9999
G1 X864.5262 Y1163.2107 Z-1.0000 F2000
G1 X864.5262 Y1163.2107 Z10.0000 F9999
G1 X1080.2263 Y1446.2094 Z10.0000 F9999
G1 X1080.2263 Y1446.2094 Z2.0000 F9999
G1 X1080.2263 Y1446.2094 Z-1.0000 F2000
G1 X1080.2263 Y1446.2094 Z10.0000 F9999
G1 X769.6181 Y2288.3027 Z10.0000 F9999
G1 X769.6181 Y2288.3027 Z2.0000 F9999
G1 X769.6181 Y2288.3027 Z-1.0000 F2000
G1 X769.6181 Y2288.3027 Z10.0000 F9999
G1 X348.7730 Y2267.1394 Z10.0000 F9999
G1 X348.7730 Y2267.1394 Z2.0000 F9999
G1 X348.7730 Y2267.1394 Z-1.0000 F2000
G1 X348.7730 Y2267.1394 Z10.0000 F9999
G1 X82.8289 Y1836.1952 Z10.0000 F9999
G1 X82.8289 Y1836.1952 Z2.0000 F9999
G1 X82.8289 Y1836.1952 Z-1.0000 F2000
G1 X82.8289 Y1836.1952 Z10.0000 F9999
G1 X1900.0000 Y2800.0000 Z80.0000 F9999
G1 Z80.0000 F9999
G1 X1900.0000 Y2800.0000 F9999
M5
M30
