(plotsheet 2n3_nested_153 sheets_final v1_0_sheet 65 to 66_S65.1_text_CC8 - stepover 1mm)
(Material Size) (X=1220.000, Y=2440.000, Z=21.000)
(LinuxCNC_NoArcs_MM_TC_medium_50um_G1_verbose.con)
G90 G80 G21 G49
G64 P0.050
M6 T1
(Tool Number:1) (7.998 mm dia. slot drill)
G43 H1 G0Z30.0000
M3 S19000
G04 P10
G1 X102.8722 Y67.6338 Z10.0000 F9999
G1 X102.8722 Y67.6338 Z-1.5000 F2000
G1 X104.8171 Y64.5879 Z-1.5000 F4000
G1 X107.2392 Y62.5328 Z-1.5000 F4000
G1 X110.3584 Y61.2851 Z-1.5000 F4000
G1 X114.4869 Y60.8081 Z-1.5000 F4000
G1 X118.9823 Y61.2668 Z-1.5000 F4000
G1 X122.7988 Y63.0099 Z-1.5000 F4000
G1 X125.4777 Y66.0007 Z-1.5000 F4000
G1 X126.5970 Y70.1659 Z-1.5000 F4000
G1 X126.0648 Y74.1659 Z-1.5000 F4000
G1 X124.5236 Y76.8448 Z-1.5000 F4000
G1 X122.4869 Y78.5328 Z-1.5000 F4000
G1 X120.5786 Y79.6338 Z-1.5000 F4000
G1 X111.3859 Y84.3677 Z-1.5000 F4000
G1 X109.0190 Y85.7806 Z-1.5000 F4000
G1 X107.1658 Y87.4319 Z-1.5000 F4000
G1 X105.9181 Y89.6154 Z-1.5000 F4000
G1 X105.4043 Y92.4961 Z-1.5000 F4000
G1 X105.9364 Y95.7806 Z-1.5000 F4000
G1 X107.7713 Y98.8081 Z-1.5000 F4000
G1 X110.9089 Y101.0283 Z-1.5000 F4000
G1 X115.2759 Y101.9090 Z-1.5000 F4000
G1 X119.5327 Y101.2301 Z-1.5000 F4000
G1 X122.3768 Y99.7622 Z-1.5000 F4000
G1 X124.4685 Y97.6154 Z-1.5000 F4000
G1 X122.3768 Y99.7622 Z-1.5000 F4000
G1 X119.5327 Y101.2301 Z-1.5000 F4000
G1 X115.2759 Y101.9090 Z-1.5000 F4000
G1 X110.9089 Y101.0283 Z-1.5000 F4000
G1 X107.7713 Y98.8081 Z-1.5000 F4000
G1 X105.9364 Y95.7806 Z-1.5000 F4000
G1 X105.4043 Y92.4961 Z-1.5000 F4000
G1 X105.9181 Y89.6154 Z-1.5000 F4000
G1 X107.1658 Y87.4319 Z-1.5000 F4000
G1 X109.0190 Y85.7806 Z-1.5000 F4000
G1 X111.3859 Y84.3677 Z-1.5000 F4000
G1 X120.5786 Y79.6338 Z-1.5000 F4000
G1 X122.4869 Y78.5328 Z-1.5000 F4000
G1 X124.5236 Y76.8448 Z-1.5000 F4000
G1 X126.0648 Y74.1659 Z-1.5000 F4000
G1 X126.5970 Y70.1659 Z-1.5000 F4000
G1 X125.4777 Y66.0007 Z-1.5000 F4000
G1 X122.7988 Y63.0099 Z-1.5000 F4000
G1 X118.9823 Y61.2668 Z-1.5000 F4000
G1 X114.4869 Y60.8081 Z-1.5000 F4000
G1 X110.3584 Y61.2851 Z-1.5000 F4000
G1 X107.2392 Y62.5328 Z-1.5000 F4000
G1 X104.8171 Y64.5879 Z-1.5000 F4000
G1 X104.8171 Y64.5879 Z10.0000 F9999
G1 X179.2025 Y67.6338 Z10.0000 F9999
G1 X179.2025 Y67.6338 Z-1.5000 F2000
G1 X181.1474 Y64.5879 Z-1.5000 F4000
G1 X183.5694 Y62.5328 Z-1.5000 F4000
G1 X186.6887 Y61.2851 Z-1.5000 F4000
G1 X190.8171 Y60.8081 Z-1.5000 F4000
G1 X195.3126 Y61.2668 Z-1.5000 F4000
G1 X199.1291 Y63.0099 Z-1.5000 F4000
G1 X201.8080 Y66.0007 Z-1.5000 F4000
G1 X202.9272 Y70.1659 Z-1.5000 F4000
G1 X202.3951 Y74.1659 Z-1.5000 F4000
G1 X200.8538 Y76.8448 Z-1.5000 F4000
G1 X198.8171 Y78.5328 Z-1.5000 F4000
G1 X196.9089 Y79.6338 Z-1.5000 F4000
G1 X187.7162 Y84.3677 Z-1.5000 F4000
G1 X185.3493 Y85.7806 Z-1.5000 F4000
G1 X183.4960 Y87.4319 Z-1.5000 F4000
G1 X182.2483 Y89.6154 Z-1.5000 F4000
G1 X181.7346 Y92.4961 Z-1.5000 F4000
G1 X182.2667 Y95.7806 Z-1.5000 F4000
G1 X184.1015 Y98.8081 Z-1.5000 F4000
G1 X187.2392 Y101.0283 Z-1.5000 F4000
G1 X191.6061 Y101.9090 Z-1.5000 F4000
G1 X195.8630 Y101.2301 Z-1.5000 F4000
G1 X198.7070 Y99.7622 Z-1.5000 F4000
G1 X200.7988 Y97.6154 Z-1.5000 F4000
G1 X198.7070 Y99.7622 Z-1.5000 F4000
G1 X195.8630 Y101.2301 Z-1.5000 F4000
G1 X191.6061 Y101.9090 Z-1.5000 F4000
G1 X187.2392 Y101.0283 Z-1.5000 F4000
G1 X184.1015 Y98.8081 Z-1.5000 F4000
G1 X182.2667 Y95.7806 Z-1.5000 F4000
G1 X181.7346 Y92.4961 Z-1.5000 F4000
G1 X182.2483 Y89.6154 Z-1.5000 F4000
G1 X183.4960 Y87.4319 Z-1.5000 F4000
G1 X185.3493 Y85.7806 Z-1.5000 F4000
G1 X187.7162 Y84.3677 Z-1.5000 F4000
G1 X196.9089 Y79.6338 Z-1.5000 F4000
G1 X198.8171 Y78.5328 Z-1.5000 F4000
G1 X200.8538 Y76.8448 Z-1.5000 F4000
G1 X202.3951 Y74.1659 Z-1.5000 F4000
G1 X202.9272 Y70.1659 Z-1.5000 F4000
G1 X201.8080 Y66.0007 Z-1.5000 F4000
G1 X199.1291 Y63.0099 Z-1.5000 F4000
G1 X195.3126 Y61.2668 Z-1.5000 F4000
G1 X190.8171 Y60.8081 Z-1.5000 F4000
G1 X186.6887 Y61.2851 Z-1.5000 F4000
G1 X183.5694 Y62.5328 Z-1.5000 F4000
G1 X181.1474 Y64.5879 Z-1.5000 F4000
G1 X181.1474 Y64.5879 Z10.0000 F9999
G1 X168.4869 Y111.3035 Z10.0000 F9999
G1 X168.4869 Y111.3035 Z-1.5000 F2000
G1 X138.1015 Y58.4594 Z-1.5000 F4000
G1 X168.4869 Y111.3035 Z-1.5000 F4000
G1 X168.4869 Y111.3035 Z10.0000 F9999
G1 X324.6194 Y473.2220 Z10.0000 F9999
G1 X324.6194 Y473.2220 Z-1.5000 F2000
G1 X314.4085 Y483.4329 Z-1.5000 F4000
G1 X324.6194 Y473.2220 Z-1.5000 F4000
G1 X311.6839 Y460.2865 Z-1.5000 F4000
G1 X300.9929 Y470.9774 Z-1.5000 F4000
G1 X311.6839 Y460.2865 Z-1.5000 F4000
G1 X340.7466 Y489.3492 Z-1.5000 F4000
G1 X340.7466 Y489.3492 Z10.0000 F9999
G1 X319.1571 Y510.9387 Z10.0000 F9999
G1 X319.1571 Y510.9387 Z-1.5000 F2000
G1 X290.0944 Y481.8759 Z-1.5000 F4000
G1 X285.0344 Y486.9360 Z-1.5000 F4000
G1 X282.7249 Y490.1017 Z-1.5000 F4000
G1 X281.7389 Y493.6567 Z-1.5000 F4000
G1 X282.4006 Y497.4582 Z-1.5000 F4000
G1 X285.0863 Y501.3376 Z-1.5000 F4000
G1 X289.2121 Y503.8287 Z-1.5000 F4000
G1 X293.5196 Y504.2179 Z-1.5000 F4000
G1 X297.2563 Y503.2578 Z-1.5000 F4000
G1 X299.7733 Y501.6749 Z-1.5000 F4000
G1 X304.8334 Y496.6149 Z-1.5000 F4000
G1 X299.7733 Y501.6749 Z-1.5000 F4000
G1 X297.2563 Y503.2578 Z-1.5000 F4000
G1 X293.5196 Y504.2179 Z-1.5000 F4000
G1 X289.2121 Y503.8287 Z-1.5000 F4000
G1 X285.0863 Y501.3376 Z-1.5000 F4000
G1 X282.4006 Y497.4582 Z-1.5000 F4000
G1 X281.7389 Y493.6567 Z-1.5000 F4000
G1 X282.7249 Y490.1017 Z-1.5000 F4000
G1 X285.0344 Y486.9360 Z-1.5000 F4000
G1 X290.0944 Y481.8759 Z-1.5000 F4000
G1 X290.0944 Y481.8759 Z10.0000 F9999
G1 X258.9038 Y513.0665 Z10.0000 F9999
G1 X258.9038 Y513.0665 Z-1.5000 F2000
G1 X276.6140 Y553.4818 Z-1.5000 F4000
G1 X258.9038 Y513.0665 Z-1.5000 F4000
G1 X299.2933 Y530.8025 Z-1.5000 F4000
G1 X299.2933 Y530.8025 Z10.0000 F9999
G1 X306.8444 Y523.2514 Z10.0000 F9999
G1 X306.8444 Y523.2514 Z-1.5000 F2000
G1 X301.9530 Y499.6509 Z-1.5000 F4000
G1 X306.8444 Y523.2514 Z-1.5000 F4000
G1 X306.8444 Y523.2514 Z10.0000 F9999
G1 X270.2824 Y539.0283 Z10.0000 F9999
G1 X270.2824 Y539.0283 Z-1.5000 F2000
G1 X284.9176 Y524.3931 Z-1.5000 F4000
G1 X270.2824 Y539.0283 Z-1.5000 F4000
G1 X270.2824 Y539.0283 Z10.0000 F9999
G1 X230.4509 Y564.7696 Z10.0000 F9999
G1 X230.4509 Y564.7696 Z-1.5000 F2000
G1 X251.1322 Y544.0883 Z-1.5000 F4000
G1 X230.4509 Y564.7696 Z-1.5000 F4000
G1 X230.4509 Y564.7696 Z10.0000 F9999
G1 X199.9480 Y572.0223 Z10.0000 F9999
G1 X199.9480 Y572.0223 Z-1.5000 F2000
G1 X217.6581 Y612.4377 Z-1.5000 F4000
G1 X199.9480 Y572.0223 Z-1.5000 F4000
G1 X240.3374 Y589.7584 Z-1.5000 F4000
G1 X240.3374 Y589.7584 Z10.0000 F9999
G1 X211.3266 Y597.9842 Z10.0000 F9999
G1 X211.3266 Y597.9842 Z-1.5000 F2000
G1 X225.9618 Y583.3490 Z-1.5000 F4000
G1 X211.3266 Y597.9842 Z-1.5000 F4000
G1 X211.3266 Y597.9842 Z10.0000 F9999
G1 X152.4226 Y606.2618 Z10.0000 F9999
G1 X152.4226 Y606.2618 Z-1.5000 F2000
G1 X211.2747 Y622.1426 Z-1.5000 F4000
G1 X152.4226 Y606.2618 Z-1.5000 F4000
G1 X152.4226 Y606.2618 Z10.0000 F9999
G1 X161.0377 Y636.8037 Z10.0000 F9999
G1 X161.0377 Y636.8037 Z-1.5000 F2000
G1 X150.8268 Y647.0145 Z-1.5000 F4000
G1 X161.0377 Y636.8037 Z-1.5000 F4000
G1 X148.1022 Y623.8682 Z-1.5000 F4000
G1 X137.4112 Y634.5591 Z-1.5000 F4000
G1 X148.1022 Y623.8682 Z-1.5000 F4000
G1 X177.1649 Y652.9309 Z-1.5000 F4000
G1 X177.1649 Y652.9309 Z10.0000 F9999
G1 X155.0565 Y667.2287 Z10.0000 F9999
G1 X155.0565 Y667.2287 Z-1.5000 F2000
G1 X155.0694 Y669.0062 Z-1.5000 F4000
G1 X154.7061 Y671.9384 Z-1.5000 F4000
G1 X153.4217 Y675.5583 Z-1.5000 F4000
G1 X150.6322 Y679.4636 Z-1.5000 F4000
G1 X146.1430 Y682.2661 Z-1.5000 F4000
G1 X140.7067 Y683.0056 Z-1.5000 F4000
G1 X135.0758 Y681.6822 Z-1.5000 F4000
G1 X130.0677 Y678.2829 Z-1.5000 F4000
G1 X127.0965 Y673.4175 Z-1.5000 F4000
G1 X126.5386 Y668.2667 Z-1.5000 F4000
G1 X127.6934 Y663.6867 Z-1.5000 F4000
G1 X129.7823 Y660.4561 Z-1.5000 F4000
G1 X131.3003 Y658.9381 Z-1.5000 F4000
G1 X133.1816 Y657.6276 Z-1.5000 F4000
G1 X135.6856 Y656.3951 Z-1.5000 F4000
G1 X120.8169 Y649.4927 Z-1.5000 F4000
G1 X110.7747 Y659.5349 Z-1.5000 F4000
G1 X120.8169 Y649.4927 Z-1.5000 F4000
G1 X135.6856 Y656.3951 Z-1.5000 F4000
G1 X133.1816 Y657.6276 Z-1.5000 F4000
G1 X131.3003 Y658.9381 Z-1.5000 F4000
G1 X129.7823 Y660.4561 Z-1.5000 F4000
G1 X127.6934 Y663.6867 Z-1.5000 F4000
G1 X126.5386 Y668.2667 Z-1.5000 F4000
G1 X127.0965 Y673.4175 Z-1.5000 F4000
G1 X130.0677 Y678.2829 Z-1.5000 F4000
G1 X135.0758 Y681.6822 Z-1.5000 F4000
G1 X140.7067 Y683.0056 Z-1.5000 F4000
G1 X146.1430 Y682.2661 Z-1.5000 F4000
G1 X150.6322 Y679.4636 Z-1.5000 F4000
G1 X153.4217 Y675.5583 Z-1.5000 F4000
G1 X154.7061 Y671.9384 Z-1.5000 F4000
G1 X155.0694 Y669.0062 Z-1.5000 F4000
G1 X155.0694 Y669.0062 Z10.0000 F9999
G1 X569.0478 Y625.3784 Z10.0000 F9999
G1 X569.0478 Y625.3784 Z-1.5000 F2000
G1 X627.8999 Y641.2591 Z-1.5000 F4000
G1 X569.0478 Y625.3784 Z-1.5000 F4000
G1 X569.0478 Y625.3784 Z10.0000 F9999
G1 X577.6629 Y655.9202 Z10.0000 F9999
G1 X577.6629 Y655.9202 Z-1.5000 F2000
G1 X567.4520 Y666.1311 Z-1.5000 F4000
G1 X577.6629 Y655.9202 Z-1.5000 F4000
G1 X564.7274 Y642.9847 Z-1.5000 F4000
G1 X554.0364 Y653.6756 Z-1.5000 F4000
G1 X564.7274 Y642.9847 Z-1.5000 F4000
G1 X593.7901 Y672.0474 Z-1.5000 F4000
G1 X593.7901 Y672.0474 Z10.0000 F9999
G1 X571.6817 Y686.3453 Z10.0000 F9999
G1 X571.6817 Y686.3453 Z-1.5000 F2000
G1 X571.6946 Y688.1228 Z-1.5000 F4000
G1 X571.3313 Y691.0550 Z-1.5000 F4000
G1 X570.0469 Y694.6748 Z-1.5000 F4000
G1 X567.2574 Y698.5801 Z-1.5000 F4000
G1 X562.7682 Y701.3826 Z-1.5000 F4000
G1 X557.3319 Y702.1222 Z-1.5000 F4000
G1 X551.7010 Y700.7988 Z-1.5000 F4000
G1 X546.6929 Y697.3995 Z-1.5000 F4000
G1 X543.7217 Y692.5341 Z-1.5000 F4000
G1 X543.1638 Y687.3832 Z-1.5000 F4000
G1 X544.3186 Y682.8032 Z-1.5000 F4000
G1 X546.4075 Y679.5726 Z-1.5000 F4000
G1 X547.9255 Y678.0546 Z-1.5000 F4000
G1 X549.8068 Y676.7442 Z-1.5000 F4000
G1 X552.3108 Y675.5116 Z-1.5000 F4000
G1 X537.4421 Y668.6092 Z-1.5000 F4000
G1 X527.3999 Y678.6514 Z-1.5000 F4000
G1 X537.4421 Y668.6092 Z-1.5000 F4000
G1 X552.3108 Y675.5116 Z-1.5000 F4000
G1 X549.8068 Y676.7442 Z-1.5000 F4000
G1 X547.9255 Y678.0546 Z-1.5000 F4000
G1 X546.4075 Y679.5726 Z-1.5000 F4000
G1 X544.3186 Y682.8032 Z-1.5000 F4000
G1 X543.1638 Y687.3832 Z-1.5000 F4000
G1 X543.7217 Y692.5341 Z-1.5000 F4000
G1 X546.6929 Y697.3995 Z-1.5000 F4000
G1 X551.7010 Y700.7988 Z-1.5000 F4000
G1 X557.3319 Y702.1222 Z-1.5000 F4000
G1 X562.7682 Y701.3826 Z-1.5000 F4000
G1 X567.2574 Y698.5801 Z-1.5000 F4000
G1 X570.0469 Y694.6748 Z-1.5000 F4000
G1 X571.3313 Y691.0550 Z-1.5000 F4000
G1 X571.6946 Y688.1228 Z-1.5000 F4000
G1 X571.6946 Y688.1228 Z10.0000 F9999
G1 X627.9518 Y617.1007 Z10.0000 F9999
G1 X627.9518 Y617.1007 Z-1.5000 F2000
G1 X642.5870 Y602.4655 Z-1.5000 F4000
G1 X627.9518 Y617.1007 Z-1.5000 F4000
G1 X627.9518 Y617.1007 Z10.0000 F9999
G1 X616.5732 Y591.1388 Z10.0000 F9999
G1 X616.5732 Y591.1388 Z-1.5000 F2000
G1 X634.2833 Y631.5542 Z-1.5000 F4000
G1 X616.5732 Y591.1388 Z-1.5000 F4000
G1 X656.9626 Y608.8749 Z-1.5000 F4000
G1 X656.9626 Y608.8749 Z10.0000 F9999
G1 X647.0761 Y583.8861 Z10.0000 F9999
G1 X647.0761 Y583.8861 Z-1.5000 F2000
G1 X667.7574 Y563.2049 Z-1.5000 F4000
G1 X647.0761 Y583.8861 Z-1.5000 F4000
G1 X647.0761 Y583.8861 Z10.0000 F9999
G1 X686.9076 Y558.1448 Z10.0000 F9999
G1 X686.9076 Y558.1448 Z-1.5000 F2000
G1 X701.5428 Y543.5097 Z-1.5000 F4000
G1 X686.9076 Y558.1448 Z-1.5000 F4000
G1 X686.9076 Y558.1448 Z10.0000 F9999
G1 X675.5290 Y532.1830 Z10.0000 F9999
G1 X675.5290 Y532.1830 Z-1.5000 F2000
G1 X693.2391 Y572.5984 Z-1.5000 F4000
G1 X675.5290 Y532.1830 Z-1.5000 F4000
G1 X715.9185 Y549.9191 Z-1.5000 F4000
G1 X715.9185 Y549.9191 Z10.0000 F9999
G1 X723.4696 Y542.3679 Z10.0000 F9999
G1 X723.4696 Y542.3679 Z-1.5000 F2000
G1 X718.5782 Y518.7674 Z-1.5000 F4000
G1 X723.4696 Y542.3679 Z-1.5000 F4000
G1 X723.4696 Y542.3679 Z10.0000 F9999
G1 X735.7823 Y530.0552 Z10.0000 F9999
G1 X735.7823 Y530.0552 Z-1.5000 F2000
G1 X706.7196 Y500.9925 Z-1.5000 F4000
G1 X701.6596 Y506.0525 Z-1.5000 F4000
G1 X699.3501 Y509.2182 Z-1.5000 F4000
G1 X698.3641 Y512.7732 Z-1.5000 F4000
G1 X699.0257 Y516.5748 Z-1.5000 F4000
G1 X701.7115 Y520.4541 Z-1.5000 F4000
G1 X705.8373 Y522.9452 Z-1.5000 F4000
G1 X710.1448 Y523.3344 Z-1.5000 F4000
G1 X713.8815 Y522.3743 Z-1.5000 F4000
G1 X716.3985 Y520.7914 Z-1.5000 F4000
G1 X721.4585 Y515.7314 Z-1.5000 F4000
G1 X716.3985 Y520.7914 Z-1.5000 F4000
G1 X713.8815 Y522.3743 Z-1.5000 F4000
G1 X710.1448 Y523.3344 Z-1.5000 F4000
G1 X705.8373 Y522.9452 Z-1.5000 F4000
G1 X701.7115 Y520.4541 Z-1.5000 F4000
G1 X699.0257 Y516.5748 Z-1.5000 F4000
G1 X698.3641 Y512.7732 Z-1.5000 F4000
G1 X699.3501 Y509.2182 Z-1.5000 F4000
G1 X701.6596 Y506.0525 Z-1.5000 F4000
G1 X706.7196 Y500.9925 Z-1.5000 F4000
G1 X706.7196 Y500.9925 Z10.0000 F9999
G1 X741.2446 Y492.3385 Z10.0000 F9999
G1 X741.2446 Y492.3385 Z-1.5000 F2000
G1 X731.0337 Y502.5494 Z-1.5000 F4000
G1 X741.2446 Y492.3385 Z-1.5000 F4000
G1 X728.3091 Y479.4030 Z-1.5000 F4000
G1 X717.6181 Y490.0939 Z-1.5000 F4000
G1 X728.3091 Y479.4030 Z-1.5000 F4000
G1 X757.3718 Y508.4657 Z-1.5000 F4000
G1 X757.3718 Y508.4657 Z10.0000 F9999
G1 X860.7672 Y856.2335 Z10.0000 F9999
G1 X860.7672 Y856.2335 Z-1.5000 F2000
G1 X844.8589 Y847.2747 Z-1.5000 F4000
G1 X860.7672 Y856.2335 Z-1.5000 F4000
G1 X875.6846 Y847.2747 Z-1.5000 F4000
G1 X860.7672 Y856.2335 Z-1.5000 F4000
G1 X875.6846 Y865.2885 Z-1.5000 F4000
G1 X860.7672 Y856.2335 Z-1.5000 F4000
G1 X844.8589 Y865.2885 Z-1.5000 F4000
G1 X844.8589 Y865.2885 Z10.0000 F9999
G1 X844.8589 Y886.3573 Z10.0000 F9999
G1 X844.8589 Y886.3573 Z-1.5000 F2000
G1 X861.9644 Y886.3573 Z-1.5000 F4000
G1 X861.9644 Y874.0133 Z-1.5000 F4000
G1 X861.9644 Y886.3573 Z-1.5000 F4000
G1 X875.6846 Y886.3573 Z-1.5000 F4000
G1 X875.6846 Y873.0362 Z-1.5000 F4000
G1 X875.6846 Y886.3573 Z-1.5000 F4000
G1 X844.8589 Y886.3573 Z-1.5000 F4000
G1 X844.8589 Y873.0362 Z-1.5000 F4000
G1 X844.8589 Y873.0362 Z10.0000 F9999
G1 X882.7305 Y897.9857 Z10.0000 F9999
G1 X882.7305 Y897.9857 Z-1.5000 F2000
G1 X843.0975 Y920.7747 Z-1.5000 F4000
G1 X882.7305 Y897.9857 Z-1.5000 F4000
G1 X882.7305 Y897.9857 Z10.0000 F9999
G1 X875.6846 Y937.8802 Z10.0000 F9999
G1 X875.6846 Y937.8802 Z-1.5000 F2000
G1 X861.8268 Y947.6784 Z-1.5000 F4000
G1 X860.7397 Y948.3940 Z-1.5000 F4000
G1 X855.3314 Y949.8390 Z-1.5000 F4000
G1 X851.2580 Y949.0133 Z-1.5000 F4000
G1 X847.9415 Y946.7977 Z-1.5000 F4000
G1 X845.6846 Y943.5224 Z-1.5000 F4000
G1 X844.8589 Y939.4766 Z-1.5000 F4000
G1 X845.6846 Y935.4307 Z-1.5000 F4000
G1 X847.9415 Y932.1004 Z-1.5000 F4000
G1 X851.2580 Y929.8573 Z-1.5000 F4000
G1 X855.3314 Y929.0316 Z-1.5000 F4000
G1 X859.3911 Y929.8573 Z-1.5000 F4000
G1 X862.7076 Y932.1004 Z-1.5000 F4000
G1 X864.9369 Y935.4307 Z-1.5000 F4000
G1 X865.7626 Y939.4766 Z-1.5000 F4000
G1 X864.3727 Y944.6646 Z-1.5000 F4000
G1 X860.7397 Y948.3940 Z-1.5000 F4000
G1 X864.3727 Y944.6646 Z-1.5000 F4000
G1 X865.7626 Y939.4766 Z-1.5000 F4000
G1 X864.9369 Y935.4307 Z-1.5000 F4000
G1 X862.7076 Y932.1004 Z-1.5000 F4000
G1 X859.3911 Y929.8573 Z-1.5000 F4000
G1 X855.3314 Y929.0316 Z-1.5000 F4000
G1 X851.2580 Y929.8573 Z-1.5000 F4000
G1 X847.9415 Y932.1004 Z-1.5000 F4000
G1 X845.6846 Y935.4307 Z-1.5000 F4000
G1 X844.8589 Y939.4766 Z-1.5000 F4000
G1 X845.6846 Y943.5224 Z-1.5000 F4000
G1 X847.9415 Y946.7977 Z-1.5000 F4000
G1 X851.2580 Y949.0133 Z-1.5000 F4000
G1 X855.3314 Y949.8390 Z-1.5000 F4000
G1 X860.7397 Y948.3940 Z-1.5000 F4000
G1 X864.7781 Y945.6056 Z-1.5000 F4000
G1 X868.7901 Y942.7793 Z-1.5000 F4000
G1 X868.7901 Y942.7793 Z10.0000 F9999
G1 X849.9782 Y976.2610 Z10.0000 F9999
G1 X849.9782 Y976.2610 Z-1.5000 F2000
G1 X847.6938 Y974.8023 Z-1.5000 F4000
G1 X846.1525 Y972.9857 Z-1.5000 F4000
G1 X845.2167 Y970.6463 Z-1.5000 F4000
G1 X844.8589 Y967.5500 Z-1.5000 F4000
G1 X845.2030 Y964.1784 Z-1.5000 F4000
G1 X846.5103 Y961.3160 Z-1.5000 F4000
G1 X848.7534 Y959.3069 Z-1.5000 F4000
G1 X851.8773 Y958.4674 Z-1.5000 F4000
G1 X854.8773 Y958.8665 Z-1.5000 F4000
G1 X856.8865 Y960.0224 Z-1.5000 F4000
G1 X858.1525 Y961.5500 Z-1.5000 F4000
G1 X858.9782 Y962.9812 Z-1.5000 F4000
G1 X862.5287 Y969.8757 Z-1.5000 F4000
G1 X863.5883 Y971.6509 Z-1.5000 F4000
G1 X864.8268 Y973.0408 Z-1.5000 F4000
G1 X866.4644 Y973.9766 Z-1.5000 F4000
G1 X868.6250 Y974.3619 Z-1.5000 F4000
G1 X871.0883 Y973.9628 Z-1.5000 F4000
G1 X873.3589 Y972.5867 Z-1.5000 F4000
G1 X875.0241 Y970.2335 Z-1.5000 F4000
G1 X875.6846 Y966.9582 Z-1.5000 F4000
G1 X875.1755 Y963.7656 Z-1.5000 F4000
G1 X874.0745 Y961.6325 Z-1.5000 F4000
G1 X872.4644 Y960.0637 Z-1.5000 F4000
G1 X874.0745 Y961.6325 Z-1.5000 F4000
G1 X875.1755 Y963.7656 Z-1.5000 F4000
G1 X875.6846 Y966.9582 Z-1.5000 F4000
G1 X875.0241 Y970.2335 Z-1.5000 F4000
G1 X873.3589 Y972.5867 Z-1.5000 F4000
G1 X871.0883 Y973.9628 Z-1.5000 F4000
G1 X868.6250 Y974.3619 Z-1.5000 F4000
G1 X866.4644 Y973.9766 Z-1.5000 F4000
G1 X864.8268 Y973.0408 Z-1.5000 F4000
G1 X863.5883 Y971.6509 Z-1.5000 F4000
G1 X862.5287 Y969.8757 Z-1.5000 F4000
G1 X858.9782 Y962.9812 Z-1.5000 F4000
G1 X858.1525 Y961.5500 Z-1.5000 F4000
G1 X856.8865 Y960.0224 Z-1.5000 F4000
G1 X854.8773 Y958.8665 Z-1.5000 F4000
G1 X851.8773 Y958.4674 Z-1.5000 F4000
G1 X848.7534 Y959.3069 Z-1.5000 F4000
G1 X846.5103 Y961.3160 Z-1.5000 F4000
G1 X845.2030 Y964.1784 Z-1.5000 F4000
G1 X844.8589 Y967.5500 Z-1.5000 F4000
G1 X845.2167 Y970.6463 Z-1.5000 F4000
G1 X846.1525 Y972.9857 Z-1.5000 F4000
G1 X847.6938 Y974.8023 Z-1.5000 F4000
G1 X847.6938 Y974.8023 Z10.0000 F9999
G1 X882.7305 Y984.2977 Z10.0000 F9999
G1 X882.7305 Y984.2977 Z-1.5000 F2000
G1 X843.0975 Y1007.0867 Z-1.5000 F4000
G1 X882.7305 Y984.2977 Z-1.5000 F4000
G1 X882.7305 Y984.2977 Z10.0000 F9999
G1 X875.6846 Y1027.6601 Z10.0000 F9999
G1 X875.6846 Y1027.6601 Z-1.5000 F2000
G1 X844.8589 Y1015.6188 Z-1.5000 F4000
G1 X875.6846 Y1027.6601 Z-1.5000 F4000
G1 X844.8589 Y1039.6738 Z-1.5000 F4000
G1 X844.8589 Y1039.6738 Z10.0000 F9999
G1 X863.3544 Y1047.6830 Z10.0000 F9999
G1 X863.3544 Y1047.6830 Z-1.5000 F2000
G1 X863.3544 Y1069.6188 Z-1.5000 F4000
G1 X863.3544 Y1047.6830 Z-1.5000 F4000
G1 X863.3544 Y1047.6830 Z10.0000 F9999
G1 X855.8819 Y1019.9261 Z10.0000 F9999
G1 X855.8819 Y1019.9261 Z-1.5000 F2000
G1 X855.8819 Y1035.4491 Z-1.5000 F4000
G1 X855.8819 Y1019.9261 Z-1.5000 F4000
G1 X855.8819 Y1019.9261 Z10.0000 F9999
G1 X855.8819 Y1082.4582 Z10.0000 F9999
G1 X855.8819 Y1082.4582 Z-1.5000 F2000
G1 X855.8819 Y1097.9812 Z-1.5000 F4000
G1 X855.8819 Y1082.4582 Z-1.5000 F4000
G1 X855.8819 Y1082.4582 Z10.0000 F9999
G1 X875.6846 Y1090.1922 Z10.0000 F9999
G1 X875.6846 Y1090.1922 Z-1.5000 F2000
G1 X844.8589 Y1078.1509 Z-1.5000 F4000
G1 X875.6846 Y1090.1922 Z-1.5000 F4000
G1 X844.8589 Y1102.2059 Z-1.5000 F4000
G1 X844.8589 Y1102.2059 Z10.0000 F9999
G1 X844.8589 Y1110.2151 Z10.0000 F9999
G1 X844.8589 Y1110.2151 Z-1.5000 F2000
G1 X859.9690 Y1120.1371 Z-1.5000 F4000
G1 X844.8589 Y1110.2151 Z-1.5000 F4000
G1 X844.8589 Y1110.2151 Z10.0000 F9999
G1 X844.8589 Y1123.2747 Z10.0000 F9999
G1 X844.8589 Y1123.2747 Z-1.5000 F2000
G1 X875.6846 Y1123.2747 Z-1.5000 F4000
G1 X875.6846 Y1117.9078 Z-1.5000 F4000
G1 X875.2305 Y1115.0041 Z-1.5000 F4000
G1 X873.8681 Y1112.5958 Z-1.5000 F4000
G1 X871.5011 Y1110.9307 Z-1.5000 F4000
G1 X868.0195 Y1110.2977 Z-1.5000 F4000
G1 X864.5103 Y1111.1646 Z-1.5000 F4000
G1 X862.0195 Y1113.2426 Z-1.5000 F4000
G1 X860.5470 Y1115.7335 Z-1.5000 F4000
G1 X860.0516 Y1117.9078 Z-1.5000 F4000
G1 X860.0516 Y1123.2747 Z-1.5000 F4000
G1 X860.0516 Y1117.9078 Z-1.5000 F4000
G1 X860.5470 Y1115.7335 Z-1.5000 F4000
G1 X862.0195 Y1113.2426 Z-1.5000 F4000
G1 X864.5103 Y1111.1646 Z-1.5000 F4000
G1 X868.0195 Y1110.2977 Z-1.5000 F4000
G1 X871.5011 Y1110.9307 Z-1.5000 F4000
G1 X873.8681 Y1112.5958 Z-1.5000 F4000
G1 X875.2305 Y1115.0041 Z-1.5000 F4000
G1 X875.6846 Y1117.9078 Z-1.5000 F4000
G1 X875.6846 Y1123.2747 Z-1.5000 F4000
G1 X875.6846 Y1123.2747 Z10.0000 F9999
G1 X861.9644 Y1146.1738 Z10.0000 F9999
G1 X861.9644 Y1146.1738 Z-1.5000 F2000
G1 X861.9644 Y1135.3435 Z-1.5000 F4000
G1 X861.9644 Y1146.1738 Z-1.5000 F4000
G1 X875.6846 Y1146.1738 Z-1.5000 F4000
G1 X875.6846 Y1134.8344 Z-1.5000 F4000
G1 X875.6846 Y1146.1738 Z-1.5000 F4000
G1 X844.8589 Y1146.1738 Z-1.5000 F4000
G1 X844.8589 Y1146.1738 Z10.0000 F9999
G1 X1003.5828 Y1364.8741 Z10.0000 F9999
G1 X1003.5828 Y1364.8741 Z-1.5000 F2000
G1 X1005.5278 Y1361.8282 Z-1.5000 F4000
G1 X1007.9498 Y1359.7731 Z-1.5000 F4000
G1 X1011.0690 Y1358.5254 Z-1.5000 F4000
G1 X1015.1975 Y1358.0484 Z-1.5000 F4000
G1 X1019.6929 Y1358.5071 Z-1.5000 F4000
G1 X1023.5094 Y1360.2502 Z-1.5000 F4000
G1 X1026.1883 Y1363.2410 Z-1.5000 F4000
G1 X1027.3076 Y1367.4062 Z-1.5000 F4000
G1 X1026.7755 Y1371.4062 Z-1.5000 F4000
G1 X1025.2342 Y1374.0851 Z-1.5000 F4000
G1 X1023.1975 Y1375.7731 Z-1.5000 F4000
G1 X1021.2892 Y1376.8741 Z-1.5000 F4000
G1 X1012.0966 Y1381.6080 Z-1.5000 F4000
G1 X1009.7296 Y1383.0208 Z-1.5000 F4000
G1 X1007.8764 Y1384.6722 Z-1.5000 F4000
G1 X1006.6287 Y1386.8557 Z-1.5000 F4000
G1 X1006.1149 Y1389.7364 Z-1.5000 F4000
G1 X1006.6470 Y1393.0208 Z-1.5000 F4000
G1 X1008.4819 Y1396.0484 Z-1.5000 F4000
G1 X1011.6195 Y1398.2686 Z-1.5000 F4000
G1 X1015.9865 Y1399.1493 Z-1.5000 F4000
G1 X1020.2434 Y1398.4704 Z-1.5000 F4000
G1 X1023.0874 Y1397.0025 Z-1.5000 F4000
G1 X1025.1791 Y1394.8557 Z-1.5000 F4000
G1 X1023.0874 Y1397.0025 Z-1.5000 F4000
G1 X1020.2434 Y1398.4704 Z-1.5000 F4000
G1 X1015.9865 Y1399.1493 Z-1.5000 F4000
G1 X1011.6195 Y1398.2686 Z-1.5000 F4000
G1 X1008.4819 Y1396.0484 Z-1.5000 F4000
G1 X1006.6470 Y1393.0208 Z-1.5000 F4000
G1 X1006.1149 Y1389.7364 Z-1.5000 F4000
G1 X1006.6287 Y1386.8557 Z-1.5000 F4000
G1 X1007.8764 Y1384.6722 Z-1.5000 F4000
G1 X1009.7296 Y1383.0208 Z-1.5000 F4000
G1 X1012.0966 Y1381.6080 Z-1.5000 F4000
G1 X1021.2892 Y1376.8741 Z-1.5000 F4000
G1 X1023.1975 Y1375.7731 Z-1.5000 F4000
G1 X1025.2342 Y1374.0851 Z-1.5000 F4000
G1 X1026.7755 Y1371.4062 Z-1.5000 F4000
G1 X1027.3076 Y1367.4062 Z-1.5000 F4000
G1 X1026.1883 Y1363.2410 Z-1.5000 F4000
G1 X1023.5094 Y1360.2502 Z-1.5000 F4000
G1 X1019.6929 Y1358.5071 Z-1.5000 F4000
G1 X1015.1975 Y1358.0484 Z-1.5000 F4000
G1 X1011.0690 Y1358.5254 Z-1.5000 F4000
G1 X1007.9498 Y1359.7731 Z-1.5000 F4000
G1 X1005.5278 Y1361.8282 Z-1.5000 F4000
G1 X1005.5278 Y1361.8282 Z10.0000 F9999
G1 X1043.6012 Y1378.9108 Z10.0000 F9999
G1 X1043.6012 Y1378.9108 Z-1.5000 F2000
G1 X1066.2617 Y1358.0484 Z-1.5000 F4000
G1 X1043.6012 Y1378.9108 Z-1.5000 F4000
G1 X1066.1516 Y1399.1493 Z-1.5000 F4000
G1 X1043.6012 Y1378.9108 Z-1.5000 F4000
G1 X1043.6012 Y1399.1493 Z-1.5000 F4000
G1 X1043.6012 Y1358.0484 Z-1.5000 F4000
G1 X1043.6012 Y1358.0484 Z10.0000 F9999
G1 X1082.3534 Y1399.1493 Z10.0000 F9999
G1 X1082.3534 Y1399.1493 Z-1.5000 F2000
G1 X1082.3534 Y1358.0484 Z-1.5000 F4000
G1 X1082.3534 Y1399.1493 Z-1.5000 F4000
G1 X1082.3534 Y1399.1493 Z10.0000 F9999
G1 X1127.9131 Y1408.5438 Z10.0000 F9999
G1 X1127.9131 Y1408.5438 Z-1.5000 F2000
G1 X1097.5278 Y1355.6997 Z-1.5000 F4000
G1 X1127.9131 Y1408.5438 Z-1.5000 F4000
G1 X1127.9131 Y1408.5438 Z10.0000 F9999
G1 X1154.6470 Y1399.1493 Z10.0000 F9999
G1 X1154.6470 Y1399.1493 Z-1.5000 F2000
G1 X1170.7021 Y1358.0484 Z-1.5000 F4000
G1 X1154.6470 Y1399.1493 Z-1.5000 F4000
G1 X1138.6287 Y1358.0484 Z-1.5000 F4000
G1 X1138.6287 Y1358.0484 Z10.0000 F9999
G1 X1164.9589 Y1372.7456 Z10.0000 F9999
G1 X1164.9589 Y1372.7456 Z-1.5000 F2000
G1 X1144.2617 Y1372.7456 Z-1.5000 F4000
G1 X1164.9589 Y1372.7456 Z-1.5000 F4000
G1 X1164.9589 Y1372.7456 Z10.0000 F9999
G1 X102.9549 Y1891.8037 Z10.0000 F9999
G1 X102.9549 Y1891.8037 Z-1.5000 F2000
G1 X72.1292 Y1891.8037 Z-1.5000 F4000
G1 X72.1292 Y1897.1707 Z-1.5000 F4000
G1 X72.5833 Y1900.0744 Z-1.5000 F4000
G1 X73.9457 Y1902.4826 Z-1.5000 F4000
G1 X76.3127 Y1904.1478 Z-1.5000 F4000
G1 X79.7943 Y1904.7808 Z-1.5000 F4000
G1 X83.3035 Y1903.9138 Z-1.5000 F4000
G1 X85.7943 Y1901.8359 Z-1.5000 F4000
G1 X87.2668 Y1899.3450 Z-1.5000 F4000
G1 X87.7622 Y1897.1707 Z-1.5000 F4000
G1 X87.7622 Y1891.8037 Z-1.5000 F4000
G1 X87.7622 Y1897.1707 Z-1.5000 F4000
G1 X87.2668 Y1899.3450 Z-1.5000 F4000
G1 X85.7943 Y1901.8359 Z-1.5000 F4000
G1 X83.3035 Y1903.9138 Z-1.5000 F4000
G1 X79.7943 Y1904.7808 Z-1.5000 F4000
G1 X76.3127 Y1904.1478 Z-1.5000 F4000
G1 X73.9457 Y1902.4826 Z-1.5000 F4000
G1 X72.5833 Y1900.0744 Z-1.5000 F4000
G1 X72.1292 Y1897.1707 Z-1.5000 F4000
G1 X72.1292 Y1891.8037 Z-1.5000 F4000
G1 X72.1292 Y1891.8037 Z10.0000 F9999
G1 X85.8494 Y1868.9047 Z10.0000 F9999
G1 X85.8494 Y1868.9047 Z-1.5000 F2000
G1 X85.8494 Y1879.7349 Z-1.5000 F4000
G1 X85.8494 Y1868.9047 Z-1.5000 F4000
G1 X72.1292 Y1868.9047 Z-1.5000 F4000
G1 X72.1292 Y1880.2441 Z-1.5000 F4000
G1 X72.1292 Y1868.9047 Z-1.5000 F4000
G1 X102.9549 Y1868.9047 Z-1.5000 F4000
G1 X102.9549 Y1868.9047 Z10.0000 F9999
G1 X102.9549 Y1904.8634 Z10.0000 F9999
G1 X102.9549 Y1904.8634 Z-1.5000 F2000
G1 X87.8448 Y1894.9414 Z-1.5000 F4000
G1 X102.9549 Y1904.8634 Z-1.5000 F4000
G1 X102.9549 Y1904.8634 Z10.0000 F9999
G1 X91.9319 Y1932.6203 Z10.0000 F9999
G1 X91.9319 Y1932.6203 Z-1.5000 F2000
G1 X91.9319 Y1917.0973 Z-1.5000 F4000
G1 X91.9319 Y1932.6203 Z-1.5000 F4000
G1 X91.9319 Y1932.6203 Z10.0000 F9999
G1 X72.1292 Y1924.8863 Z10.0000 F9999
G1 X72.1292 Y1924.8863 Z-1.5000 F2000
G1 X102.9549 Y1936.9276 Z-1.5000 F4000
G1 X72.1292 Y1924.8863 Z-1.5000 F4000
G1 X102.9549 Y1912.8726 Z-1.5000 F4000
G1 X102.9549 Y1912.8726 Z10.0000 F9999
G1 X84.4594 Y1967.3955 Z10.0000 F9999
G1 X84.4594 Y1967.3955 Z-1.5000 F2000
G1 X84.4594 Y1945.4597 Z-1.5000 F4000
G1 X84.4594 Y1967.3955 Z-1.5000 F4000
G1 X84.4594 Y1967.3955 Z10.0000 F9999
G1 X72.1292 Y1987.4184 Z10.0000 F9999
G1 X72.1292 Y1987.4184 Z-1.5000 F2000
G1 X102.9549 Y1999.4597 Z-1.5000 F4000
G1 X72.1292 Y1987.4184 Z-1.5000 F4000
G1 X102.9549 Y1975.4047 Z-1.5000 F4000
G1 X102.9549 Y1975.4047 Z10.0000 F9999
G1 X91.9319 Y1995.1524 Z10.0000 F9999
G1 X91.9319 Y1995.1524 Z-1.5000 F2000
G1 X91.9319 Y1979.6294 Z-1.5000 F4000
G1 X91.9319 Y1995.1524 Z-1.5000 F4000
G1 X91.9319 Y1995.1524 Z10.0000 F9999
G1 X97.8356 Y2038.8175 Z10.0000 F9999
G1 X97.8356 Y2038.8175 Z-1.5000 F2000
G1 X100.1200 Y2040.2762 Z-1.5000 F4000
G1 X101.6613 Y2042.0927 Z-1.5000 F4000
G1 X102.5971 Y2044.4322 Z-1.5000 F4000
G1 X102.9549 Y2047.5285 Z-1.5000 F4000
G1 X102.6108 Y2050.9001 Z-1.5000 F4000
G1 X101.3035 Y2053.7625 Z-1.5000 F4000
G1 X99.0604 Y2055.7716 Z-1.5000 F4000
G1 X95.9365 Y2056.6111 Z-1.5000 F4000
G1 X92.9365 Y2056.2120 Z-1.5000 F4000
G1 X90.9273 Y2055.0560 Z-1.5000 F4000
G1 X89.6613 Y2053.5285 Z-1.5000 F4000
G1 X88.8356 Y2052.0973 Z-1.5000 F4000
G1 X85.2851 Y2045.2028 Z-1.5000 F4000
G1 X84.2255 Y2043.4276 Z-1.5000 F4000
G1 X82.9870 Y2042.0377 Z-1.5000 F4000
G1 X81.3494 Y2041.1019 Z-1.5000 F4000
G1 X79.1888 Y2040.7166 Z-1.5000 F4000
G1 X76.7255 Y2041.1157 Z-1.5000 F4000
G1 X74.4549 Y2042.4918 Z-1.5000 F4000
G1 X72.7897 Y2044.8450 Z-1.5000 F4000
G1 X72.1292 Y2048.1203 Z-1.5000 F4000
G1 X72.6383 Y2051.3129 Z-1.5000 F4000
G1 X73.7393 Y2053.4459 Z-1.5000 F4000
G1 X75.3494 Y2055.0148 Z-1.5000 F4000
G1 X73.7393 Y2053.4459 Z-1.5000 F4000
G1 X72.6383 Y2051.3129 Z-1.5000 F4000
G1 X72.1292 Y2048.1203 Z-1.5000 F4000
G1 X72.7897 Y2044.8450 Z-1.5000 F4000
G1 X74.4549 Y2042.4918 Z-1.5000 F4000
G1 X76.7255 Y2041.1157 Z-1.5000 F4000
G1 X79.1888 Y2040.7166 Z-1.5000 F4000
G1 X81.3494 Y2041.1019 Z-1.5000 F4000
G1 X82.9870 Y2042.0377 Z-1.5000 F4000
G1 X84.2255 Y2043.4276 Z-1.5000 F4000
G1 X85.2851 Y2045.2028 Z-1.5000 F4000
G1 X88.8356 Y2052.0973 Z-1.5000 F4000
G1 X89.6613 Y2053.5285 Z-1.5000 F4000
G1 X90.9273 Y2055.0560 Z-1.5000 F4000
G1 X92.9365 Y2056.2120 Z-1.5000 F4000
G1 X95.9365 Y2056.6111 Z-1.5000 F4000
G1 X99.0604 Y2055.7716 Z-1.5000 F4000
G1 X101.3035 Y2053.7625 Z-1.5000 F4000
G1 X102.6108 Y2050.9001 Z-1.5000 F4000
G1 X102.9549 Y2047.5285 Z-1.5000 F4000
G1 X102.5971 Y2044.4322 Z-1.5000 F4000
G1 X101.6613 Y2042.0927 Z-1.5000 F4000
G1 X100.1200 Y2040.2762 Z-1.5000 F4000
G1 X100.1200 Y2040.2762 Z10.0000 F9999
G1 X65.0833 Y2030.7808 Z10.0000 F9999
G1 X65.0833 Y2030.7808 Z-1.5000 F2000
G1 X104.7163 Y2007.9918 Z-1.5000 F4000
G1 X65.0833 Y2030.7808 Z-1.5000 F4000
G1 X65.0833 Y2030.7808 Z10.0000 F9999
G1 X72.1292 Y2077.1982 Z10.0000 F9999
G1 X72.1292 Y2077.1982 Z-1.5000 F2000
G1 X85.9870 Y2067.4001 Z-1.5000 F4000
G1 X87.0741 Y2066.6845 Z-1.5000 F4000
G1 X92.4824 Y2065.2395 Z-1.5000 F4000
G1 X96.5558 Y2066.0652 Z-1.5000 F4000
G1 X99.8723 Y2068.2808 Z-1.5000 F4000
G1 X102.1292 Y2071.5560 Z-1.5000 F4000
G1 X102.9549 Y2075.6019 Z-1.5000 F4000
G1 X102.1292 Y2079.6478 Z-1.5000 F4000
G1 X99.8723 Y2082.9781 Z-1.5000 F4000
G1 X96.5558 Y2085.2212 Z-1.5000 F4000
G1 X92.4824 Y2086.0469 Z-1.5000 F4000
G1 X88.4228 Y2085.2212 Z-1.5000 F4000
G1 X85.1062 Y2082.9781 Z-1.5000 F4000
G1 X82.8769 Y2079.6478 Z-1.5000 F4000
G1 X82.0512 Y2075.6019 Z-1.5000 F4000
G1 X83.4411 Y2070.4138 Z-1.5000 F4000
G1 X87.0741 Y2066.6845 Z-1.5000 F4000
G1 X83.4411 Y2070.4138 Z-1.5000 F4000
G1 X82.0512 Y2075.6019 Z-1.5000 F4000
G1 X82.8769 Y2079.6478 Z-1.5000 F4000
G1 X85.1062 Y2082.9781 Z-1.5000 F4000
G1 X88.4228 Y2085.2212 Z-1.5000 F4000
G1 X92.4824 Y2086.0469 Z-1.5000 F4000
G1 X96.5558 Y2085.2212 Z-1.5000 F4000
G1 X99.8723 Y2082.9781 Z-1.5000 F4000
G1 X102.1292 Y2079.6478 Z-1.5000 F4000
G1 X102.9549 Y2075.6019 Z-1.5000 F4000
G1 X102.1292 Y2071.5560 Z-1.5000 F4000
G1 X99.8723 Y2068.2808 Z-1.5000 F4000
G1 X96.5558 Y2066.0652 Z-1.5000 F4000
G1 X92.4824 Y2065.2395 Z-1.5000 F4000
G1 X87.0741 Y2066.6845 Z-1.5000 F4000
G1 X83.0357 Y2069.4729 Z-1.5000 F4000
G1 X79.0237 Y2072.2992 Z-1.5000 F4000
G1 X79.0237 Y2072.2992 Z10.0000 F9999
G1 X65.0833 Y2117.0927 Z10.0000 F9999
G1 X65.0833 Y2117.0927 Z-1.5000 F2000
G1 X104.7163 Y2094.3037 Z-1.5000 F4000
G1 X65.0833 Y2117.0927 Z-1.5000 F4000
G1 X65.0833 Y2117.0927 Z10.0000 F9999
G1 X102.9549 Y2128.7212 Z10.0000 F9999
G1 X102.9549 Y2128.7212 Z-1.5000 F2000
G1 X85.8494 Y2128.7212 Z-1.5000 F4000
G1 X85.8494 Y2141.0652 Z-1.5000 F4000
G1 X85.8494 Y2128.7212 Z-1.5000 F4000
G1 X72.1292 Y2128.7212 Z-1.5000 F4000
G1 X72.1292 Y2142.0423 Z-1.5000 F4000
G1 X72.1292 Y2128.7212 Z-1.5000 F4000
G1 X102.9549 Y2128.7212 Z-1.5000 F4000
G1 X102.9549 Y2142.0423 Z-1.5000 F4000
G1 X102.9549 Y2142.0423 Z10.0000 F9999
G1 X87.0466 Y2158.8450 Z10.0000 F9999
G1 X87.0466 Y2158.8450 Z-1.5000 F2000
G1 X102.9549 Y2167.8037 Z-1.5000 F4000
G1 X87.0466 Y2158.8450 Z-1.5000 F4000
G1 X72.1292 Y2167.8037 Z-1.5000 F4000
G1 X87.0466 Y2158.8450 Z-1.5000 F4000
G1 X72.1292 Y2149.7900 Z-1.5000 F4000
G1 X87.0466 Y2158.8450 Z-1.5000 F4000
G1 X102.9549 Y2149.7900 Z-1.5000 F4000
G1 X102.9549 Y2149.7900 Z10.0000 F9999
(Tool Number:1) (7.998 mm dia. slot drill)
M3 S19000
G1 X267.9786 Y364.1396 Z10.0000 F9999
G1 X267.9786 Y364.1396 Z1.0000 F2000
G1 X246.0580 Y386.0602 Z-7.7502 F2000
G1 X247.4743 Y384.6467 Z-8.3150 F2000
G1 X247.9452 Y384.2438 Z-8.4899 F2000
G1 X248.4830 Y383.9131 Z-8.6681 F2000
G1 X249.0700 Y383.6699 Z-8.8474 F2000
G1 X249.6842 Y383.5234 Z-9.0257 F2000
G1 X250.3020 Y383.4754 Z-9.2006 F2000
G1 X250.9199 Y383.5234 Z-9.3755 F2000
G1 X251.5341 Y383.6699 Z-9.5537 F2000
G1 X252.1211 Y383.9131 Z-9.7331 F2000
G1 X252.6589 Y384.2438 Z-9.9113 F2000
G1 X252.8977 Y384.4481 Z-10.0000 F2000
G1 X252.6589 Y384.2438 Z-10.0887 F2000
G1 X252.1211 Y383.9131 Z-10.2669 F2000
G1 X251.5341 Y383.6699 Z-10.4463 F2000
G1 X250.9199 Y383.5234 Z-10.6245 F2000
G1 X250.3020 Y383.4754 Z-10.7994 F2000
G1 X249.6842 Y383.5234 Z-10.9743 F2000
G1 X249.0700 Y383.6699 Z-11.1526 F2000
G1 X248.4830 Y383.9131 Z-11.3319 F2000
G1 X247.9452 Y384.2438 Z-11.5101 F2000
G1 X247.4743 Y384.6467 Z-11.6850 F2000
G1 X246.0580 Y386.0602 Z-12.2498 F2000
G1 X267.9786 Y364.1396 Z-21.0000 F2000
G1 X246.0580 Y386.0602 Z-21.0000 F2750
G1 X247.4743 Y384.6467 Z-21.0000 F2750
G1 X247.9452 Y384.2438 Z-21.0000 F2750
G1 X248.4830 Y383.9131 Z-21.0000 F2750
G1 X249.0700 Y383.6699 Z-21.0000 F2750
G1 X249.6842 Y383.5234 Z-21.0000 F2750
G1 X250.3020 Y383.4754 Z-21.0000 F2750
G1 X250.9199 Y383.5234 Z-21.0000 F2750
G1 X251.5341 Y383.6699 Z-21.0000 F2750
G1 X252.1211 Y383.9131 Z-21.0000 F2750
G1 X252.6589 Y384.2438 Z-21.0000 F2750
G1 X253.1298 Y384.6467 Z-21.0000 F2750
G1 X261.6157 Y393.1327 Z-21.0000 F2750
G1 X260.2022 Y391.7163 Z-21.0000 F2750
G1 X259.8223 Y391.2767 Z-21.0000 F2750
G1 X259.4962 Y390.7607 Z-21.0000 F2750
G1 X259.2446 Y390.1784 Z-21.0000 F2750
G1 X259.0855 Y389.5467 Z-21.0000 F2750
G1 X259.0309 Y388.8886 Z-21.0000 F2750
G1 X259.0855 Y388.2306 Z-21.0000 F2750
G1 X259.2446 Y387.5989 Z-21.0000 F2750
G1 X259.4962 Y387.0165 Z-21.0000 F2750
G1 X259.8223 Y386.5005 Z-21.0000 F2750
G1 X260.2022 Y386.0609 Z-21.0000 F2750
G1 X291.3147 Y354.9484 Z-21.0000 F2750
G1 X291.7856 Y354.5454 Z-21.0000 F2750
G1 X292.3235 Y354.2147 Z-21.0000 F2750
G1 X292.9104 Y353.9716 Z-21.0000 F2750
G1 X293.5246 Y353.8251 Z-21.0000 F2750
G1 X294.1425 Y353.7771 Z-21.0000 F2750
G1 X294.7603 Y353.8251 Z-21.0000 F2750
G1 X295.3745 Y353.9716 Z-21.0000 F2750
G1 X295.9615 Y354.2147 Z-21.0000 F2750
G1 X296.4993 Y354.5454 Z-21.0000 F2750
G1 X296.9702 Y354.9484 Z-21.0000 F2750
G1 X298.3851 Y356.3633 Z-21.0000 F2750
G1 X289.9006 Y347.8759 Z-21.0000 F2750
G1 X289.5206 Y347.4363 Z-21.0000 F2750
G1 X289.1945 Y346.9203 Z-21.0000 F2750
G1 X288.9430 Y346.3379 Z-21.0000 F2750
G1 X288.7838 Y345.7062 Z-21.0000 F2750
G1 X288.7293 Y345.0482 Z-21.0000 F2750
G1 X288.7838 Y344.3901 Z-21.0000 F2750
G1 X288.9430 Y343.7584 Z-21.0000 F2750
G1 X289.1945 Y343.1761 Z-21.0000 F2750
G1 X289.5206 Y342.6601 Z-21.0000 F2750
G1 X289.9006 Y342.2205 Z-21.0000 F2750
G1 X291.3155 Y340.8055 Z-21.0000 F2750
G1 X279.6412 Y352.4668 Z-21.0000 F2750
G1 X267.9786 Y364.1396 Z-21.0000 F2750
G1 X267.9786 Y364.1396 Z10.0000 F9999
G1 X440.5142 Y533.8454 Z10.0000 F9999
G1 X440.5142 Y533.8454 Z1.0000 F2000
G1 X462.4348 Y511.9249 Z-7.7502 F2000
G1 X461.0185 Y513.3384 Z-8.3150 F2000
G1 X460.5476 Y513.7413 Z-8.4899 F2000
G1 X460.0098 Y514.0720 Z-8.6681 F2000
G1 X459.4228 Y514.3151 Z-8.8474 F2000
G1 X458.8086 Y514.4616 Z-9.0257 F2000
G1 X458.1907 Y514.5097 Z-9.2006 F2000
G1 X457.5729 Y514.4616 Z-9.3755 F2000
G1 X456.9587 Y514.3151 Z-9.5537 F2000
G1 X456.3717 Y514.0720 Z-9.7331 F2000
G1 X455.8339 Y513.7413 Z-9.9113 F2000
G1 X455.5951 Y513.5369 Z-10.0000 F2000
G1 X455.8339 Y513.7413 Z-10.0887 F2000
G1 X456.3717 Y514.0720 Z-10.2669 F2000
G1 X456.9587 Y514.3151 Z-10.4463 F2000
G1 X457.5729 Y514.4616 Z-10.6245 F2000
G1 X458.1907 Y514.5097 Z-10.7994 F2000
G1 X458.8086 Y514.4616 Z-10.9743 F2000
G1 X459.4228 Y514.3151 Z-11.1526 F2000
G1 X460.0098 Y514.0720 Z-11.3319 F2000
G1 X460.5476 Y513.7413 Z-11.5101 F2000
G1 X461.0185 Y513.3384 Z-11.6850 F2000
G1 X462.4348 Y511.9249 Z-12.2498 F2000
G1 X440.5142 Y533.8454 Z-21.0000 F2000
G1 X462.4348 Y511.9249 Z-21.0000 F2750
G1 X461.0185 Y513.3384 Z-21.0000 F2750
G1 X460.5476 Y513.7413 Z-21.0000 F2750
G1 X460.0098 Y514.0720 Z-21.0000 F2750
G1 X459.4228 Y514.3151 Z-21.0000 F2750
G1 X458.8086 Y514.4616 Z-21.0000 F2750
G1 X458.1907 Y514.5097 Z-21.0000 F2750
G1 X457.5729 Y514.4616 Z-21.0000 F2750
G1 X456.9587 Y514.3151 Z-21.0000 F2750
G1 X456.3717 Y514.0720 Z-21.0000 F2750
G1 X455.8339 Y513.7413 Z-21.0000 F2750
G1 X455.3630 Y513.3384 Z-21.0000 F2750
G1 X446.8771 Y504.8524 Z-21.0000 F2750
G1 X448.2906 Y506.2687 Z-21.0000 F2750
G1 X448.6705 Y506.7084 Z-21.0000 F2750
G1 X448.9966 Y507.2244 Z-21.0000 F2750
G1 X449.2482 Y507.8067 Z-21.0000 F2750
G1 X449.4073 Y508.4384 Z-21.0000 F2750
G1 X449.4618 Y509.0965 Z-21.0000 F2750
G1 X449.4073 Y509.7545 Z-21.0000 F2750
G1 X449.2482 Y510.3862 Z-21.0000 F2750
G1 X448.9966 Y510.9686 Z-21.0000 F2750
G1 X448.6705 Y511.4845 Z-21.0000 F2750
G1 X448.2906 Y511.9242 Z-21.0000 F2750
G1 X417.1780 Y543.0367 Z-21.0000 F2750
G1 X416.7384 Y543.4166 Z-21.0000 F2750
G1 X416.2224 Y543.7427 Z-21.0000 F2750
G1 X415.6401 Y543.9943 Z-21.0000 F2750
G1 X415.0084 Y544.1535 Z-21.0000 F2750
G1 X414.3503 Y544.2080 Z-21.0000 F2750
G1 X413.6923 Y544.1535 Z-21.0000 F2750
G1 X413.0606 Y543.9943 Z-21.0000 F2750
G1 X412.4782 Y543.7427 Z-21.0000 F2750
G1 X411.9622 Y543.4166 Z-21.0000 F2750
G1 X411.5226 Y543.0367 Z-21.0000 F2750
G1 X410.1077 Y541.6218 Z-21.0000 F2750
G1 X418.5922 Y550.1092 Z-21.0000 F2750
G1 X418.9722 Y550.5488 Z-21.0000 F2750
G1 X419.2982 Y551.0648 Z-21.0000 F2750
G1 X419.5498 Y551.6471 Z-21.0000 F2750
G1 X419.7090 Y552.2788 Z-21.0000 F2750
G1 X419.7635 Y552.9369 Z-21.0000 F2750
G1 X419.7090 Y553.5949 Z-21.0000 F2750
G1 X419.5498 Y554.2266 Z-21.0000 F2750
G1 X419.2982 Y554.8090 Z-21.0000 F2750
G1 X418.9722 Y555.3250 Z-21.0000 F2750
G1 X418.5922 Y555.7646 Z-21.0000 F2750
G1 X417.1773 Y557.1795 Z-21.0000 F2750
G1 X428.8516 Y545.5183 Z-21.0000 F2750
G1 X440.5142 Y533.8454 Z-21.0000 F2750
G1 X440.5142 Y533.8454 Z10.0000 F9999
G1 X684.6038 Y383.2562 Z10.0000 F9999
G1 X684.6038 Y383.2562 Z1.0000 F2000
G1 X662.6832 Y405.1767 Z-7.7502 F2000
G1 X664.0995 Y403.7632 Z-8.3150 F2000
G1 X664.5392 Y403.3833 Z-8.4790 F2000
G1 X665.0551 Y403.0572 Z-8.6513 F2000
G1 X665.6375 Y402.8056 Z-8.8303 F2000
G1 X666.2692 Y402.6465 Z-9.0142 F2000
G1 X666.9272 Y402.5920 Z-9.2006 F2000
G1 X667.5853 Y402.6465 Z-9.3870 F2000
G1 X668.2170 Y402.8056 Z-9.5708 F2000
G1 X668.7993 Y403.0572 Z-9.7499 F2000
G1 X669.3153 Y403.3833 Z-9.9222 F2000
G1 X669.5239 Y403.5636 Z-10.0000 F2000
G1 X669.3153 Y403.3833 Z-10.0778 F2000
G1 X668.7993 Y403.0572 Z-10.2501 F2000
G1 X668.2170 Y402.8056 Z-10.4292 F2000
G1 X667.5853 Y402.6465 Z-10.6130 F2000
G1 X666.9272 Y402.5920 Z-10.7994 F2000
G1 X666.2692 Y402.6465 Z-10.9858 F2000
G1 X665.6375 Y402.8056 Z-11.1697 F2000
G1 X665.0551 Y403.0572 Z-11.3487 F2000
G1 X664.5392 Y403.3833 Z-11.5210 F2000
G1 X664.0995 Y403.7632 Z-11.6850 F2000
G1 X662.6832 Y405.1767 Z-12.2498 F2000
G1 X684.6038 Y383.2562 Z-21.0000 F2000
G1 X662.6832 Y405.1767 Z-21.0000 F2750
G1 X664.0995 Y403.7632 Z-21.0000 F2750
G1 X664.5392 Y403.3833 Z-21.0000 F2750
G1 X665.0551 Y403.0572 Z-21.0000 F2750
G1 X665.6375 Y402.8056 Z-21.0000 F2750
G1 X666.2692 Y402.6465 Z-21.0000 F2750
G1 X666.9272 Y402.5920 Z-21.0000 F2750
G1 X667.5853 Y402.6465 Z-21.0000 F2750
G1 X668.2170 Y402.8056 Z-21.0000 F2750
G1 X668.7993 Y403.0572 Z-21.0000 F2750
G1 X669.3153 Y403.3833 Z-21.0000 F2750
G1 X669.7550 Y403.7632 Z-21.0000 F2750
G1 X678.2409 Y412.2492 Z-21.0000 F2750
G1 X676.8274 Y410.8329 Z-21.0000 F2750
G1 X676.4475 Y410.3932 Z-21.0000 F2750
G1 X676.1214 Y409.8772 Z-21.0000 F2750
G1 X675.8698 Y409.2949 Z-21.0000 F2750
G1 X675.7107 Y408.6632 Z-21.0000 F2750
G1 X675.6561 Y408.0051 Z-21.0000 F2750
G1 X675.7107 Y407.3471 Z-21.0000 F2750
G1 X675.8698 Y406.7154 Z-21.0000 F2750
G1 X676.1214 Y406.1331 Z-21.0000 F2750
G1 X676.4475 Y405.6171 Z-21.0000 F2750
G1 X676.8274 Y405.1774 Z-21.0000 F2750
G1 X707.9399 Y374.0649 Z-21.0000 F2750
G1 X708.3796 Y373.6850 Z-21.0000 F2750
G1 X708.8956 Y373.3589 Z-21.0000 F2750
G1 X709.4779 Y373.1073 Z-21.0000 F2750
G1 X710.1096 Y372.9481 Z-21.0000 F2750
G1 X710.7677 Y372.8936 Z-21.0000 F2750
G1 X711.4257 Y372.9481 Z-21.0000 F2750
G1 X712.0574 Y373.1073 Z-21.0000 F2750
G1 X712.6398 Y373.3589 Z-21.0000 F2750
G1 X713.1557 Y373.6850 Z-21.0000 F2750
G1 X713.5954 Y374.0649 Z-21.0000 F2750
G1 X715.0103 Y375.4798 Z-21.0000 F2750
G1 X706.5258 Y366.9924 Z-21.0000 F2750
G1 X706.1458 Y366.5528 Z-21.0000 F2750
G1 X705.8197 Y366.0368 Z-21.0000 F2750
G1 X705.5682 Y365.4545 Z-21.0000 F2750
G1 X705.4090 Y364.8228 Z-21.0000 F2750
G1 X705.3545 Y364.1647 Z-21.0000 F2750
G1 X705.4090 Y363.5067 Z-21.0000 F2750
G1 X705.5682 Y362.8750 Z-21.0000 F2750
G1 X705.8197 Y362.2926 Z-21.0000 F2750
G1 X706.1458 Y361.7766 Z-21.0000 F2750
G1 X706.5258 Y361.3370 Z-21.0000 F2750
G1 X707.9407 Y359.9221 Z-21.0000 F2750
G1 X696.2664 Y371.5833 Z-21.0000 F2750
G1 X684.6038 Y383.2562 Z-21.0000 F2750
G1 X684.6038 Y383.2562 Z10.0000 F9999
G1 X652.6464 Y321.7139 Z10.0000 F9999
G1 X652.6464 Y321.7139 Z1.0000 F2000
G1 X674.5670 Y299.7934 Z-7.7502 F2000
G1 X673.1507 Y301.2069 Z-8.3150 F2000
G1 X672.7110 Y301.5868 Z-8.4790 F2000
G1 X672.1950 Y301.9129 Z-8.6513 F2000
G1 X671.6127 Y302.1644 Z-8.8303 F2000
G1 X670.9810 Y302.3236 Z-9.0142 F2000
G1 X670.3230 Y302.3781 Z-9.2006 F2000
G1 X669.6649 Y302.3236 Z-9.3870 F2000
G1 X669.0332 Y302.1644 Z-9.5708 F2000
G1 X668.4509 Y301.9129 Z-9.7499 F2000
G1 X667.9349 Y301.5868 Z-9.9222 F2000
G1 X667.7263 Y301.4065 Z-10.0000 F2000
G1 X667.9349 Y301.5868 Z-10.0778 F2000
G1 X668.4509 Y301.9129 Z-10.2501 F2000
G1 X669.0332 Y302.1644 Z-10.4292 F2000
G1 X669.6649 Y302.3236 Z-10.6130 F2000
G1 X670.3230 Y302.3781 Z-10.7994 F2000
G1 X670.9810 Y302.3236 Z-10.9858 F2000
G1 X671.6127 Y302.1644 Z-11.1697 F2000
G1 X672.1950 Y301.9129 Z-11.3487 F2000
G1 X672.7110 Y301.5868 Z-11.5210 F2000
G1 X673.1507 Y301.2069 Z-11.6850 F2000
G1 X674.5670 Y299.7934 Z-12.2498 F2000
G1 X652.6464 Y321.7139 Z-21.0000 F2000
G1 X674.5670 Y299.7934 Z-21.0000 F2750
G1 X673.1507 Y301.2069 Z-21.0000 F2750
G1 X672.7110 Y301.5868 Z-21.0000 F2750
G1 X672.1950 Y301.9129 Z-21.0000 F2750
G1 X671.6127 Y302.1644 Z-21.0000 F2750
G1 X670.9810 Y302.3236 Z-21.0000 F2750
G1 X670.3230 Y302.3781 Z-21.0000 F2750
G1 X669.6649 Y302.3236 Z-21.0000 F2750
G1 X669.0332 Y302.1644 Z-21.0000 F2750
G1 X668.4509 Y301.9129 Z-21.0000 F2750
G1 X667.9349 Y301.5868 Z-21.0000 F2750
G1 X667.4952 Y301.2069 Z-21.0000 F2750
G1 X659.0093 Y292.7209 Z-21.0000 F2750
G1 X660.4228 Y294.1372 Z-21.0000 F2750
G1 X660.8257 Y294.6081 Z-21.0000 F2750
G1 X661.1564 Y295.1459 Z-21.0000 F2750
G1 X661.3995 Y295.7329 Z-21.0000 F2750
G1 X661.5460 Y296.3471 Z-21.0000 F2750
G1 X661.5940 Y296.9649 Z-21.0000 F2750
G1 X661.5460 Y297.5828 Z-21.0000 F2750
G1 X661.3995 Y298.1970 Z-21.0000 F2750
G1 X661.1564 Y298.7840 Z-21.0000 F2750
G1 X660.8257 Y299.3218 Z-21.0000 F2750
G1 X660.4228 Y299.7927 Z-21.0000 F2750
G1 X629.3102 Y330.9052 Z-21.0000 F2750
G1 X628.8394 Y331.3081 Z-21.0000 F2750
G1 X628.3015 Y331.6388 Z-21.0000 F2750
G1 X627.7145 Y331.8820 Z-21.0000 F2750
G1 X627.1004 Y332.0284 Z-21.0000 F2750
G1 X626.4825 Y332.0765 Z-21.0000 F2750
G1 X625.8647 Y332.0284 Z-21.0000 F2750
G1 X625.2505 Y331.8820 Z-21.0000 F2750
G1 X624.6635 Y331.6388 Z-21.0000 F2750
G1 X624.1257 Y331.3081 Z-21.0000 F2750
G1 X623.6548 Y330.9052 Z-21.0000 F2750
G1 X622.2399 Y329.4903 Z-21.0000 F2750
G1 X630.7244 Y337.9777 Z-21.0000 F2750
G1 X631.1274 Y338.4485 Z-21.0000 F2750
G1 X631.4581 Y338.9864 Z-21.0000 F2750
G1 X631.7012 Y339.5734 Z-21.0000 F2750
G1 X631.8477 Y340.1875 Z-21.0000 F2750
G1 X631.8957 Y340.8054 Z-21.0000 F2750
G1 X631.8477 Y341.4232 Z-21.0000 F2750
G1 X631.7012 Y342.0374 Z-21.0000 F2750
G1 X631.4581 Y342.6244 Z-21.0000 F2750
G1 X631.1274 Y343.1622 Z-21.0000 F2750
G1 X630.7244 Y343.6331 Z-21.0000 F2750
G1 X629.3095 Y345.0480 Z-21.0000 F2750
G1 X640.9838 Y333.3868 Z-21.0000 F2750
G1 X652.6464 Y321.7139 Z-21.0000 F2750
G1 X652.6464 Y321.7139 Z10.0000 F9999
G1 X480.1108 Y152.0081 Z10.0000 F9999
G1 X480.1108 Y152.0081 Z1.0000 F2000
G1 X458.1902 Y173.9287 Z-7.7502 F2000
G1 X459.6065 Y172.5152 Z-8.3150 F2000
G1 X460.0462 Y172.1352 Z-8.4790 F2000
G1 X460.5622 Y171.8092 Z-8.6513 F2000
G1 X461.1445 Y171.5576 Z-8.8303 F2000
G1 X461.7762 Y171.3984 Z-9.0142 F2000
G1 X462.4342 Y171.3439 Z-9.2006 F2000
G1 X463.0923 Y171.3984 Z-9.3870 F2000
G1 X463.7240 Y171.5576 Z-9.5708 F2000
G1 X464.3063 Y171.8092 Z-9.7499 F2000
G1 X464.8223 Y172.1352 Z-9.9222 F2000
G1 X465.0309 Y172.3155 Z-10.0000 F2000
G1 X464.8223 Y172.1352 Z-10.0778 F2000
G1 X464.3063 Y171.8092 Z-10.2501 F2000
G1 X463.7240 Y171.5576 Z-10.4292 F2000
G1 X463.0923 Y171.3984 Z-10.6130 F2000
G1 X462.4342 Y171.3439 Z-10.7994 F2000
G1 X461.7762 Y171.3984 Z-10.9858 F2000
G1 X461.1445 Y171.5576 Z-11.1697 F2000
G1 X460.5622 Y171.8092 Z-11.3487 F2000
G1 X460.0462 Y172.1352 Z-11.5210 F2000
G1 X459.6065 Y172.5152 Z-11.6850 F2000
G1 X458.1902 Y173.9287 Z-12.2498 F2000
G1 X480.1108 Y152.0081 Z-21.0000 F2000
G1 X458.1902 Y173.9287 Z-21.0000 F2750
G1 X459.6065 Y172.5152 Z-21.0000 F2750
G1 X460.0462 Y172.1352 Z-21.0000 F2750
G1 X460.5622 Y171.8092 Z-21.0000 F2750
G1 X461.1445 Y171.5576 Z-21.0000 F2750
G1 X461.7762 Y171.3984 Z-21.0000 F2750
G1 X462.4342 Y171.3439 Z-21.0000 F2750
G1 X463.0923 Y171.3984 Z-21.0000 F2750
G1 X463.7240 Y171.5576 Z-21.0000 F2750
G1 X464.3063 Y171.8092 Z-21.0000 F2750
G1 X464.8223 Y172.1352 Z-21.0000 F2750
G1 X465.2620 Y172.5152 Z-21.0000 F2750
G1 X473.7479 Y181.0011 Z-21.0000 F2750
G1 X472.3344 Y179.5848 Z-21.0000 F2750
G1 X471.9545 Y179.1452 Z-21.0000 F2750
G1 X471.6284 Y178.6292 Z-21.0000 F2750
G1 X471.3768 Y178.0468 Z-21.0000 F2750
G1 X471.2177 Y177.4152 Z-21.0000 F2750
G1 X471.1631 Y176.7571 Z-21.0000 F2750
G1 X471.2177 Y176.0990 Z-21.0000 F2750
G1 X471.3768 Y175.4673 Z-21.0000 F2750
G1 X471.6284 Y174.8850 Z-21.0000 F2750
G1 X471.9545 Y174.3690 Z-21.0000 F2750
G1 X472.3344 Y173.9294 Z-21.0000 F2750
G1 X503.4470 Y142.8168 Z-21.0000 F2750
G1 X503.8866 Y142.4369 Z-21.0000 F2750
G1 X504.4026 Y142.1108 Z-21.0000 F2750
G1 X504.9849 Y141.8593 Z-21.0000 F2750
G1 X505.6166 Y141.7001 Z-21.0000 F2750
G1 X506.2747 Y141.6456 Z-21.0000 F2750
G1 X506.9327 Y141.7001 Z-21.0000 F2750
G1 X507.5644 Y141.8593 Z-21.0000 F2750
G1 X508.1468 Y142.1108 Z-21.0000 F2750
G1 X508.6628 Y142.4369 Z-21.0000 F2750
G1 X509.1024 Y142.8168 Z-21.0000 F2750
G1 X510.5173 Y144.2318 Z-21.0000 F2750
G1 X502.0328 Y135.7444 Z-21.0000 F2750
G1 X501.6298 Y135.2735 Z-21.0000 F2750
G1 X501.2991 Y134.7357 Z-21.0000 F2750
G1 X501.0560 Y134.1487 Z-21.0000 F2750
G1 X500.9095 Y133.5345 Z-21.0000 F2750
G1 X500.8615 Y132.9167 Z-21.0000 F2750
G1 X500.9095 Y132.2988 Z-21.0000 F2750
G1 X501.0560 Y131.6846 Z-21.0000 F2750
G1 X501.2991 Y131.0977 Z-21.0000 F2750
G1 X501.6298 Y130.5598 Z-21.0000 F2750
G1 X502.0328 Y130.0889 Z-21.0000 F2750
G1 X503.4477 Y128.6740 Z-21.0000 F2750
G1 X491.7734 Y140.3352 Z-21.0000 F2750
G1 X480.1108 Y152.0081 Z-21.0000 F2750
G1 X480.1108 Y152.0081 Z10.0000 F9999
G1 X896.7360 Y171.1246 Z10.0000 F9999
G1 X896.7360 Y171.1246 Z1.0000 F2000
G1 X874.8154 Y193.0452 Z-7.7502 F2000
G1 X876.2317 Y191.6317 Z-8.3150 F2000
G1 X876.6714 Y191.2518 Z-8.4790 F2000
G1 X877.1873 Y190.9257 Z-8.6513 F2000
G1 X877.7697 Y190.6741 Z-8.8303 F2000
G1 X878.4014 Y190.5150 Z-9.0142 F2000
G1 X879.0594 Y190.4604 Z-9.2006 F2000
G1 X879.7175 Y190.5150 Z-9.3870 F2000
G1 X880.3492 Y190.6741 Z-9.5708 F2000
G1 X880.9315 Y190.9257 Z-9.7499 F2000
G1 X881.4475 Y191.2518 Z-9.9222 F2000
G1 X881.6561 Y191.4321 Z-10.0000 F2000
G1 X881.4475 Y191.2518 Z-10.0778 F2000
G1 X880.9315 Y190.9257 Z-10.2501 F2000
G1 X880.3492 Y190.6741 Z-10.4292 F2000
G1 X879.7175 Y190.5150 Z-10.6130 F2000
G1 X879.0594 Y190.4604 Z-10.7994 F2000
G1 X878.4014 Y190.5150 Z-10.9858 F2000
G1 X877.7697 Y190.6741 Z-11.1697 F2000
G1 X877.1873 Y190.9257 Z-11.3487 F2000
G1 X876.6714 Y191.2518 Z-11.5210 F2000
G1 X876.2317 Y191.6317 Z-11.6850 F2000
G1 X874.8154 Y193.0452 Z-12.2498 F2000
G1 X896.7360 Y171.1246 Z-21.0000 F2000
G1 X874.8154 Y193.0452 Z-21.0000 F2750
G1 X876.2317 Y191.6317 Z-21.0000 F2750
G1 X876.6714 Y191.2518 Z-21.0000 F2750
G1 X877.1873 Y190.9257 Z-21.0000 F2750
G1 X877.7697 Y190.6741 Z-21.0000 F2750
G1 X878.4014 Y190.5150 Z-21.0000 F2750
G1 X879.0594 Y190.4604 Z-21.0000 F2750
G1 X879.7175 Y190.5150 Z-21.0000 F2750
G1 X880.3492 Y190.6741 Z-21.0000 F2750
G1 X880.9315 Y190.9257 Z-21.0000 F2750
G1 X881.4475 Y191.2518 Z-21.0000 F2750
G1 X881.8872 Y191.6317 Z-21.0000 F2750
G1 X890.3731 Y200.1177 Z-21.0000 F2750
G1 X888.9596 Y198.7013 Z-21.0000 F2750
G1 X888.5797 Y198.2617 Z-21.0000 F2750
G1 X888.2536 Y197.7457 Z-21.0000 F2750
G1 X888.0020 Y197.1634 Z-21.0000 F2750
G1 X887.8429 Y196.5317 Z-21.0000 F2750
G1 X887.7883 Y195.8736 Z-21.0000 F2750
G1 X887.8429 Y195.2156 Z-21.0000 F2750
G1 X888.0020 Y194.5839 Z-21.0000 F2750
G1 X888.2536 Y194.0015 Z-21.0000 F2750
G1 X888.5797 Y193.4856 Z-21.0000 F2750
G1 X888.9596 Y193.0459 Z-21.0000 F2750
G1 X920.0722 Y161.9334 Z-21.0000 F2750
G1 X920.5118 Y161.5534 Z-21.0000 F2750
G1 X921.0278 Y161.2274 Z-21.0000 F2750
G1 X921.6101 Y160.9758 Z-21.0000 F2750
G1 X922.2418 Y160.8166 Z-21.0000 F2750
G1 X922.8999 Y160.7621 Z-21.0000 F2750
G1 X923.5579 Y160.8166 Z-21.0000 F2750
G1 X924.1896 Y160.9758 Z-21.0000 F2750
G1 X924.7720 Y161.2274 Z-21.0000 F2750
G1 X925.2879 Y161.5534 Z-21.0000 F2750
G1 X925.7276 Y161.9334 Z-21.0000 F2750
G1 X927.1425 Y163.3483 Z-21.0000 F2750
G1 X918.6580 Y154.8609 Z-21.0000 F2750
G1 X918.2780 Y154.4213 Z-21.0000 F2750
G1 X917.9519 Y153.9053 Z-21.0000 F2750
G1 X917.7004 Y153.3229 Z-21.0000 F2750
G1 X917.5412 Y152.6913 Z-21.0000 F2750
G1 X917.4867 Y152.0332 Z-21.0000 F2750
G1 X917.5412 Y151.3751 Z-21.0000 F2750
G1 X917.7004 Y150.7435 Z-21.0000 F2750
G1 X917.9519 Y150.1611 Z-21.0000 F2750
G1 X918.2780 Y149.6451 Z-21.0000 F2750
G1 X918.6580 Y149.2055 Z-21.0000 F2750
G1 X920.0729 Y147.7906 Z-21.0000 F2750
G1 X908.3986 Y159.4518 Z-21.0000 F2750
G1 X896.7360 Y171.1246 Z-21.0000 F2750
G1 X896.7360 Y171.1246 Z10.0000 F9999
G1 X1069.2716 Y340.8305 Z10.0000 F9999
G1 X1069.2716 Y340.8305 Z1.0000 F2000
G1 X1091.1922 Y318.9099 Z-7.7502 F2000
G1 X1089.7759 Y320.3234 Z-8.3150 F2000
G1 X1089.3362 Y320.7033 Z-8.4790 F2000
G1 X1088.8202 Y321.0294 Z-8.6513 F2000
G1 X1088.2379 Y321.2810 Z-8.8303 F2000
G1 X1087.6062 Y321.4402 Z-9.0142 F2000
G1 X1086.9481 Y321.4947 Z-9.2006 F2000
G1 X1086.2901 Y321.4402 Z-9.3870 F2000
G1 X1085.6584 Y321.2810 Z-9.5708 F2000
G1 X1085.0761 Y321.0294 Z-9.7499 F2000
G1 X1084.5601 Y320.7033 Z-9.9222 F2000
G1 X1084.3515 Y320.5231 Z-10.0000 F2000
G1 X1084.5601 Y320.7033 Z-10.0778 F2000
G1 X1085.0761 Y321.0294 Z-10.2501 F2000
G1 X1085.6584 Y321.2810 Z-10.4292 F2000
G1 X1086.2901 Y321.4402 Z-10.6130 F2000
G1 X1086.9481 Y321.4947 Z-10.7994 F2000
G1 X1087.6062 Y321.4402 Z-10.9858 F2000
G1 X1088.2379 Y321.2810 Z-11.1697 F2000
G1 X1088.8202 Y321.0294 Z-11.3487 F2000
G1 X1089.3362 Y320.7033 Z-11.5210 F2000
G1 X1089.7759 Y320.3234 Z-11.6850 F2000
G1 X1091.1922 Y318.9099 Z-12.2498 F2000
G1 X1069.2716 Y340.8305 Z-21.0000 F2000
G1 X1091.1922 Y318.9099 Z-21.0000 F2750
G1 X1089.7759 Y320.3234 Z-21.0000 F2750
G1 X1089.3362 Y320.7033 Z-21.0000 F2750
G1 X1088.8202 Y321.0294 Z-21.0000 F2750
G1 X1088.2379 Y321.2810 Z-21.0000 F2750
G1 X1087.6062 Y321.4402 Z-21.0000 F2750
G1 X1086.9481 Y321.4947 Z-21.0000 F2750
G1 X1086.2901 Y321.4402 Z-21.0000 F2750
G1 X1085.6584 Y321.2810 Z-21.0000 F2750
G1 X1085.0761 Y321.0294 Z-21.0000 F2750
G1 X1084.5601 Y320.7033 Z-21.0000 F2750
G1 X1084.1204 Y320.3234 Z-21.0000 F2750
G1 X1075.6345 Y311.8374 Z-21.0000 F2750
G1 X1077.0480 Y313.2538 Z-21.0000 F2750
G1 X1077.4509 Y313.7246 Z-21.0000 F2750
G1 X1077.7816 Y314.2625 Z-21.0000 F2750
G1 X1078.0247 Y314.8495 Z-21.0000 F2750
G1 X1078.1712 Y315.4636 Z-21.0000 F2750
G1 X1078.2192 Y316.0815 Z-21.0000 F2750
G1 X1078.1712 Y316.6994 Z-21.0000 F2750
G1 X1078.0247 Y317.3135 Z-21.0000 F2750
G1 X1077.7816 Y317.9005 Z-21.0000 F2750
G1 X1077.4509 Y318.4383 Z-21.0000 F2750
G1 X1077.0480 Y318.9092 Z-21.0000 F2750
G1 X1045.9354 Y350.0217 Z-21.0000 F2750
G1 X1045.4646 Y350.4247 Z-21.0000 F2750
G1 X1044.9267 Y350.7554 Z-21.0000 F2750
G1 X1044.3397 Y350.9985 Z-21.0000 F2750
G1 X1043.7256 Y351.1450 Z-21.0000 F2750
G1 X1043.1077 Y351.1930 Z-21.0000 F2750
G1 X1042.4898 Y351.1450 Z-21.0000 F2750
G1 X1041.8757 Y350.9985 Z-21.0000 F2750
G1 X1041.2887 Y350.7554 Z-21.0000 F2750
G1 X1040.7509 Y350.4247 Z-21.0000 F2750
G1 X1040.2800 Y350.0217 Z-21.0000 F2750
G1 X1038.8651 Y348.6068 Z-21.0000 F2750
G1 X1047.3496 Y357.0942 Z-21.0000 F2750
G1 X1047.7296 Y357.5338 Z-21.0000 F2750
G1 X1048.0556 Y358.0498 Z-21.0000 F2750
G1 X1048.3072 Y358.6322 Z-21.0000 F2750
G1 X1048.4664 Y359.2638 Z-21.0000 F2750
G1 X1048.5209 Y359.9219 Z-21.0000 F2750
G1 X1048.4664 Y360.5800 Z-21.0000 F2750
G1 X1048.3072 Y361.2117 Z-21.0000 F2750
G1 X1048.0556 Y361.7940 Z-21.0000 F2750
G1 X1047.7296 Y362.3100 Z-21.0000 F2750
G1 X1047.3496 Y362.7496 Z-21.0000 F2750
G1 X1045.9347 Y364.1645 Z-21.0000 F2750
G1 X1057.6090 Y352.5033 Z-21.0000 F2750
G1 X1069.2716 Y340.8305 Z-21.0000 F2750
G1 X1069.2716 Y340.8305 Z10.0000 F9999
G1 X857.1394 Y552.9620 Z10.0000 F9999
G1 X857.1394 Y552.9620 Z1.0000 F2000
G1 X879.0600 Y531.0414 Z-7.7502 F2000
G1 X877.6437 Y532.4549 Z-8.3150 F2000
G1 X877.1728 Y532.8579 Z-8.4899 F2000
G1 X876.6350 Y533.1885 Z-8.6681 F2000
G1 X876.0480 Y533.4317 Z-8.8474 F2000
G1 X875.4338 Y533.5782 Z-9.0257 F2000
G1 X874.8159 Y533.6262 Z-9.2006 F2000
G1 X874.1981 Y533.5782 Z-9.3755 F2000
G1 X873.5839 Y533.4317 Z-9.5537 F2000
G1 X872.9969 Y533.1885 Z-9.7331 F2000
G1 X872.4591 Y532.8579 Z-9.9113 F2000
G1 X872.2202 Y532.6535 Z-10.0000 F2000
G1 X872.4591 Y532.8579 Z-10.0887 F2000
G1 X872.9969 Y533.1885 Z-10.2669 F2000
G1 X873.5839 Y533.4317 Z-10.4463 F2000
G1 X874.1981 Y533.5782 Z-10.6245 F2000
G1 X874.8159 Y533.6262 Z-10.7994 F2000
G1 X875.4338 Y533.5782 Z-10.9743 F2000
G1 X876.0480 Y533.4317 Z-11.1526 F2000
G1 X876.6350 Y533.1885 Z-11.3319 F2000
G1 X877.1728 Y532.8579 Z-11.5101 F2000
G1 X877.6437 Y532.4549 Z-11.6850 F2000
G1 X879.0600 Y531.0414 Z-12.2498 F2000
G1 X857.1394 Y552.9620 Z-21.0000 F2000
G1 X879.0600 Y531.0414 Z-21.0000 F2750
G1 X877.6437 Y532.4549 Z-21.0000 F2750
G1 X877.1728 Y532.8579 Z-21.0000 F2750
G1 X876.6350 Y533.1885 Z-21.0000 F2750
G1 X876.0480 Y533.4317 Z-21.0000 F2750
G1 X875.4338 Y533.5782 Z-21.0000 F2750
G1 X874.8159 Y533.6262 Z-21.0000 F2750
G1 X874.1981 Y533.5782 Z-21.0000 F2750
G1 X873.5839 Y533.4317 Z-21.0000 F2750
G1 X872.9969 Y533.1885 Z-21.0000 F2750
G1 X872.4591 Y532.8579 Z-21.0000 F2750
G1 X871.9882 Y532.4549 Z-21.0000 F2750
G1 X863.5023 Y523.9689 Z-21.0000 F2750
G1 X864.9158 Y525.3853 Z-21.0000 F2750
G1 X865.2957 Y525.8249 Z-21.0000 F2750
G1 X865.6218 Y526.3409 Z-21.0000 F2750
G1 X865.8733 Y526.9233 Z-21.0000 F2750
G1 X866.0325 Y527.5549 Z-21.0000 F2750
G1 X866.0870 Y528.2130 Z-21.0000 F2750
G1 X866.0325 Y528.8711 Z-21.0000 F2750
G1 X865.8733 Y529.5027 Z-21.0000 F2750
G1 X865.6218 Y530.0851 Z-21.0000 F2750
G1 X865.2957 Y530.6011 Z-21.0000 F2750
G1 X864.9158 Y531.0407 Z-21.0000 F2750
G1 X833.8032 Y562.1532 Z-21.0000 F2750
G1 X833.3636 Y562.5332 Z-21.0000 F2750
G1 X832.8476 Y562.8593 Z-21.0000 F2750
G1 X832.2653 Y563.1108 Z-21.0000 F2750
G1 X831.6336 Y563.2700 Z-21.0000 F2750
G1 X830.9755 Y563.3245 Z-21.0000 F2750
G1 X830.3175 Y563.2700 Z-21.0000 F2750
G1 X829.6858 Y563.1108 Z-21.0000 F2750
G1 X829.1034 Y562.8593 Z-21.0000 F2750
G1 X828.5874 Y562.5332 Z-21.0000 F2750
G1 X828.1478 Y562.1532 Z-21.0000 F2750
G1 X826.7329 Y560.7383 Z-21.0000 F2750
G1 X835.2174 Y569.2257 Z-21.0000 F2750
G1 X835.5974 Y569.6653 Z-21.0000 F2750
G1 X835.9234 Y570.1813 Z-21.0000 F2750
G1 X836.1750 Y570.7637 Z-21.0000 F2750
G1 X836.3342 Y571.3954 Z-21.0000 F2750
G1 X836.3887 Y572.0534 Z-21.0000 F2750
G1 X836.3342 Y572.7115 Z-21.0000 F2750
G1 X836.1750 Y573.3432 Z-21.0000 F2750
G1 X835.9234 Y573.9255 Z-21.0000 F2750
G1 X835.5974 Y574.4415 Z-21.0000 F2750
G1 X835.2174 Y574.8811 Z-21.0000 F2750
G1 X833.8025 Y576.2961 Z-21.0000 F2750
G1 X845.4768 Y564.6349 Z-21.0000 F2750
G1 X857.1394 Y552.9620 Z-21.0000 F2750
G1 X857.1394 Y552.9620 Z10.0000 F9999
G1 X1023.9639 Y640.3107 Z10.0000 F9999
G1 X1023.9639 Y640.3107 Z1.0000 F2000
G1 X1023.9639 Y601.3396 Z-10.0000 F2000
G1 X1023.9639 Y640.3107 Z-21.0000 F2000
G1 X1023.9639 Y560.3109 Z-21.0000 F2750
G1 X1023.9996 Y559.7773 Z-21.0000 F2750
G1 X1024.1122 Y559.2318 Z-21.0000 F2750
G1 X1024.3067 Y558.6910 Z-21.0000 F2750
G1 X1024.5834 Y558.1729 Z-21.0000 F2750
G1 X1024.9372 Y557.6961 Z-21.0000 F2750
G1 X1025.3577 Y557.2769 Z-21.0000 F2750
G1 X1025.8302 Y556.9280 Z-21.0000 F2750
G1 X1026.3372 Y556.6572 Z-21.0000 F2750
G1 X1026.8605 Y556.4668 Z-21.0000 F2750
G1 X1027.3833 Y556.3541 Z-21.0000 F2750
G1 X1028.1728 Y556.3042 Z-21.0000 F2750
G1 X1028.9639 Y556.3119 Z-21.0000 F2750
G1 X1028.9639 Y554.3099 Z-21.0000 F2750
G1 X1008.9619 Y554.3099 Z-21.0000 F2750
G1 X1008.9619 Y556.3119 Z-21.0000 F2750
G1 X1009.7529 Y556.3042 Z-21.0000 F2750
G1 X1010.5424 Y556.3541 Z-21.0000 F2750
G1 X1011.0652 Y556.4668 Z-21.0000 F2750
G1 X1011.5886 Y556.6572 Z-21.0000 F2750
G1 X1012.0955 Y556.9280 Z-21.0000 F2750
G1 X1012.5680 Y557.2769 Z-21.0000 F2750
G1 X1012.9886 Y557.6961 Z-21.0000 F2750
G1 X1013.3424 Y558.1729 Z-21.0000 F2750
G1 X1013.6191 Y558.6910 Z-21.0000 F2750
G1 X1013.8135 Y559.2318 Z-21.0000 F2750
G1 X1013.9261 Y559.7773 Z-21.0000 F2750
G1 X1013.9619 Y560.3109 Z-21.0000 F2750
G1 X1013.9619 Y720.3106 Z-21.0000 F2750
G1 X1013.9261 Y720.8442 Z-21.0000 F2750
G1 X1013.8135 Y721.3896 Z-21.0000 F2750
G1 X1013.6191 Y721.9305 Z-21.0000 F2750
G1 X1013.3424 Y722.4485 Z-21.0000 F2750
G1 X1012.9886 Y722.9254 Z-21.0000 F2750
G1 X1012.5680 Y723.3446 Z-21.0000 F2750
G1 X1012.0955 Y723.6934 Z-21.0000 F2750
G1 X1011.5886 Y723.9642 Z-21.0000 F2750
G1 X1011.0652 Y724.1546 Z-21.0000 F2750
G1 X1010.5424 Y724.2673 Z-21.0000 F2750
G1 X1009.7529 Y724.3172 Z-21.0000 F2750
G1 X1008.9619 Y724.3096 Z-21.0000 F2750
G1 X1008.9619 Y726.3115 Z-21.0000 F2750
G1 X1028.9639 Y726.3115 Z-21.0000 F2750
G1 X1028.9639 Y724.3096 Z-21.0000 F2750
G1 X1028.1728 Y724.3172 Z-21.0000 F2750
G1 X1027.3833 Y724.2673 Z-21.0000 F2750
G1 X1026.8605 Y724.1546 Z-21.0000 F2750
G1 X1026.3372 Y723.9642 Z-21.0000 F2750
G1 X1025.8302 Y723.6934 Z-21.0000 F2750
G1 X1025.3577 Y723.3446 Z-21.0000 F2750
G1 X1024.9372 Y722.9254 Z-21.0000 F2750
G1 X1024.5834 Y722.4485 Z-21.0000 F2750
G1 X1024.3067 Y721.9305 Z-21.0000 F2750
G1 X1024.1122 Y721.3896 Z-21.0000 F2750
G1 X1023.9996 Y720.8442 Z-21.0000 F2750
G1 X1023.9639 Y720.3106 Z-21.0000 F2750
G1 X1023.9639 Y640.3107 Z-21.0000 F2750
G1 X1023.9639 Y640.3107 Z10.0000 F9999
G1 X1155.9636 Y640.3107 Z10.0000 F9999
G1 X1155.9636 Y640.3107 Z1.0000 F2000
G1 X1155.9636 Y601.3396 Z-10.0000 F2000
G1 X1155.9636 Y640.3107 Z-21.0000 F2000
G1 X1155.9636 Y560.3109 Z-21.0000 F2750
G1 X1155.9994 Y559.7773 Z-21.0000 F2750
G1 X1156.1120 Y559.2318 Z-21.0000 F2750
G1 X1156.3064 Y558.6910 Z-21.0000 F2750
G1 X1156.5831 Y558.1729 Z-21.0000 F2750
G1 X1156.9369 Y557.6961 Z-21.0000 F2750
G1 X1157.3575 Y557.2769 Z-21.0000 F2750
G1 X1157.8299 Y556.9280 Z-21.0000 F2750
G1 X1158.3369 Y556.6572 Z-21.0000 F2750
G1 X1158.8603 Y556.4668 Z-21.0000 F2750
G1 X1159.3831 Y556.3541 Z-21.0000 F2750
G1 X1160.1726 Y556.3042 Z-21.0000 F2750
G1 X1160.9636 Y556.3119 Z-21.0000 F2750
G1 X1160.9636 Y554.3099 Z-21.0000 F2750
G1 X1140.9616 Y554.3099 Z-21.0000 F2750
G1 X1140.9616 Y556.3119 Z-21.0000 F2750
G1 X1141.7527 Y556.3042 Z-21.0000 F2750
G1 X1142.5422 Y556.3541 Z-21.0000 F2750
G1 X1143.0650 Y556.4668 Z-21.0000 F2750
G1 X1143.5883 Y556.6572 Z-21.0000 F2750
G1 X1144.0953 Y556.9280 Z-21.0000 F2750
G1 X1144.5678 Y557.2769 Z-21.0000 F2750
G1 X1144.9883 Y557.6961 Z-21.0000 F2750
G1 X1145.3421 Y558.1729 Z-21.0000 F2750
G1 X1145.6188 Y558.6910 Z-21.0000 F2750
G1 X1145.8133 Y559.2318 Z-21.0000 F2750
G1 X1145.9259 Y559.7773 Z-21.0000 F2750
G1 X1145.9616 Y560.3109 Z-21.0000 F2750
G1 X1145.9616 Y720.3106 Z-21.0000 F2750
G1 X1145.9259 Y720.8442 Z-21.0000 F2750
G1 X1145.8133 Y721.3896 Z-21.0000 F2750
G1 X1145.6188 Y721.9305 Z-21.0000 F2750
G1 X1145.3421 Y722.4485 Z-21.0000 F2750
G1 X1144.9883 Y722.9254 Z-21.0000 F2750
G1 X1144.5678 Y723.3446 Z-21.0000 F2750
G1 X1144.0953 Y723.6934 Z-21.0000 F2750
G1 X1143.5883 Y723.9642 Z-21.0000 F2750
G1 X1143.0650 Y724.1546 Z-21.0000 F2750
G1 X1142.5422 Y724.2673 Z-21.0000 F2750
G1 X1141.7527 Y724.3172 Z-21.0000 F2750
G1 X1140.9616 Y724.3096 Z-21.0000 F2750
G1 X1140.9616 Y726.3115 Z-21.0000 F2750
G1 X1160.9636 Y726.3115 Z-21.0000 F2750
G1 X1160.9636 Y724.3096 Z-21.0000 F2750
G1 X1160.1726 Y724.3172 Z-21.0000 F2750
G1 X1159.3831 Y724.2673 Z-21.0000 F2750
G1 X1158.8603 Y724.1546 Z-21.0000 F2750
G1 X1158.3369 Y723.9642 Z-21.0000 F2750
G1 X1157.8299 Y723.6934 Z-21.0000 F2750
G1 X1157.3575 Y723.3446 Z-21.0000 F2750
G1 X1156.9369 Y722.9254 Z-21.0000 F2750
G1 X1156.5831 Y722.4485 Z-21.0000 F2750
G1 X1156.3064 Y721.9305 Z-21.0000 F2750
G1 X1156.1120 Y721.3896 Z-21.0000 F2750
G1 X1155.9994 Y720.8442 Z-21.0000 F2750
G1 X1155.9636 Y720.3106 Z-21.0000 F2750
G1 X1155.9636 Y640.3107 Z-21.0000 F2750
G1 X1155.9636 Y640.3107 Z10.0000 F9999
G1 X1155.9636 Y940.3101 Z10.0000 F9999
G1 X1155.9636 Y940.3101 Z1.0000 F2000
G1 X1155.9636 Y901.3390 Z-10.0000 F2000
G1 X1155.9636 Y940.3101 Z-21.0000 F2000
G1 X1155.9636 Y860.3103 Z-21.0000 F2750
G1 X1155.9994 Y859.7766 Z-21.0000 F2750
G1 X1156.1120 Y859.2312 Z-21.0000 F2750
G1 X1156.3064 Y858.6903 Z-21.0000 F2750
G1 X1156.5831 Y858.1723 Z-21.0000 F2750
G1 X1156.9369 Y857.6955 Z-21.0000 F2750
G1 X1157.3575 Y857.2763 Z-21.0000 F2750
G1 X1157.8299 Y856.9274 Z-21.0000 F2750
G1 X1158.3369 Y856.6566 Z-21.0000 F2750
G1 X1158.8603 Y856.4662 Z-21.0000 F2750
G1 X1159.3831 Y856.3535 Z-21.0000 F2750
G1 X1160.1726 Y856.3036 Z-21.0000 F2750
G1 X1160.9636 Y856.3113 Z-21.0000 F2750
G1 X1160.9636 Y854.3093 Z-21.0000 F2750
G1 X1140.9616 Y854.3093 Z-21.0000 F2750
G1 X1140.9616 Y856.3113 Z-21.0000 F2750
G1 X1141.7527 Y856.3036 Z-21.0000 F2750
G1 X1142.5422 Y856.3535 Z-21.0000 F2750
G1 X1143.0650 Y856.4662 Z-21.0000 F2750
G1 X1143.5883 Y856.6566 Z-21.0000 F2750
G1 X1144.0953 Y856.9274 Z-21.0000 F2750
G1 X1144.5678 Y857.2763 Z-21.0000 F2750
G1 X1144.9883 Y857.6955 Z-21.0000 F2750
G1 X1145.3421 Y858.1723 Z-21.0000 F2750
G1 X1145.6188 Y858.6903 Z-21.0000 F2750
G1 X1145.8133 Y859.2312 Z-21.0000 F2750
G1 X1145.9259 Y859.7766 Z-21.0000 F2750
G1 X1145.9616 Y860.3103 Z-21.0000 F2750
G1 X1145.9616 Y1020.3100 Z-21.0000 F2750
G1 X1145.9259 Y1020.8436 Z-21.0000 F2750
G1 X1145.8133 Y1021.3890 Z-21.0000 F2750
G1 X1145.6188 Y1021.9299 Z-21.0000 F2750
G1 X1145.3421 Y1022.4480 Z-21.0000 F2750
G1 X1144.9883 Y1022.9248 Z-21.0000 F2750
G1 X1144.5678 Y1023.3440 Z-21.0000 F2750
G1 X1144.0953 Y1023.6928 Z-21.0000 F2750
G1 X1143.5883 Y1023.9636 Z-21.0000 F2750
G1 X1143.0650 Y1024.1541 Z-21.0000 F2750
G1 X1142.5422 Y1024.2668 Z-21.0000 F2750
G1 X1141.7527 Y1024.3166 Z-21.0000 F2750
G1 X1140.9616 Y1024.3090 Z-21.0000 F2750
G1 X1140.9616 Y1026.3109 Z-21.0000 F2750
G1 X1160.9636 Y1026.3109 Z-21.0000 F2750
G1 X1160.9636 Y1024.3090 Z-21.0000 F2750
G1 X1160.1726 Y1024.3166 Z-21.0000 F2750
G1 X1159.3831 Y1024.2668 Z-21.0000 F2750
G1 X1158.8603 Y1024.1541 Z-21.0000 F2750
G1 X1158.3369 Y1023.9636 Z-21.0000 F2750
G1 X1157.8299 Y1023.6928 Z-21.0000 F2750
G1 X1157.3575 Y1023.3440 Z-21.0000 F2750
G1 X1156.9369 Y1022.9248 Z-21.0000 F2750
G1 X1156.5831 Y1022.4480 Z-21.0000 F2750
G1 X1156.3064 Y1021.9299 Z-21.0000 F2750
G1 X1156.1120 Y1021.3890 Z-21.0000 F2750
G1 X1155.9994 Y1020.8436 Z-21.0000 F2750
G1 X1155.9636 Y1020.3100 Z-21.0000 F2750
G1 X1155.9636 Y940.3101 Z-21.0000 F2750
G1 X1155.9636 Y940.3101 Z10.0000 F9999
G1 X1023.9639 Y940.3101 Z10.0000 F9999
G1 X1023.9639 Y940.3101 Z1.0000 F2000
G1 X1023.9639 Y901.3390 Z-10.0000 F2000
G1 X1023.9639 Y940.3101 Z-21.0000 F2000
G1 X1023.9639 Y860.3103 Z-21.0000 F2750
G1 X1023.9996 Y859.7766 Z-21.0000 F2750
G1 X1024.1122 Y859.2312 Z-21.0000 F2750
G1 X1024.3067 Y858.6903 Z-21.0000 F2750
G1 X1024.5834 Y858.1723 Z-21.0000 F2750
G1 X1024.9372 Y857.6955 Z-21.0000 F2750
G1 X1025.3577 Y857.2763 Z-21.0000 F2750
G1 X1025.8302 Y856.9274 Z-21.0000 F2750
G1 X1026.3372 Y856.6566 Z-21.0000 F2750
G1 X1026.8605 Y856.4662 Z-21.0000 F2750
G1 X1027.3833 Y856.3535 Z-21.0000 F2750
G1 X1028.1728 Y856.3036 Z-21.0000 F2750
G1 X1028.9639 Y856.3113 Z-21.0000 F2750
G1 X1028.9639 Y854.3093 Z-21.0000 F2750
G1 X1008.9619 Y854.3093 Z-21.0000 F2750
G1 X1008.9619 Y856.3113 Z-21.0000 F2750
G1 X1009.7529 Y856.3036 Z-21.0000 F2750
G1 X1010.5424 Y856.3535 Z-21.0000 F2750
G1 X1011.0652 Y856.4662 Z-21.0000 F2750
G1 X1011.5886 Y856.6566 Z-21.0000 F2750
G1 X1012.0955 Y856.9274 Z-21.0000 F2750
G1 X1012.5680 Y857.2763 Z-21.0000 F2750
G1 X1012.9886 Y857.6955 Z-21.0000 F2750
G1 X1013.3424 Y858.1723 Z-21.0000 F2750
G1 X1013.6191 Y858.6903 Z-21.0000 F2750
G1 X1013.8135 Y859.2312 Z-21.0000 F2750
G1 X1013.9261 Y859.7766 Z-21.0000 F2750
G1 X1013.9619 Y860.3103 Z-21.0000 F2750
G1 X1013.9619 Y1020.3100 Z-21.0000 F2750
G1 X1013.9261 Y1020.8436 Z-21.0000 F2750
G1 X1013.8135 Y1021.3890 Z-21.0000 F2750
G1 X1013.6191 Y1021.9299 Z-21.0000 F2750
G1 X1013.3424 Y1022.4480 Z-21.0000 F2750
G1 X1012.9886 Y1022.9248 Z-21.0000 F2750
G1 X1012.5680 Y1023.3440 Z-21.0000 F2750
G1 X1012.0955 Y1023.6928 Z-21.0000 F2750
G1 X1011.5886 Y1023.9636 Z-21.0000 F2750
G1 X1011.0652 Y1024.1541 Z-21.0000 F2750
G1 X1010.5424 Y1024.2668 Z-21.0000 F2750
G1 X1009.7529 Y1024.3166 Z-21.0000 F2750
G1 X1008.9619 Y1024.3090 Z-21.0000 F2750
G1 X1008.9619 Y1026.3109 Z-21.0000 F2750
G1 X1028.9639 Y1026.3109 Z-21.0000 F2750
G1 X1028.9639 Y1024.3090 Z-21.0000 F2750
G1 X1028.1728 Y1024.3166 Z-21.0000 F2750
G1 X1027.3833 Y1024.2668 Z-21.0000 F2750
G1 X1026.8605 Y1024.1541 Z-21.0000 F2750
G1 X1026.3372 Y1023.9636 Z-21.0000 F2750
G1 X1025.8302 Y1023.6928 Z-21.0000 F2750
G1 X1025.3577 Y1023.3440 Z-21.0000 F2750
G1 X1024.9372 Y1022.9248 Z-21.0000 F2750
G1 X1024.5834 Y1022.4480 Z-21.0000 F2750
G1 X1024.3067 Y1021.9299 Z-21.0000 F2750
G1 X1024.1122 Y1021.3890 Z-21.0000 F2750
G1 X1023.9996 Y1020.8436 Z-21.0000 F2750
G1 X1023.9639 Y1020.3100 Z-21.0000 F2750
G1 X1023.9639 Y940.3101 Z-21.0000 F2750
G1 X1023.9639 Y940.3101 Z10.0000 F9999
G1 X1013.9619 Y1240.3095 Z10.0000 F9999
G1 X1013.9619 Y1240.3095 Z1.0000 F2000
G1 X1013.9619 Y1279.2806 Z-10.0000 F2000
G1 X1013.9619 Y1240.3095 Z-21.0000 F2000
G1 X1013.9619 Y1320.3093 Z-21.0000 F2750
G1 X1013.9261 Y1320.8429 Z-21.0000 F2750
G1 X1013.8135 Y1321.3883 Z-21.0000 F2750
G1 X1013.6191 Y1321.9292 Z-21.0000 F2750
G1 X1013.3424 Y1322.4472 Z-21.0000 F2750
G1 X1012.9886 Y1322.9241 Z-21.0000 F2750
G1 X1012.5680 Y1323.3433 Z-21.0000 F2750
G1 X1012.0955 Y1323.6921 Z-21.0000 F2750
G1 X1011.5886 Y1323.9629 Z-21.0000 F2750
G1 X1011.0652 Y1324.1533 Z-21.0000 F2750
G1 X1010.5424 Y1324.2660 Z-21.0000 F2750
G1 X1009.7529 Y1324.3159 Z-21.0000 F2750
G1 X1008.9619 Y1324.3083 Z-21.0000 F2750
G1 X1008.9619 Y1326.3104 Z-21.0000 F2750
G1 X1028.9639 Y1326.3104 Z-21.0000 F2750
G1 X1028.9639 Y1324.3083 Z-21.0000 F2750
G1 X1028.1728 Y1324.3159 Z-21.0000 F2750
G1 X1027.3833 Y1324.2660 Z-21.0000 F2750
G1 X1026.8605 Y1324.1533 Z-21.0000 F2750
G1 X1026.3372 Y1323.9629 Z-21.0000 F2750
G1 X1025.8302 Y1323.6921 Z-21.0000 F2750
G1 X1025.3577 Y1323.3433 Z-21.0000 F2750
G1 X1024.9372 Y1322.9241 Z-21.0000 F2750
G1 X1024.5834 Y1322.4472 Z-21.0000 F2750
G1 X1024.3067 Y1321.9292 Z-21.0000 F2750
G1 X1024.1122 Y1321.3883 Z-21.0000 F2750
G1 X1023.9996 Y1320.8429 Z-21.0000 F2750
G1 X1023.9639 Y1320.3093 Z-21.0000 F2750
G1 X1023.9639 Y1249.3094 Z-21.0000 F2750
G1 X1024.0061 Y1248.7299 Z-21.0000 F2750
G1 X1024.1404 Y1248.1345 Z-21.0000 F2750
G1 X1024.3743 Y1247.5448 Z-21.0000 F2750
G1 X1024.7084 Y1246.9856 Z-21.0000 F2750
G1 X1025.1352 Y1246.4817 Z-21.0000 F2750
G1 X1025.6390 Y1246.0549 Z-21.0000 F2750
G1 X1026.1982 Y1245.7208 Z-21.0000 F2750
G1 X1026.7879 Y1245.4869 Z-21.0000 F2750
G1 X1027.3833 Y1245.3527 Z-21.0000 F2750
G1 X1027.9629 Y1245.3104 Z-21.0000 F2750
G1 X1048.9628 Y1245.3104 Z-21.0000 F2750
G1 X1049.4964 Y1245.3462 Z-21.0000 F2750
G1 X1050.0419 Y1245.4588 Z-21.0000 F2750
G1 X1050.5827 Y1245.6532 Z-21.0000 F2750
G1 X1051.1008 Y1245.9299 Z-21.0000 F2750
G1 X1051.5776 Y1246.2838 Z-21.0000 F2750
G1 X1051.9968 Y1246.7043 Z-21.0000 F2750
G1 X1052.3457 Y1247.1768 Z-21.0000 F2750
G1 X1052.6165 Y1247.6837 Z-21.0000 F2750
G1 X1052.8069 Y1248.2071 Z-21.0000 F2750
G1 X1052.9196 Y1248.7299 Z-21.0000 F2750
G1 X1052.9694 Y1249.5194 Z-21.0000 F2750
G1 X1052.9618 Y1250.3105 Z-21.0000 F2750
G1 X1054.9638 Y1250.3105 Z-21.0000 F2750
G1 X1054.9638 Y1230.3085 Z-21.0000 F2750
G1 X1052.9618 Y1230.3085 Z-21.0000 F2750
G1 X1052.9694 Y1231.0996 Z-21.0000 F2750
G1 X1052.9196 Y1231.8891 Z-21.0000 F2750
G1 X1052.8069 Y1232.4119 Z-21.0000 F2750
G1 X1052.6165 Y1232.9353 Z-21.0000 F2750
G1 X1052.3457 Y1233.4422 Z-21.0000 F2750
G1 X1051.9968 Y1233.9147 Z-21.0000 F2750
G1 X1051.5776 Y1234.3352 Z-21.0000 F2750
G1 X1051.1008 Y1234.6891 Z-21.0000 F2750
G1 X1050.5827 Y1234.9658 Z-21.0000 F2750
G1 X1050.0419 Y1235.1602 Z-21.0000 F2750
G1 X1049.4964 Y1235.2728 Z-21.0000 F2750
G1 X1048.9628 Y1235.3086 Z-21.0000 F2750
G1 X1027.9629 Y1235.3086 Z-21.0000 F2750
G1 X1027.3833 Y1235.2663 Z-21.0000 F2750
G1 X1026.7879 Y1235.1321 Z-21.0000 F2750
G1 X1026.1982 Y1234.8982 Z-21.0000 F2750
G1 X1025.6390 Y1234.5640 Z-21.0000 F2750
G1 X1025.1352 Y1234.1373 Z-21.0000 F2750
G1 X1024.7084 Y1233.6334 Z-21.0000 F2750
G1 X1024.3743 Y1233.0742 Z-21.0000 F2750
G1 X1024.1404 Y1232.4845 Z-21.0000 F2750
G1 X1024.0061 Y1231.8891 Z-21.0000 F2750
G1 X1023.9639 Y1231.3096 Z-21.0000 F2750
G1 X1023.9639 Y1160.3097 Z-21.0000 F2750
G1 X1023.9996 Y1159.7761 Z-21.0000 F2750
G1 X1024.1122 Y1159.2306 Z-21.0000 F2750
G1 X1024.3067 Y1158.6898 Z-21.0000 F2750
G1 X1024.5834 Y1158.1717 Z-21.0000 F2750
G1 X1024.9372 Y1157.6949 Z-21.0000 F2750
G1 X1025.3577 Y1157.2757 Z-21.0000 F2750
G1 X1025.8302 Y1156.9268 Z-21.0000 F2750
G1 X1026.3372 Y1156.6560 Z-21.0000 F2750
G1 X1026.8605 Y1156.4656 Z-21.0000 F2750
G1 X1027.3833 Y1156.3529 Z-21.0000 F2750
G1 X1028.1728 Y1156.3030 Z-21.0000 F2750
G1 X1028.9639 Y1156.3107 Z-21.0000 F2750
G1 X1028.9639 Y1154.3087 Z-21.0000 F2750
G1 X1008.9619 Y1154.3087 Z-21.0000 F2750
G1 X1008.9619 Y1156.3107 Z-21.0000 F2750
G1 X1009.7529 Y1156.3030 Z-21.0000 F2750
G1 X1010.5424 Y1156.3529 Z-21.0000 F2750
G1 X1011.0652 Y1156.4656 Z-21.0000 F2750
G1 X1011.5886 Y1156.6560 Z-21.0000 F2750
G1 X1012.0955 Y1156.9268 Z-21.0000 F2750
G1 X1012.5680 Y1157.2757 Z-21.0000 F2750
G1 X1012.9886 Y1157.6949 Z-21.0000 F2750
G1 X1013.3424 Y1158.1717 Z-21.0000 F2750
G1 X1013.6191 Y1158.6898 Z-21.0000 F2750
G1 X1013.8135 Y1159.2306 Z-21.0000 F2750
G1 X1013.9261 Y1159.7761 Z-21.0000 F2750
G1 X1013.9619 Y1160.3097 Z-21.0000 F2750
G1 X1013.9619 Y1240.3095 Z-21.0000 F2750
G1 X1013.9619 Y1240.3095 Z10.0000 F9999
G1 X1155.9636 Y1240.3095 Z10.0000 F9999
G1 X1155.9636 Y1240.3095 Z1.0000 F2000
G1 X1155.9636 Y1201.3383 Z-10.0000 F2000
G1 X1155.9636 Y1240.3095 Z-21.0000 F2000
G1 X1155.9636 Y1160.3097 Z-21.0000 F2750
G1 X1155.9994 Y1159.7761 Z-21.0000 F2750
G1 X1156.1120 Y1159.2306 Z-21.0000 F2750
G1 X1156.3064 Y1158.6898 Z-21.0000 F2750
G1 X1156.5831 Y1158.1717 Z-21.0000 F2750
G1 X1156.9369 Y1157.6949 Z-21.0000 F2750
G1 X1157.3575 Y1157.2757 Z-21.0000 F2750
G1 X1157.8299 Y1156.9268 Z-21.0000 F2750
G1 X1158.3369 Y1156.6560 Z-21.0000 F2750
G1 X1158.8603 Y1156.4656 Z-21.0000 F2750
G1 X1159.3831 Y1156.3529 Z-21.0000 F2750
G1 X1160.1726 Y1156.3030 Z-21.0000 F2750
G1 X1160.9636 Y1156.3107 Z-21.0000 F2750
G1 X1160.9636 Y1154.3087 Z-21.0000 F2750
G1 X1140.9616 Y1154.3087 Z-21.0000 F2750
G1 X1140.9616 Y1156.3107 Z-21.0000 F2750
G1 X1141.7527 Y1156.3030 Z-21.0000 F2750
G1 X1142.5422 Y1156.3529 Z-21.0000 F2750
G1 X1143.0650 Y1156.4656 Z-21.0000 F2750
G1 X1143.5883 Y1156.6560 Z-21.0000 F2750
G1 X1144.0953 Y1156.9268 Z-21.0000 F2750
G1 X1144.5678 Y1157.2757 Z-21.0000 F2750
G1 X1144.9883 Y1157.6949 Z-21.0000 F2750
G1 X1145.3421 Y1158.1717 Z-21.0000 F2750
G1 X1145.6188 Y1158.6898 Z-21.0000 F2750
G1 X1145.8133 Y1159.2306 Z-21.0000 F2750
G1 X1145.9259 Y1159.7761 Z-21.0000 F2750
G1 X1145.9616 Y1160.3097 Z-21.0000 F2750
G1 X1145.9616 Y1231.3096 Z-21.0000 F2750
G1 X1145.9194 Y1231.8891 Z-21.0000 F2750
G1 X1145.7851 Y1232.4845 Z-21.0000 F2750
G1 X1145.5512 Y1233.0742 Z-21.0000 F2750
G1 X1145.2171 Y1233.6334 Z-21.0000 F2750
G1 X1144.7903 Y1234.1373 Z-21.0000 F2750
G1 X1144.2865 Y1234.5640 Z-21.0000 F2750
G1 X1143.7273 Y1234.8982 Z-21.0000 F2750
G1 X1143.1376 Y1235.1321 Z-21.0000 F2750
G1 X1142.5422 Y1235.2663 Z-21.0000 F2750
G1 X1141.9626 Y1235.3086 Z-21.0000 F2750
G1 X1120.9627 Y1235.3086 Z-21.0000 F2750
G1 X1120.4291 Y1235.2728 Z-21.0000 F2750
G1 X1119.8836 Y1235.1602 Z-21.0000 F2750
G1 X1119.3428 Y1234.9658 Z-21.0000 F2750
G1 X1118.8247 Y1234.6891 Z-21.0000 F2750
G1 X1118.3479 Y1234.3352 Z-21.0000 F2750
G1 X1117.9287 Y1233.9147 Z-21.0000 F2750
G1 X1117.5798 Y1233.4422 Z-21.0000 F2750
G1 X1117.3090 Y1232.9353 Z-21.0000 F2750
G1 X1117.1186 Y1232.4119 Z-21.0000 F2750
G1 X1117.0059 Y1231.8891 Z-21.0000 F2750
G1 X1116.9560 Y1231.0996 Z-21.0000 F2750
G1 X1116.9637 Y1230.3085 Z-21.0000 F2750
G1 X1114.9617 Y1230.3085 Z-21.0000 F2750
G1 X1114.9617 Y1250.3105 Z-21.0000 F2750
G1 X1116.9637 Y1250.3105 Z-21.0000 F2750
G1 X1116.9560 Y1249.5194 Z-21.0000 F2750
G1 X1117.0059 Y1248.7299 Z-21.0000 F2750
G1 X1117.1186 Y1248.2071 Z-21.0000 F2750
G1 X1117.3090 Y1247.6837 Z-21.0000 F2750
G1 X1117.5798 Y1247.1768 Z-21.0000 F2750
G1 X1117.9287 Y1246.7043 Z-21.0000 F2750
G1 X1118.3479 Y1246.2838 Z-21.0000 F2750
G1 X1118.8247 Y1245.9299 Z-21.0000 F2750
G1 X1119.3428 Y1245.6532 Z-21.0000 F2750
G1 X1119.8836 Y1245.4588 Z-21.0000 F2750
G1 X1120.4291 Y1245.3462 Z-21.0000 F2750
G1 X1120.9627 Y1245.3104 Z-21.0000 F2750
G1 X1141.9626 Y1245.3104 Z-21.0000 F2750
G1 X1142.5422 Y1245.3527 Z-21.0000 F2750
G1 X1143.1376 Y1245.4869 Z-21.0000 F2750
G1 X1143.7273 Y1245.7208 Z-21.0000 F2750
G1 X1144.2865 Y1246.0549 Z-21.0000 F2750
G1 X1144.7903 Y1246.4817 Z-21.0000 F2750
G1 X1145.2171 Y1246.9856 Z-21.0000 F2750
G1 X1145.5512 Y1247.5448 Z-21.0000 F2750
G1 X1145.7851 Y1248.1345 Z-21.0000 F2750
G1 X1145.9194 Y1248.7299 Z-21.0000 F2750
G1 X1145.9616 Y1249.3094 Z-21.0000 F2750
G1 X1145.9616 Y1320.3093 Z-21.0000 F2750
G1 X1145.9259 Y1320.8429 Z-21.0000 F2750
G1 X1145.8133 Y1321.3883 Z-21.0000 F2750
G1 X1145.6188 Y1321.9292 Z-21.0000 F2750
G1 X1145.3421 Y1322.4472 Z-21.0000 F2750
G1 X1144.9883 Y1322.9241 Z-21.0000 F2750
G1 X1144.5678 Y1323.3433 Z-21.0000 F2750
G1 X1144.0953 Y1323.6921 Z-21.0000 F2750
G1 X1143.5883 Y1323.9629 Z-21.0000 F2750
G1 X1143.0650 Y1324.1533 Z-21.0000 F2750
G1 X1142.5422 Y1324.2660 Z-21.0000 F2750
G1 X1141.7527 Y1324.3159 Z-21.0000 F2750
G1 X1140.9616 Y1324.3083 Z-21.0000 F2750
G1 X1140.9616 Y1326.3104 Z-21.0000 F2750
G1 X1160.9636 Y1326.3104 Z-21.0000 F2750
G1 X1160.9636 Y1324.3083 Z-21.0000 F2750
G1 X1160.1726 Y1324.3159 Z-21.0000 F2750
G1 X1159.3831 Y1324.2660 Z-21.0000 F2750
G1 X1158.8603 Y1324.1533 Z-21.0000 F2750
G1 X1158.3369 Y1323.9629 Z-21.0000 F2750
G1 X1157.8299 Y1323.6921 Z-21.0000 F2750
G1 X1157.3575 Y1323.3433 Z-21.0000 F2750
G1 X1156.9369 Y1322.9241 Z-21.0000 F2750
G1 X1156.5831 Y1322.4472 Z-21.0000 F2750
G1 X1156.3064 Y1321.9292 Z-21.0000 F2750
G1 X1156.1120 Y1321.3883 Z-21.0000 F2750
G1 X1155.9994 Y1320.8429 Z-21.0000 F2750
G1 X1155.9636 Y1320.3093 Z-21.0000 F2750
G1 X1155.9636 Y1240.3095 Z-21.0000 F2750
G1 X1155.9636 Y1240.3095 Z10.0000 F9999
G1 X1145.9616 Y1540.3089 Z10.0000 F9999
G1 X1145.9616 Y1540.3089 Z1.0000 F2000
G1 X1145.9616 Y1579.2800 Z-10.0000 F2000
G1 X1145.9616 Y1540.3089 Z-21.0000 F2000
G1 X1145.9616 Y1620.3087 Z-21.0000 F2750
G1 X1145.9259 Y1620.8423 Z-21.0000 F2750
G1 X1145.8133 Y1621.3878 Z-21.0000 F2750
G1 X1145.6188 Y1621.9286 Z-21.0000 F2750
G1 X1145.3421 Y1622.4467 Z-21.0000 F2750
G1 X1144.9883 Y1622.9235 Z-21.0000 F2750
G1 X1144.5678 Y1623.3427 Z-21.0000 F2750
G1 X1144.0953 Y1623.6916 Z-21.0000 F2750
G1 X1143.5883 Y1623.9623 Z-21.0000 F2750
G1 X1143.0650 Y1624.1528 Z-21.0000 F2750
G1 X1142.5422 Y1624.2655 Z-21.0000 F2750
G1 X1141.7527 Y1624.3153 Z-21.0000 F2750
G1 X1140.9616 Y1624.3077 Z-21.0000 F2750
G1 X1140.9616 Y1626.3097 Z-21.0000 F2750
G1 X1160.9636 Y1626.3097 Z-21.0000 F2750
G1 X1160.9636 Y1624.3077 Z-21.0000 F2750
G1 X1160.1726 Y1624.3153 Z-21.0000 F2750
G1 X1159.3831 Y1624.2655 Z-21.0000 F2750
G1 X1158.8603 Y1624.1528 Z-21.0000 F2750
G1 X1158.3369 Y1623.9623 Z-21.0000 F2750
G1 X1157.8299 Y1623.6916 Z-21.0000 F2750
G1 X1157.3575 Y1623.3427 Z-21.0000 F2750
G1 X1156.9369 Y1622.9235 Z-21.0000 F2750
G1 X1156.5831 Y1622.4467 Z-21.0000 F2750
G1 X1156.3064 Y1621.9286 Z-21.0000 F2750
G1 X1156.1120 Y1621.3878 Z-21.0000 F2750
G1 X1155.9994 Y1620.8423 Z-21.0000 F2750
G1 X1155.9636 Y1620.3087 Z-21.0000 F2750
G1 X1155.9636 Y1460.3091 Z-21.0000 F2750
G1 X1155.9994 Y1459.7755 Z-21.0000 F2750
G1 X1156.1120 Y1459.2300 Z-21.0000 F2750
G1 X1156.3064 Y1458.6891 Z-21.0000 F2750
G1 X1156.5831 Y1458.1711 Z-21.0000 F2750
G1 X1156.9369 Y1457.6943 Z-21.0000 F2750
G1 X1157.3575 Y1457.2751 Z-21.0000 F2750
G1 X1157.8299 Y1456.9262 Z-21.0000 F2750
G1 X1158.3369 Y1456.6554 Z-21.0000 F2750
G1 X1158.8603 Y1456.4650 Z-21.0000 F2750
G1 X1159.3831 Y1456.3523 Z-21.0000 F2750
G1 X1160.1726 Y1456.3024 Z-21.0000 F2750
G1 X1160.9636 Y1456.3101 Z-21.0000 F2750
G1 X1160.9636 Y1454.3081 Z-21.0000 F2750
G1 X1140.9616 Y1454.3081 Z-21.0000 F2750
G1 X1140.9616 Y1456.3101 Z-21.0000 F2750
G1 X1141.7527 Y1456.3024 Z-21.0000 F2750
G1 X1142.5422 Y1456.3523 Z-21.0000 F2750
G1 X1143.0650 Y1456.4650 Z-21.0000 F2750
G1 X1143.5883 Y1456.6554 Z-21.0000 F2750
G1 X1144.0953 Y1456.9262 Z-21.0000 F2750
G1 X1144.5678 Y1457.2751 Z-21.0000 F2750
G1 X1144.9883 Y1457.6943 Z-21.0000 F2750
G1 X1145.3421 Y1458.1711 Z-21.0000 F2750
G1 X1145.6188 Y1458.6891 Z-21.0000 F2750
G1 X1145.8133 Y1459.2300 Z-21.0000 F2750
G1 X1145.9259 Y1459.7755 Z-21.0000 F2750
G1 X1145.9616 Y1460.3091 Z-21.0000 F2750
G1 X1145.9616 Y1540.3089 Z-21.0000 F2750
G1 X1145.9616 Y1540.3089 Z10.0000 F9999
G1 X1023.9639 Y1540.3089 Z10.0000 F9999
G1 X1023.9639 Y1540.3089 Z1.0000 F2000
G1 X1023.9639 Y1501.3377 Z-10.0000 F2000
G1 X1023.9639 Y1540.3089 Z-21.0000 F2000
G1 X1023.9639 Y1460.3091 Z-21.0000 F2750
G1 X1023.9996 Y1459.7755 Z-21.0000 F2750
G1 X1024.1122 Y1459.2300 Z-21.0000 F2750
G1 X1024.3067 Y1458.6891 Z-21.0000 F2750
G1 X1024.5834 Y1458.1711 Z-21.0000 F2750
G1 X1024.9372 Y1457.6943 Z-21.0000 F2750
G1 X1025.3577 Y1457.2751 Z-21.0000 F2750
G1 X1025.8302 Y1456.9262 Z-21.0000 F2750
G1 X1026.3372 Y1456.6554 Z-21.0000 F2750
G1 X1026.8605 Y1456.4650 Z-21.0000 F2750
G1 X1027.3833 Y1456.3523 Z-21.0000 F2750
G1 X1028.1728 Y1456.3024 Z-21.0000 F2750
G1 X1028.9639 Y1456.3101 Z-21.0000 F2750
G1 X1028.9639 Y1454.3081 Z-21.0000 F2750
G1 X1008.9619 Y1454.3081 Z-21.0000 F2750
G1 X1008.9619 Y1456.3101 Z-21.0000 F2750
G1 X1009.7529 Y1456.3024 Z-21.0000 F2750
G1 X1010.5424 Y1456.3523 Z-21.0000 F2750
G1 X1011.0652 Y1456.4650 Z-21.0000 F2750
G1 X1011.5886 Y1456.6554 Z-21.0000 F2750
G1 X1012.0955 Y1456.9262 Z-21.0000 F2750
G1 X1012.5680 Y1457.2751 Z-21.0000 F2750
G1 X1012.9886 Y1457.6943 Z-21.0000 F2750
G1 X1013.3424 Y1458.1711 Z-21.0000 F2750
G1 X1013.6191 Y1458.6891 Z-21.0000 F2750
G1 X1013.8135 Y1459.2300 Z-21.0000 F2750
G1 X1013.9261 Y1459.7755 Z-21.0000 F2750
G1 X1013.9619 Y1460.3091 Z-21.0000 F2750
G1 X1013.9619 Y1620.3087 Z-21.0000 F2750
G1 X1013.9261 Y1620.8423 Z-21.0000 F2750
G1 X1013.8135 Y1621.3878 Z-21.0000 F2750
G1 X1013.6191 Y1621.9286 Z-21.0000 F2750
G1 X1013.3424 Y1622.4467 Z-21.0000 F2750
G1 X1012.9886 Y1622.9235 Z-21.0000 F2750
G1 X1012.5680 Y1623.3427 Z-21.0000 F2750
G1 X1012.0955 Y1623.6916 Z-21.0000 F2750
G1 X1011.5886 Y1623.9623 Z-21.0000 F2750
G1 X1011.0652 Y1624.1528 Z-21.0000 F2750
G1 X1010.5424 Y1624.2655 Z-21.0000 F2750
G1 X1009.7529 Y1624.3153 Z-21.0000 F2750
G1 X1008.9619 Y1624.3077 Z-21.0000 F2750
G1 X1008.9619 Y1626.3097 Z-21.0000 F2750
G1 X1028.9639 Y1626.3097 Z-21.0000 F2750
G1 X1028.9639 Y1624.3077 Z-21.0000 F2750
G1 X1028.1728 Y1624.3153 Z-21.0000 F2750
G1 X1027.3833 Y1624.2655 Z-21.0000 F2750
G1 X1026.8605 Y1624.1528 Z-21.0000 F2750
G1 X1026.3372 Y1623.9623 Z-21.0000 F2750
G1 X1025.8302 Y1623.6916 Z-21.0000 F2750
G1 X1025.3577 Y1623.3427 Z-21.0000 F2750
G1 X1024.9372 Y1622.9235 Z-21.0000 F2750
G1 X1024.5834 Y1622.4467 Z-21.0000 F2750
G1 X1024.3067 Y1621.9286 Z-21.0000 F2750
G1 X1024.1122 Y1621.3878 Z-21.0000 F2750
G1 X1023.9996 Y1620.8423 Z-21.0000 F2750
G1 X1023.9639 Y1620.3087 Z-21.0000 F2750
G1 X1023.9639 Y1540.3089 Z-21.0000 F2750
G1 X1023.9639 Y1540.3089 Z10.0000 F9999
G1 X795.0011 Y1556.0366 Z10.0000 F9999
G1 X795.0011 Y1556.0366 Z1.0000 F2000
G1 X790.9912 Y1525.2966 Z-7.7502 F2000
G1 X791.2481 Y1527.2811 Z-8.3150 F2000
G1 X791.2812 Y1527.8612 Z-8.4790 F2000
G1 X791.2250 Y1528.4690 Z-8.6513 F2000
G1 X791.0694 Y1529.0840 Z-8.8303 F2000
G1 X790.8104 Y1529.6817 Z-9.0142 F2000
G1 X790.4524 Y1530.2365 Z-9.2006 F2000
G1 X790.0080 Y1530.7249 Z-9.3870 F2000
G1 X789.4967 Y1531.1285 Z-9.5708 F2000
G1 X788.9422 Y1531.4367 Z-9.7499 F2000
G1 X788.3691 Y1531.6469 Z-9.9222 F2000
G1 X788.0991 Y1531.7024 Z-10.0000 F2000
G1 X788.3691 Y1531.6469 Z-10.0778 F2000
G1 X788.9422 Y1531.4367 Z-10.2501 F2000
G1 X789.4967 Y1531.1285 Z-10.4292 F2000
G1 X790.0080 Y1530.7249 Z-10.6130 F2000
G1 X790.4524 Y1530.2365 Z-10.7994 F2000
G1 X790.8104 Y1529.6817 Z-10.9858 F2000
G1 X791.0694 Y1529.0840 Z-11.1697 F2000
G1 X791.2250 Y1528.4690 Z-11.3487 F2000
G1 X791.2812 Y1527.8612 Z-11.5210 F2000
G1 X791.2481 Y1527.2811 Z-11.6850 F2000
G1 X790.9912 Y1525.2966 Z-12.2498 F2000
G1 X795.0011 Y1556.0366 Z-21.0000 F2000
G1 X790.9912 Y1525.2966 Z-21.0000 F2750
G1 X791.2481 Y1527.2811 Z-21.0000 F2750
G1 X791.2812 Y1527.8612 Z-21.0000 F2750
G1 X791.2250 Y1528.4690 Z-21.0000 F2750
G1 X791.0694 Y1529.0840 Z-21.0000 F2750
G1 X790.8104 Y1529.6817 Z-21.0000 F2750
G1 X790.4524 Y1530.2365 Z-21.0000 F2750
G1 X790.0080 Y1530.7249 Z-21.0000 F2750
G1 X789.4967 Y1531.1285 Z-21.0000 F2750
G1 X788.9422 Y1531.4367 Z-21.0000 F2750
G1 X788.3691 Y1531.6469 Z-21.0000 F2750
G1 X787.7999 Y1531.7637 Z-21.0000 F2750
G1 X775.8998 Y1533.3161 Z-21.0000 F2750
G1 X777.8842 Y1533.0592 Z-21.0000 F2750
G1 X778.5031 Y1533.0269 Z-21.0000 F2750
G1 X779.1311 Y1533.0927 Z-21.0000 F2750
G1 X779.7446 Y1533.2579 Z-21.0000 F2750
G1 X780.3207 Y1533.5162 Z-21.0000 F2750
G1 X780.8397 Y1533.8549 Z-21.0000 F2750
G1 X781.3002 Y1534.2697 Z-21.0000 F2750
G1 X781.6976 Y1534.7602 Z-21.0000 F2750
G1 X782.0147 Y1535.3108 Z-21.0000 F2750
G1 X782.2394 Y1535.9009 Z-21.0000 F2750
G1 X782.3669 Y1536.5074 Z-21.0000 F2750
G1 X788.0582 Y1580.1375 Z-21.0000 F2750
G1 X788.0913 Y1580.7176 Z-21.0000 F2750
G1 X788.0352 Y1581.3254 Z-21.0000 F2750
G1 X787.8795 Y1581.9404 Z-21.0000 F2750
G1 X787.6206 Y1582.5381 Z-21.0000 F2750
G1 X787.2625 Y1583.0929 Z-21.0000 F2750
G1 X786.8181 Y1583.5813 Z-21.0000 F2750
G1 X786.3068 Y1583.9849 Z-21.0000 F2750
G1 X785.7523 Y1584.2931 Z-21.0000 F2750
G1 X785.1793 Y1584.5033 Z-21.0000 F2750
G1 X784.6101 Y1584.6201 Z-21.0000 F2750
G1 X782.6259 Y1584.8790 Z-21.0000 F2750
G1 X794.5263 Y1583.3286 Z-21.0000 F2750
G1 X795.1452 Y1583.2963 Z-21.0000 F2750
G1 X795.7731 Y1583.3622 Z-21.0000 F2750
G1 X796.3866 Y1583.5273 Z-21.0000 F2750
G1 X796.9628 Y1583.7857 Z-21.0000 F2750
G1 X797.4818 Y1584.1243 Z-21.0000 F2750
G1 X797.9422 Y1584.5391 Z-21.0000 F2750
G1 X798.3397 Y1585.0297 Z-21.0000 F2750
G1 X798.6567 Y1585.5803 Z-21.0000 F2750
G1 X798.8814 Y1586.1703 Z-21.0000 F2750
G1 X799.0090 Y1586.7768 Z-21.0000 F2750
G1 X799.2678 Y1588.7610 Z-21.0000 F2750
G1 X797.1426 Y1572.3977 Z-21.0000 F2750
G1 X795.0011 Y1556.0366 Z-21.0000 F2750
G1 X795.0011 Y1556.0366 Z10.0000 F9999
G1 X674.5017 Y1567.7194 Z10.0000 F9999
G1 X674.5017 Y1567.7194 Z1.0000 F2000
G1 X662.6033 Y1569.2781 Z-2.3871 F2000
G1 X661.9842 Y1569.3107 Z-2.5621 F2000
G1 X661.3561 Y1569.2452 Z-2.7404 F2000
G1 X660.7423 Y1569.0802 Z-2.9198 F2000
G1 X660.1659 Y1568.8220 Z-3.0981 F2000
G1 X659.6466 Y1568.4833 Z-3.2730 F2000
G1 X659.1858 Y1568.0685 Z-3.4480 F2000
G1 X658.7881 Y1567.5779 Z-3.6263 F2000
G1 X658.4709 Y1567.0271 Z-3.8057 F2000
G1 X658.2461 Y1566.4369 Z-3.9840 F2000
G1 X658.1185 Y1565.8302 Z-4.1590 F2000
G1 X657.8589 Y1563.8551 Z-4.7213 F2000
G1 X660.2777 Y1582.3997 Z-10.0000 F2000
G1 X657.8589 Y1563.8551 Z-15.2787 F2000
G1 X658.1185 Y1565.8302 Z-15.8410 F2000
G1 X658.2461 Y1566.4369 Z-16.0160 F2000
G1 X658.4709 Y1567.0271 Z-16.1943 F2000
G1 X658.7881 Y1567.5779 Z-16.3737 F2000
G1 X659.1858 Y1568.0685 Z-16.5520 F2000
G1 X659.6466 Y1568.4833 Z-16.7270 F2000
G1 X660.1659 Y1568.8220 Z-16.9019 F2000
G1 X660.7423 Y1569.0802 Z-17.0802 F2000
G1 X661.3561 Y1569.2452 Z-17.2596 F2000
G1 X661.9842 Y1569.3107 Z-17.4379 F2000
G1 X662.6033 Y1569.2781 Z-17.6129 F2000
G1 X674.5017 Y1567.7194 Z-21.0000 F2000
G1 X662.6033 Y1569.2781 Z-21.0000 F2750
G1 X661.9842 Y1569.3107 Z-21.0000 F2750
G1 X661.3561 Y1569.2452 Z-21.0000 F2750
G1 X660.7423 Y1569.0802 Z-21.0000 F2750
G1 X660.1659 Y1568.8220 Z-21.0000 F2750
G1 X659.6466 Y1568.4833 Z-21.0000 F2750
G1 X659.1858 Y1568.0685 Z-21.0000 F2750
G1 X658.7881 Y1567.5779 Z-21.0000 F2750
G1 X658.4709 Y1567.0271 Z-21.0000 F2750
G1 X658.2461 Y1566.4369 Z-21.0000 F2750
G1 X658.1185 Y1565.8302 Z-21.0000 F2750
G1 X657.8589 Y1563.8551 Z-21.0000 F2750
G1 X660.7017 Y1585.6502 Z-21.0000 F2750
G1 X660.4448 Y1583.6657 Z-21.0000 F2750
G1 X660.4125 Y1583.0468 Z-21.0000 F2750
G1 X660.4784 Y1582.4189 Z-21.0000 F2750
G1 X660.6435 Y1581.8054 Z-21.0000 F2750
G1 X660.9019 Y1581.2293 Z-21.0000 F2750
G1 X661.2405 Y1580.7103 Z-21.0000 F2750
G1 X661.6553 Y1580.2498 Z-21.0000 F2750
G1 X662.1459 Y1579.8523 Z-21.0000 F2750
G1 X662.6965 Y1579.5353 Z-21.0000 F2750
G1 X663.2866 Y1579.3106 Z-21.0000 F2750
G1 X663.8930 Y1579.1831 Z-21.0000 F2750
G1 X687.6914 Y1576.0790 Z-21.0000 F2750
G1 X688.2716 Y1576.0459 Z-21.0000 F2750
G1 X688.8794 Y1576.1021 Z-21.0000 F2750
G1 X689.4943 Y1576.2577 Z-21.0000 F2750
G1 X690.0921 Y1576.5167 Z-21.0000 F2750
G1 X690.6469 Y1576.8747 Z-21.0000 F2750
G1 X691.1353 Y1577.3191 Z-21.0000 F2750
G1 X691.5389 Y1577.8305 Z-21.0000 F2750
G1 X691.8471 Y1578.3849 Z-21.0000 F2750
G1 X692.0573 Y1578.9580 Z-21.0000 F2750
G1 X692.1741 Y1579.5272 Z-21.0000 F2750
G1 X692.4329 Y1581.5114 Z-21.0000 F2750
G1 X689.5921 Y1559.7160 Z-21.0000 F2750
G1 X689.8460 Y1561.6784 Z-21.0000 F2750
G1 X689.8791 Y1562.2583 Z-21.0000 F2750
G1 X689.8230 Y1562.8659 Z-21.0000 F2750
G1 X689.6675 Y1563.4807 Z-21.0000 F2750
G1 X689.4087 Y1564.0783 Z-21.0000 F2750
G1 X689.0510 Y1564.6330 Z-21.0000 F2750
G1 X688.6069 Y1565.1213 Z-21.0000 F2750
G1 X688.0959 Y1565.5249 Z-21.0000 F2750
G1 X687.5418 Y1565.8333 Z-21.0000 F2750
G1 X686.9690 Y1566.0436 Z-21.0000 F2750
G1 X686.4000 Y1566.1607 Z-21.0000 F2750
G1 X674.5017 Y1567.7194 Z-21.0000 F2750
G1 X674.5017 Y1567.7194 Z10.0000 F9999
G1 X555.2913 Y1589.3213 Z10.0000 F9999
G1 X555.2913 Y1589.3213 Z1.0000 F2000
G1 X559.3009 Y1620.0613 Z-7.7502 F2000
G1 X559.0441 Y1618.0769 Z-8.3150 F2000
G1 X559.0110 Y1617.4967 Z-8.4790 F2000
G1 X559.0672 Y1616.8889 Z-8.6513 F2000
G1 X559.2228 Y1616.2740 Z-8.8303 F2000
G1 X559.4818 Y1615.6762 Z-9.0142 F2000
G1 X559.8398 Y1615.1214 Z-9.2006 F2000
G1 X560.2842 Y1614.6330 Z-9.3870 F2000
G1 X560.7956 Y1614.2294 Z-9.5708 F2000
G1 X561.3500 Y1613.9212 Z-9.7499 F2000
G1 X561.9231 Y1613.7110 Z-9.9222 F2000
G1 X562.1932 Y1613.6556 Z-10.0000 F2000
G1 X561.9231 Y1613.7110 Z-10.0778 F2000
G1 X561.3500 Y1613.9212 Z-10.2501 F2000
G1 X560.7956 Y1614.2294 Z-10.4292 F2000
G1 X560.2842 Y1614.6330 Z-10.6130 F2000
G1 X559.8398 Y1615.1214 Z-10.7994 F2000
G1 X559.4818 Y1615.6762 Z-10.9858 F2000
G1 X559.2228 Y1616.2740 Z-11.1697 F2000
G1 X559.0672 Y1616.8889 Z-11.3487 F2000
G1 X559.0110 Y1617.4967 Z-11.5210 F2000
G1 X559.0441 Y1618.0769 Z-11.6850 F2000
G1 X559.3009 Y1620.0613 Z-12.2498 F2000
G1 X555.2913 Y1589.3213 Z-21.0000 F2000
G1 X559.3009 Y1620.0613 Z-21.0000 F2750
G1 X559.0441 Y1618.0769 Z-21.0000 F2750
G1 X559.0110 Y1617.4967 Z-21.0000 F2750
G1 X559.0672 Y1616.8889 Z-21.0000 F2750
G1 X559.2228 Y1616.2740 Z-21.0000 F2750
G1 X559.4818 Y1615.6762 Z-21.0000 F2750
G1 X559.8398 Y1615.1214 Z-21.0000 F2750
G1 X560.2842 Y1614.6330 Z-21.0000 F2750
G1 X560.7956 Y1614.2294 Z-21.0000 F2750
G1 X561.3500 Y1613.9212 Z-21.0000 F2750
G1 X561.9231 Y1613.7110 Z-21.0000 F2750
G1 X562.4923 Y1613.5942 Z-21.0000 F2750
G1 X574.3924 Y1612.0420 Z-21.0000 F2750
G1 X572.4080 Y1612.2988 Z-21.0000 F2750
G1 X571.8279 Y1612.3319 Z-21.0000 F2750
G1 X571.2201 Y1612.2758 Z-21.0000 F2750
G1 X570.6051 Y1612.1201 Z-21.0000 F2750
G1 X570.0074 Y1611.8611 Z-21.0000 F2750
G1 X569.4525 Y1611.5031 Z-21.0000 F2750
G1 X568.9642 Y1611.0587 Z-21.0000 F2750
G1 X568.5605 Y1610.5474 Z-21.0000 F2750
G1 X568.2523 Y1609.9929 Z-21.0000 F2750
G1 X568.0422 Y1609.4198 Z-21.0000 F2750
G1 X567.9253 Y1608.8506 Z-21.0000 F2750
G1 X562.2343 Y1565.2205 Z-21.0000 F2750
G1 X562.2012 Y1564.6404 Z-21.0000 F2750
G1 X562.2573 Y1564.0326 Z-21.0000 F2750
G1 X562.4130 Y1563.4176 Z-21.0000 F2750
G1 X562.6720 Y1562.8198 Z-21.0000 F2750
G1 X563.0300 Y1562.2650 Z-21.0000 F2750
G1 X563.4744 Y1561.7767 Z-21.0000 F2750
G1 X563.9857 Y1561.3730 Z-21.0000 F2750
G1 X564.5402 Y1561.0648 Z-21.0000 F2750
G1 X565.1133 Y1560.8546 Z-21.0000 F2750
G1 X565.6825 Y1560.7378 Z-21.0000 F2750
G1 X567.6667 Y1560.4790 Z-21.0000 F2750
G1 X555.7662 Y1562.0293 Z-21.0000 F2750
G1 X555.1473 Y1562.0616 Z-21.0000 F2750
G1 X554.5194 Y1561.9957 Z-21.0000 F2750
G1 X553.9059 Y1561.8306 Z-21.0000 F2750
G1 X553.3298 Y1561.5722 Z-21.0000 F2750
G1 X552.8108 Y1561.2336 Z-21.0000 F2750
G1 X552.3503 Y1560.8188 Z-21.0000 F2750
G1 X551.9528 Y1560.3282 Z-21.0000 F2750
G1 X551.6358 Y1559.7776 Z-21.0000 F2750
G1 X551.4111 Y1559.1876 Z-21.0000 F2750
G1 X551.2836 Y1558.5811 Z-21.0000 F2750
G1 X551.0248 Y1556.5969 Z-21.0000 F2750
G1 X553.1498 Y1572.9602 Z-21.0000 F2750
G1 X555.2913 Y1589.3213 Z-21.0000 F2750
G1 X555.2913 Y1589.3213 Z10.0000 F9999
G1 X378.3759 Y1536.9200 Z10.0000 F9999
G1 X378.3759 Y1536.9200 Z1.0000 F2000
G1 X374.3660 Y1506.1801 Z-7.7502 F2000
G1 X374.6229 Y1508.1645 Z-8.3150 F2000
G1 X374.6560 Y1508.7447 Z-8.4790 F2000
G1 X374.5998 Y1509.3525 Z-8.6513 F2000
G1 X374.4442 Y1509.9674 Z-8.8303 F2000
G1 X374.1852 Y1510.5652 Z-9.0142 F2000
G1 X373.8272 Y1511.1200 Z-9.2006 F2000
G1 X373.3828 Y1511.6084 Z-9.3870 F2000
G1 X372.8715 Y1512.0120 Z-9.5708 F2000
G1 X372.3170 Y1512.3202 Z-9.7499 F2000
G1 X371.7439 Y1512.5304 Z-9.9222 F2000
G1 X371.4739 Y1512.5858 Z-10.0000 F2000
G1 X371.7439 Y1512.5304 Z-10.0778 F2000
G1 X372.3170 Y1512.3202 Z-10.2501 F2000
G1 X372.8715 Y1512.0120 Z-10.4292 F2000
G1 X373.3828 Y1511.6084 Z-10.6130 F2000
G1 X373.8272 Y1511.1200 Z-10.7994 F2000
G1 X374.1852 Y1510.5652 Z-10.9858 F2000
G1 X374.4442 Y1509.9674 Z-11.1697 F2000
G1 X374.5998 Y1509.3525 Z-11.3487 F2000
G1 X374.6560 Y1508.7447 Z-11.5210 F2000
G1 X374.6229 Y1508.1645 Z-11.6850 F2000
G1 X374.3660 Y1506.1801 Z-12.2498 F2000
G1 X378.3759 Y1536.9200 Z-21.0000 F2000
G1 X374.3660 Y1506.1801 Z-21.0000 F2750
G1 X374.6229 Y1508.1645 Z-21.0000 F2750
G1 X374.6560 Y1508.7447 Z-21.0000 F2750
G1 X374.5998 Y1509.3525 Z-21.0000 F2750
G1 X374.4442 Y1509.9674 Z-21.0000 F2750
G1 X374.1852 Y1510.5652 Z-21.0000 F2750
G1 X373.8272 Y1511.1200 Z-21.0000 F2750
G1 X373.3828 Y1511.6084 Z-21.0000 F2750
G1 X372.8715 Y1512.0120 Z-21.0000 F2750
G1 X372.3170 Y1512.3202 Z-21.0000 F2750
G1 X371.7439 Y1512.5304 Z-21.0000 F2750
G1 X371.1747 Y1512.6472 Z-21.0000 F2750
G1 X359.2746 Y1514.1995 Z-21.0000 F2750
G1 X361.2590 Y1513.9427 Z-21.0000 F2750
G1 X361.8779 Y1513.9104 Z-21.0000 F2750
G1 X362.5059 Y1513.9762 Z-21.0000 F2750
G1 X363.1194 Y1514.1414 Z-21.0000 F2750
G1 X363.6955 Y1514.3997 Z-21.0000 F2750
G1 X364.2145 Y1514.7384 Z-21.0000 F2750
G1 X364.6750 Y1515.1531 Z-21.0000 F2750
G1 X365.0724 Y1515.6437 Z-21.0000 F2750
G1 X365.3895 Y1516.1943 Z-21.0000 F2750
G1 X365.6142 Y1516.7843 Z-21.0000 F2750
G1 X365.7417 Y1517.3908 Z-21.0000 F2750
G1 X371.4330 Y1561.0209 Z-21.0000 F2750
G1 X371.4661 Y1561.6011 Z-21.0000 F2750
G1 X371.4100 Y1562.2089 Z-21.0000 F2750
G1 X371.2543 Y1562.8238 Z-21.0000 F2750
G1 X370.9954 Y1563.4216 Z-21.0000 F2750
G1 X370.6374 Y1563.9764 Z-21.0000 F2750
G1 X370.1929 Y1564.4648 Z-21.0000 F2750
G1 X369.6816 Y1564.8684 Z-21.0000 F2750
G1 X369.1271 Y1565.1766 Z-21.0000 F2750
G1 X368.5541 Y1565.3868 Z-21.0000 F2750
G1 X367.9849 Y1565.5036 Z-21.0000 F2750
G1 X366.0007 Y1565.7624 Z-21.0000 F2750
G1 X377.9011 Y1564.2121 Z-21.0000 F2750
G1 X378.5200 Y1564.1798 Z-21.0000 F2750
G1 X379.1479 Y1564.2456 Z-21.0000 F2750
G1 X379.7614 Y1564.4108 Z-21.0000 F2750
G1 X380.3376 Y1564.6691 Z-21.0000 F2750
G1 X380.8566 Y1565.0078 Z-21.0000 F2750
G1 X381.3170 Y1565.4226 Z-21.0000 F2750
G1 X381.7145 Y1565.9131 Z-21.0000 F2750
G1 X382.0315 Y1566.4637 Z-21.0000 F2750
G1 X382.2562 Y1567.0538 Z-21.0000 F2750
G1 X382.3838 Y1567.6602 Z-21.0000 F2750
G1 X382.6426 Y1569.6444 Z-21.0000 F2750
G1 X380.5174 Y1553.2812 Z-21.0000 F2750
G1 X378.3759 Y1536.9200 Z-21.0000 F2750
G1 X378.3759 Y1536.9200 Z10.0000 F9999
G1 X257.8765 Y1548.6029 Z10.0000 F9999
G1 X257.8765 Y1548.6029 Z1.0000 F2000
G1 X245.9781 Y1550.1616 Z-2.3871 F2000
G1 X245.3591 Y1550.1942 Z-2.5621 F2000
G1 X244.7309 Y1550.1286 Z-2.7404 F2000
G1 X244.1171 Y1549.9637 Z-2.9198 F2000
G1 X243.5407 Y1549.7054 Z-3.0981 F2000
G1 X243.0214 Y1549.3668 Z-3.2730 F2000
G1 X242.5606 Y1548.9520 Z-3.4480 F2000
G1 X242.1629 Y1548.4613 Z-3.6263 F2000
G1 X241.8457 Y1547.9106 Z-3.8057 F2000
G1 X241.6209 Y1547.3203 Z-3.9840 F2000
G1 X241.4933 Y1546.7137 Z-4.1590 F2000
G1 X241.2337 Y1544.7386 Z-4.7213 F2000
G1 X243.6525 Y1563.2832 Z-10.0000 F2000
G1 X241.2337 Y1544.7386 Z-15.2787 F2000
G1 X241.4933 Y1546.7137 Z-15.8410 F2000
G1 X241.6209 Y1547.3203 Z-16.0160 F2000
G1 X241.8457 Y1547.9106 Z-16.1943 F2000
G1 X242.1629 Y1548.4613 Z-16.3737 F2000
G1 X242.5606 Y1548.9520 Z-16.5520 F2000
G1 X243.0214 Y1549.3668 Z-16.7270 F2000
G1 X243.5407 Y1549.7054 Z-16.9019 F2000
G1 X244.1171 Y1549.9637 Z-17.0802 F2000
G1 X244.7309 Y1550.1286 Z-17.2596 F2000
G1 X245.3591 Y1550.1942 Z-17.4379 F2000
G1 X245.9781 Y1550.1616 Z-17.6129 F2000
G1 X257.8765 Y1548.6029 Z-21.0000 F2000
G1 X245.9781 Y1550.1616 Z-21.0000 F2750
G1 X245.3591 Y1550.1942 Z-21.0000 F2750
G1 X244.7309 Y1550.1286 Z-21.0000 F2750
G1 X244.1171 Y1549.9637 Z-21.0000 F2750
G1 X243.5407 Y1549.7054 Z-21.0000 F2750
G1 X243.0214 Y1549.3668 Z-21.0000 F2750
G1 X242.5606 Y1548.9520 Z-21.0000 F2750
G1 X242.1629 Y1548.4613 Z-21.0000 F2750
G1 X241.8457 Y1547.9106 Z-21.0000 F2750
G1 X241.6209 Y1547.3203 Z-21.0000 F2750
G1 X241.4933 Y1546.7137 Z-21.0000 F2750
G1 X241.2337 Y1544.7386 Z-21.0000 F2750
G1 X244.0765 Y1566.5336 Z-21.0000 F2750
G1 X243.8196 Y1564.5492 Z-21.0000 F2750
G1 X243.7873 Y1563.9303 Z-21.0000 F2750
G1 X243.8532 Y1563.3024 Z-21.0000 F2750
G1 X244.0184 Y1562.6889 Z-21.0000 F2750
G1 X244.2767 Y1562.1127 Z-21.0000 F2750
G1 X244.6154 Y1561.5937 Z-21.0000 F2750
G1 X245.0301 Y1561.1333 Z-21.0000 F2750
G1 X245.5207 Y1560.7358 Z-21.0000 F2750
G1 X246.0713 Y1560.4188 Z-21.0000 F2750
G1 X246.6614 Y1560.1941 Z-21.0000 F2750
G1 X247.2678 Y1560.0666 Z-21.0000 F2750
G1 X271.0662 Y1556.9625 Z-21.0000 F2750
G1 X271.6464 Y1556.9294 Z-21.0000 F2750
G1 X272.2542 Y1556.9855 Z-21.0000 F2750
G1 X272.8691 Y1557.1412 Z-21.0000 F2750
G1 X273.4669 Y1557.4002 Z-21.0000 F2750
G1 X274.0217 Y1557.7582 Z-21.0000 F2750
G1 X274.5101 Y1558.2026 Z-21.0000 F2750
G1 X274.9137 Y1558.7139 Z-21.0000 F2750
G1 X275.2219 Y1559.2684 Z-21.0000 F2750
G1 X275.4321 Y1559.8414 Z-21.0000 F2750
G1 X275.5489 Y1560.4107 Z-21.0000 F2750
G1 X275.8077 Y1562.3948 Z-21.0000 F2750
G1 X272.9669 Y1540.5995 Z-21.0000 F2750
G1 X273.2208 Y1542.5618 Z-21.0000 F2750
G1 X273.2539 Y1543.1418 Z-21.0000 F2750
G1 X273.1978 Y1543.7494 Z-21.0000 F2750
G1 X273.0423 Y1544.3642 Z-21.0000 F2750
G1 X272.7835 Y1544.9617 Z-21.0000 F2750
G1 X272.4258 Y1545.5164 Z-21.0000 F2750
G1 X271.9817 Y1546.0047 Z-21.0000 F2750
G1 X271.4707 Y1546.4084 Z-21.0000 F2750
G1 X270.9166 Y1546.7167 Z-21.0000 F2750
G1 X270.3438 Y1546.9271 Z-21.0000 F2750
G1 X269.7748 Y1547.0442 Z-21.0000 F2750
G1 X257.8765 Y1548.6029 Z-21.0000 F2750
G1 X257.8765 Y1548.6029 Z10.0000 F9999
G1 X138.6661 Y1570.2048 Z10.0000 F9999
G1 X138.6661 Y1570.2048 Z1.0000 F2000
G1 X142.6757 Y1600.9448 Z-7.7502 F2000
G1 X142.4189 Y1598.9603 Z-8.3150 F2000
G1 X142.3858 Y1598.3802 Z-8.4790 F2000
G1 X142.4420 Y1597.7724 Z-8.6513 F2000
G1 X142.5976 Y1597.1574 Z-8.8303 F2000
G1 X142.8566 Y1596.5597 Z-9.0142 F2000
G1 X143.2146 Y1596.0049 Z-9.2006 F2000
G1 X143.6590 Y1595.5165 Z-9.3870 F2000
G1 X144.1704 Y1595.1129 Z-9.5708 F2000
G1 X144.7248 Y1594.8047 Z-9.7499 F2000
G1 X145.2979 Y1594.5945 Z-9.9222 F2000
G1 X145.5680 Y1594.5391 Z-10.0000 F2000
G1 X145.2979 Y1594.5945 Z-10.0778 F2000
G1 X144.7248 Y1594.8047 Z-10.2501 F2000
G1 X144.1704 Y1595.1129 Z-10.4292 F2000
G1 X143.6590 Y1595.5165 Z-10.6130 F2000
G1 X143.2146 Y1596.0049 Z-10.7994 F2000
G1 X142.8566 Y1596.5597 Z-10.9858 F2000
G1 X142.5976 Y1597.1574 Z-11.1697 F2000
G1 X142.4420 Y1597.7724 Z-11.3487 F2000
G1 X142.3858 Y1598.3802 Z-11.5210 F2000
G1 X142.4189 Y1598.9603 Z-11.6850 F2000
G1 X142.6757 Y1600.9448 Z-12.2498 F2000
G1 X138.6661 Y1570.2048 Z-21.0000 F2000
G1 X142.6757 Y1600.9448 Z-21.0000 F2750
G1 X142.4189 Y1598.9603 Z-21.0000 F2750
G1 X142.3858 Y1598.3802 Z-21.0000 F2750
G1 X142.4420 Y1597.7724 Z-21.0000 F2750
G1 X142.5976 Y1597.1574 Z-21.0000 F2750
G1 X142.8566 Y1596.5597 Z-21.0000 F2750
G1 X143.2146 Y1596.0049 Z-21.0000 F2750
G1 X143.6590 Y1595.5165 Z-21.0000 F2750
G1 X144.1704 Y1595.1129 Z-21.0000 F2750
G1 X144.7248 Y1594.8047 Z-21.0000 F2750
G1 X145.2979 Y1594.5945 Z-21.0000 F2750
G1 X145.8671 Y1594.4777 Z-21.0000 F2750
G1 X157.7672 Y1592.9254 Z-21.0000 F2750
G1 X155.7828 Y1593.1823 Z-21.0000 F2750
G1 X155.2027 Y1593.2154 Z-21.0000 F2750
G1 X154.5949 Y1593.1592 Z-21.0000 F2750
G1 X153.9799 Y1593.0036 Z-21.0000 F2750
G1 X153.3822 Y1592.7446 Z-21.0000 F2750
G1 X152.8273 Y1592.3866 Z-21.0000 F2750
G1 X152.3390 Y1591.9421 Z-21.0000 F2750
G1 X151.9353 Y1591.4308 Z-21.0000 F2750
G1 X151.6271 Y1590.8764 Z-21.0000 F2750
G1 X151.4170 Y1590.3033 Z-21.0000 F2750
G1 X151.3001 Y1589.7341 Z-21.0000 F2750
G1 X145.6091 Y1546.1039 Z-21.0000 F2750
G1 X145.5760 Y1545.5238 Z-21.0000 F2750
G1 X145.6321 Y1544.9160 Z-21.0000 F2750
G1 X145.7878 Y1544.3011 Z-21.0000 F2750
G1 X146.0468 Y1543.7033 Z-21.0000 F2750
G1 X146.4048 Y1543.1485 Z-21.0000 F2750
G1 X146.8492 Y1542.6601 Z-21.0000 F2750
G1 X147.3605 Y1542.2565 Z-21.0000 F2750
G1 X147.9150 Y1541.9483 Z-21.0000 F2750
G1 X148.4881 Y1541.7381 Z-21.0000 F2750
G1 X149.0573 Y1541.6213 Z-21.0000 F2750
G1 X151.0415 Y1541.3625 Z-21.0000 F2750
G1 X139.1410 Y1542.9127 Z-21.0000 F2750
G1 X138.5221 Y1542.9450 Z-21.0000 F2750
G1 X137.8942 Y1542.8792 Z-21.0000 F2750
G1 X137.2807 Y1542.7140 Z-21.0000 F2750
G1 X136.7046 Y1542.4557 Z-21.0000 F2750
G1 X136.1856 Y1542.1170 Z-21.0000 F2750
G1 X135.7251 Y1541.7023 Z-21.0000 F2750
G1 X135.3276 Y1541.2117 Z-21.0000 F2750
G1 X135.0106 Y1540.6611 Z-21.0000 F2750
G1 X134.7859 Y1540.0710 Z-21.0000 F2750
G1 X134.6584 Y1539.4646 Z-21.0000 F2750
G1 X134.3996 Y1537.4804 Z-21.0000 F2750
G1 X136.5246 Y1553.8437 Z-21.0000 F2750
G1 X138.6661 Y1570.2048 Z-21.0000 F2750
G1 X138.6661 Y1570.2048 Z10.0000 F9999
G1 X99.8648 Y1272.7250 Z10.0000 F9999
G1 X99.8648 Y1272.7250 Z1.0000 F2000
G1 X103.8744 Y1303.4649 Z-7.7502 F2000
G1 X103.6176 Y1301.4805 Z-8.3150 F2000
G1 X103.5845 Y1300.9004 Z-8.4790 F2000
G1 X103.6406 Y1300.2926 Z-8.6513 F2000
G1 X103.7963 Y1299.6776 Z-8.8303 F2000
G1 X104.0553 Y1299.0799 Z-9.0142 F2000
G1 X104.4133 Y1298.5250 Z-9.2006 F2000
G1 X104.8577 Y1298.0367 Z-9.3870 F2000
G1 X105.3690 Y1297.6330 Z-9.5708 F2000
G1 X105.9235 Y1297.3248 Z-9.7499 F2000
G1 X106.4966 Y1297.1147 Z-9.9222 F2000
G1 X106.7666 Y1297.0592 Z-10.0000 F2000
G1 X106.4966 Y1297.1147 Z-10.0778 F2000
G1 X105.9235 Y1297.3248 Z-10.2501 F2000
G1 X105.3690 Y1297.6330 Z-10.4292 F2000
G1 X104.8577 Y1298.0367 Z-10.6130 F2000
G1 X104.4133 Y1298.5250 Z-10.7994 F2000
G1 X104.0553 Y1299.0799 Z-10.9858 F2000
G1 X103.7963 Y1299.6776 Z-11.1697 F2000
G1 X103.6406 Y1300.2926 Z-11.3487 F2000
G1 X103.5845 Y1300.9004 Z-11.5210 F2000
G1 X103.6176 Y1301.4805 Z-11.6850 F2000
G1 X103.8744 Y1303.4649 Z-12.2498 F2000
G1 X99.8648 Y1272.7250 Z-21.0000 F2000
G1 X103.8744 Y1303.4649 Z-21.0000 F2750
G1 X103.6176 Y1301.4805 Z-21.0000 F2750
G1 X103.5845 Y1300.9004 Z-21.0000 F2750
G1 X103.6406 Y1300.2926 Z-21.0000 F2750
G1 X103.7963 Y1299.6776 Z-21.0000 F2750
G1 X104.0553 Y1299.0799 Z-21.0000 F2750
G1 X104.4133 Y1298.5250 Z-21.0000 F2750
G1 X104.8577 Y1298.0367 Z-21.0000 F2750
G1 X105.3690 Y1297.6330 Z-21.0000 F2750
G1 X105.9235 Y1297.3248 Z-21.0000 F2750
G1 X106.4966 Y1297.1147 Z-21.0000 F2750
G1 X107.0658 Y1296.9978 Z-21.0000 F2750
G1 X118.9659 Y1295.4456 Z-21.0000 F2750
G1 X116.9815 Y1295.7024 Z-21.0000 F2750
G1 X116.4013 Y1295.7355 Z-21.0000 F2750
G1 X115.7936 Y1295.6794 Z-21.0000 F2750
G1 X115.1786 Y1295.5237 Z-21.0000 F2750
G1 X114.5808 Y1295.2648 Z-21.0000 F2750
G1 X114.0260 Y1294.9067 Z-21.0000 F2750
G1 X113.5377 Y1294.4623 Z-21.0000 F2750
G1 X113.1340 Y1293.9510 Z-21.0000 F2750
G1 X112.8258 Y1293.3965 Z-21.0000 F2750
G1 X112.6156 Y1292.8235 Z-21.0000 F2750
G1 X112.4988 Y1292.2543 Z-21.0000 F2750
G1 X106.8078 Y1248.6241 Z-21.0000 F2750
G1 X106.7747 Y1248.0440 Z-21.0000 F2750
G1 X106.8308 Y1247.4362 Z-21.0000 F2750
G1 X106.9865 Y1246.8212 Z-21.0000 F2750
G1 X107.2455 Y1246.2235 Z-21.0000 F2750
G1 X107.6035 Y1245.6686 Z-21.0000 F2750
G1 X108.0479 Y1245.1803 Z-21.0000 F2750
G1 X108.5592 Y1244.7767 Z-21.0000 F2750
G1 X109.1137 Y1244.4685 Z-21.0000 F2750
G1 X109.6867 Y1244.2583 Z-21.0000 F2750
G1 X110.2559 Y1244.1415 Z-21.0000 F2750
G1 X112.2401 Y1243.8826 Z-21.0000 F2750
G1 X100.3397 Y1245.4329 Z-21.0000 F2750
G1 X99.7208 Y1245.4652 Z-21.0000 F2750
G1 X99.0929 Y1245.3994 Z-21.0000 F2750
G1 X98.4794 Y1245.2342 Z-21.0000 F2750
G1 X97.9033 Y1244.9759 Z-21.0000 F2750
G1 X97.3843 Y1244.6372 Z-21.0000 F2750
G1 X96.9238 Y1244.2224 Z-21.0000 F2750
G1 X96.5263 Y1243.7319 Z-21.0000 F2750
G1 X96.2093 Y1243.1812 Z-21.0000 F2750
G1 X95.9846 Y1242.5912 Z-21.0000 F2750
G1 X95.8571 Y1241.9847 Z-21.0000 F2750
G1 X95.5983 Y1240.0005 Z-21.0000 F2750
G1 X97.7233 Y1256.3638 Z-21.0000 F2750
G1 X99.8648 Y1272.7250 Z-21.0000 F2750
G1 X99.8648 Y1272.7250 Z10.0000 F9999
G1 X339.5746 Y1239.4402 Z10.0000 F9999
