(plotsheet 2n3_nested_153 sheets_final v1_0_sheet 140_S140.0_7 screws_CC9.53 - PCD - stepover 1mm)
(Material Size) (X=1220.000, Y=2440.000, Z=20.000)
(LinuxCNC_NoArcs_MM_TC_medium_50um_G1_verbose.con)
G90 G80 G21 G49
G64 P0.050
M6 T1
(Tool Number:1) (9.530 mm dia. slot drill)
G43 H1 G0Z80.0000
M3 S13114
G04 P10
G1 X619.4908 Y138.2037 Z10.0000 F9999
G1 X619.4908 Y138.2037 Z2.0000 F9999
G1 X619.4908 Y138.2037 Z-1.0000 F2500
G1 X619.4908 Y138.2037 Z10.0000 F9999
G1 X440.7355 Y461.5983 Z10.0000 F9999
G1 X440.7355 Y461.5983 Z2.0000 F9999
G1 X440.7355 Y461.5983 Z-1.0000 F2500
G1 X440.7355 Y461.5983 Z10.0000 F9999
G1 X450.3819 Y852.6025 Z10.0000 F9999
G1 X450.3819 Y852.6025 Z2.0000 F9999
G1 X450.3819 Y852.6025 Z-1.0000 F2500
G1 X450.3819 Y852.6025 Z10.0000 F9999
G1 X428.6902 Y1244.6805 Z10.0000 F9999
G1 X428.6902 Y1244.6805 Z2.0000 F9999
G1 X428.6902 Y1244.6805 Z-1.0000 F2500
G1 X428.6902 Y1244.6805 Z10.0000 F9999
G1 X496.9731 Y1704.6182 Z10.0000 F9999
G1 X496.9731 Y1704.6182 Z2.0000 F9999
G1 X496.9731 Y1704.6182 Z-1.0000 F2500
G1 X496.9731 Y1704.6182 Z10.0000 F9999
G1 X171.9034 Y2160.7585 Z10.0000 F9999
G1 X171.9034 Y2160.7585 Z2.0000 F9999
G1 X171.9034 Y2160.7585 Z-1.0000 F2500
G1 X171.9034 Y2160.7585 Z10.0000 F9999
G1 X1066.4215 Y2114.0171 Z10.0000 F9999
G1 X1066.4215 Y2114.0171 Z2.0000 F9999
G1 X1066.4215 Y2114.0171 Z-1.0000 F2500
G1 X1066.4215 Y2114.0171 Z10.0000 F9999
G1 X1900.0000 Y2800.0000 Z80.0000 F9999
G1 Z80.0000 F9999
G1 X1900.0000 Y2800.0000 F9999
M5
M30
