(plotsheet 2n3_nested_153 sheets_final v1_0_sheet 122a_S122.0_8 screws_CC8 - stepover 1mm)
(Material Size) (X=1220.000, Y=2440.000, Z=21.000)
(LinuxCNC_NoArcs_MM_TC_medium_50um_G1_verbose.con)
G90 G80 G21 G49
G64 P0.050
M6 T1
(Tool Number:1) (7.998 mm dia. slot drill)
G43 H1 G0Z80.0000
M3 S9000
G04 P10
G1 X67.8854 Y149.2645 Z10.0000 F9999
G1 X67.8854 Y149.2645 Z2.0000 F9999
G1 X67.8854 Y149.2645 Z-1.0000 F2500
G1 X67.8854 Y149.2645 Z10.0000 F9999
G1 X161.7751 Y402.2206 Z10.0000 F9999
G1 X161.7751 Y402.2206 Z2.0000 F9999
G1 X161.7751 Y402.2206 Z-1.0000 F2500
G1 X161.7751 Y402.2206 Z10.0000 F9999
G1 X544.6051 Y153.1364 Z10.0000 F9999
G1 X544.6051 Y153.1364 Z2.0000 F9999
G1 X544.6051 Y153.1364 Z-1.0000 F2500
G1 X544.6051 Y153.1364 Z10.0000 F9999
G1 X1050.4597 Y435.0071 Z10.0000 F9999
G1 X1050.4597 Y435.0071 Z2.0000 F9999
G1 X1050.4597 Y435.0071 Z-1.0000 F2500
G1 X1050.4597 Y435.0071 Z10.0000 F9999
G1 X760.5587 Y823.2673 Z10.0000 F9999
G1 X760.5587 Y823.2673 Z2.0000 F9999
G1 X760.5587 Y823.2673 Z-1.0000 F2500
G1 X760.5587 Y823.2673 Z10.0000 F9999
G1 X363.6704 Y1059.6747 Z10.0000 F9999
G1 X363.6704 Y1059.6747 Z2.0000 F9999
G1 X363.6704 Y1059.6747 Z-1.0000 F2500
G1 X363.6704 Y1059.6747 Z10.0000 F9999
G1 X235.9760 Y1453.1117 Z10.0000 F9999
G1 X235.9760 Y1453.1117 Z2.0000 F9999
G1 X235.9760 Y1453.1117 Z-1.0000 F2500
G1 X235.9760 Y1453.1117 Z10.0000 F9999
G1 X160.0495 Y2120.9194 Z10.0000 F9999
G1 X160.0495 Y2120.9194 Z2.0000 F9999
G1 X160.0495 Y2120.9194 Z-1.0000 F2500
G1 X160.0495 Y2120.9194 Z10.0000 F9999
G1 X1900.0000 Y2800.0000 Z80.0000 F9999
G1 Z80.0000 F9999
G1 X1900.0000 Y2800.0000 F9999
M5
M30
