(plotsheet 2n3_nested_153 sheets_final v1_0_sheet 1 to 14__S1.0_screws_CC8 - stepover 1mm)
(Material Size) (X=1220.000, Y=2440.000, Z=21.000)
(LinuxCNC_NoArcs_MM_TC_medium_50um_G1_verbose.con)
G90 G80 G21 G49
G64 P0.050
M6 T1
(Tool Number:1) (7.998 mm dia. slot drill)
G43 H1 G0Z30.0000
M3 S19000
G04 P10
G1 X251.0750 Y477.2843 Z10.0000 F9999
G1 X251.0750 Y477.2843 Z2.0000 F9999
G1 X251.0750 Y477.2843 Z-2.0000 F2000
G1 X251.0750 Y477.2843 Z10.0000 F9999
G1 X941.3154 Y477.2843 Z10.0000 F9999
G1 X941.3154 Y477.2843 Z2.0000 F9999
G1 X941.3154 Y477.2843 Z-2.0000 F2000
G1 X941.3154 Y477.2843 Z10.0000 F9999
G1 X941.3154 Y2116.6055 Z10.0000 F9999
G1 X941.3154 Y2116.6055 Z2.0000 F9999
G1 X941.3154 Y2116.6055 Z-2.0000 F2000
G1 X941.3154 Y2116.6055 Z10.0000 F9999
G1 X987.9067 Y2361.6406 Z10.0000 F9999
G1 X987.9067 Y2361.6406 Z2.0000 F9999
G1 X987.9067 Y2361.6406 Z-2.0000 F2000
G1 X987.9067 Y2361.6406 Z10.0000 F9999
G1 X251.0750 Y2116.6055 Z10.0000 F9999
G1 X251.0750 Y2116.6055 Z2.0000 F9999
G1 X251.0750 Y2116.6055 Z-2.0000 F2000
G1 X251.0750 Y2116.6055 Z10.0000 F9999
G1 X201.0325 Y2361.6406 Z10.0000 F9999
G1 X201.0325 Y2361.6406 Z2.0000 F9999
G1 X201.0325 Y2361.6406 Z-2.0000 F2000
G1 X201.0325 Y2361.6406 Z10.0000 F9999
G1 X1900.0000 Y2800.0000 Z80.0000 F9999
G1 Z80.0000 F9999
G1 X1900.0000 Y2800.0000 F9999
M5
M30
