(plotsheet 2n3_nested_153 sheets_final v1_0_sheet 117 to 121a_S117.1_text_CC8 - stepover 1mm)
(Material Size) (X=1220.000, Y=2440.000, Z=20.000)
(LinuxCNC_NoArcs_MM_TC_medium_50um_G1_verbose.con)
G90 G80 G21 G49
G64 P0.050
M6 T1
(Tool Number:1) (7.998 mm dia. slot drill)
G43 H1 G0Z80.0000
M3 S18000
G04 P10
G1 X168.8591 Y467.2718 Z10.0000 F9999
G1 X168.8591 Y467.2718 Z-1.0000 F2500
G1 X171.9050 Y469.2168 Z-1.0000 F4000
G1 X173.9600 Y471.6388 Z-1.0000 F4000
G1 X175.2077 Y474.7581 Z-1.0000 F4000
G1 X175.6848 Y478.8865 Z-1.0000 F4000
G1 X175.2261 Y483.3819 Z-1.0000 F4000
G1 X173.4830 Y487.1984 Z-1.0000 F4000
G1 X170.4922 Y489.8773 Z-1.0000 F4000
G1 X166.3270 Y490.9966 Z-1.0000 F4000
G1 X162.3270 Y490.4645 Z-1.0000 F4000
G1 X159.6481 Y488.9232 Z-1.0000 F4000
G1 X157.9600 Y486.8865 Z-1.0000 F4000
G1 X156.8591 Y484.9782 Z-1.0000 F4000
G1 X152.1252 Y475.7856 Z-1.0000 F4000
G1 X150.7123 Y473.4186 Z-1.0000 F4000
G1 X149.0610 Y471.5654 Z-1.0000 F4000
G1 X146.8775 Y470.3177 Z-1.0000 F4000
G1 X143.9967 Y469.8039 Z-1.0000 F4000
G1 X140.7123 Y470.3360 Z-1.0000 F4000
G1 X137.6848 Y472.1709 Z-1.0000 F4000
G1 X135.4646 Y475.3085 Z-1.0000 F4000
G1 X134.5839 Y479.6755 Z-1.0000 F4000
G1 X135.2628 Y483.9324 Z-1.0000 F4000
G1 X136.7307 Y486.7764 Z-1.0000 F4000
G1 X138.8775 Y488.8682 Z-1.0000 F4000
G1 X136.7307 Y486.7764 Z-1.0000 F4000
G1 X135.2628 Y483.9324 Z-1.0000 F4000
G1 X134.5839 Y479.6755 Z-1.0000 F4000
G1 X135.4646 Y475.3085 Z-1.0000 F4000
G1 X137.6848 Y472.1709 Z-1.0000 F4000
G1 X140.7123 Y470.3360 Z-1.0000 F4000
G1 X143.9967 Y469.8039 Z-1.0000 F4000
G1 X146.8775 Y470.3177 Z-1.0000 F4000
G1 X149.0610 Y471.5654 Z-1.0000 F4000
G1 X150.7123 Y473.4186 Z-1.0000 F4000
G1 X152.1252 Y475.7856 Z-1.0000 F4000
G1 X156.8591 Y484.9782 Z-1.0000 F4000
G1 X157.9600 Y486.8865 Z-1.0000 F4000
G1 X159.6481 Y488.9232 Z-1.0000 F4000
G1 X162.3270 Y490.4645 Z-1.0000 F4000
G1 X166.3270 Y490.9966 Z-1.0000 F4000
G1 X170.4922 Y489.8773 Z-1.0000 F4000
G1 X173.4830 Y487.1984 Z-1.0000 F4000
G1 X175.2261 Y483.3819 Z-1.0000 F4000
G1 X175.6848 Y478.8865 Z-1.0000 F4000
G1 X175.2077 Y474.7581 Z-1.0000 F4000
G1 X173.9600 Y471.6388 Z-1.0000 F4000
G1 X171.9050 Y469.2168 Z-1.0000 F4000
G1 X171.9050 Y469.2168 Z10.0000 F9999
G1 X134.5839 Y507.2902 Z10.0000 F9999
G1 X134.5839 Y507.2902 Z-1.0000 F2500
G1 X134.5839 Y513.7122 Z-1.0000 F4000
G1 X137.1527 Y522.3360 Z-1.0000 F4000
G1 X144.7490 Y525.3269 Z-1.0000 F4000
G1 X152.6206 Y522.2443 Z-1.0000 F4000
G1 X155.4463 Y514.0058 Z-1.0000 F4000
G1 X155.4463 Y507.2902 Z-1.0000 F4000
G1 X155.4463 Y514.0058 Z-1.0000 F4000
G1 X152.6206 Y522.2443 Z-1.0000 F4000
G1 X144.7490 Y525.3269 Z-1.0000 F4000
G1 X137.1527 Y522.3360 Z-1.0000 F4000
G1 X134.5839 Y513.7122 Z-1.0000 F4000
G1 X134.5839 Y507.2902 Z-1.0000 F4000
G1 X175.6848 Y507.2902 Z-1.0000 F4000
G1 X175.6848 Y507.2902 Z10.0000 F9999
G1 X160.9876 Y562.8865 Z10.0000 F9999
G1 X160.9876 Y562.8865 Z-1.0000 F2500
G1 X160.9876 Y542.1893 Z-1.0000 F4000
G1 X160.9876 Y562.8865 Z-1.0000 F4000
G1 X160.9876 Y562.8865 Z10.0000 F9999
G1 X134.5839 Y552.5746 Z10.0000 F9999
G1 X134.5839 Y552.5746 Z-1.0000 F2500
G1 X175.6848 Y568.6296 Z-1.0000 F4000
G1 X134.5839 Y552.5746 Z-1.0000 F4000
G1 X175.6848 Y536.5562 Z-1.0000 F4000
G1 X175.6848 Y536.5562 Z10.0000 F9999
G1 X169.9967 Y615.9140 Z10.0000 F9999
G1 X169.9967 Y615.9140 Z-1.0000 F2500
G1 X174.1619 Y609.2902 Z-1.0000 F4000
G1 X175.6848 Y601.3085 Z-1.0000 F4000
G1 X174.0518 Y593.0333 Z-1.0000 F4000
G1 X169.6298 Y586.2626 Z-1.0000 F4000
G1 X163.0977 Y581.6938 Z-1.0000 F4000
G1 X155.0977 Y580.0058 Z-1.0000 F4000
G1 X147.1527 Y581.6938 Z-1.0000 F4000
G1 X140.6389 Y586.2626 Z-1.0000 F4000
G1 X136.2169 Y593.0333 Z-1.0000 F4000
G1 X134.5839 Y601.3085 Z-1.0000 F4000
G1 X135.9967 Y609.0883 Z-1.0000 F4000
G1 X139.9417 Y615.6388 Z-1.0000 F4000
G1 X135.9967 Y609.0883 Z-1.0000 F4000
G1 X134.5839 Y601.3085 Z-1.0000 F4000
G1 X136.2169 Y593.0333 Z-1.0000 F4000
G1 X140.6389 Y586.2626 Z-1.0000 F4000
G1 X147.1527 Y581.6938 Z-1.0000 F4000
G1 X155.0977 Y580.0058 Z-1.0000 F4000
G1 X163.0977 Y581.6938 Z-1.0000 F4000
G1 X169.6298 Y586.2626 Z-1.0000 F4000
G1 X174.0518 Y593.0333 Z-1.0000 F4000
G1 X175.6848 Y601.3085 Z-1.0000 F4000
G1 X174.1619 Y609.2902 Z-1.0000 F4000
G1 X174.1619 Y609.2902 Z10.0000 F9999
G1 X175.6848 Y631.7672 Z10.0000 F9999
G1 X175.6848 Y631.7672 Z-1.0000 F2500
G1 X152.8775 Y631.7672 Z-1.0000 F4000
G1 X152.8775 Y648.2259 Z-1.0000 F4000
G1 X152.8775 Y631.7672 Z-1.0000 F4000
G1 X134.5839 Y631.7672 Z-1.0000 F4000
G1 X134.5839 Y649.5287 Z-1.0000 F4000
G1 X134.5839 Y631.7672 Z-1.0000 F4000
G1 X175.6848 Y631.7672 Z-1.0000 F4000
G1 X175.6848 Y649.5287 Z-1.0000 F4000
G1 X175.6848 Y649.5287 Z10.0000 F9999
G1 X175.6848 Y664.6480 Z10.0000 F9999
G1 X175.6848 Y664.6480 Z-1.0000 F2500
G1 X134.5839 Y664.6480 Z-1.0000 F4000
G1 X134.5839 Y671.8039 Z-1.0000 F4000
G1 X135.1894 Y675.6755 Z-1.0000 F4000
G1 X137.0059 Y678.8865 Z-1.0000 F4000
G1 X140.1619 Y681.1067 Z-1.0000 F4000
G1 X144.8041 Y681.9507 Z-1.0000 F4000
G1 X149.4830 Y680.7948 Z-1.0000 F4000
G1 X152.8041 Y678.0241 Z-1.0000 F4000
G1 X154.7674 Y674.7030 Z-1.0000 F4000
G1 X155.4279 Y671.8039 Z-1.0000 F4000
G1 X155.4279 Y664.6480 Z-1.0000 F4000
G1 X155.4279 Y671.8039 Z-1.0000 F4000
G1 X154.7674 Y674.7030 Z-1.0000 F4000
G1 X152.8041 Y678.0241 Z-1.0000 F4000
G1 X149.4830 Y680.7948 Z-1.0000 F4000
G1 X144.8041 Y681.9507 Z-1.0000 F4000
G1 X140.1619 Y681.1067 Z-1.0000 F4000
G1 X137.0059 Y678.8865 Z-1.0000 F4000
G1 X135.1894 Y675.6755 Z-1.0000 F4000
G1 X134.5839 Y671.8039 Z-1.0000 F4000
G1 X134.5839 Y664.6480 Z-1.0000 F4000
G1 X134.5839 Y664.6480 Z10.0000 F9999
G1 X175.6848 Y682.0608 Z10.0000 F9999
G1 X175.6848 Y682.0608 Z-1.0000 F2500
G1 X155.5380 Y668.8315 Z-1.0000 F4000
G1 X175.6848 Y682.0608 Z-1.0000 F4000
G1 X175.6848 Y682.0608 Z10.0000 F9999
G1 X152.8775 Y738.6296 Z10.0000 F9999
G1 X152.8775 Y738.6296 Z-1.0000 F2500
G1 X152.8775 Y753.0700 Z-1.0000 F4000
G1 X152.8775 Y738.6296 Z-1.0000 F4000
G1 X134.5839 Y738.6296 Z-1.0000 F4000
G1 X134.5839 Y753.7489 Z-1.0000 F4000
G1 X134.5839 Y738.6296 Z-1.0000 F4000
G1 X175.6848 Y738.6296 Z-1.0000 F4000
G1 X175.6848 Y738.6296 Z10.0000 F9999
G1 X125.1894 Y723.1250 Z10.0000 F9999
G1 X125.1894 Y723.1250 Z-1.0000 F2500
G1 X178.0334 Y692.7397 Z-1.0000 F4000
G1 X125.1894 Y723.1250 Z-1.0000 F4000
G1 X125.1894 Y723.1250 Z10.0000 F9999
G1 X540.8961 Y189.0217 Z10.0000 F9999
G1 X540.8961 Y189.0217 Z-1.0000 F2500
G1 X554.1254 Y168.8750 Z-1.0000 F4000
G1 X540.8961 Y189.0217 Z-1.0000 F4000
G1 X540.8961 Y189.0217 Z10.0000 F9999
G1 X558.3089 Y189.0217 Z10.0000 F9999
G1 X558.3089 Y189.0217 Z-1.0000 F2500
G1 X558.3089 Y147.9208 Z-1.0000 F4000
G1 X551.1530 Y147.9208 Z-1.0000 F4000
G1 X547.2814 Y148.5263 Z-1.0000 F4000
G1 X544.0704 Y150.3429 Z-1.0000 F4000
G1 X541.8502 Y153.4988 Z-1.0000 F4000
G1 X541.0062 Y158.1410 Z-1.0000 F4000
G1 X542.1621 Y162.8199 Z-1.0000 F4000
G1 X544.9328 Y166.1410 Z-1.0000 F4000
G1 X548.2539 Y168.1043 Z-1.0000 F4000
G1 X551.1530 Y168.7649 Z-1.0000 F4000
G1 X558.3089 Y168.7649 Z-1.0000 F4000
G1 X551.1530 Y168.7649 Z-1.0000 F4000
G1 X548.2539 Y168.1043 Z-1.0000 F4000
G1 X544.9328 Y166.1410 Z-1.0000 F4000
G1 X542.1621 Y162.8199 Z-1.0000 F4000
G1 X541.0062 Y158.1410 Z-1.0000 F4000
G1 X541.8502 Y153.4988 Z-1.0000 F4000
G1 X544.0704 Y150.3429 Z-1.0000 F4000
G1 X547.2814 Y148.5263 Z-1.0000 F4000
G1 X551.1530 Y147.9208 Z-1.0000 F4000
G1 X558.3089 Y147.9208 Z-1.0000 F4000
G1 X558.3089 Y147.9208 Z10.0000 F9999
G1 X573.8135 Y138.5263 Z10.0000 F9999
G1 X573.8135 Y138.5263 Z-1.0000 F2500
G1 X604.1988 Y191.3704 Z-1.0000 F4000
G1 X573.8135 Y138.5263 Z-1.0000 F4000
G1 X573.8135 Y138.5263 Z10.0000 F9999
G1 X521.9786 Y147.9208 Z10.0000 F9999
G1 X521.9786 Y147.9208 Z-1.0000 F2500
G1 X527.7952 Y147.9208 Z-1.0000 F4000
G1 X521.9786 Y147.9208 Z-1.0000 F4000
G1 X521.9786 Y189.0217 Z-1.0000 F4000
G1 X521.9786 Y189.0217 Z10.0000 F9999
G1 X621.3181 Y174.3245 Z10.0000 F9999
G1 X621.3181 Y174.3245 Z-1.0000 F2500
G1 X642.0153 Y174.3245 Z-1.0000 F4000
G1 X621.3181 Y174.3245 Z-1.0000 F4000
G1 X621.3181 Y174.3245 Z10.0000 F9999
G1 X631.6300 Y147.9208 Z10.0000 F9999
G1 X631.6300 Y147.9208 Z-1.0000 F2500
G1 X615.5750 Y189.0217 Z-1.0000 F4000
G1 X631.6300 Y147.9208 Z-1.0000 F4000
G1 X647.6484 Y189.0217 Z-1.0000 F4000
G1 X647.6484 Y189.0217 Z10.0000 F9999
G1 X658.3273 Y164.3612 Z10.0000 F9999
G1 X658.3273 Y164.3612 Z-1.0000 F2500
G1 X687.5750 Y164.3612 Z-1.0000 F4000
G1 X658.3273 Y164.3612 Z-1.0000 F4000
G1 X658.3273 Y164.3612 Z10.0000 F9999
G1 X704.6942 Y174.3245 Z10.0000 F9999
G1 X704.6942 Y174.3245 Z-1.0000 F2500
G1 X725.3915 Y174.3245 Z-1.0000 F4000
G1 X704.6942 Y174.3245 Z-1.0000 F4000
G1 X704.6942 Y174.3245 Z10.0000 F9999
G1 X715.0062 Y147.9208 Z10.0000 F9999
G1 X715.0062 Y147.9208 Z-1.0000 F2500
G1 X698.9511 Y189.0217 Z-1.0000 F4000
G1 X715.0062 Y147.9208 Z-1.0000 F4000
G1 X731.0245 Y189.0217 Z-1.0000 F4000
G1 X731.0245 Y189.0217 Z10.0000 F9999
G1 X741.7034 Y189.0217 Z10.0000 F9999
G1 X741.7034 Y189.0217 Z-1.0000 F2500
G1 X754.9328 Y168.8750 Z-1.0000 F4000
G1 X741.7034 Y189.0217 Z-1.0000 F4000
G1 X741.7034 Y189.0217 Z10.0000 F9999
G1 X759.1163 Y189.0217 Z10.0000 F9999
G1 X759.1163 Y189.0217 Z-1.0000 F2500
G1 X759.1163 Y147.9208 Z-1.0000 F4000
G1 X751.9603 Y147.9208 Z-1.0000 F4000
G1 X748.0887 Y148.5263 Z-1.0000 F4000
G1 X744.8777 Y150.3429 Z-1.0000 F4000
G1 X742.6575 Y153.4988 Z-1.0000 F4000
G1 X741.8135 Y158.1410 Z-1.0000 F4000
G1 X742.9695 Y162.8199 Z-1.0000 F4000
G1 X745.7401 Y166.1410 Z-1.0000 F4000
G1 X749.0612 Y168.1043 Z-1.0000 F4000
G1 X751.9603 Y168.7649 Z-1.0000 F4000
G1 X759.1163 Y168.7649 Z-1.0000 F4000
G1 X751.9603 Y168.7649 Z-1.0000 F4000
G1 X749.0612 Y168.1043 Z-1.0000 F4000
G1 X745.7401 Y166.1410 Z-1.0000 F4000
G1 X742.9695 Y162.8199 Z-1.0000 F4000
G1 X741.8135 Y158.1410 Z-1.0000 F4000
G1 X742.6575 Y153.4988 Z-1.0000 F4000
G1 X744.8777 Y150.3429 Z-1.0000 F4000
G1 X748.0887 Y148.5263 Z-1.0000 F4000
G1 X751.9603 Y147.9208 Z-1.0000 F4000
G1 X759.1163 Y147.9208 Z-1.0000 F4000
G1 X759.1163 Y147.9208 Z10.0000 F9999
G1 X789.6484 Y166.2144 Z10.0000 F9999
G1 X789.6484 Y166.2144 Z-1.0000 F2500
G1 X775.2080 Y166.2144 Z-1.0000 F4000
G1 X789.6484 Y166.2144 Z-1.0000 F4000
G1 X789.6484 Y147.9208 Z-1.0000 F4000
G1 X774.5291 Y147.9208 Z-1.0000 F4000
G1 X789.6484 Y147.9208 Z-1.0000 F4000
G1 X789.6484 Y189.0217 Z-1.0000 F4000
G1 X789.6484 Y189.0217 Z10.0000 F9999
G1 X769.9236 Y1049.1030 Z10.0000 F9999
G1 X769.9236 Y1049.1030 Z-1.0000 F2500
G1 X756.6942 Y1069.2498 Z-1.0000 F4000
G1 X769.9236 Y1049.1030 Z-1.0000 F4000
G1 X769.9236 Y1049.1030 Z10.0000 F9999
G1 X752.5108 Y1049.1030 Z10.0000 F9999
G1 X752.5108 Y1049.1030 Z-1.0000 F2500
G1 X752.5108 Y1090.2039 Z-1.0000 F4000
G1 X759.6667 Y1090.2039 Z-1.0000 F4000
G1 X763.5383 Y1089.5984 Z-1.0000 F4000
G1 X766.7493 Y1087.7819 Z-1.0000 F4000
G1 X768.9695 Y1084.6260 Z-1.0000 F4000
G1 X769.8135 Y1079.9838 Z-1.0000 F4000
G1 X768.6575 Y1075.3049 Z-1.0000 F4000
G1 X765.8869 Y1071.9838 Z-1.0000 F4000
G1 X762.5658 Y1070.0205 Z-1.0000 F4000
G1 X759.6667 Y1069.3599 Z-1.0000 F4000
G1 X752.5108 Y1069.3599 Z-1.0000 F4000
G1 X759.6667 Y1069.3599 Z-1.0000 F4000
G1 X762.5658 Y1070.0205 Z-1.0000 F4000
G1 X765.8869 Y1071.9838 Z-1.0000 F4000
G1 X768.6575 Y1075.3049 Z-1.0000 F4000
G1 X769.8135 Y1079.9838 Z-1.0000 F4000
G1 X768.9695 Y1084.6260 Z-1.0000 F4000
G1 X766.7493 Y1087.7819 Z-1.0000 F4000
G1 X763.5383 Y1089.5984 Z-1.0000 F4000
G1 X759.6667 Y1090.2039 Z-1.0000 F4000
G1 X752.5108 Y1090.2039 Z-1.0000 F4000
G1 X752.5108 Y1090.2039 Z10.0000 F9999
G1 X721.9786 Y1071.9104 Z10.0000 F9999
G1 X721.9786 Y1071.9104 Z-1.0000 F2500
G1 X736.4190 Y1071.9104 Z-1.0000 F4000
G1 X721.9786 Y1071.9104 Z-1.0000 F4000
G1 X721.9786 Y1090.2039 Z-1.0000 F4000
G1 X737.0979 Y1090.2039 Z-1.0000 F4000
G1 X721.9786 Y1090.2039 Z-1.0000 F4000
G1 X721.9786 Y1049.1030 Z-1.0000 F4000
G1 X721.9786 Y1049.1030 Z10.0000 F9999
G1 X796.6208 Y1090.2039 Z10.0000 F9999
G1 X796.6208 Y1090.2039 Z-1.0000 F2500
G1 X812.6759 Y1049.1030 Z-1.0000 F4000
G1 X796.6208 Y1090.2039 Z-1.0000 F4000
G1 X780.6025 Y1049.1030 Z-1.0000 F4000
G1 X780.6025 Y1049.1030 Z10.0000 F9999
G1 X806.9328 Y1063.8003 Z10.0000 F9999
G1 X806.9328 Y1063.8003 Z-1.0000 F2500
G1 X786.2355 Y1063.8003 Z-1.0000 F4000
G1 X806.9328 Y1063.8003 Z-1.0000 F4000
G1 X806.9328 Y1063.8003 Z10.0000 F9999
G1 X853.2997 Y1073.7636 Z10.0000 F9999
G1 X853.2997 Y1073.7636 Z-1.0000 F2500
G1 X824.0520 Y1073.7636 Z-1.0000 F4000
G1 X853.2997 Y1073.7636 Z-1.0000 F4000
G1 X853.2997 Y1073.7636 Z10.0000 F9999
G1 X879.9970 Y1090.2039 Z10.0000 F9999
G1 X879.9970 Y1090.2039 Z-1.0000 F2500
G1 X896.0520 Y1049.1030 Z-1.0000 F4000
G1 X879.9970 Y1090.2039 Z-1.0000 F4000
G1 X863.9786 Y1049.1030 Z-1.0000 F4000
G1 X863.9786 Y1049.1030 Z10.0000 F9999
G1 X890.3089 Y1063.8003 Z10.0000 F9999
G1 X890.3089 Y1063.8003 Z-1.0000 F2500
G1 X869.6117 Y1063.8003 Z-1.0000 F4000
G1 X890.3089 Y1063.8003 Z-1.0000 F4000
G1 X890.3089 Y1063.8003 Z10.0000 F9999
G1 X937.8135 Y1099.5984 Z10.0000 F9999
G1 X937.8135 Y1099.5984 Z-1.0000 F2500
G1 X907.4282 Y1046.7544 Z-1.0000 F4000
G1 X937.8135 Y1099.5984 Z-1.0000 F4000
G1 X937.8135 Y1099.5984 Z10.0000 F9999
G1 X989.6484 Y1090.2039 Z10.0000 F9999
G1 X989.6484 Y1090.2039 Z-1.0000 F2500
G1 X983.8319 Y1090.2039 Z-1.0000 F4000
G1 X989.6484 Y1090.2039 Z-1.0000 F4000
G1 X989.6484 Y1049.1030 Z-1.0000 F4000
G1 X989.6484 Y1049.1030 Z10.0000 F9999
G1 X970.7309 Y1049.1030 Z10.0000 F9999
G1 X970.7309 Y1049.1030 Z-1.0000 F2500
G1 X957.5016 Y1069.2498 Z-1.0000 F4000
G1 X970.7309 Y1049.1030 Z-1.0000 F4000
G1 X970.7309 Y1049.1030 Z10.0000 F9999
G1 X953.3181 Y1049.1030 Z10.0000 F9999
G1 X953.3181 Y1049.1030 Z-1.0000 F2500
G1 X953.3181 Y1090.2039 Z-1.0000 F4000
G1 X960.4741 Y1090.2039 Z-1.0000 F4000
G1 X964.3456 Y1089.5984 Z-1.0000 F4000
G1 X967.5566 Y1087.7819 Z-1.0000 F4000
G1 X969.7768 Y1084.6260 Z-1.0000 F4000
G1 X970.6208 Y1079.9838 Z-1.0000 F4000
G1 X969.4649 Y1075.3049 Z-1.0000 F4000
G1 X966.6942 Y1071.9838 Z-1.0000 F4000
G1 X963.3731 Y1070.0205 Z-1.0000 F4000
G1 X960.4741 Y1069.3599 Z-1.0000 F4000
G1 X953.3181 Y1069.3599 Z-1.0000 F4000
G1 X960.4741 Y1069.3599 Z-1.0000 F4000
G1 X963.3731 Y1070.0205 Z-1.0000 F4000
G1 X966.6942 Y1071.9838 Z-1.0000 F4000
G1 X969.4649 Y1075.3049 Z-1.0000 F4000
G1 X970.6208 Y1079.9838 Z-1.0000 F4000
G1 X969.7768 Y1084.6260 Z-1.0000 F4000
G1 X967.5566 Y1087.7819 Z-1.0000 F4000
G1 X964.3456 Y1089.5984 Z-1.0000 F4000
G1 X960.4741 Y1090.2039 Z-1.0000 F4000
G1 X953.3181 Y1090.2039 Z-1.0000 F4000
G1 X953.3181 Y1090.2039 Z10.0000 F9999
G1 X789.6484 Y1389.2916 Z10.0000 F9999
G1 X789.6484 Y1389.2916 Z-1.0000 F2500
G1 X775.2080 Y1389.2916 Z-1.0000 F4000
G1 X789.6484 Y1389.2916 Z-1.0000 F4000
G1 X789.6484 Y1370.9980 Z-1.0000 F4000
G1 X774.5291 Y1370.9980 Z-1.0000 F4000
G1 X789.6484 Y1370.9980 Z-1.0000 F4000
G1 X789.6484 Y1412.0989 Z-1.0000 F4000
G1 X789.6484 Y1412.0989 Z10.0000 F9999
G1 X759.1163 Y1412.0989 Z10.0000 F9999
G1 X759.1163 Y1412.0989 Z-1.0000 F2500
G1 X759.1163 Y1370.9980 Z-1.0000 F4000
G1 X751.9603 Y1370.9980 Z-1.0000 F4000
G1 X748.0887 Y1371.6035 Z-1.0000 F4000
G1 X744.8777 Y1373.4200 Z-1.0000 F4000
G1 X742.6575 Y1376.5760 Z-1.0000 F4000
G1 X741.8135 Y1381.2182 Z-1.0000 F4000
G1 X742.9695 Y1385.8971 Z-1.0000 F4000
G1 X745.7401 Y1389.2182 Z-1.0000 F4000
G1 X749.0612 Y1391.1815 Z-1.0000 F4000
G1 X751.9603 Y1391.8421 Z-1.0000 F4000
G1 X759.1163 Y1391.8421 Z-1.0000 F4000
G1 X751.9603 Y1391.8421 Z-1.0000 F4000
G1 X749.0612 Y1391.1815 Z-1.0000 F4000
G1 X745.7401 Y1389.2182 Z-1.0000 F4000
G1 X742.9695 Y1385.8971 Z-1.0000 F4000
G1 X741.8135 Y1381.2182 Z-1.0000 F4000
G1 X742.6575 Y1376.5760 Z-1.0000 F4000
G1 X744.8777 Y1373.4200 Z-1.0000 F4000
G1 X748.0887 Y1371.6035 Z-1.0000 F4000
G1 X751.9603 Y1370.9980 Z-1.0000 F4000
G1 X759.1163 Y1370.9980 Z-1.0000 F4000
G1 X759.1163 Y1370.9980 Z10.0000 F9999
G1 X715.0062 Y1370.9980 Z10.0000 F9999
G1 X715.0062 Y1370.9980 Z-1.0000 F2500
G1 X698.9511 Y1412.0989 Z-1.0000 F4000
G1 X715.0062 Y1370.9980 Z-1.0000 F4000
G1 X731.0245 Y1412.0989 Z-1.0000 F4000
G1 X731.0245 Y1412.0989 Z10.0000 F9999
G1 X741.7034 Y1412.0989 Z10.0000 F9999
G1 X741.7034 Y1412.0989 Z-1.0000 F2500
G1 X754.9328 Y1391.9521 Z-1.0000 F4000
G1 X741.7034 Y1412.0989 Z-1.0000 F4000
G1 X741.7034 Y1412.0989 Z10.0000 F9999
G1 X704.6942 Y1397.4017 Z10.0000 F9999
G1 X704.6942 Y1397.4017 Z-1.0000 F2500
G1 X725.3915 Y1397.4017 Z-1.0000 F4000
G1 X704.6942 Y1397.4017 Z-1.0000 F4000
G1 X704.6942 Y1397.4017 Z10.0000 F9999
G1 X658.3273 Y1387.4384 Z10.0000 F9999
G1 X658.3273 Y1387.4384 Z-1.0000 F2500
G1 X687.5750 Y1387.4384 Z-1.0000 F4000
G1 X658.3273 Y1387.4384 Z-1.0000 F4000
G1 X658.3273 Y1387.4384 Z10.0000 F9999
G1 X631.6300 Y1370.9980 Z10.0000 F9999
G1 X631.6300 Y1370.9980 Z-1.0000 F2500
G1 X615.5750 Y1412.0989 Z-1.0000 F4000
G1 X631.6300 Y1370.9980 Z-1.0000 F4000
G1 X647.6484 Y1412.0989 Z-1.0000 F4000
G1 X647.6484 Y1412.0989 Z10.0000 F9999
G1 X621.3181 Y1397.4017 Z10.0000 F9999
G1 X621.3181 Y1397.4017 Z-1.0000 F2500
G1 X642.0153 Y1397.4017 Z-1.0000 F4000
G1 X621.3181 Y1397.4017 Z-1.0000 F4000
G1 X621.3181 Y1397.4017 Z10.0000 F9999
G1 X573.8135 Y1361.6035 Z10.0000 F9999
G1 X573.8135 Y1361.6035 Z-1.0000 F2500
G1 X604.1988 Y1414.4476 Z-1.0000 F4000
G1 X573.8135 Y1361.6035 Z-1.0000 F4000
G1 X573.8135 Y1361.6035 Z10.0000 F9999
G1 X521.9786 Y1370.9980 Z10.0000 F9999
G1 X521.9786 Y1370.9980 Z-1.0000 F2500
G1 X527.7952 Y1370.9980 Z-1.0000 F4000
G1 X521.9786 Y1370.9980 Z-1.0000 F4000
G1 X521.9786 Y1412.0989 Z-1.0000 F4000
G1 X521.9786 Y1412.0989 Z10.0000 F9999
G1 X540.8961 Y1412.0989 Z10.0000 F9999
G1 X540.8961 Y1412.0989 Z-1.0000 F2500
G1 X554.1254 Y1391.9521 Z-1.0000 F4000
G1 X540.8961 Y1412.0989 Z-1.0000 F4000
G1 X540.8961 Y1412.0989 Z10.0000 F9999
G1 X558.3089 Y1412.0989 Z10.0000 F9999
G1 X558.3089 Y1412.0989 Z-1.0000 F2500
G1 X558.3089 Y1370.9980 Z-1.0000 F4000
G1 X551.1530 Y1370.9980 Z-1.0000 F4000
G1 X547.2814 Y1371.6035 Z-1.0000 F4000
G1 X544.0704 Y1373.4200 Z-1.0000 F4000
G1 X541.8502 Y1376.5760 Z-1.0000 F4000
G1 X541.0062 Y1381.2182 Z-1.0000 F4000
G1 X542.1621 Y1385.8971 Z-1.0000 F4000
G1 X544.9328 Y1389.2182 Z-1.0000 F4000
G1 X548.2539 Y1391.1815 Z-1.0000 F4000
G1 X551.1530 Y1391.8421 Z-1.0000 F4000
G1 X558.3089 Y1391.8421 Z-1.0000 F4000
G1 X551.1530 Y1391.8421 Z-1.0000 F4000
G1 X548.2539 Y1391.1815 Z-1.0000 F4000
G1 X544.9328 Y1389.2182 Z-1.0000 F4000
G1 X542.1621 Y1385.8971 Z-1.0000 F4000
G1 X541.0062 Y1381.2182 Z-1.0000 F4000
G1 X541.8502 Y1376.5760 Z-1.0000 F4000
G1 X544.0704 Y1373.4200 Z-1.0000 F4000
G1 X547.2814 Y1371.6035 Z-1.0000 F4000
G1 X551.1530 Y1370.9980 Z-1.0000 F4000
G1 X558.3089 Y1370.9980 Z-1.0000 F4000
G1 X558.3089 Y1370.9980 Z10.0000 F9999
G1 X168.2848 Y1687.4623 Z10.0000 F9999
G1 X168.2848 Y1687.4623 Z-1.0000 F2500
G1 X171.3307 Y1689.4072 Z-1.0000 F4000
G1 X173.3857 Y1691.8292 Z-1.0000 F4000
G1 X174.6334 Y1694.9485 Z-1.0000 F4000
G1 X175.1105 Y1699.0770 Z-1.0000 F4000
G1 X174.6518 Y1703.5724 Z-1.0000 F4000
G1 X172.9086 Y1707.3889 Z-1.0000 F4000
G1 X169.9178 Y1710.0678 Z-1.0000 F4000
G1 X165.7527 Y1711.1870 Z-1.0000 F4000
G1 X161.7527 Y1710.6549 Z-1.0000 F4000
G1 X159.0738 Y1709.1136 Z-1.0000 F4000
G1 X157.3857 Y1707.0770 Z-1.0000 F4000
G1 X156.2848 Y1705.1687 Z-1.0000 F4000
G1 X151.5508 Y1695.9760 Z-1.0000 F4000
G1 X150.1380 Y1693.6091 Z-1.0000 F4000
G1 X148.4866 Y1691.7558 Z-1.0000 F4000
G1 X146.3031 Y1690.5081 Z-1.0000 F4000
G1 X143.4224 Y1689.9944 Z-1.0000 F4000
G1 X140.1380 Y1690.5265 Z-1.0000 F4000
G1 X137.1105 Y1692.3614 Z-1.0000 F4000
G1 X134.8903 Y1695.4990 Z-1.0000 F4000
G1 X134.0096 Y1699.8659 Z-1.0000 F4000
G1 X134.6885 Y1704.1228 Z-1.0000 F4000
G1 X136.1563 Y1706.9669 Z-1.0000 F4000
G1 X138.3031 Y1709.0586 Z-1.0000 F4000
G1 X136.1563 Y1706.9669 Z-1.0000 F4000
G1 X134.6885 Y1704.1228 Z-1.0000 F4000
G1 X134.0096 Y1699.8659 Z-1.0000 F4000
G1 X134.8903 Y1695.4990 Z-1.0000 F4000
G1 X137.1105 Y1692.3614 Z-1.0000 F4000
G1 X140.1380 Y1690.5265 Z-1.0000 F4000
G1 X143.4224 Y1689.9944 Z-1.0000 F4000
G1 X146.3031 Y1690.5081 Z-1.0000 F4000
G1 X148.4866 Y1691.7558 Z-1.0000 F4000
G1 X150.1380 Y1693.6091 Z-1.0000 F4000
G1 X151.5508 Y1695.9760 Z-1.0000 F4000
G1 X156.2848 Y1705.1687 Z-1.0000 F4000
G1 X157.3857 Y1707.0770 Z-1.0000 F4000
G1 X159.0738 Y1709.1136 Z-1.0000 F4000
G1 X161.7527 Y1710.6549 Z-1.0000 F4000
G1 X165.7527 Y1711.1870 Z-1.0000 F4000
G1 X169.9178 Y1710.0678 Z-1.0000 F4000
G1 X172.9086 Y1707.3889 Z-1.0000 F4000
G1 X174.6518 Y1703.5724 Z-1.0000 F4000
G1 X175.1105 Y1699.0770 Z-1.0000 F4000
G1 X174.6334 Y1694.9485 Z-1.0000 F4000
G1 X173.3857 Y1691.8292 Z-1.0000 F4000
G1 X171.3307 Y1689.4072 Z-1.0000 F4000
G1 X171.3307 Y1689.4072 Z10.0000 F9999
G1 X134.0096 Y1727.4806 Z10.0000 F9999
G1 X134.0096 Y1727.4806 Z-1.0000 F2500
G1 X134.0096 Y1733.9026 Z-1.0000 F4000
G1 X136.5784 Y1742.5265 Z-1.0000 F4000
G1 X144.1747 Y1745.5173 Z-1.0000 F4000
G1 X152.0463 Y1742.4347 Z-1.0000 F4000
G1 X154.8719 Y1734.1962 Z-1.0000 F4000
G1 X154.8719 Y1727.4806 Z-1.0000 F4000
G1 X154.8719 Y1734.1962 Z-1.0000 F4000
G1 X152.0463 Y1742.4347 Z-1.0000 F4000
G1 X144.1747 Y1745.5173 Z-1.0000 F4000
G1 X136.5784 Y1742.5265 Z-1.0000 F4000
G1 X134.0096 Y1733.9026 Z-1.0000 F4000
G1 X134.0096 Y1727.4806 Z-1.0000 F4000
G1 X175.1105 Y1727.4806 Z-1.0000 F4000
G1 X175.1105 Y1727.4806 Z10.0000 F9999
G1 X160.4132 Y1783.0770 Z10.0000 F9999
G1 X160.4132 Y1783.0770 Z-1.0000 F2500
G1 X160.4132 Y1762.3797 Z-1.0000 F4000
G1 X160.4132 Y1783.0770 Z-1.0000 F4000
G1 X160.4132 Y1783.0770 Z10.0000 F9999
G1 X134.0096 Y1772.7650 Z10.0000 F9999
G1 X134.0096 Y1772.7650 Z-1.0000 F2500
G1 X175.1105 Y1788.8201 Z-1.0000 F4000
G1 X134.0096 Y1772.7650 Z-1.0000 F4000
G1 X175.1105 Y1756.7467 Z-1.0000 F4000
G1 X175.1105 Y1756.7467 Z10.0000 F9999
G1 X169.4224 Y1836.1045 Z10.0000 F9999
G1 X169.4224 Y1836.1045 Z-1.0000 F2500
G1 X173.5875 Y1829.4806 Z-1.0000 F4000
G1 X175.1105 Y1821.4990 Z-1.0000 F4000
G1 X173.4774 Y1813.2237 Z-1.0000 F4000
G1 X169.0554 Y1806.4531 Z-1.0000 F4000
G1 X162.5233 Y1801.8843 Z-1.0000 F4000
G1 X154.5233 Y1800.1962 Z-1.0000 F4000
G1 X146.5784 Y1801.8843 Z-1.0000 F4000
G1 X140.0646 Y1806.4531 Z-1.0000 F4000
G1 X135.6426 Y1813.2237 Z-1.0000 F4000
G1 X134.0096 Y1821.4990 Z-1.0000 F4000
G1 X135.4224 Y1829.2788 Z-1.0000 F4000
G1 X139.3674 Y1835.8292 Z-1.0000 F4000
G1 X135.4224 Y1829.2788 Z-1.0000 F4000
G1 X134.0096 Y1821.4990 Z-1.0000 F4000
G1 X135.6426 Y1813.2237 Z-1.0000 F4000
G1 X140.0646 Y1806.4531 Z-1.0000 F4000
G1 X146.5784 Y1801.8843 Z-1.0000 F4000
G1 X154.5233 Y1800.1962 Z-1.0000 F4000
G1 X162.5233 Y1801.8843 Z-1.0000 F4000
G1 X169.0554 Y1806.4531 Z-1.0000 F4000
G1 X173.4774 Y1813.2237 Z-1.0000 F4000
G1 X175.1105 Y1821.4990 Z-1.0000 F4000
G1 X173.5875 Y1829.4806 Z-1.0000 F4000
G1 X173.5875 Y1829.4806 Z10.0000 F9999
G1 X175.1105 Y1851.9577 Z10.0000 F9999
G1 X175.1105 Y1851.9577 Z-1.0000 F2500
G1 X152.3031 Y1851.9577 Z-1.0000 F4000
G1 X152.3031 Y1868.4164 Z-1.0000 F4000
G1 X152.3031 Y1851.9577 Z-1.0000 F4000
G1 X134.0096 Y1851.9577 Z-1.0000 F4000
G1 X134.0096 Y1869.7192 Z-1.0000 F4000
G1 X134.0096 Y1851.9577 Z-1.0000 F4000
G1 X175.1105 Y1851.9577 Z-1.0000 F4000
G1 X175.1105 Y1869.7192 Z-1.0000 F4000
G1 X175.1105 Y1869.7192 Z10.0000 F9999
G1 X175.1105 Y1884.8384 Z10.0000 F9999
G1 X175.1105 Y1884.8384 Z-1.0000 F2500
G1 X134.0096 Y1884.8384 Z-1.0000 F4000
G1 X134.0096 Y1891.9944 Z-1.0000 F4000
G1 X134.6151 Y1895.8659 Z-1.0000 F4000
G1 X136.4316 Y1899.0770 Z-1.0000 F4000
G1 X139.5875 Y1901.2971 Z-1.0000 F4000
G1 X144.2297 Y1902.1412 Z-1.0000 F4000
G1 X148.9086 Y1900.9852 Z-1.0000 F4000
G1 X152.2297 Y1898.2146 Z-1.0000 F4000
G1 X154.1930 Y1894.8935 Z-1.0000 F4000
G1 X154.8536 Y1891.9944 Z-1.0000 F4000
G1 X154.8536 Y1884.8384 Z-1.0000 F4000
G1 X154.8536 Y1891.9944 Z-1.0000 F4000
G1 X154.1930 Y1894.8935 Z-1.0000 F4000
G1 X152.2297 Y1898.2146 Z-1.0000 F4000
G1 X148.9086 Y1900.9852 Z-1.0000 F4000
G1 X144.2297 Y1902.1412 Z-1.0000 F4000
G1 X139.5875 Y1901.2971 Z-1.0000 F4000
G1 X136.4316 Y1899.0770 Z-1.0000 F4000
G1 X134.6151 Y1895.8659 Z-1.0000 F4000
G1 X134.0096 Y1891.9944 Z-1.0000 F4000
G1 X134.0096 Y1884.8384 Z-1.0000 F4000
G1 X134.0096 Y1884.8384 Z10.0000 F9999
G1 X175.1105 Y1902.2513 Z10.0000 F9999
G1 X175.1105 Y1902.2513 Z-1.0000 F2500
G1 X154.9637 Y1889.0219 Z-1.0000 F4000
G1 X175.1105 Y1902.2513 Z-1.0000 F4000
G1 X175.1105 Y1902.2513 Z10.0000 F9999
G1 X152.3031 Y1958.8201 Z10.0000 F9999
G1 X152.3031 Y1958.8201 Z-1.0000 F2500
G1 X152.3031 Y1973.2604 Z-1.0000 F4000
G1 X152.3031 Y1958.8201 Z-1.0000 F4000
G1 X134.0096 Y1958.8201 Z-1.0000 F4000
G1 X134.0096 Y1973.9393 Z-1.0000 F4000
G1 X134.0096 Y1958.8201 Z-1.0000 F4000
G1 X175.1105 Y1958.8201 Z-1.0000 F4000
G1 X175.1105 Y1958.8201 Z10.0000 F9999
G1 X124.6151 Y1943.3155 Z10.0000 F9999
G1 X124.6151 Y1943.3155 Z-1.0000 F2500
G1 X177.4591 Y1912.9302 Z-1.0000 F4000
G1 X124.6151 Y1943.3155 Z-1.0000 F4000
G1 X124.6151 Y1943.3155 Z10.0000 F9999
(Tool Number:1) (7.998 mm dia. slot drill)
M3 S9000
G1 X147.6125 Y48.0114 Z10.0000 F9999
G1 X147.6125 Y48.0114 Z1.0000 F2500
G1 X147.6125 Y34.5125 Z-2.6370 F2500
G1 X152.6125 Y34.5125 Z-3.9842 F2500
G1 X152.6125 Y32.5105 Z-4.5236 F2500
G1 X134.1423 Y32.5105 Z-9.5000 F2500
G1 X152.6125 Y32.5105 Z-14.4764 F2500
G1 X152.6125 Y34.5125 Z-15.0158 F2500
G1 X147.6125 Y34.5125 Z-16.3630 F2500
G1 X147.6125 Y48.0114 Z-20.0000 F2500
G1 X147.6125 Y34.5125 Z-20.0000 F4000
G1 X152.6125 Y34.5125 Z-20.0000 F4000
G1 X152.6125 Y32.5105 Z-20.0000 F4000
G1 X132.6105 Y32.5105 Z-20.0000 F4000
G1 X132.6105 Y34.5125 Z-20.0000 F4000
G1 X137.6105 Y34.5125 Z-20.0000 F4000
G1 X137.6105 Y61.5104 Z-20.0000 F4000
G1 X132.6105 Y61.5104 Z-20.0000 F4000
G1 X132.6105 Y63.5124 Z-20.0000 F4000
G1 X152.6125 Y63.5124 Z-20.0000 F4000
G1 X152.6125 Y61.5104 Z-20.0000 F4000
G1 X147.6125 Y61.5104 Z-20.0000 F4000
G1 X147.6125 Y48.0114 Z-20.0000 F4000
G1 X147.6125 Y48.0114 Z10.0000 F9999
G1 X458.3136 Y40.5268 Z10.0000 F9999
G1 X458.3136 Y40.5268 Z1.0000 F2500
G1 X427.3132 Y40.5268 Z-7.3524 F2500
G1 X433.3132 Y40.5288 Z-8.9690 F2500
G1 X433.3132 Y42.4995 Z-9.5000 F2500
G1 X433.3132 Y40.5288 Z-10.0310 F2500
G1 X427.3132 Y40.5268 Z-11.6476 F2500
G1 X458.3136 Y40.5268 Z-20.0000 F2500
G1 X427.3132 Y40.5268 Z-20.0000 F4000
G1 X433.3132 Y40.5288 Z-20.0000 F4000
G1 X433.3132 Y56.5287 Z-20.0000 F4000
G1 X433.3152 Y50.5287 Z-20.0000 F4000
G1 X485.3130 Y50.5287 Z-20.0000 F4000
G1 X485.3130 Y56.5287 Z-20.0000 F4000
G1 X485.3150 Y40.5288 Z-20.0000 F4000
G1 X491.3150 Y40.5288 Z-20.0000 F4000
G1 X474.8143 Y40.5195 Z-20.0000 F4000
G1 X458.3136 Y40.5268 Z-20.0000 F4000
G1 X458.3136 Y40.5268 Z10.0000 F9999
G1 X460.3146 Y282.5283 Z10.0000 F9999
G1 X460.3146 Y282.5283 Z1.0000 F2500
G1 X491.3150 Y282.5283 Z-7.3524 F2500
G1 X485.3150 Y282.5263 Z-8.9690 F2500
G1 X485.3150 Y280.5555 Z-9.5000 F2500
G1 X485.3150 Y282.5263 Z-10.0310 F2500
G1 X491.3150 Y282.5283 Z-11.6476 F2500
G1 X460.3146 Y282.5283 Z-20.0000 F2500
G1 X491.3150 Y282.5283 Z-20.0000 F4000
G1 X485.3150 Y282.5263 Z-20.0000 F4000
G1 X485.3150 Y266.5263 Z-20.0000 F4000
G1 X485.3130 Y272.5263 Z-20.0000 F4000
G1 X433.3152 Y272.5263 Z-20.0000 F4000
G1 X433.3152 Y266.5263 Z-20.0000 F4000
G1 X433.3132 Y282.5263 Z-20.0000 F4000
G1 X427.3132 Y282.5263 Z-20.0000 F4000
G1 X443.8139 Y282.5355 Z-20.0000 F4000
G1 X460.3146 Y282.5283 Z-20.0000 F4000
G1 X460.3146 Y282.5283 Z10.0000 F9999
G1 X573.3149 Y475.6011 Z10.0000 F9999
G1 X573.3149 Y475.6011 Z1.0000 F2500
G1 X573.3149 Y444.6007 Z-7.3524 F2500
G1 X573.3129 Y450.6007 Z-8.9690 F2500
G1 X571.3421 Y450.6007 Z-9.5000 F2500
G1 X573.3129 Y450.6007 Z-10.0310 F2500
G1 X573.3149 Y444.6007 Z-11.6476 F2500
G1 X573.3149 Y475.6011 Z-20.0000 F2500
G1 X573.3149 Y444.6007 Z-20.0000 F4000
G1 X573.3129 Y450.6007 Z-20.0000 F4000
G1 X557.3129 Y450.6007 Z-20.0000 F4000
G1 X563.3129 Y450.6027 Z-20.0000 F4000
G1 X563.3129 Y502.6005 Z-20.0000 F4000
G1 X557.3129 Y502.6005 Z-20.0000 F4000
G1 X573.3129 Y502.6025 Z-20.0000 F4000
G1 X573.3129 Y508.6025 Z-20.0000 F4000
G1 X573.3221 Y492.1018 Z-20.0000 F4000
G1 X573.3149 Y475.6011 Z-20.0000 F4000
G1 X573.3149 Y475.6011 Z10.0000 F9999
G1 X331.3134 Y477.6021 Z10.0000 F9999
G1 X331.3134 Y477.6021 Z1.0000 F2500
G1 X331.3134 Y508.6025 Z-7.3524 F2500
G1 X331.3154 Y502.6025 Z-8.9690 F2500
G1 X333.2861 Y502.6025 Z-9.5000 F2500
G1 X331.3154 Y502.6025 Z-10.0310 F2500
G1 X331.3134 Y508.6025 Z-11.6476 F2500
G1 X331.3134 Y477.6021 Z-20.0000 F2500
G1 X331.3134 Y508.6025 Z-20.0000 F4000
G1 X331.3154 Y502.6025 Z-20.0000 F4000
G1 X347.3154 Y502.6025 Z-20.0000 F4000
G1 X341.3154 Y502.6005 Z-20.0000 F4000
G1 X341.3154 Y450.6027 Z-20.0000 F4000
G1 X347.3154 Y450.6027 Z-20.0000 F4000
G1 X331.3154 Y450.6007 Z-20.0000 F4000
G1 X331.3154 Y444.6007 Z-20.0000 F4000
G1 X331.3061 Y461.1014 Z-20.0000 F4000
G1 X331.3134 Y477.6021 Z-20.0000 F4000
G1 X331.3134 Y477.6021 Z10.0000 F9999
G1 X331.3134 Y777.6015 Z10.0000 F9999
G1 X331.3134 Y777.6015 Z1.0000 F2500
G1 X331.3134 Y808.6019 Z-7.3524 F2500
G1 X331.3154 Y802.6019 Z-8.9690 F2500
G1 X333.2861 Y802.6019 Z-9.5000 F2500
G1 X331.3154 Y802.6019 Z-10.0310 F2500
G1 X331.3134 Y808.6019 Z-11.6476 F2500
G1 X331.3134 Y777.6015 Z-20.0000 F2500
G1 X331.3134 Y808.6019 Z-20.0000 F4000
G1 X331.3154 Y802.6019 Z-20.0000 F4000
G1 X347.3154 Y802.6019 Z-20.0000 F4000
G1 X341.3154 Y802.5999 Z-20.0000 F4000
G1 X341.3154 Y750.6022 Z-20.0000 F4000
G1 X347.3154 Y750.6022 Z-20.0000 F4000
G1 X331.3154 Y750.6002 Z-20.0000 F4000
G1 X331.3154 Y744.6002 Z-20.0000 F4000
G1 X331.3061 Y761.1009 Z-20.0000 F4000
G1 X331.3134 Y777.6015 Z-20.0000 F4000
G1 X331.3134 Y777.6015 Z10.0000 F9999
G1 X452.3141 Y771.6000 Z10.0000 F9999
G1 X452.3141 Y771.6000 Z1.0000 F2500
G1 X422.3152 Y771.6000 Z-7.0826 F2500
G1 X422.3152 Y766.5999 Z-8.4298 F2500
G1 X420.3132 Y766.5999 Z-8.9692 F2500
G1 X420.3132 Y768.5700 Z-9.5000 F2500
G1 X420.3132 Y766.5999 Z-10.0308 F2500
G1 X422.3152 Y766.5999 Z-10.5702 F2500
G1 X422.3152 Y771.6000 Z-11.9174 F2500
G1 X452.3141 Y771.6000 Z-20.0000 F2500
G1 X422.3152 Y771.6000 Z-20.0000 F4000
G1 X422.3152 Y766.5999 Z-20.0000 F4000
G1 X420.3132 Y766.5999 Z-20.0000 F4000
G1 X420.3132 Y786.6020 Z-20.0000 F4000
G1 X422.3152 Y786.6020 Z-20.0000 F4000
G1 X422.3152 Y781.6019 Z-20.0000 F4000
G1 X482.3131 Y781.6019 Z-20.0000 F4000
G1 X482.3131 Y786.6020 Z-20.0000 F4000
G1 X484.3151 Y786.6020 Z-20.0000 F4000
G1 X484.3151 Y766.5999 Z-20.0000 F4000
G1 X482.3131 Y766.5999 Z-20.0000 F4000
G1 X482.3131 Y771.6000 Z-20.0000 F4000
G1 X452.3141 Y771.6000 Z-20.0000 F4000
G1 X452.3141 Y771.6000 Z10.0000 F9999
G1 X573.3149 Y775.6005 Z10.0000 F9999
G1 X573.3149 Y775.6005 Z1.0000 F2500
G1 X573.3149 Y744.6002 Z-7.3524 F2500
G1 X573.3129 Y750.6002 Z-8.9690 F2500
G1 X571.3421 Y750.6002 Z-9.5000 F2500
G1 X573.3129 Y750.6002 Z-10.0310 F2500
G1 X573.3149 Y744.6002 Z-11.6476 F2500
G1 X573.3149 Y775.6005 Z-20.0000 F2500
G1 X573.3149 Y744.6002 Z-20.0000 F4000
G1 X573.3129 Y750.6002 Z-20.0000 F4000
G1 X557.3129 Y750.6002 Z-20.0000 F4000
G1 X563.3129 Y750.6022 Z-20.0000 F4000
G1 X563.3129 Y802.5999 Z-20.0000 F4000
G1 X557.3129 Y802.5999 Z-20.0000 F4000
G1 X573.3129 Y802.6019 Z-20.0000 F4000
G1 X573.3129 Y808.6019 Z-20.0000 F4000
G1 X573.3221 Y792.1012 Z-20.0000 F4000
G1 X573.3149 Y775.6005 Z-20.0000 F4000
G1 X573.3149 Y775.6005 Z10.0000 F9999
G1 X751.3130 Y955.5997 Z10.0000 F9999
G1 X751.3130 Y955.5997 Z1.0000 F2500
G1 X720.3126 Y955.5997 Z-7.3524 F2500
G1 X726.3126 Y955.6017 Z-8.9690 F2500
G1 X726.3126 Y957.5725 Z-9.5000 F2500
G1 X726.3126 Y955.6017 Z-10.0310 F2500
G1 X720.3126 Y955.5997 Z-11.6476 F2500
G1 X751.3130 Y955.5997 Z-20.0000 F2500
G1 X720.3126 Y955.5997 Z-20.0000 F4000
G1 X726.3126 Y955.6017 Z-20.0000 F4000
G1 X726.3126 Y971.6017 Z-20.0000 F4000
G1 X726.3146 Y965.6017 Z-20.0000 F4000
G1 X778.3124 Y965.6017 Z-20.0000 F4000
G1 X778.3124 Y971.6017 Z-20.0000 F4000
G1 X778.3144 Y955.6017 Z-20.0000 F4000
G1 X784.3144 Y955.6017 Z-20.0000 F4000
G1 X767.8137 Y955.5925 Z-20.0000 F4000
G1 X751.3130 Y955.5997 Z-20.0000 F4000
G1 X751.3130 Y955.5997 Z10.0000 F9999
G1 X753.3140 Y1197.6012 Z10.0000 F9999
G1 X753.3140 Y1197.6012 Z1.0000 F2500
G1 X784.3144 Y1197.6012 Z-7.3524 F2500
G1 X778.3144 Y1197.5992 Z-8.9690 F2500
G1 X778.3144 Y1195.6284 Z-9.5000 F2500
G1 X778.3144 Y1197.5992 Z-10.0310 F2500
G1 X784.3144 Y1197.6012 Z-11.6476 F2500
G1 X753.3140 Y1197.6012 Z-20.0000 F2500
G1 X784.3144 Y1197.6012 Z-20.0000 F4000
G1 X778.3144 Y1197.5992 Z-20.0000 F4000
G1 X778.3144 Y1181.5992 Z-20.0000 F4000
G1 X778.3124 Y1187.5992 Z-20.0000 F4000
G1 X726.3146 Y1187.5992 Z-20.0000 F4000
G1 X726.3146 Y1181.5992 Z-20.0000 F4000
G1 X726.3126 Y1197.5992 Z-20.0000 F4000
G1 X720.3126 Y1197.5992 Z-20.0000 F4000
G1 X736.8133 Y1197.6084 Z-20.0000 F4000
G1 X753.3140 Y1197.6012 Z-20.0000 F4000
G1 X753.3140 Y1197.6012 Z10.0000 F9999
G1 X758.3130 Y1263.6008 Z10.0000 F9999
G1 X758.3130 Y1263.6008 Z1.0000 F2500
G1 X727.3126 Y1263.6008 Z-7.3524 F2500
G1 X733.3126 Y1263.6028 Z-8.9690 F2500
G1 X733.3126 Y1265.5735 Z-9.5000 F2500
G1 X733.3126 Y1263.6028 Z-10.0310 F2500
G1 X727.3126 Y1263.6008 Z-11.6476 F2500
G1 X758.3130 Y1263.6008 Z-20.0000 F2500
G1 X727.3126 Y1263.6008 Z-20.0000 F4000
G1 X733.3126 Y1263.6028 Z-20.0000 F4000
G1 X733.3126 Y1279.6027 Z-20.0000 F4000
G1 X733.3146 Y1273.6027 Z-20.0000 F4000
G1 X785.3124 Y1273.6027 Z-20.0000 F4000
G1 X785.3124 Y1279.6027 Z-20.0000 F4000
G1 X785.3144 Y1263.6028 Z-20.0000 F4000
G1 X791.3144 Y1263.6028 Z-20.0000 F4000
G1 X774.8137 Y1263.5935 Z-20.0000 F4000
G1 X758.3130 Y1263.6008 Z-20.0000 F4000
G1 X758.3130 Y1263.6008 Z10.0000 F9999
G1 X760.3140 Y1505.6023 Z10.0000 F9999
G1 X760.3140 Y1505.6023 Z1.0000 F2500
G1 X791.3144 Y1505.6023 Z-7.3524 F2500
G1 X785.3144 Y1505.6003 Z-8.9690 F2500
G1 X785.3144 Y1503.6295 Z-9.5000 F2500
G1 X785.3144 Y1505.6003 Z-10.0310 F2500
G1 X791.3144 Y1505.6023 Z-11.6476 F2500
G1 X760.3140 Y1505.6023 Z-20.0000 F2500
G1 X791.3144 Y1505.6023 Z-20.0000 F4000
G1 X785.3144 Y1505.6003 Z-20.0000 F4000
G1 X785.3144 Y1489.6003 Z-20.0000 F4000
G1 X785.3124 Y1495.6003 Z-20.0000 F4000
G1 X733.3146 Y1495.6003 Z-20.0000 F4000
G1 X733.3146 Y1489.6003 Z-20.0000 F4000
G1 X733.3126 Y1505.6003 Z-20.0000 F4000
G1 X727.3126 Y1505.6003 Z-20.0000 F4000
G1 X743.8133 Y1505.6095 Z-20.0000 F4000
G1 X760.3140 Y1505.6023 Z-20.0000 F4000
G1 X760.3140 Y1505.6023 Z10.0000 F9999
G1 X979.8130 Y1379.6005 Z10.0000 F9999
G1 X979.8130 Y1379.6005 Z1.0000 F2500
G1 X940.8419 Y1379.6005 Z-9.5000 F2500
G1 X979.8130 Y1379.6005 Z-20.0000 F2500
G1 X905.3142 Y1379.6005 Z-20.0000 F4000
G1 X905.3142 Y1373.6005 Z-20.0000 F4000
G1 X905.3122 Y1395.6027 Z-20.0000 F4000
G1 X905.3142 Y1389.6027 Z-20.0000 F4000
G1 X1054.3119 Y1389.6027 Z-20.0000 F4000
G1 X1054.3119 Y1414.6005 Z-20.0000 F4000
G1 X1049.3119 Y1414.6005 Z-20.0000 F4000
G1 X1049.3119 Y1416.6025 Z-20.0000 F4000
G1 X1069.3138 Y1416.6025 Z-20.0000 F4000
G1 X1069.3138 Y1414.6005 Z-20.0000 F4000
G1 X1064.3139 Y1414.6005 Z-20.0000 F4000
G1 X1064.3139 Y1389.6027 Z-20.0000 F4000
G1 X1123.3118 Y1389.6027 Z-20.0000 F4000
G1 X1123.3118 Y1394.6025 Z-20.0000 F4000
G1 X1125.3137 Y1394.6025 Z-20.0000 F4000
G1 X1125.3137 Y1374.6007 Z-20.0000 F4000
G1 X1123.3118 Y1374.6007 Z-20.0000 F4000
G1 X1123.3118 Y1379.6005 Z-20.0000 F4000
G1 X1064.3139 Y1379.6005 Z-20.0000 F4000
G1 X1064.3139 Y1354.6027 Z-20.0000 F4000
G1 X1069.3138 Y1354.6027 Z-20.0000 F4000
G1 X1069.3138 Y1352.6007 Z-20.0000 F4000
G1 X1049.3119 Y1352.6007 Z-20.0000 F4000
G1 X1049.3119 Y1354.6027 Z-20.0000 F4000
G1 X1054.3119 Y1354.6027 Z-20.0000 F4000
G1 X1054.3119 Y1379.6005 Z-20.0000 F4000
G1 X979.8130 Y1379.6005 Z-20.0000 F4000
G1 X979.8130 Y1379.6005 Z10.0000 F9999
G1 X1058.3124 Y1263.6008 Z10.0000 F9999
G1 X1058.3124 Y1263.6008 Z1.0000 F2500
G1 X1027.3120 Y1263.6008 Z-7.3524 F2500
G1 X1033.3120 Y1263.6028 Z-8.9690 F2500
G1 X1033.3120 Y1265.5735 Z-9.5000 F2500
G1 X1033.3120 Y1263.6028 Z-10.0310 F2500
G1 X1027.3120 Y1263.6008 Z-11.6476 F2500
G1 X1058.3124 Y1263.6008 Z-20.0000 F2500
G1 X1027.3120 Y1263.6008 Z-20.0000 F4000
G1 X1033.3120 Y1263.6028 Z-20.0000 F4000
G1 X1033.3120 Y1279.6027 Z-20.0000 F4000
G1 X1033.3140 Y1273.6027 Z-20.0000 F4000
G1 X1085.3118 Y1273.6027 Z-20.0000 F4000
G1 X1085.3118 Y1279.6027 Z-20.0000 F4000
G1 X1085.3138 Y1263.6028 Z-20.0000 F4000
G1 X1091.3138 Y1263.6028 Z-20.0000 F4000
G1 X1074.8131 Y1263.5935 Z-20.0000 F4000
G1 X1058.3124 Y1263.6008 Z-20.0000 F4000
G1 X1058.3124 Y1263.6008 Z10.0000 F9999
G1 X1053.3134 Y1197.6012 Z10.0000 F9999
G1 X1053.3134 Y1197.6012 Z1.0000 F2500
G1 X1084.3138 Y1197.6012 Z-7.3524 F2500
G1 X1078.3138 Y1197.5992 Z-8.9690 F2500
G1 X1078.3138 Y1195.6284 Z-9.5000 F2500
G1 X1078.3138 Y1197.5992 Z-10.0310 F2500
G1 X1084.3138 Y1197.6012 Z-11.6476 F2500
G1 X1053.3134 Y1197.6012 Z-20.0000 F2500
G1 X1084.3138 Y1197.6012 Z-20.0000 F4000
G1 X1078.3138 Y1197.5992 Z-20.0000 F4000
G1 X1078.3138 Y1181.5992 Z-20.0000 F4000
G1 X1078.3118 Y1187.5992 Z-20.0000 F4000
G1 X1026.3140 Y1187.5992 Z-20.0000 F4000
G1 X1026.3140 Y1181.5992 Z-20.0000 F4000
G1 X1026.3120 Y1197.5992 Z-20.0000 F4000
G1 X1020.3120 Y1197.5992 Z-20.0000 F4000
G1 X1036.8127 Y1197.6084 Z-20.0000 F4000
G1 X1053.3134 Y1197.6012 Z-20.0000 F4000
G1 X1053.3134 Y1197.6012 Z10.0000 F9999
G1 X1051.3124 Y955.5997 Z10.0000 F9999
G1 X1051.3124 Y955.5997 Z1.0000 F2500
G1 X1020.3120 Y955.5997 Z-7.3524 F2500
G1 X1026.3120 Y955.6017 Z-8.9690 F2500
G1 X1026.3120 Y957.5725 Z-9.5000 F2500
G1 X1026.3120 Y955.6017 Z-10.0310 F2500
G1 X1020.3120 Y955.5997 Z-11.6476 F2500
G1 X1051.3124 Y955.5997 Z-20.0000 F2500
G1 X1020.3120 Y955.5997 Z-20.0000 F4000
G1 X1026.3120 Y955.6017 Z-20.0000 F4000
G1 X1026.3120 Y971.6017 Z-20.0000 F4000
G1 X1026.3140 Y965.6017 Z-20.0000 F4000
G1 X1078.3118 Y965.6017 Z-20.0000 F4000
G1 X1078.3118 Y971.6017 Z-20.0000 F4000
G1 X1078.3138 Y955.6017 Z-20.0000 F4000
G1 X1084.3138 Y955.6017 Z-20.0000 F4000
G1 X1067.8131 Y955.5925 Z-20.0000 F4000
G1 X1051.3124 Y955.5997 Z-20.0000 F4000
G1 X1051.3124 Y955.5997 Z10.0000 F9999
G1 X938.3121 Y762.5269 Z10.0000 F9999
G1 X938.3121 Y762.5269 Z1.0000 F2500
G1 X938.3121 Y793.5272 Z-7.3524 F2500
G1 X938.3141 Y787.5272 Z-8.9690 F2500
G1 X940.2849 Y787.5272 Z-9.5000 F2500
G1 X938.3141 Y787.5272 Z-10.0310 F2500
G1 X938.3121 Y793.5272 Z-11.6476 F2500
G1 X938.3121 Y762.5269 Z-20.0000 F2500
G1 X938.3121 Y793.5272 Z-20.0000 F4000
G1 X938.3141 Y787.5272 Z-20.0000 F4000
G1 X954.3141 Y787.5272 Z-20.0000 F4000
G1 X948.3141 Y787.5252 Z-20.0000 F4000
G1 X948.3141 Y735.5275 Z-20.0000 F4000
G1 X954.3141 Y735.5275 Z-20.0000 F4000
G1 X938.3141 Y735.5255 Z-20.0000 F4000
G1 X938.3141 Y729.5255 Z-20.0000 F4000
G1 X938.3049 Y746.0262 Z-20.0000 F4000
G1 X938.3121 Y762.5269 Z-20.0000 F4000
G1 X938.3121 Y762.5269 Z10.0000 F9999
G1 X1180.3136 Y760.5259 Z10.0000 F9999
G1 X1180.3136 Y760.5259 Z1.0000 F2500
G1 X1180.3136 Y729.5255 Z-7.3524 F2500
G1 X1180.3116 Y735.5255 Z-8.9690 F2500
G1 X1178.3409 Y735.5255 Z-9.5000 F2500
G1 X1180.3116 Y735.5255 Z-10.0310 F2500
G1 X1180.3136 Y729.5255 Z-11.6476 F2500
G1 X1180.3136 Y760.5259 Z-20.0000 F2500
G1 X1180.3136 Y729.5255 Z-20.0000 F4000
G1 X1180.3116 Y735.5255 Z-20.0000 F4000
G1 X1164.3117 Y735.5255 Z-20.0000 F4000
G1 X1170.3117 Y735.5275 Z-20.0000 F4000
G1 X1170.3117 Y787.5252 Z-20.0000 F4000
G1 X1164.3117 Y787.5252 Z-20.0000 F4000
G1 X1180.3116 Y787.5272 Z-20.0000 F4000
G1 X1180.3116 Y793.5272 Z-20.0000 F4000
G1 X1180.3209 Y777.0265 Z-20.0000 F4000
G1 X1180.3136 Y760.5259 Z-20.0000 F4000
G1 X1180.3136 Y760.5259 Z10.0000 F9999
G1 X1180.3136 Y460.5264 Z10.0000 F9999
G1 X1180.3136 Y460.5264 Z1.0000 F2500
G1 X1180.3136 Y429.5260 Z-7.3524 F2500
G1 X1180.3116 Y435.5260 Z-8.9690 F2500
G1 X1178.3409 Y435.5260 Z-9.5000 F2500
G1 X1180.3116 Y435.5260 Z-10.0310 F2500
G1 X1180.3136 Y429.5260 Z-11.6476 F2500
G1 X1180.3136 Y460.5264 Z-20.0000 F2500
G1 X1180.3136 Y429.5260 Z-20.0000 F4000
G1 X1180.3116 Y435.5260 Z-20.0000 F4000
G1 X1164.3117 Y435.5260 Z-20.0000 F4000
G1 X1170.3117 Y435.5280 Z-20.0000 F4000
G1 X1170.3117 Y487.5258 Z-20.0000 F4000
G1 X1164.3117 Y487.5258 Z-20.0000 F4000
G1 X1180.3116 Y487.5278 Z-20.0000 F4000
G1 X1180.3116 Y493.5278 Z-20.0000 F4000
G1 X1180.3209 Y477.0271 Z-20.0000 F4000
G1 X1180.3136 Y460.5264 Z-20.0000 F4000
G1 X1180.3136 Y460.5264 Z10.0000 F9999
G1 X1059.3129 Y466.5279 Z10.0000 F9999
G1 X1059.3129 Y466.5279 Z1.0000 F2500
G1 X1089.3118 Y466.5279 Z-7.0826 F2500
G1 X1089.3118 Y471.5280 Z-8.4298 F2500
G1 X1091.3138 Y471.5280 Z-8.9692 F2500
G1 X1091.3138 Y469.5579 Z-9.5000 F2500
G1 X1091.3138 Y471.5280 Z-10.0308 F2500
G1 X1089.3118 Y471.5280 Z-10.5702 F2500
G1 X1089.3118 Y466.5279 Z-11.9174 F2500
G1 X1059.3129 Y466.5279 Z-20.0000 F2500
G1 X1089.3118 Y466.5279 Z-20.0000 F4000
G1 X1089.3118 Y471.5280 Z-20.0000 F4000
G1 X1091.3138 Y471.5280 Z-20.0000 F4000
G1 X1091.3138 Y451.5259 Z-20.0000 F4000
G1 X1089.3118 Y451.5259 Z-20.0000 F4000
G1 X1089.3118 Y456.5260 Z-20.0000 F4000
G1 X1029.3139 Y456.5260 Z-20.0000 F4000
G1 X1029.3139 Y451.5259 Z-20.0000 F4000
G1 X1027.3120 Y451.5259 Z-20.0000 F4000
G1 X1027.3120 Y471.5280 Z-20.0000 F4000
G1 X1029.3139 Y471.5280 Z-20.0000 F4000
G1 X1029.3139 Y466.5279 Z-20.0000 F4000
G1 X1059.3129 Y466.5279 Z-20.0000 F4000
G1 X1059.3129 Y466.5279 Z10.0000 F9999
G1 X938.3121 Y462.5274 Z10.0000 F9999
G1 X938.3121 Y462.5274 Z1.0000 F2500
G1 X938.3121 Y493.5278 Z-7.3524 F2500
G1 X938.3141 Y487.5278 Z-8.9690 F2500
G1 X940.2849 Y487.5278 Z-9.5000 F2500
G1 X938.3141 Y487.5278 Z-10.0310 F2500
G1 X938.3121 Y493.5278 Z-11.6476 F2500
G1 X938.3121 Y462.5274 Z-20.0000 F2500
G1 X938.3121 Y493.5278 Z-20.0000 F4000
G1 X938.3141 Y487.5278 Z-20.0000 F4000
G1 X954.3141 Y487.5278 Z-20.0000 F4000
G1 X948.3141 Y487.5258 Z-20.0000 F4000
G1 X948.3141 Y435.5280 Z-20.0000 F4000
G1 X954.3141 Y435.5280 Z-20.0000 F4000
G1 X938.3141 Y435.5260 Z-20.0000 F4000
G1 X938.3141 Y429.5260 Z-20.0000 F4000
G1 X938.3049 Y446.0267 Z-20.0000 F4000
G1 X938.3121 Y462.5274 Z-20.0000 F4000
G1 X938.3121 Y462.5274 Z10.0000 F9999
G1 X760.3140 Y282.5283 Z10.0000 F9999
G1 X760.3140 Y282.5283 Z1.0000 F2500
G1 X791.3144 Y282.5283 Z-7.3524 F2500
G1 X785.3144 Y282.5263 Z-8.9690 F2500
G1 X785.3144 Y280.5555 Z-9.5000 F2500
G1 X785.3144 Y282.5263 Z-10.0310 F2500
G1 X791.3144 Y282.5283 Z-11.6476 F2500
G1 X760.3140 Y282.5283 Z-20.0000 F2500
G1 X791.3144 Y282.5283 Z-20.0000 F4000
G1 X785.3144 Y282.5263 Z-20.0000 F4000
G1 X785.3144 Y266.5263 Z-20.0000 F4000
G1 X785.3124 Y272.5263 Z-20.0000 F4000
G1 X733.3146 Y272.5263 Z-20.0000 F4000
G1 X733.3146 Y266.5263 Z-20.0000 F4000
G1 X733.3126 Y282.5263 Z-20.0000 F4000
G1 X727.3126 Y282.5263 Z-20.0000 F4000
G1 X743.8133 Y282.5355 Z-20.0000 F4000
G1 X760.3140 Y282.5283 Z-20.0000 F4000
G1 X760.3140 Y282.5283 Z10.0000 F9999
G1 X758.3130 Y40.5268 Z10.0000 F9999
G1 X758.3130 Y40.5268 Z1.0000 F2500
G1 X727.3126 Y40.5268 Z-7.3524 F2500
G1 X733.3126 Y40.5288 Z-8.9690 F2500
G1 X733.3126 Y42.4995 Z-9.5000 F2500
G1 X733.3126 Y40.5288 Z-10.0310 F2500
G1 X727.3126 Y40.5268 Z-11.6476 F2500
G1 X758.3130 Y40.5268 Z-20.0000 F2500
G1 X727.3126 Y40.5268 Z-20.0000 F4000
G1 X733.3126 Y40.5288 Z-20.0000 F4000
G1 X733.3126 Y56.5287 Z-20.0000 F4000
G1 X733.3146 Y50.5287 Z-20.0000 F4000
G1 X785.3124 Y50.5287 Z-20.0000 F4000
G1 X785.3124 Y56.5287 Z-20.0000 F4000
G1 X785.3144 Y40.5288 Z-20.0000 F4000
G1 X791.3144 Y40.5288 Z-20.0000 F4000
G1 X774.8137 Y40.5195 Z-20.0000 F4000
G1 X758.3130 Y40.5268 Z-20.0000 F4000
G1 X758.3130 Y40.5268 Z10.0000 F9999
G1 X979.8130 Y156.5265 Z10.0000 F9999
G1 X979.8130 Y156.5265 Z1.0000 F2500
G1 X940.8419 Y156.5265 Z-9.5000 F2500
G1 X979.8130 Y156.5265 Z-20.0000 F2500
G1 X905.3142 Y156.5265 Z-20.0000 F4000
G1 X905.3142 Y150.5265 Z-20.0000 F4000
G1 X905.3122 Y172.5286 Z-20.0000 F4000
G1 X905.3142 Y166.5286 Z-20.0000 F4000
G1 X1054.3119 Y166.5286 Z-20.0000 F4000
G1 X1054.3119 Y191.5265 Z-20.0000 F4000
G1 X1049.3119 Y191.5265 Z-20.0000 F4000
G1 X1049.3119 Y193.5285 Z-20.0000 F4000
G1 X1069.3138 Y193.5285 Z-20.0000 F4000
G1 X1069.3138 Y191.5265 Z-20.0000 F4000
G1 X1064.3139 Y191.5265 Z-20.0000 F4000
G1 X1064.3139 Y166.5286 Z-20.0000 F4000
G1 X1123.3118 Y166.5286 Z-20.0000 F4000
G1 X1123.3118 Y171.5285 Z-20.0000 F4000
G1 X1125.3137 Y171.5285 Z-20.0000 F4000
G1 X1125.3137 Y151.5266 Z-20.0000 F4000
G1 X1123.3118 Y151.5266 Z-20.0000 F4000
G1 X1123.3118 Y156.5265 Z-20.0000 F4000
G1 X1064.3139 Y156.5265 Z-20.0000 F4000
G1 X1064.3139 Y131.5286 Z-20.0000 F4000
G1 X1069.3138 Y131.5286 Z-20.0000 F4000
G1 X1069.3138 Y129.5266 Z-20.0000 F4000
G1 X1049.3119 Y129.5266 Z-20.0000 F4000
G1 X1049.3119 Y131.5286 Z-20.0000 F4000
G1 X1054.3119 Y131.5286 Z-20.0000 F4000
G1 X1054.3119 Y156.5265 Z-20.0000 F4000
G1 X979.8130 Y156.5265 Z-20.0000 F4000
G1 X979.8130 Y156.5265 Z10.0000 F9999
G1 X1058.3124 Y40.5268 Z10.0000 F9999
G1 X1058.3124 Y40.5268 Z1.0000 F2500
G1 X1027.3120 Y40.5268 Z-7.3524 F2500
G1 X1033.3120 Y40.5288 Z-8.9690 F2500
G1 X1033.3120 Y42.4995 Z-9.5000 F2500
G1 X1033.3120 Y40.5288 Z-10.0310 F2500
G1 X1027.3120 Y40.5268 Z-11.6476 F2500
G1 X1058.3124 Y40.5268 Z-20.0000 F2500
G1 X1027.3120 Y40.5268 Z-20.0000 F4000
G1 X1033.3120 Y40.5288 Z-20.0000 F4000
G1 X1033.3120 Y56.5287 Z-20.0000 F4000
G1 X1033.3140 Y50.5287 Z-20.0000 F4000
G1 X1085.3118 Y50.5287 Z-20.0000 F4000
G1 X1085.3118 Y56.5287 Z-20.0000 F4000
G1 X1085.3138 Y40.5288 Z-20.0000 F4000
G1 X1091.3138 Y40.5288 Z-20.0000 F4000
G1 X1074.8131 Y40.5195 Z-20.0000 F4000
G1 X1058.3124 Y40.5268 Z-20.0000 F4000
G1 X1058.3124 Y40.5268 Z10.0000 F9999
G1 X531.8140 Y1081.6014 Z10.0000 F9999
G1 X531.8140 Y1081.6014 Z1.0000 F2500
G1 X570.7851 Y1081.6014 Z-9.5000 F2500
G1 X531.8140 Y1081.6014 Z-20.0000 F2500
G1 X606.3128 Y1081.6014 Z-20.0000 F4000
G1 X606.3128 Y1087.6014 Z-20.0000 F4000
G1 X606.3148 Y1065.5993 Z-20.0000 F4000
G1 X606.3128 Y1071.5993 Z-20.0000 F4000
G1 X457.3151 Y1071.5993 Z-20.0000 F4000
G1 X457.3151 Y1046.6014 Z-20.0000 F4000
G1 X462.3151 Y1046.6014 Z-20.0000 F4000
G1 X462.3151 Y1044.5994 Z-20.0000 F4000
G1 X442.3132 Y1044.5994 Z-20.0000 F4000
G1 X442.3132 Y1046.6014 Z-20.0000 F4000
G1 X447.3131 Y1046.6014 Z-20.0000 F4000
G1 X447.3131 Y1071.5993 Z-20.0000 F4000
G1 X388.3153 Y1071.5993 Z-20.0000 F4000
G1 X388.3153 Y1066.5994 Z-20.0000 F4000
G1 X386.3133 Y1066.5994 Z-20.0000 F4000
G1 X386.3133 Y1086.6013 Z-20.0000 F4000
G1 X388.3153 Y1086.6013 Z-20.0000 F4000
G1 X388.3153 Y1081.6014 Z-20.0000 F4000
G1 X447.3131 Y1081.6014 Z-20.0000 F4000
G1 X447.3131 Y1106.5993 Z-20.0000 F4000
G1 X442.3132 Y1106.5993 Z-20.0000 F4000
G1 X442.3132 Y1108.6013 Z-20.0000 F4000
G1 X462.3151 Y1108.6013 Z-20.0000 F4000
G1 X462.3151 Y1106.5993 Z-20.0000 F4000
G1 X457.3151 Y1106.5993 Z-20.0000 F4000
G1 X457.3151 Y1081.6014 Z-20.0000 F4000
G1 X531.8140 Y1081.6014 Z-20.0000 F4000
G1 X531.8140 Y1081.6014 Z10.0000 F9999
G1 X453.3146 Y1197.6012 Z10.0000 F9999
G1 X453.3146 Y1197.6012 Z1.0000 F2500
G1 X484.3150 Y1197.6012 Z-7.3524 F2500
G1 X478.3150 Y1197.5992 Z-8.9690 F2500
G1 X478.3150 Y1195.6284 Z-9.5000 F2500
G1 X478.3150 Y1197.5992 Z-10.0310 F2500
G1 X484.3150 Y1197.6012 Z-11.6476 F2500
G1 X453.3146 Y1197.6012 Z-20.0000 F2500
G1 X484.3150 Y1197.6012 Z-20.0000 F4000
G1 X478.3150 Y1197.5992 Z-20.0000 F4000
G1 X478.3150 Y1181.5992 Z-20.0000 F4000
G1 X478.3130 Y1187.5992 Z-20.0000 F4000
G1 X426.3153 Y1187.5992 Z-20.0000 F4000
G1 X426.3153 Y1181.5992 Z-20.0000 F4000
G1 X426.3133 Y1197.5992 Z-20.0000 F4000
G1 X420.3133 Y1197.5992 Z-20.0000 F4000
G1 X436.8139 Y1197.6084 Z-20.0000 F4000
G1 X453.3146 Y1197.6012 Z-20.0000 F4000
G1 X453.3146 Y1197.6012 Z10.0000 F9999
G1 X458.3136 Y1263.6008 Z10.0000 F9999
G1 X458.3136 Y1263.6008 Z1.0000 F2500
G1 X427.3132 Y1263.6008 Z-7.3524 F2500
G1 X433.3132 Y1263.6028 Z-8.9690 F2500
G1 X433.3132 Y1265.5735 Z-9.5000 F2500
G1 X433.3132 Y1263.6028 Z-10.0310 F2500
G1 X427.3132 Y1263.6008 Z-11.6476 F2500
G1 X458.3136 Y1263.6008 Z-20.0000 F2500
G1 X427.3132 Y1263.6008 Z-20.0000 F4000
G1 X433.3132 Y1263.6028 Z-20.0000 F4000
G1 X433.3132 Y1279.6027 Z-20.0000 F4000
G1 X433.3152 Y1273.6027 Z-20.0000 F4000
G1 X485.3130 Y1273.6027 Z-20.0000 F4000
G1 X485.3130 Y1279.6027 Z-20.0000 F4000
G1 X485.3150 Y1263.6028 Z-20.0000 F4000
G1 X491.3150 Y1263.6028 Z-20.0000 F4000
G1 X474.8143 Y1263.5935 Z-20.0000 F4000
G1 X458.3136 Y1263.6008 Z-20.0000 F4000
G1 X458.3136 Y1263.6008 Z10.0000 F9999
G1 X460.3146 Y1505.6023 Z10.0000 F9999
G1 X460.3146 Y1505.6023 Z1.0000 F2500
G1 X491.3150 Y1505.6023 Z-7.3524 F2500
G1 X485.3150 Y1505.6003 Z-8.9690 F2500
G1 X485.3150 Y1503.6295 Z-9.5000 F2500
G1 X485.3150 Y1505.6003 Z-10.0310 F2500
G1 X491.3150 Y1505.6023 Z-11.6476 F2500
G1 X460.3146 Y1505.6023 Z-20.0000 F2500
G1 X491.3150 Y1505.6023 Z-20.0000 F4000
G1 X485.3150 Y1505.6003 Z-20.0000 F4000
G1 X485.3150 Y1489.6003 Z-20.0000 F4000
G1 X485.3130 Y1495.6003 Z-20.0000 F4000
G1 X433.3152 Y1495.6003 Z-20.0000 F4000
G1 X433.3152 Y1489.6003 Z-20.0000 F4000
G1 X433.3132 Y1505.6003 Z-20.0000 F4000
G1 X427.3132 Y1505.6003 Z-20.0000 F4000
G1 X443.8139 Y1505.6095 Z-20.0000 F4000
G1 X460.3146 Y1505.6023 Z-20.0000 F4000
G1 X460.3146 Y1505.6023 Z10.0000 F9999
G1 X147.0381 Y1268.2019 Z10.0000 F9999
G1 X147.0381 Y1268.2019 Z1.0000 F2500
G1 X147.0381 Y1254.7029 Z-2.6370 F2500
G1 X152.0381 Y1254.7029 Z-3.9842 F2500
G1 X152.0381 Y1252.7009 Z-4.5236 F2500
G1 X133.5680 Y1252.7009 Z-9.5000 F2500
G1 X152.0381 Y1252.7009 Z-14.4764 F2500
G1 X152.0381 Y1254.7029 Z-15.0158 F2500
G1 X147.0381 Y1254.7029 Z-16.3630 F2500
G1 X147.0381 Y1268.2019 Z-20.0000 F2500
G1 X147.0381 Y1254.7029 Z-20.0000 F4000
G1 X152.0381 Y1254.7029 Z-20.0000 F4000
G1 X152.0381 Y1252.7009 Z-20.0000 F4000
G1 X132.0361 Y1252.7009 Z-20.0000 F4000
G1 X132.0361 Y1254.7029 Z-20.0000 F4000
G1 X137.0361 Y1254.7029 Z-20.0000 F4000
G1 X137.0361 Y1281.7008 Z-20.0000 F4000
G1 X132.0361 Y1281.7008 Z-20.0000 F4000
G1 X132.0361 Y1283.7028 Z-20.0000 F4000
G1 X152.0381 Y1283.7028 Z-20.0000 F4000
G1 X152.0381 Y1281.7008 Z-20.0000 F4000
G1 X147.0381 Y1281.7008 Z-20.0000 F4000
G1 X147.0381 Y1268.2019 Z-20.0000 F4000
G1 X147.0381 Y1268.2019 Z10.0000 F9999
G1 X137.6105 Y1173.0092 Z10.0000 F9999
G1 X137.6105 Y1173.0092 Z1.0000 F2500
G1 X137.6105 Y1186.5082 Z-2.6370 F2500
G1 X132.6105 Y1186.5082 Z-3.9842 F2500
G1 X132.6105 Y1188.5101 Z-4.5236 F2500
G1 X151.0807 Y1188.5101 Z-9.5000 F2500
G1 X132.6105 Y1188.5101 Z-14.4764 F2500
G1 X132.6105 Y1186.5082 Z-15.0158 F2500
G1 X137.6105 Y1186.5082 Z-16.3630 F2500
G1 X137.6105 Y1173.0092 Z-20.0000 F2500
G1 X137.6105 Y1186.5082 Z-20.0000 F4000
G1 X132.6105 Y1186.5082 Z-20.0000 F4000
G1 X132.6105 Y1188.5101 Z-20.0000 F4000
G1 X152.6125 Y1188.5101 Z-20.0000 F4000
G1 X152.6125 Y1186.5082 Z-20.0000 F4000
G1 X147.6125 Y1186.5082 Z-20.0000 F4000
G1 X147.6125 Y1159.5102 Z-20.0000 F4000
G1 X152.6125 Y1159.5102 Z-20.0000 F4000
G1 X152.6125 Y1157.5082 Z-20.0000 F4000
G1 X132.6105 Y1157.5082 Z-20.0000 F4000
G1 X132.6105 Y1159.5102 Z-20.0000 F4000
G1 X137.6105 Y1159.5102 Z-20.0000 F4000
G1 X137.6105 Y1173.0092 Z-20.0000 F4000
G1 X137.6105 Y1173.0092 Z10.0000 F9999
G1 X938.3121 Y1685.6014 Z10.0000 F9999
G1 X938.3121 Y1685.6014 Z1.0000 F2500
G1 X938.3121 Y1716.6018 Z-7.3524 F2500
G1 X938.3141 Y1710.6018 Z-8.9690 F2500
G1 X940.2849 Y1710.6018 Z-9.5000 F2500
G1 X938.3141 Y1710.6018 Z-10.0310 F2500
G1 X938.3121 Y1716.6018 Z-11.6476 F2500
G1 X938.3121 Y1685.6014 Z-20.0000 F2500
G1 X938.3121 Y1716.6018 Z-20.0000 F4000
G1 X938.3141 Y1710.6018 Z-20.0000 F4000
G1 X954.3141 Y1710.6018 Z-20.0000 F4000
G1 X948.3141 Y1710.5998 Z-20.0000 F4000
G1 X948.3141 Y1658.6020 Z-20.0000 F4000
G1 X954.3141 Y1658.6020 Z-20.0000 F4000
G1 X938.3141 Y1658.6000 Z-20.0000 F4000
G1 X938.3141 Y1652.6000 Z-20.0000 F4000
G1 X938.3049 Y1669.1007 Z-20.0000 F4000
G1 X938.3121 Y1685.6014 Z-20.0000 F4000
G1 X938.3121 Y1685.6014 Z10.0000 F9999
G1 X1059.3129 Y1689.6019 Z10.0000 F9999
G1 X1059.3129 Y1689.6019 Z1.0000 F2500
G1 X1089.3118 Y1689.6019 Z-7.0826 F2500
G1 X1089.3118 Y1694.6020 Z-8.4298 F2500
G1 X1091.3138 Y1694.6020 Z-8.9692 F2500
G1 X1091.3138 Y1692.6320 Z-9.5000 F2500
G1 X1091.3138 Y1694.6020 Z-10.0308 F2500
G1 X1089.3118 Y1694.6020 Z-10.5702 F2500
G1 X1089.3118 Y1689.6019 Z-11.9174 F2500
G1 X1059.3129 Y1689.6019 Z-20.0000 F2500
G1 X1089.3118 Y1689.6019 Z-20.0000 F4000
G1 X1089.3118 Y1694.6020 Z-20.0000 F4000
G1 X1091.3138 Y1694.6020 Z-20.0000 F4000
G1 X1091.3138 Y1674.5999 Z-20.0000 F4000
G1 X1089.3118 Y1674.5999 Z-20.0000 F4000
G1 X1089.3118 Y1679.6000 Z-20.0000 F4000
G1 X1029.3139 Y1679.6000 Z-20.0000 F4000
G1 X1029.3139 Y1674.5999 Z-20.0000 F4000
G1 X1027.3120 Y1674.5999 Z-20.0000 F4000
G1 X1027.3120 Y1694.6020 Z-20.0000 F4000
G1 X1029.3139 Y1694.6020 Z-20.0000 F4000
G1 X1029.3139 Y1689.6019 Z-20.0000 F4000
G1 X1059.3129 Y1689.6019 Z-20.0000 F4000
G1 X1059.3129 Y1689.6019 Z10.0000 F9999
G1 X1180.3136 Y1683.6004 Z10.0000 F9999
G1 X1180.3136 Y1683.6004 Z1.0000 F2500
G1 X1180.3136 Y1652.6000 Z-7.3524 F2500
G1 X1180.3116 Y1658.6000 Z-8.9690 F2500
G1 X1178.3409 Y1658.6000 Z-9.5000 F2500
G1 X1180.3116 Y1658.6000 Z-10.0310 F2500
G1 X1180.3136 Y1652.6000 Z-11.6476 F2500
G1 X1180.3136 Y1683.6004 Z-20.0000 F2500
G1 X1180.3136 Y1652.6000 Z-20.0000 F4000
G1 X1180.3116 Y1658.6000 Z-20.0000 F4000
G1 X1164.3117 Y1658.6000 Z-20.0000 F4000
G1 X1170.3117 Y1658.6020 Z-20.0000 F4000
G1 X1170.3117 Y1710.5998 Z-20.0000 F4000
G1 X1164.3117 Y1710.5998 Z-20.0000 F4000
G1 X1180.3116 Y1710.6018 Z-20.0000 F4000
G1 X1180.3116 Y1716.6018 Z-20.0000 F4000
G1 X1180.3209 Y1700.1011 Z-20.0000 F4000
G1 X1180.3136 Y1683.6004 Z-20.0000 F4000
G1 X1180.3136 Y1683.6004 Z10.0000 F9999
G1 X1180.3136 Y1983.5999 Z10.0000 F9999
G1 X1180.3136 Y1983.5999 Z1.0000 F2500
G1 X1180.3136 Y1952.5995 Z-7.3524 F2500
G1 X1180.3116 Y1958.5995 Z-8.9690 F2500
G1 X1178.3409 Y1958.5995 Z-9.5000 F2500
G1 X1180.3116 Y1958.5995 Z-10.0310 F2500
G1 X1180.3136 Y1952.5995 Z-11.6476 F2500
G1 X1180.3136 Y1983.5999 Z-20.0000 F2500
G1 X1180.3136 Y1952.5995 Z-20.0000 F4000
G1 X1180.3116 Y1958.5995 Z-20.0000 F4000
G1 X1164.3117 Y1958.5995 Z-20.0000 F4000
G1 X1170.3117 Y1958.6015 Z-20.0000 F4000
G1 X1170.3117 Y2010.5993 Z-20.0000 F4000
G1 X1164.3117 Y2010.5993 Z-20.0000 F4000
G1 X1180.3116 Y2010.6013 Z-20.0000 F4000
G1 X1180.3116 Y2016.6013 Z-20.0000 F4000
G1 X1180.3209 Y2000.1006 Z-20.0000 F4000
G1 X1180.3136 Y1983.5999 Z-20.0000 F4000
G1 X1180.3136 Y1983.5999 Z10.0000 F9999
G1 X938.3121 Y1985.6009 Z10.0000 F9999
G1 X938.3121 Y1985.6009 Z1.0000 F2500
G1 X938.3121 Y2016.6013 Z-7.3524 F2500
G1 X938.3141 Y2010.6013 Z-8.9690 F2500
G1 X940.2849 Y2010.6013 Z-9.5000 F2500
G1 X938.3141 Y2010.6013 Z-10.0310 F2500
G1 X938.3121 Y2016.6013 Z-11.6476 F2500
G1 X938.3121 Y1985.6009 Z-20.0000 F2500
G1 X938.3121 Y2016.6013 Z-20.0000 F4000
G1 X938.3141 Y2010.6013 Z-20.0000 F4000
G1 X954.3141 Y2010.6013 Z-20.0000 F4000
G1 X948.3141 Y2010.5993 Z-20.0000 F4000
G1 X948.3141 Y1958.6015 Z-20.0000 F4000
G1 X954.3141 Y1958.6015 Z-20.0000 F4000
G1 X938.3141 Y1958.5995 Z-20.0000 F4000
G1 X938.3141 Y1952.5995 Z-20.0000 F4000
G1 X938.3049 Y1969.1002 Z-20.0000 F4000
G1 X938.3121 Y1985.6009 Z-20.0000 F4000
G1 X938.3121 Y1985.6009 Z10.0000 F9999
G1 X137.0361 Y2393.1996 Z10.0000 F9999
G1 X137.0361 Y2393.1996 Z1.0000 F2500
G1 X137.0361 Y2406.6986 Z-2.6370 F2500
G1 X132.0361 Y2406.6986 Z-3.9842 F2500
G1 X132.0361 Y2408.7005 Z-4.5236 F2500
G1 X150.5064 Y2408.7005 Z-9.5000 F2500
G1 X132.0361 Y2408.7005 Z-14.4764 F2500
G1 X132.0361 Y2406.6986 Z-15.0158 F2500
G1 X137.0361 Y2406.6986 Z-16.3630 F2500
G1 X137.0361 Y2393.1996 Z-20.0000 F2500
G1 X137.0361 Y2406.6986 Z-20.0000 F4000
G1 X132.0361 Y2406.6986 Z-20.0000 F4000
G1 X132.0361 Y2408.7005 Z-20.0000 F4000
G1 X152.0381 Y2408.7005 Z-20.0000 F4000
G1 X152.0381 Y2406.6986 Z-20.0000 F4000
G1 X147.0381 Y2406.6986 Z-20.0000 F4000
G1 X147.0381 Y2379.7006 Z-20.0000 F4000
G1 X152.0381 Y2379.7006 Z-20.0000 F4000
G1 X152.0381 Y2377.6986 Z-20.0000 F4000
G1 X132.0361 Y2377.6986 Z-20.0000 F4000
G1 X132.0361 Y2379.7006 Z-20.0000 F4000
G1 X137.0361 Y2379.7006 Z-20.0000 F4000
G1 X137.0361 Y2393.1996 Z-20.0000 F4000
G1 X137.0361 Y2393.1996 Z10.0000 F9999
(Tool Number:1) (7.998 mm dia. slot drill)
M3 S9000
G1 X1206.3116 Y1076.6004 Z10.0000 F9999
G1 X1206.3116 Y1076.6004 Z1.0000 F2500
G1 X1206.3116 Y1115.5716 Z-9.5000 F2500
G1 X1206.3116 Y1076.6004 Z-20.0000 F2500
G1 X1206.3116 Y1205.5992 Z-20.0000 F4000
G1 X1148.3138 Y1205.5992 Z-20.0000 F4000
G1 X1148.3138 Y1200.5989 Z-20.0000 F4000
G1 X1146.3117 Y1200.5989 Z-20.0000 F4000
G1 X1146.3117 Y1223.5989 Z-20.0000 F4000
G1 X1129.2083 Y1223.5989 Z-20.0000 F4000
G1 X1129.2083 Y1223.5989 Z-10.0000 F9999
G1 X1113.2103 Y1223.5989 Z-10.0000 F4000
G1 X1113.2103 Y1223.5989 Z-20.0000 F2500
G1 X958.3141 Y1223.5989 Z-20.0000 F4000
G1 X958.3141 Y1200.5989 Z-20.0000 F4000
G1 X956.3121 Y1200.5989 Z-20.0000 F4000
G1 X956.3121 Y1205.5992 Z-20.0000 F4000
G1 X848.3144 Y1205.5992 Z-20.0000 F4000
G1 X848.3144 Y1200.5989 Z-20.0000 F4000
G1 X846.3123 Y1200.5989 Z-20.0000 F4000
G1 X846.3123 Y1223.5989 Z-20.0000 F4000
G1 X658.3147 Y1223.5989 Z-20.0000 F4000
G1 X658.3147 Y1200.5989 Z-20.0000 F4000
G1 X656.3127 Y1200.5989 Z-20.0000 F4000
G1 X656.3127 Y1205.5992 Z-20.0000 F4000
G1 X548.3149 Y1205.5992 Z-20.0000 F4000
G1 X548.3149 Y1200.5989 Z-20.0000 F4000
G1 X546.3129 Y1200.5989 Z-20.0000 F4000
G1 X546.3129 Y1223.5989 Z-20.0000 F4000
G1 X397.1221 Y1223.5989 Z-20.0000 F4000
G1 X397.1221 Y1223.5989 Z-10.0000 F9999
G1 X381.1241 Y1223.5989 Z-10.0000 F4000
G1 X381.1241 Y1223.5989 Z-20.0000 F2500
G1 X358.3153 Y1223.5989 Z-20.0000 F4000
G1 X358.3153 Y1200.5989 Z-20.0000 F4000
G1 X356.3133 Y1200.5989 Z-20.0000 F4000
G1 X356.3133 Y1205.5992 Z-20.0000 F4000
G1 X323.3154 Y1205.5992 Z-20.0000 F4000
G1 X323.3154 Y1153.6011 Z-20.0000 F4000
G1 X328.3154 Y1153.6011 Z-20.0000 F4000
G1 X328.3154 Y1151.5992 Z-20.0000 F4000
G1 X305.3154 Y1151.5992 Z-20.0000 F4000
G1 X305.3154 Y1113.6012 Z-20.0000 F4000
G1 X357.3133 Y1113.6012 Z-20.0000 F4000
G1 X357.3133 Y1118.6013 Z-20.0000 F4000
G1 X359.3153 Y1118.6013 Z-20.0000 F4000
G1 X359.3153 Y1034.5996 Z-20.0000 F4000
G1 X357.3133 Y1034.5996 Z-20.0000 F4000
G1 X357.3133 Y1039.5994 Z-20.0000 F4000
G1 X323.3154 Y1039.5994 Z-20.0000 F4000
G1 X323.3154 Y872.6018 Z-20.0000 F4000
G1 X328.3154 Y872.6018 Z-20.0000 F4000
G1 X328.3154 Y870.5998 Z-20.0000 F4000
G1 X305.3154 Y870.5998 Z-20.0000 F4000
G1 X305.3154 Y682.6022 Z-20.0000 F4000
G1 X328.3154 Y682.6022 Z-20.0000 F4000
G1 X328.3154 Y680.6002 Z-20.0000 F4000
G1 X323.3154 Y680.6002 Z-20.0000 F4000
G1 X323.3154 Y572.6024 Z-20.0000 F4000
G1 X328.3154 Y572.6024 Z-20.0000 F4000
G1 X328.3154 Y570.6004 Z-20.0000 F4000
G1 X305.3154 Y570.6004 Z-20.0000 F4000
G1 X305.3154 Y382.6028 Z-20.0000 F4000
G1 X328.3154 Y382.6028 Z-20.0000 F4000
G1 X328.3154 Y380.6008 Z-20.0000 F4000
G1 X323.3154 Y380.6008 Z-20.0000 F4000
G1 X323.3154 Y322.6030 Z-20.0000 F4000
G1 X352.2202 Y322.6030 Z-20.0000 F4000
G1 X352.2202 Y322.6030 Z-10.0000 F9999
G1 X368.2182 Y322.6030 Z-10.0000 F4000
G1 X368.2182 Y322.6030 Z-20.0000 F2500
G1 X535.9968 Y322.6030 Z-20.0000 F4000
G1 X535.9968 Y322.6030 Z-10.0000 F9999
G1 X551.9948 Y322.6030 Z-10.0000 F4000
G1 X551.9948 Y322.6030 Z-20.0000 F2500
G1 X581.3129 Y322.6030 Z-20.0000 F4000
G1 X581.3129 Y380.6008 Z-20.0000 F4000
G1 X576.3129 Y380.6008 Z-20.0000 F4000
G1 X576.3129 Y382.6028 Z-20.0000 F4000
G1 X599.3128 Y382.6028 Z-20.0000 F4000
G1 X599.3128 Y570.6004 Z-20.0000 F4000
G1 X576.3129 Y570.6004 Z-20.0000 F4000
G1 X576.3129 Y572.6024 Z-20.0000 F4000
G1 X581.3129 Y572.6024 Z-20.0000 F4000
G1 X581.3129 Y680.6002 Z-20.0000 F4000
G1 X576.3129 Y680.6002 Z-20.0000 F4000
G1 X576.3129 Y682.6022 Z-20.0000 F4000
G1 X599.3128 Y682.6022 Z-20.0000 F4000
G1 X599.3128 Y870.5998 Z-20.0000 F4000
G1 X576.3129 Y870.5998 Z-20.0000 F4000
G1 X576.3129 Y872.6018 Z-20.0000 F4000
G1 X581.3129 Y872.6018 Z-20.0000 F4000
G1 X581.3129 Y947.5997 Z-20.0000 F4000
G1 X575.3129 Y947.6017 Z-20.0000 F4000
G1 X656.3127 Y947.6017 Z-20.0000 F4000
G1 X656.3127 Y952.6016 Z-20.0000 F4000
G1 X658.3147 Y952.6016 Z-20.0000 F4000
G1 X658.3147 Y929.6016 Z-20.0000 F4000
G1 X846.3123 Y929.6016 Z-20.0000 F4000
G1 X846.3123 Y952.6016 Z-20.0000 F4000
G1 X848.3144 Y952.6016 Z-20.0000 F4000
G1 X848.3144 Y947.6017 Z-20.0000 F4000
G1 X956.3121 Y947.6017 Z-20.0000 F4000
G1 X956.3121 Y952.6016 Z-20.0000 F4000
G1 X958.3141 Y952.6016 Z-20.0000 F4000
G1 X958.3141 Y929.6016 Z-20.0000 F4000
G1 X978.6134 Y929.6016 Z-20.0000 F4000
G1 X978.6134 Y929.6016 Z-10.0000 F9999
G1 X994.6114 Y929.6016 Z-10.0000 F4000
G1 X994.6114 Y929.6016 Z-20.0000 F2500
G1 X1114.9359 Y929.6016 Z-20.0000 F4000
G1 X1114.9359 Y929.6016 Z-10.0000 F9999
G1 X1130.9339 Y929.6016 Z-10.0000 F4000
G1 X1130.9339 Y929.6016 Z-20.0000 F2500
G1 X1146.3117 Y929.6016 Z-20.0000 F4000
G1 X1146.3117 Y952.6016 Z-20.0000 F4000
G1 X1148.3138 Y952.6016 Z-20.0000 F4000
G1 X1148.3138 Y947.6017 Z-20.0000 F4000
G1 X1206.3116 Y947.6017 Z-20.0000 F4000
G1 X1206.3116 Y1076.6004 Z-20.0000 F4000
G1 X1206.3116 Y1076.6004 Z10.0000 F9999
G1 X305.3154 Y1384.6015 Z10.0000 F9999
G1 X305.3154 Y1384.6015 Z1.0000 F2500
G1 X305.3154 Y1345.6304 Z-9.5000 F2500
G1 X305.3154 Y1384.6015 Z-20.0000 F2500
G1 X305.3154 Y1255.6028 Z-20.0000 F4000
G1 X363.3132 Y1255.6028 Z-20.0000 F4000
G1 X363.3132 Y1260.6030 Z-20.0000 F4000
G1 X365.3153 Y1260.6030 Z-20.0000 F4000
G1 X365.3153 Y1237.6030 Z-20.0000 F4000
G1 X381.5555 Y1237.6030 Z-20.0000 F4000
G1 X381.5555 Y1237.6030 Z-10.0000 F9999
G1 X397.5535 Y1237.6030 Z-10.0000 F4000
G1 X397.5535 Y1237.6030 Z-20.0000 F2500
G1 X553.3129 Y1237.6030 Z-20.0000 F4000
G1 X553.3129 Y1260.6030 Z-20.0000 F4000
G1 X555.3149 Y1260.6030 Z-20.0000 F4000
G1 X555.3149 Y1255.6028 Z-20.0000 F4000
G1 X663.3126 Y1255.6028 Z-20.0000 F4000
G1 X663.3126 Y1260.6030 Z-20.0000 F4000
G1 X665.3147 Y1260.6030 Z-20.0000 F4000
G1 X665.3147 Y1237.6030 Z-20.0000 F4000
G1 X853.3123 Y1237.6030 Z-20.0000 F4000
G1 X853.3123 Y1260.6030 Z-20.0000 F4000
G1 X855.3143 Y1260.6030 Z-20.0000 F4000
G1 X855.3143 Y1255.6028 Z-20.0000 F4000
G1 X963.3121 Y1255.6028 Z-20.0000 F4000
G1 X963.3121 Y1260.6030 Z-20.0000 F4000
G1 X965.3141 Y1260.6030 Z-20.0000 F4000
G1 X965.3141 Y1237.6030 Z-20.0000 F4000
G1 X1153.3117 Y1237.6030 Z-20.0000 F4000
G1 X1153.3117 Y1260.6030 Z-20.0000 F4000
G1 X1155.3137 Y1260.6030 Z-20.0000 F4000
G1 X1155.3137 Y1255.6028 Z-20.0000 F4000
G1 X1188.3116 Y1255.6028 Z-20.0000 F4000
G1 X1188.3116 Y1307.6009 Z-20.0000 F4000
G1 X1183.3116 Y1307.6009 Z-20.0000 F4000
G1 X1183.3116 Y1309.6028 Z-20.0000 F4000
G1 X1206.3116 Y1309.6028 Z-20.0000 F4000
G1 X1206.3116 Y1347.6008 Z-20.0000 F4000
G1 X1154.3137 Y1347.6008 Z-20.0000 F4000
G1 X1154.3137 Y1342.6007 Z-20.0000 F4000
G1 X1152.3117 Y1342.6007 Z-20.0000 F4000
G1 X1152.3117 Y1426.6024 Z-20.0000 F4000
G1 X1154.3137 Y1426.6024 Z-20.0000 F4000
G1 X1154.3137 Y1421.6025 Z-20.0000 F4000
G1 X1188.3116 Y1421.6025 Z-20.0000 F4000
G1 X1188.3116 Y1588.6002 Z-20.0000 F4000
G1 X1183.3116 Y1588.6002 Z-20.0000 F4000
G1 X1183.3116 Y1590.6022 Z-20.0000 F4000
G1 X1206.3116 Y1590.6022 Z-20.0000 F4000
G1 X1206.3116 Y1778.5998 Z-20.0000 F4000
G1 X1183.3116 Y1778.5998 Z-20.0000 F4000
G1 X1183.3116 Y1780.6018 Z-20.0000 F4000
G1 X1188.3116 Y1780.6018 Z-20.0000 F4000
G1 X1188.3116 Y1888.5996 Z-20.0000 F4000
G1 X1183.3116 Y1888.5996 Z-20.0000 F4000
G1 X1183.3116 Y1890.6016 Z-20.0000 F4000
G1 X1206.3116 Y1890.6016 Z-20.0000 F4000
G1 X1206.3116 Y2078.5992 Z-20.0000 F4000
G1 X1183.3116 Y2078.5992 Z-20.0000 F4000
G1 X1183.3116 Y2080.6012 Z-20.0000 F4000
G1 X1188.3116 Y2080.6012 Z-20.0000 F4000
G1 X1188.3116 Y2138.5989 Z-20.0000 F4000
G1 X930.3141 Y2138.5989 Z-20.0000 F4000
G1 X930.3141 Y2080.6012 Z-20.0000 F4000
G1 X935.3141 Y2080.6012 Z-20.0000 F4000
G1 X935.3141 Y2078.5992 Z-20.0000 F4000
G1 X912.3142 Y2078.5992 Z-20.0000 F4000
G1 X912.3142 Y1890.6016 Z-20.0000 F4000
G1 X935.3141 Y1890.6016 Z-20.0000 F4000
G1 X935.3141 Y1888.5996 Z-20.0000 F4000
G1 X930.3141 Y1888.5996 Z-20.0000 F4000
G1 X930.3141 Y1780.6018 Z-20.0000 F4000
G1 X935.3141 Y1780.6018 Z-20.0000 F4000
G1 X935.3141 Y1778.5998 Z-20.0000 F4000
G1 X912.3142 Y1778.5998 Z-20.0000 F4000
G1 X912.3142 Y1590.6022 Z-20.0000 F4000
G1 X935.3141 Y1590.6022 Z-20.0000 F4000
G1 X935.3141 Y1588.6002 Z-20.0000 F4000
G1 X930.3141 Y1588.6002 Z-20.0000 F4000
G1 X930.3141 Y1513.6023 Z-20.0000 F4000
G1 X936.3141 Y1513.6003 Z-20.0000 F4000
G1 X855.3143 Y1513.6003 Z-20.0000 F4000
G1 X855.3143 Y1508.6004 Z-20.0000 F4000
G1 X853.3123 Y1508.6004 Z-20.0000 F4000
G1 X853.3123 Y1531.6004 Z-20.0000 F4000
G1 X665.3147 Y1531.6004 Z-20.0000 F4000
G1 X665.3147 Y1508.6004 Z-20.0000 F4000
G1 X663.3126 Y1508.6004 Z-20.0000 F4000
G1 X663.3126 Y1513.6003 Z-20.0000 F4000
G1 X555.3149 Y1513.6003 Z-20.0000 F4000
G1 X555.3149 Y1508.6004 Z-20.0000 F4000
G1 X553.3129 Y1508.6004 Z-20.0000 F4000
G1 X553.3129 Y1531.6004 Z-20.0000 F4000
G1 X365.3153 Y1531.6004 Z-20.0000 F4000
G1 X365.3153 Y1508.6004 Z-20.0000 F4000
G1 X363.3132 Y1508.6004 Z-20.0000 F4000
G1 X363.3132 Y1513.6003 Z-20.0000 F4000
G1 X305.3154 Y1513.6003 Z-20.0000 F4000
G1 X305.3154 Y1384.6015 Z-20.0000 F4000
G1 X305.3154 Y1384.6015 Z10.0000 F9999
G1 X305.3154 Y161.5275 Z10.0000 F9999
G1 X305.3154 Y161.5275 Z1.0000 F2500
G1 X305.3154 Y122.5564 Z-9.5000 F2500
G1 X305.3154 Y161.5275 Z-20.0000 F2500
G1 X305.3154 Y32.5288 Z-20.0000 F4000
G1 X363.3132 Y32.5288 Z-20.0000 F4000
G1 X363.3132 Y37.5290 Z-20.0000 F4000
G1 X365.3153 Y37.5290 Z-20.0000 F4000
G1 X365.3153 Y14.5290 Z-20.0000 F4000
G1 X553.3129 Y14.5290 Z-20.0000 F4000
G1 X553.3129 Y37.5290 Z-20.0000 F4000
G1 X555.3149 Y37.5290 Z-20.0000 F4000
G1 X555.3149 Y32.5288 Z-20.0000 F4000
G1 X663.3126 Y32.5288 Z-20.0000 F4000
G1 X663.3126 Y37.5290 Z-20.0000 F4000
G1 X665.3147 Y37.5290 Z-20.0000 F4000
G1 X665.3147 Y14.5290 Z-20.0000 F4000
G1 X853.3123 Y14.5290 Z-20.0000 F4000
G1 X853.3123 Y37.5290 Z-20.0000 F4000
G1 X855.3143 Y37.5290 Z-20.0000 F4000
G1 X855.3143 Y32.5288 Z-20.0000 F4000
G1 X963.3121 Y32.5288 Z-20.0000 F4000
G1 X963.3121 Y37.5290 Z-20.0000 F4000
G1 X965.3141 Y37.5290 Z-20.0000 F4000
G1 X965.3141 Y14.5290 Z-20.0000 F4000
G1 X1153.3117 Y14.5290 Z-20.0000 F4000
G1 X1153.3117 Y37.5290 Z-20.0000 F4000
G1 X1155.3137 Y37.5290 Z-20.0000 F4000
G1 X1155.3137 Y32.5288 Z-20.0000 F4000
G1 X1188.3116 Y32.5288 Z-20.0000 F4000
G1 X1188.3116 Y84.5269 Z-20.0000 F4000
G1 X1183.3116 Y84.5269 Z-20.0000 F4000
G1 X1183.3116 Y86.5288 Z-20.0000 F4000
G1 X1206.3116 Y86.5288 Z-20.0000 F4000
G1 X1206.3116 Y124.5268 Z-20.0000 F4000
G1 X1154.3137 Y124.5268 Z-20.0000 F4000
G1 X1154.3137 Y119.5266 Z-20.0000 F4000
G1 X1152.3117 Y119.5266 Z-20.0000 F4000
G1 X1152.3117 Y203.5284 Z-20.0000 F4000
G1 X1154.3137 Y203.5284 Z-20.0000 F4000
G1 X1154.3137 Y198.5285 Z-20.0000 F4000
G1 X1188.3116 Y198.5285 Z-20.0000 F4000
G1 X1188.3116 Y365.5262 Z-20.0000 F4000
G1 X1183.3116 Y365.5262 Z-20.0000 F4000
G1 X1183.3116 Y367.5282 Z-20.0000 F4000
G1 X1206.3116 Y367.5282 Z-20.0000 F4000
G1 X1206.3116 Y555.5258 Z-20.0000 F4000
G1 X1183.3116 Y555.5258 Z-20.0000 F4000
G1 X1183.3116 Y557.5278 Z-20.0000 F4000
G1 X1188.3116 Y557.5278 Z-20.0000 F4000
G1 X1188.3116 Y665.5255 Z-20.0000 F4000
G1 X1183.3116 Y665.5255 Z-20.0000 F4000
G1 X1183.3116 Y667.5275 Z-20.0000 F4000
G1 X1206.3116 Y667.5275 Z-20.0000 F4000
G1 X1206.3116 Y855.5252 Z-20.0000 F4000
G1 X1183.3116 Y855.5252 Z-20.0000 F4000
G1 X1183.3116 Y857.5272 Z-20.0000 F4000
G1 X1188.3116 Y857.5272 Z-20.0000 F4000
G1 X1188.3116 Y915.5249 Z-20.0000 F4000
G1 X1130.9339 Y915.5249 Z-20.0000 F4000
G1 X1130.9339 Y915.5249 Z-10.0000 F9999
G1 X1114.9359 Y915.5249 Z-10.0000 F4000
G1 X1114.9359 Y915.5249 Z-20.0000 F2500
G1 X994.6114 Y915.5249 Z-20.0000 F4000
G1 X994.6114 Y915.5249 Z-10.0000 F9999
G1 X978.6134 Y915.5249 Z-10.0000 F4000
G1 X978.6134 Y915.5249 Z-20.0000 F2500
G1 X930.3141 Y915.5249 Z-20.0000 F4000
G1 X930.3141 Y857.5272 Z-20.0000 F4000
G1 X935.3141 Y857.5272 Z-20.0000 F4000
G1 X935.3141 Y855.5252 Z-20.0000 F4000
G1 X912.3142 Y855.5252 Z-20.0000 F4000
G1 X912.3142 Y667.5275 Z-20.0000 F4000
G1 X935.3141 Y667.5275 Z-20.0000 F4000
G1 X935.3141 Y665.5255 Z-20.0000 F4000
G1 X930.3141 Y665.5255 Z-20.0000 F4000
G1 X930.3141 Y557.5278 Z-20.0000 F4000
G1 X935.3141 Y557.5278 Z-20.0000 F4000
G1 X935.3141 Y555.5258 Z-20.0000 F4000
G1 X912.3142 Y555.5258 Z-20.0000 F4000
G1 X912.3142 Y367.5282 Z-20.0000 F4000
G1 X935.3141 Y367.5282 Z-20.0000 F4000
G1 X935.3141 Y365.5262 Z-20.0000 F4000
G1 X930.3141 Y365.5262 Z-20.0000 F4000
G1 X930.3141 Y290.5283 Z-20.0000 F4000
G1 X936.3141 Y290.5263 Z-20.0000 F4000
G1 X855.3143 Y290.5263 Z-20.0000 F4000
G1 X855.3143 Y285.5264 Z-20.0000 F4000
G1 X853.3123 Y285.5264 Z-20.0000 F4000
G1 X853.3123 Y308.5264 Z-20.0000 F4000
G1 X665.3147 Y308.5264 Z-20.0000 F4000
G1 X665.3147 Y285.5264 Z-20.0000 F4000
G1 X663.3126 Y285.5264 Z-20.0000 F4000
G1 X663.3126 Y290.5263 Z-20.0000 F4000
G1 X555.3149 Y290.5263 Z-20.0000 F4000
G1 X555.3149 Y285.5264 Z-20.0000 F4000
G1 X553.3129 Y285.5264 Z-20.0000 F4000
G1 X553.3129 Y308.5264 Z-20.0000 F4000
G1 X365.3153 Y308.5264 Z-20.0000 F4000
G1 X365.3153 Y285.5264 Z-20.0000 F4000
G1 X363.3132 Y285.5264 Z-20.0000 F4000
G1 X363.3132 Y290.5263 Z-20.0000 F4000
G1 X305.3154 Y290.5263 Z-20.0000 F4000
G1 X305.3154 Y161.5275 Z-20.0000 F4000
G1 X305.3154 Y161.5275 Z10.0000 F9999
G1 X13.0384 Y1830.7007 Z10.0000 F9999
G1 X13.0384 Y1830.7007 Z1.0000 F2500
G1 X13.0384 Y1791.7296 Z-9.5000 F2500
G1 X13.0384 Y1830.7007 Z-20.0000 F2500
G1 X13.0384 Y1301.7028 Z-20.0000 F4000
G1 X100.0363 Y1301.7028 Z-20.0000 F4000
G1 X100.0363 Y1306.7028 Z-20.0000 F4000
G1 X102.0383 Y1306.7028 Z-20.0000 F4000
G1 X102.0383 Y1226.7030 Z-20.0000 F4000
G1 X182.0360 Y1226.7030 Z-20.0000 F4000
G1 X182.0360 Y1306.7028 Z-20.0000 F4000
G1 X184.0380 Y1306.7028 Z-20.0000 F4000
G1 X184.0380 Y1301.7028 Z-20.0000 F4000
G1 X289.0358 Y1301.7028 Z-20.0000 F4000
G1 X289.0358 Y1339.7007 Z-20.0000 F4000
G1 X266.0358 Y1339.7007 Z-20.0000 F4000
G1 X266.0358 Y1341.7027 Z-20.0000 F4000
G1 X271.0358 Y1341.7027 Z-20.0000 F4000
G1 X271.0358 Y1784.6999 Z-20.0000 F4000
G1 X266.0358 Y1784.6999 Z-20.0000 F4000
G1 X266.0358 Y1786.7018 Z-20.0000 F4000
G1 X289.0358 Y1786.7018 Z-20.0000 F4000
G1 X289.0358 Y1874.6997 Z-20.0000 F4000
G1 X266.0358 Y1874.6997 Z-20.0000 F4000
G1 X266.0358 Y1876.7016 Z-20.0000 F4000
G1 X271.0358 Y1876.7016 Z-20.0000 F4000
G1 X271.0358 Y2319.6988 Z-20.0000 F4000
G1 X266.0358 Y2319.6988 Z-20.0000 F4000
G1 X266.0358 Y2321.7008 Z-20.0000 F4000
G1 X289.0358 Y2321.7008 Z-20.0000 F4000
G1 X289.0358 Y2359.6986 Z-20.0000 F4000
G1 X184.0380 Y2359.6986 Z-20.0000 F4000
G1 X184.0380 Y2354.6986 Z-20.0000 F4000
G1 X182.0360 Y2354.6986 Z-20.0000 F4000
G1 X182.0360 Y2434.6986 Z-20.0000 F4000
G1 X102.0383 Y2434.6986 Z-20.0000 F4000
G1 X102.0383 Y2354.6986 Z-20.0000 F4000
G1 X100.0363 Y2354.6986 Z-20.0000 F4000
G1 X100.0363 Y2359.6986 Z-20.0000 F4000
G1 X13.0384 Y2359.6986 Z-20.0000 F4000
G1 X13.0384 Y1830.7007 Z-20.0000 F4000
G1 X13.0384 Y1830.7007 Z10.0000 F9999
G1 X13.6127 Y610.5103 Z10.0000 F9999
G1 X13.6127 Y610.5103 Z1.0000 F2500
G1 X13.6127 Y571.5391 Z-9.5000 F2500
G1 X13.6127 Y610.5103 Z-20.0000 F2500
G1 X13.6127 Y81.5124 Z-20.0000 F4000
G1 X100.6106 Y81.5124 Z-20.0000 F4000
G1 X100.6106 Y86.5123 Z-20.0000 F4000
G1 X102.6126 Y86.5123 Z-20.0000 F4000
G1 X102.6126 Y6.5125 Z-20.0000 F4000
G1 X182.6104 Y6.5125 Z-20.0000 F4000
G1 X182.6104 Y86.5123 Z-20.0000 F4000
G1 X184.6124 Y86.5123 Z-20.0000 F4000
G1 X184.6124 Y81.5124 Z-20.0000 F4000
G1 X289.6101 Y81.5124 Z-20.0000 F4000
G1 X289.6101 Y119.5103 Z-20.0000 F4000
G1 X266.6101 Y119.5103 Z-20.0000 F4000
G1 X266.6101 Y121.5123 Z-20.0000 F4000
G1 X271.6101 Y121.5123 Z-20.0000 F4000
G1 X271.6101 Y564.5094 Z-20.0000 F4000
G1 X266.6101 Y564.5094 Z-20.0000 F4000
G1 X266.6101 Y566.5114 Z-20.0000 F4000
G1 X289.6101 Y566.5114 Z-20.0000 F4000
G1 X289.6101 Y654.5092 Z-20.0000 F4000
G1 X266.6101 Y654.5092 Z-20.0000 F4000
G1 X266.6101 Y656.5112 Z-20.0000 F4000
G1 X271.6101 Y656.5112 Z-20.0000 F4000
G1 X271.6101 Y1099.5083 Z-20.0000 F4000
G1 X266.6101 Y1099.5083 Z-20.0000 F4000
G1 X266.6101 Y1101.5103 Z-20.0000 F4000
G1 X289.6101 Y1101.5103 Z-20.0000 F4000
G1 X289.6101 Y1139.5082 Z-20.0000 F4000
G1 X184.6124 Y1139.5082 Z-20.0000 F4000
G1 X184.6124 Y1134.5082 Z-20.0000 F4000
G1 X182.6104 Y1134.5082 Z-20.0000 F4000
G1 X182.6104 Y1214.5082 Z-20.0000 F4000
G1 X102.6126 Y1214.5082 Z-20.0000 F4000
G1 X102.6126 Y1134.5082 Z-20.0000 F4000
G1 X100.6106 Y1134.5082 Z-20.0000 F4000
G1 X100.6106 Y1139.5082 Z-20.0000 F4000
G1 X13.6127 Y1139.5082 Z-20.0000 F4000
G1 X13.6127 Y610.5103 Z-20.0000 F4000
G1 X13.6127 Y610.5103 Z10.0000 F9999
G1 X1900.0000 Y2800.0000 Z80.0000 F9999
G1 Z80.0000 F9999
G1 X1900.0000 Y2800.0000 F9999
M5
M30
