(plotsheet 2n3_nested_153 sheets_final v1_0_sheet 101 to 106_S101.1_text_CC9.53 - PCD - stepover 1mm)
(Material Size) (X=1220.000, Y=2440.000, Z=21.000)
(LinuxCNC_NoArcs_MM_TC_medium_50um_G1_verbose.con)
G90 G80 G21 G49
G64 P0.050
M6 T1
(Tool Number:1) (9.530 mm dia. slot drill)
G43 H1 G0Z80.0000
M3 S17444
G04 P10
G1 X393.9265 Y299.6342 Z10.0000 F9999
G1 X393.9265 Y299.6342 Z-1.0000 F2500
G1 X408.3669 Y299.6342 Z-1.0000 F4000
G1 X393.9265 Y299.6342 Z-1.0000 F4000
G1 X393.9265 Y317.9278 Z-1.0000 F4000
G1 X409.0458 Y317.9278 Z-1.0000 F4000
G1 X393.9265 Y317.9278 Z-1.0000 F4000
G1 X393.9265 Y276.8269 Z-1.0000 F4000
G1 X393.9265 Y276.8269 Z10.0000 F9999
G1 X437.0824 Y276.8269 Z10.0000 F9999
G1 X437.0824 Y276.8269 Z-1.0000 F2500
G1 X424.4586 Y276.8269 Z-1.0000 F4000
G1 X424.4586 Y317.9278 Z-1.0000 F4000
G1 X424.4586 Y276.8269 Z-1.0000 F4000
G1 X424.4586 Y276.8269 Z10.0000 F9999
G1 X469.0458 Y276.8269 Z10.0000 F9999
G1 X469.0458 Y276.8269 Z-1.0000 F2500
G1 X460.8439 Y278.4232 Z-1.0000 F4000
G1 X454.1100 Y282.8269 Z-1.0000 F4000
G1 X449.5412 Y289.3590 Z-1.0000 F4000
G1 X447.8531 Y297.3406 Z-1.0000 F4000
G1 X449.5412 Y305.3223 Z-1.0000 F4000
G1 X454.1100 Y311.8727 Z-1.0000 F4000
G1 X460.8439 Y316.2947 Z-1.0000 F4000
G1 X469.0458 Y317.9278 Z-1.0000 F4000
G1 X477.3026 Y316.2947 Z-1.0000 F4000
G1 X484.0366 Y311.8727 Z-1.0000 F4000
G1 X488.5687 Y305.3223 Z-1.0000 F4000
G1 X490.2384 Y297.3406 Z-1.0000 F4000
G1 X488.5687 Y289.3590 Z-1.0000 F4000
G1 X484.0366 Y282.8269 Z-1.0000 F4000
G1 X477.3026 Y278.4232 Z-1.0000 F4000
G1 X469.0458 Y276.8269 Z-1.0000 F4000
G1 X460.8439 Y278.4232 Z-1.0000 F4000
G1 X454.1100 Y282.8269 Z-1.0000 F4000
G1 X449.5412 Y289.3590 Z-1.0000 F4000
G1 X447.8531 Y297.3406 Z-1.0000 F4000
G1 X449.5412 Y305.3223 Z-1.0000 F4000
G1 X454.1100 Y311.8727 Z-1.0000 F4000
G1 X460.8439 Y316.2947 Z-1.0000 F4000
G1 X469.0458 Y317.9278 Z-1.0000 F4000
G1 X477.3026 Y316.2947 Z-1.0000 F4000
G1 X484.0366 Y311.8727 Z-1.0000 F4000
G1 X488.5687 Y305.3223 Z-1.0000 F4000
G1 X490.2384 Y297.3406 Z-1.0000 F4000
G1 X488.5687 Y289.3590 Z-1.0000 F4000
G1 X484.0366 Y282.8269 Z-1.0000 F4000
G1 X477.3026 Y278.4232 Z-1.0000 F4000
G1 X469.0458 Y276.8269 Z-1.0000 F4000
G1 X469.0458 Y276.8269 Z10.0000 F9999
G1 X523.0641 Y276.8269 Z10.0000 F9999
G1 X523.0641 Y276.8269 Z-1.0000 F2500
G1 X514.8623 Y278.4232 Z-1.0000 F4000
G1 X508.1283 Y282.8269 Z-1.0000 F4000
G1 X503.5595 Y289.3590 Z-1.0000 F4000
G1 X501.8714 Y297.3406 Z-1.0000 F4000
G1 X503.5595 Y305.3223 Z-1.0000 F4000
G1 X508.1283 Y311.8727 Z-1.0000 F4000
G1 X514.8623 Y316.2947 Z-1.0000 F4000
G1 X523.0641 Y317.9278 Z-1.0000 F4000
G1 X531.3210 Y316.2947 Z-1.0000 F4000
G1 X538.0549 Y311.8727 Z-1.0000 F4000
G1 X542.5870 Y305.3223 Z-1.0000 F4000
G1 X544.2568 Y297.3406 Z-1.0000 F4000
G1 X542.5870 Y289.3590 Z-1.0000 F4000
G1 X538.0549 Y282.8269 Z-1.0000 F4000
G1 X531.3210 Y278.4232 Z-1.0000 F4000
G1 X523.0641 Y276.8269 Z-1.0000 F4000
G1 X514.8623 Y278.4232 Z-1.0000 F4000
G1 X508.1283 Y282.8269 Z-1.0000 F4000
G1 X503.5595 Y289.3590 Z-1.0000 F4000
G1 X501.8714 Y297.3406 Z-1.0000 F4000
G1 X503.5595 Y305.3223 Z-1.0000 F4000
G1 X508.1283 Y311.8727 Z-1.0000 F4000
G1 X514.8623 Y316.2947 Z-1.0000 F4000
G1 X523.0641 Y317.9278 Z-1.0000 F4000
G1 X531.3210 Y316.2947 Z-1.0000 F4000
G1 X538.0549 Y311.8727 Z-1.0000 F4000
G1 X542.5870 Y305.3223 Z-1.0000 F4000
G1 X544.2568 Y297.3406 Z-1.0000 F4000
G1 X542.5870 Y289.3590 Z-1.0000 F4000
G1 X538.0549 Y282.8269 Z-1.0000 F4000
G1 X531.3210 Y278.4232 Z-1.0000 F4000
G1 X523.0641 Y276.8269 Z-1.0000 F4000
G1 X523.0641 Y276.8269 Z10.0000 F9999
G1 X560.6788 Y276.8269 Z10.0000 F9999
G1 X560.6788 Y276.8269 Z-1.0000 F2500
G1 X560.6788 Y317.9278 Z-1.0000 F4000
G1 X567.8347 Y317.9278 Z-1.0000 F4000
G1 X571.7063 Y317.3223 Z-1.0000 F4000
G1 X574.9173 Y315.5058 Z-1.0000 F4000
G1 X577.1375 Y312.3498 Z-1.0000 F4000
G1 X577.9815 Y307.7076 Z-1.0000 F4000
G1 X576.8256 Y303.0287 Z-1.0000 F4000
G1 X574.0549 Y299.7076 Z-1.0000 F4000
G1 X570.7338 Y297.7443 Z-1.0000 F4000
G1 X567.8347 Y297.0837 Z-1.0000 F4000
G1 X560.6788 Y297.0837 Z-1.0000 F4000
G1 X567.8347 Y297.0837 Z-1.0000 F4000
G1 X570.7338 Y297.7443 Z-1.0000 F4000
G1 X574.0549 Y299.7076 Z-1.0000 F4000
G1 X576.8256 Y303.0287 Z-1.0000 F4000
G1 X577.9815 Y307.7076 Z-1.0000 F4000
G1 X577.1375 Y312.3498 Z-1.0000 F4000
G1 X574.9173 Y315.5058 Z-1.0000 F4000
G1 X571.7063 Y317.3223 Z-1.0000 F4000
G1 X567.8347 Y317.9278 Z-1.0000 F4000
G1 X560.6788 Y317.9278 Z-1.0000 F4000
G1 X560.6788 Y317.9278 Z10.0000 F9999
G1 X578.0916 Y276.8269 Z10.0000 F9999
G1 X578.0916 Y276.8269 Z-1.0000 F2500
G1 X564.8623 Y296.9736 Z-1.0000 F4000
G1 X578.0916 Y276.8269 Z-1.0000 F4000
G1 X578.0916 Y276.8269 Z10.0000 F9999
G1 X619.1558 Y327.3223 Z10.0000 F9999
G1 X619.1558 Y327.3223 Z-1.0000 F2500
G1 X588.7705 Y274.4782 Z-1.0000 F4000
G1 X619.1558 Y327.3223 Z-1.0000 F4000
G1 X619.1558 Y327.3223 Z10.0000 F9999
G1 X635.7980 Y317.9278 Z10.0000 F9999
G1 X635.7980 Y317.9278 Z-1.0000 F2500
G1 X654.0549 Y276.8269 Z-1.0000 F4000
G1 X672.3118 Y317.9278 Z-1.0000 F4000
G1 X675.8714 Y276.8269 Z-1.0000 F4000
G1 X672.3118 Y317.9278 Z-1.0000 F4000
G1 X654.0549 Y276.8269 Z-1.0000 F4000
G1 X635.7980 Y317.9278 Z-1.0000 F4000
G1 X632.2935 Y276.8269 Z-1.0000 F4000
G1 X632.2935 Y276.8269 Z10.0000 F9999
G1 X578.0916 Y880.8709 Z10.0000 F9999
G1 X578.0916 Y880.8709 Z-1.0000 F2500
G1 X564.8623 Y901.0177 Z-1.0000 F4000
G1 X578.0916 Y880.8709 Z-1.0000 F4000
G1 X578.0916 Y880.8709 Z10.0000 F9999
G1 X560.6788 Y880.8709 Z10.0000 F9999
G1 X560.6788 Y880.8709 Z-1.0000 F2500
G1 X560.6788 Y921.9719 Z-1.0000 F4000
G1 X567.8347 Y921.9719 Z-1.0000 F4000
G1 X571.7063 Y921.3664 Z-1.0000 F4000
G1 X574.9173 Y919.5498 Z-1.0000 F4000
G1 X577.1375 Y916.3939 Z-1.0000 F4000
G1 X577.9815 Y911.7517 Z-1.0000 F4000
G1 X576.8256 Y907.0728 Z-1.0000 F4000
G1 X574.0549 Y903.7517 Z-1.0000 F4000
G1 X570.7338 Y901.7884 Z-1.0000 F4000
G1 X567.8347 Y901.1278 Z-1.0000 F4000
G1 X560.6788 Y901.1278 Z-1.0000 F4000
G1 X567.8347 Y901.1278 Z-1.0000 F4000
G1 X570.7338 Y901.7884 Z-1.0000 F4000
G1 X574.0549 Y903.7517 Z-1.0000 F4000
G1 X576.8256 Y907.0728 Z-1.0000 F4000
G1 X577.9815 Y911.7517 Z-1.0000 F4000
G1 X577.1375 Y916.3939 Z-1.0000 F4000
G1 X574.9173 Y919.5498 Z-1.0000 F4000
G1 X571.7063 Y921.3664 Z-1.0000 F4000
G1 X567.8347 Y921.9719 Z-1.0000 F4000
G1 X560.6788 Y921.9719 Z-1.0000 F4000
G1 X560.6788 Y921.9719 Z10.0000 F9999
G1 X523.0641 Y880.8709 Z10.0000 F9999
G1 X523.0641 Y880.8709 Z-1.0000 F2500
G1 X514.8623 Y882.4673 Z-1.0000 F4000
G1 X508.1283 Y886.8709 Z-1.0000 F4000
G1 X503.5595 Y893.4031 Z-1.0000 F4000
G1 X501.8714 Y901.3847 Z-1.0000 F4000
G1 X503.5595 Y909.3664 Z-1.0000 F4000
G1 X508.1283 Y915.9168 Z-1.0000 F4000
G1 X514.8623 Y920.3388 Z-1.0000 F4000
G1 X523.0641 Y921.9719 Z-1.0000 F4000
G1 X531.3210 Y920.3388 Z-1.0000 F4000
G1 X538.0549 Y915.9168 Z-1.0000 F4000
G1 X542.5870 Y909.3664 Z-1.0000 F4000
G1 X544.2568 Y901.3847 Z-1.0000 F4000
G1 X542.5870 Y893.4031 Z-1.0000 F4000
G1 X538.0549 Y886.8709 Z-1.0000 F4000
G1 X531.3210 Y882.4673 Z-1.0000 F4000
G1 X523.0641 Y880.8709 Z-1.0000 F4000
G1 X514.8623 Y882.4673 Z-1.0000 F4000
G1 X508.1283 Y886.8709 Z-1.0000 F4000
G1 X503.5595 Y893.4031 Z-1.0000 F4000
G1 X501.8714 Y901.3847 Z-1.0000 F4000
G1 X503.5595 Y909.3664 Z-1.0000 F4000
G1 X508.1283 Y915.9168 Z-1.0000 F4000
G1 X514.8623 Y920.3388 Z-1.0000 F4000
G1 X523.0641 Y921.9719 Z-1.0000 F4000
G1 X531.3210 Y920.3388 Z-1.0000 F4000
G1 X538.0549 Y915.9168 Z-1.0000 F4000
G1 X542.5870 Y909.3664 Z-1.0000 F4000
G1 X544.2568 Y901.3847 Z-1.0000 F4000
G1 X542.5870 Y893.4031 Z-1.0000 F4000
G1 X538.0549 Y886.8709 Z-1.0000 F4000
G1 X531.3210 Y882.4673 Z-1.0000 F4000
G1 X523.0641 Y880.8709 Z-1.0000 F4000
G1 X523.0641 Y880.8709 Z10.0000 F9999
G1 X469.0458 Y880.8709 Z10.0000 F9999
G1 X469.0458 Y880.8709 Z-1.0000 F2500
G1 X460.8439 Y882.4673 Z-1.0000 F4000
G1 X454.1100 Y886.8709 Z-1.0000 F4000
G1 X449.5412 Y893.4031 Z-1.0000 F4000
G1 X447.8531 Y901.3847 Z-1.0000 F4000
G1 X449.5412 Y909.3664 Z-1.0000 F4000
G1 X454.1100 Y915.9168 Z-1.0000 F4000
G1 X460.8439 Y920.3388 Z-1.0000 F4000
G1 X469.0458 Y921.9719 Z-1.0000 F4000
G1 X477.3026 Y920.3388 Z-1.0000 F4000
G1 X484.0366 Y915.9168 Z-1.0000 F4000
G1 X488.5687 Y909.3664 Z-1.0000 F4000
G1 X490.2384 Y901.3847 Z-1.0000 F4000
G1 X488.5687 Y893.4031 Z-1.0000 F4000
G1 X484.0366 Y886.8709 Z-1.0000 F4000
G1 X477.3026 Y882.4673 Z-1.0000 F4000
G1 X469.0458 Y880.8709 Z-1.0000 F4000
G1 X460.8439 Y882.4673 Z-1.0000 F4000
G1 X454.1100 Y886.8709 Z-1.0000 F4000
G1 X449.5412 Y893.4031 Z-1.0000 F4000
G1 X447.8531 Y901.3847 Z-1.0000 F4000
G1 X449.5412 Y909.3664 Z-1.0000 F4000
G1 X454.1100 Y915.9168 Z-1.0000 F4000
G1 X460.8439 Y920.3388 Z-1.0000 F4000
G1 X469.0458 Y921.9719 Z-1.0000 F4000
G1 X477.3026 Y920.3388 Z-1.0000 F4000
G1 X484.0366 Y915.9168 Z-1.0000 F4000
G1 X488.5687 Y909.3664 Z-1.0000 F4000
G1 X490.2384 Y901.3847 Z-1.0000 F4000
G1 X488.5687 Y893.4031 Z-1.0000 F4000
G1 X484.0366 Y886.8709 Z-1.0000 F4000
G1 X477.3026 Y882.4673 Z-1.0000 F4000
G1 X469.0458 Y880.8709 Z-1.0000 F4000
G1 X469.0458 Y880.8709 Z10.0000 F9999
G1 X437.0824 Y880.8709 Z10.0000 F9999
G1 X437.0824 Y880.8709 Z-1.0000 F2500
G1 X424.4586 Y880.8709 Z-1.0000 F4000
G1 X424.4586 Y921.9719 Z-1.0000 F4000
G1 X424.4586 Y880.8709 Z-1.0000 F4000
G1 X424.4586 Y880.8709 Z10.0000 F9999
G1 X393.9265 Y903.6783 Z10.0000 F9999
G1 X393.9265 Y903.6783 Z-1.0000 F2500
G1 X408.3669 Y903.6783 Z-1.0000 F4000
G1 X393.9265 Y903.6783 Z-1.0000 F4000
G1 X393.9265 Y921.9719 Z-1.0000 F4000
G1 X409.0458 Y921.9719 Z-1.0000 F4000
G1 X393.9265 Y921.9719 Z-1.0000 F4000
G1 X393.9265 Y880.8709 Z-1.0000 F4000
G1 X393.9265 Y880.8709 Z10.0000 F9999
G1 X619.1558 Y931.3664 Z10.0000 F9999
G1 X619.1558 Y931.3664 Z-1.0000 F2500
G1 X588.7705 Y878.5223 Z-1.0000 F4000
G1 X619.1558 Y931.3664 Z-1.0000 F4000
G1 X619.1558 Y931.3664 Z10.0000 F9999
G1 X635.7980 Y921.9719 Z10.0000 F9999
G1 X635.7980 Y921.9719 Z-1.0000 F2500
G1 X654.0549 Y880.8709 Z-1.0000 F4000
G1 X672.3118 Y921.9719 Z-1.0000 F4000
G1 X675.8714 Y880.8709 Z-1.0000 F4000
G1 X672.3118 Y921.9719 Z-1.0000 F4000
G1 X654.0549 Y880.8709 Z-1.0000 F4000
G1 X635.7980 Y921.9719 Z-1.0000 F4000
G1 X632.2935 Y880.8709 Z-1.0000 F4000
G1 X632.2935 Y880.8709 Z10.0000 F9999
G1 X578.0916 Y1484.9150 Z10.0000 F9999
G1 X578.0916 Y1484.9150 Z-1.0000 F2500
G1 X564.8623 Y1505.0618 Z-1.0000 F4000
G1 X578.0916 Y1484.9150 Z-1.0000 F4000
G1 X578.0916 Y1484.9150 Z10.0000 F9999
G1 X560.6788 Y1484.9150 Z10.0000 F9999
G1 X560.6788 Y1484.9150 Z-1.0000 F2500
G1 X560.6788 Y1526.0160 Z-1.0000 F4000
G1 X567.8347 Y1526.0160 Z-1.0000 F4000
G1 X571.7063 Y1525.4105 Z-1.0000 F4000
G1 X574.9173 Y1523.5939 Z-1.0000 F4000
G1 X577.1375 Y1520.4380 Z-1.0000 F4000
G1 X577.9815 Y1515.7958 Z-1.0000 F4000
G1 X576.8256 Y1511.1169 Z-1.0000 F4000
G1 X574.0549 Y1507.7958 Z-1.0000 F4000
G1 X570.7338 Y1505.8325 Z-1.0000 F4000
G1 X567.8347 Y1505.1719 Z-1.0000 F4000
G1 X560.6788 Y1505.1719 Z-1.0000 F4000
G1 X567.8347 Y1505.1719 Z-1.0000 F4000
G1 X570.7338 Y1505.8325 Z-1.0000 F4000
G1 X574.0549 Y1507.7958 Z-1.0000 F4000
G1 X576.8256 Y1511.1169 Z-1.0000 F4000
G1 X577.9815 Y1515.7958 Z-1.0000 F4000
G1 X577.1375 Y1520.4380 Z-1.0000 F4000
G1 X574.9173 Y1523.5939 Z-1.0000 F4000
G1 X571.7063 Y1525.4105 Z-1.0000 F4000
G1 X567.8347 Y1526.0160 Z-1.0000 F4000
G1 X560.6788 Y1526.0160 Z-1.0000 F4000
G1 X560.6788 Y1526.0160 Z10.0000 F9999
G1 X523.0641 Y1484.9150 Z10.0000 F9999
G1 X523.0641 Y1484.9150 Z-1.0000 F2500
G1 X514.8623 Y1486.5114 Z-1.0000 F4000
G1 X508.1283 Y1490.9150 Z-1.0000 F4000
G1 X503.5595 Y1497.4472 Z-1.0000 F4000
G1 X501.8714 Y1505.4288 Z-1.0000 F4000
G1 X503.5595 Y1513.4105 Z-1.0000 F4000
G1 X508.1283 Y1519.9609 Z-1.0000 F4000
G1 X514.8623 Y1524.3829 Z-1.0000 F4000
G1 X523.0641 Y1526.0160 Z-1.0000 F4000
G1 X531.3210 Y1524.3829 Z-1.0000 F4000
G1 X538.0549 Y1519.9609 Z-1.0000 F4000
G1 X542.5870 Y1513.4105 Z-1.0000 F4000
G1 X544.2568 Y1505.4288 Z-1.0000 F4000
G1 X542.5870 Y1497.4472 Z-1.0000 F4000
G1 X538.0549 Y1490.9150 Z-1.0000 F4000
G1 X531.3210 Y1486.5114 Z-1.0000 F4000
G1 X523.0641 Y1484.9150 Z-1.0000 F4000
G1 X514.8623 Y1486.5114 Z-1.0000 F4000
G1 X508.1283 Y1490.9150 Z-1.0000 F4000
G1 X503.5595 Y1497.4472 Z-1.0000 F4000
G1 X501.8714 Y1505.4288 Z-1.0000 F4000
G1 X503.5595 Y1513.4105 Z-1.0000 F4000
G1 X508.1283 Y1519.9609 Z-1.0000 F4000
G1 X514.8623 Y1524.3829 Z-1.0000 F4000
G1 X523.0641 Y1526.0160 Z-1.0000 F4000
G1 X531.3210 Y1524.3829 Z-1.0000 F4000
G1 X538.0549 Y1519.9609 Z-1.0000 F4000
G1 X542.5870 Y1513.4105 Z-1.0000 F4000
G1 X544.2568 Y1505.4288 Z-1.0000 F4000
G1 X542.5870 Y1497.4472 Z-1.0000 F4000
G1 X538.0549 Y1490.9150 Z-1.0000 F4000
G1 X531.3210 Y1486.5114 Z-1.0000 F4000
G1 X523.0641 Y1484.9150 Z-1.0000 F4000
G1 X523.0641 Y1484.9150 Z10.0000 F9999
G1 X469.0458 Y1484.9150 Z10.0000 F9999
G1 X469.0458 Y1484.9150 Z-1.0000 F2500
G1 X460.8439 Y1486.5114 Z-1.0000 F4000
G1 X454.1100 Y1490.9150 Z-1.0000 F4000
G1 X449.5412 Y1497.4472 Z-1.0000 F4000
G1 X447.8531 Y1505.4288 Z-1.0000 F4000
G1 X449.5412 Y1513.4105 Z-1.0000 F4000
G1 X454.1100 Y1519.9609 Z-1.0000 F4000
G1 X460.8439 Y1524.3829 Z-1.0000 F4000
G1 X469.0458 Y1526.0160 Z-1.0000 F4000
G1 X477.3026 Y1524.3829 Z-1.0000 F4000
G1 X484.0366 Y1519.9609 Z-1.0000 F4000
G1 X488.5687 Y1513.4105 Z-1.0000 F4000
G1 X490.2384 Y1505.4288 Z-1.0000 F4000
G1 X488.5687 Y1497.4472 Z-1.0000 F4000
G1 X484.0366 Y1490.9150 Z-1.0000 F4000
G1 X477.3026 Y1486.5114 Z-1.0000 F4000
G1 X469.0458 Y1484.9150 Z-1.0000 F4000
G1 X460.8439 Y1486.5114 Z-1.0000 F4000
G1 X454.1100 Y1490.9150 Z-1.0000 F4000
G1 X449.5412 Y1497.4472 Z-1.0000 F4000
G1 X447.8531 Y1505.4288 Z-1.0000 F4000
G1 X449.5412 Y1513.4105 Z-1.0000 F4000
G1 X454.1100 Y1519.9609 Z-1.0000 F4000
G1 X460.8439 Y1524.3829 Z-1.0000 F4000
G1 X469.0458 Y1526.0160 Z-1.0000 F4000
G1 X477.3026 Y1524.3829 Z-1.0000 F4000
G1 X484.0366 Y1519.9609 Z-1.0000 F4000
G1 X488.5687 Y1513.4105 Z-1.0000 F4000
G1 X490.2384 Y1505.4288 Z-1.0000 F4000
G1 X488.5687 Y1497.4472 Z-1.0000 F4000
G1 X484.0366 Y1490.9150 Z-1.0000 F4000
G1 X477.3026 Y1486.5114 Z-1.0000 F4000
G1 X469.0458 Y1484.9150 Z-1.0000 F4000
G1 X469.0458 Y1484.9150 Z10.0000 F9999
G1 X437.0824 Y1484.9150 Z10.0000 F9999
G1 X437.0824 Y1484.9150 Z-1.0000 F2500
G1 X424.4586 Y1484.9150 Z-1.0000 F4000
G1 X424.4586 Y1526.0160 Z-1.0000 F4000
G1 X424.4586 Y1484.9150 Z-1.0000 F4000
G1 X424.4586 Y1484.9150 Z10.0000 F9999
G1 X393.9265 Y1507.7224 Z10.0000 F9999
G1 X393.9265 Y1507.7224 Z-1.0000 F2500
G1 X408.3669 Y1507.7224 Z-1.0000 F4000
G1 X393.9265 Y1507.7224 Z-1.0000 F4000
G1 X393.9265 Y1526.0160 Z-1.0000 F4000
G1 X409.0458 Y1526.0160 Z-1.0000 F4000
G1 X393.9265 Y1526.0160 Z-1.0000 F4000
G1 X393.9265 Y1484.9150 Z-1.0000 F4000
G1 X393.9265 Y1484.9150 Z10.0000 F9999
G1 X619.1558 Y1535.4105 Z10.0000 F9999
G1 X619.1558 Y1535.4105 Z-1.0000 F2500
G1 X588.7705 Y1482.5664 Z-1.0000 F4000
G1 X619.1558 Y1535.4105 Z-1.0000 F4000
G1 X619.1558 Y1535.4105 Z10.0000 F9999
G1 X635.7980 Y1526.0160 Z10.0000 F9999
G1 X635.7980 Y1526.0160 Z-1.0000 F2500
G1 X654.0549 Y1484.9150 Z-1.0000 F4000
G1 X672.3118 Y1526.0160 Z-1.0000 F4000
G1 X675.8714 Y1484.9150 Z-1.0000 F4000
G1 X672.3118 Y1526.0160 Z-1.0000 F4000
G1 X654.0549 Y1484.9150 Z-1.0000 F4000
G1 X635.7980 Y1526.0160 Z-1.0000 F4000
G1 X632.2935 Y1484.9150 Z-1.0000 F4000
G1 X632.2935 Y1484.9150 Z10.0000 F9999
G1 X578.0916 Y2088.9591 Z10.0000 F9999
G1 X578.0916 Y2088.9591 Z-1.0000 F2500
G1 X564.8623 Y2109.1059 Z-1.0000 F4000
G1 X578.0916 Y2088.9591 Z-1.0000 F4000
G1 X578.0916 Y2088.9591 Z10.0000 F9999
G1 X560.6788 Y2088.9591 Z10.0000 F9999
G1 X560.6788 Y2088.9591 Z-1.0000 F2500
G1 X560.6788 Y2130.0601 Z-1.0000 F4000
G1 X567.8347 Y2130.0601 Z-1.0000 F4000
G1 X571.7063 Y2129.4545 Z-1.0000 F4000
G1 X574.9173 Y2127.6380 Z-1.0000 F4000
G1 X577.1375 Y2124.4821 Z-1.0000 F4000
G1 X577.9815 Y2119.8399 Z-1.0000 F4000
G1 X576.8256 Y2115.1610 Z-1.0000 F4000
G1 X574.0549 Y2111.8399 Z-1.0000 F4000
G1 X570.7338 Y2109.8766 Z-1.0000 F4000
G1 X567.8347 Y2109.2160 Z-1.0000 F4000
G1 X560.6788 Y2109.2160 Z-1.0000 F4000
G1 X567.8347 Y2109.2160 Z-1.0000 F4000
G1 X570.7338 Y2109.8766 Z-1.0000 F4000
G1 X574.0549 Y2111.8399 Z-1.0000 F4000
G1 X576.8256 Y2115.1610 Z-1.0000 F4000
G1 X577.9815 Y2119.8399 Z-1.0000 F4000
G1 X577.1375 Y2124.4821 Z-1.0000 F4000
G1 X574.9173 Y2127.6380 Z-1.0000 F4000
G1 X571.7063 Y2129.4545 Z-1.0000 F4000
G1 X567.8347 Y2130.0601 Z-1.0000 F4000
G1 X560.6788 Y2130.0601 Z-1.0000 F4000
G1 X560.6788 Y2130.0601 Z10.0000 F9999
G1 X523.0641 Y2088.9591 Z10.0000 F9999
G1 X523.0641 Y2088.9591 Z-1.0000 F2500
G1 X514.8623 Y2090.5555 Z-1.0000 F4000
G1 X508.1283 Y2094.9591 Z-1.0000 F4000
G1 X503.5595 Y2101.4912 Z-1.0000 F4000
G1 X501.8714 Y2109.4729 Z-1.0000 F4000
G1 X503.5595 Y2117.4545 Z-1.0000 F4000
G1 X508.1283 Y2124.0050 Z-1.0000 F4000
G1 X514.8623 Y2128.4270 Z-1.0000 F4000
G1 X523.0641 Y2130.0601 Z-1.0000 F4000
G1 X531.3210 Y2128.4270 Z-1.0000 F4000
G1 X538.0549 Y2124.0050 Z-1.0000 F4000
G1 X542.5870 Y2117.4545 Z-1.0000 F4000
G1 X544.2568 Y2109.4729 Z-1.0000 F4000
G1 X542.5870 Y2101.4912 Z-1.0000 F4000
G1 X538.0549 Y2094.9591 Z-1.0000 F4000
G1 X531.3210 Y2090.5555 Z-1.0000 F4000
G1 X523.0641 Y2088.9591 Z-1.0000 F4000
G1 X514.8623 Y2090.5555 Z-1.0000 F4000
G1 X508.1283 Y2094.9591 Z-1.0000 F4000
G1 X503.5595 Y2101.4912 Z-1.0000 F4000
G1 X501.8714 Y2109.4729 Z-1.0000 F4000
G1 X503.5595 Y2117.4545 Z-1.0000 F4000
G1 X508.1283 Y2124.0050 Z-1.0000 F4000
G1 X514.8623 Y2128.4270 Z-1.0000 F4000
G1 X523.0641 Y2130.0601 Z-1.0000 F4000
G1 X531.3210 Y2128.4270 Z-1.0000 F4000
G1 X538.0549 Y2124.0050 Z-1.0000 F4000
G1 X542.5870 Y2117.4545 Z-1.0000 F4000
G1 X544.2568 Y2109.4729 Z-1.0000 F4000
G1 X542.5870 Y2101.4912 Z-1.0000 F4000
G1 X538.0549 Y2094.9591 Z-1.0000 F4000
G1 X531.3210 Y2090.5555 Z-1.0000 F4000
G1 X523.0641 Y2088.9591 Z-1.0000 F4000
G1 X523.0641 Y2088.9591 Z10.0000 F9999
G1 X469.0458 Y2088.9591 Z10.0000 F9999
G1 X469.0458 Y2088.9591 Z-1.0000 F2500
G1 X460.8439 Y2090.5555 Z-1.0000 F4000
G1 X454.1100 Y2094.9591 Z-1.0000 F4000
G1 X449.5412 Y2101.4912 Z-1.0000 F4000
G1 X447.8531 Y2109.4729 Z-1.0000 F4000
G1 X449.5412 Y2117.4545 Z-1.0000 F4000
G1 X454.1100 Y2124.0050 Z-1.0000 F4000
G1 X460.8439 Y2128.4270 Z-1.0000 F4000
G1 X469.0458 Y2130.0601 Z-1.0000 F4000
G1 X477.3026 Y2128.4270 Z-1.0000 F4000
G1 X484.0366 Y2124.0050 Z-1.0000 F4000
G1 X488.5687 Y2117.4545 Z-1.0000 F4000
G1 X490.2384 Y2109.4729 Z-1.0000 F4000
G1 X488.5687 Y2101.4912 Z-1.0000 F4000
G1 X484.0366 Y2094.9591 Z-1.0000 F4000
G1 X477.3026 Y2090.5555 Z-1.0000 F4000
G1 X469.0458 Y2088.9591 Z-1.0000 F4000
G1 X460.8439 Y2090.5555 Z-1.0000 F4000
G1 X454.1100 Y2094.9591 Z-1.0000 F4000
G1 X449.5412 Y2101.4912 Z-1.0000 F4000
G1 X447.8531 Y2109.4729 Z-1.0000 F4000
G1 X449.5412 Y2117.4545 Z-1.0000 F4000
G1 X454.1100 Y2124.0050 Z-1.0000 F4000
G1 X460.8439 Y2128.4270 Z-1.0000 F4000
G1 X469.0458 Y2130.0601 Z-1.0000 F4000
G1 X477.3026 Y2128.4270 Z-1.0000 F4000
G1 X484.0366 Y2124.0050 Z-1.0000 F4000
G1 X488.5687 Y2117.4545 Z-1.0000 F4000
G1 X490.2384 Y2109.4729 Z-1.0000 F4000
G1 X488.5687 Y2101.4912 Z-1.0000 F4000
G1 X484.0366 Y2094.9591 Z-1.0000 F4000
G1 X477.3026 Y2090.5555 Z-1.0000 F4000
G1 X469.0458 Y2088.9591 Z-1.0000 F4000
G1 X469.0458 Y2088.9591 Z10.0000 F9999
G1 X437.0824 Y2088.9591 Z10.0000 F9999
G1 X437.0824 Y2088.9591 Z-1.0000 F2500
G1 X424.4586 Y2088.9591 Z-1.0000 F4000
G1 X424.4586 Y2130.0601 Z-1.0000 F4000
G1 X424.4586 Y2088.9591 Z-1.0000 F4000
G1 X424.4586 Y2088.9591 Z10.0000 F9999
G1 X393.9265 Y2111.7665 Z10.0000 F9999
G1 X393.9265 Y2111.7665 Z-1.0000 F2500
G1 X408.3669 Y2111.7665 Z-1.0000 F4000
G1 X393.9265 Y2111.7665 Z-1.0000 F4000
G1 X393.9265 Y2130.0601 Z-1.0000 F4000
G1 X409.0458 Y2130.0601 Z-1.0000 F4000
G1 X393.9265 Y2130.0601 Z-1.0000 F4000
G1 X393.9265 Y2088.9591 Z-1.0000 F4000
G1 X393.9265 Y2088.9591 Z10.0000 F9999
G1 X619.1558 Y2139.4545 Z10.0000 F9999
G1 X619.1558 Y2139.4545 Z-1.0000 F2500
G1 X588.7705 Y2086.6105 Z-1.0000 F4000
G1 X619.1558 Y2139.4545 Z-1.0000 F4000
G1 X619.1558 Y2139.4545 Z10.0000 F9999
G1 X635.7980 Y2130.0601 Z10.0000 F9999
G1 X635.7980 Y2130.0601 Z-1.0000 F2500
G1 X654.0549 Y2088.9591 Z-1.0000 F4000
G1 X672.3118 Y2130.0601 Z-1.0000 F4000
G1 X675.8714 Y2088.9591 Z-1.0000 F4000
G1 X672.3118 Y2130.0601 Z-1.0000 F4000
G1 X654.0549 Y2088.9591 Z-1.0000 F4000
G1 X635.7980 Y2130.0601 Z-1.0000 F4000
G1 X632.2935 Y2088.9591 Z-1.0000 F4000
G1 X632.2935 Y2088.9591 Z10.0000 F9999
(Tool Number:1) (9.530 mm dia. slot drill)
M3 S17444
G1 X534.8989 Y2408.7975 Z10.0000 F9999
G1 X534.8989 Y2408.7975 Z1.0000 F2500
G1 X504.5880 Y2408.7975 Z-9.0000 F2500
G1 X534.8989 Y2408.7975 Z-19.0000 F2500
G1 X9.9000 Y2408.7973 Z-19.0000 F4000
G1 X9.2734 Y2408.7559 Z-19.0000 F4000
G1 X8.6293 Y2408.6247 Z-19.0000 F4000
G1 X7.9867 Y2408.3963 Z-19.0000 F4000
G1 X7.3672 Y2408.0684 Z-19.0000 F4000
G1 X6.7936 Y2407.6455 Z-19.0000 F4000
G1 X6.2868 Y2407.1387 Z-19.0000 F4000
G1 X5.8639 Y2406.5651 Z-19.0000 F4000
G1 X5.5360 Y2405.9456 Z-19.0000 F4000
G1 X5.3076 Y2405.3030 Z-19.0000 F4000
G1 X5.1764 Y2404.6589 Z-19.0000 F4000
G1 X5.1350 Y2404.0323 Z-19.0000 F4000
G1 X5.1351 Y1822.0323 Z-19.0000 F4000
G1 X5.1823 Y1821.3632 Z-19.0000 F4000
G1 X5.3264 Y1820.6957 Z-19.0000 F4000
G1 X5.5666 Y1820.0508 Z-19.0000 F4000
G1 X5.8963 Y1819.4488 Z-19.0000 F4000
G1 X6.3032 Y1818.9070 Z-19.0000 F4000
G1 X6.7748 Y1818.4354 Z-19.0000 F4000
G1 X7.3166 Y1818.0285 Z-19.0000 F4000
G1 X7.9187 Y1817.6988 Z-19.0000 F4000
G1 X8.5636 Y1817.4586 Z-19.0000 F4000
G1 X9.2311 Y1817.3145 Z-19.0000 F4000
G1 X9.9001 Y1817.2673 Z-19.0000 F4000
G1 X56.8474 Y1817.2673 Z-19.0000 F4000
G1 X56.8474 Y1817.2673 Z-13.0000 F9999
G1 X86.3774 Y1817.2673 Z-13.0000 F4000
G1 X86.3774 Y1817.2673 Z-19.0000 F2500
G1 X978.3185 Y1817.2676 Z-19.0000 F4000
G1 X978.3185 Y1817.2676 Z-13.0000 F9999
G1 X1007.8485 Y1817.2676 Z-13.0000 F4000
G1 X1007.8485 Y1817.2676 Z-19.0000 F2500
G1 X1059.8979 Y1817.2677 Z-19.0000 F4000
G1 X1060.5246 Y1817.3090 Z-19.0000 F4000
G1 X1061.1686 Y1817.4402 Z-19.0000 F4000
G1 X1061.8113 Y1817.6687 Z-19.0000 F4000
G1 X1062.4307 Y1817.9965 Z-19.0000 F4000
G1 X1063.0044 Y1818.4194 Z-19.0000 F4000
G1 X1063.5111 Y1818.9262 Z-19.0000 F4000
G1 X1063.9340 Y1819.4999 Z-19.0000 F4000
G1 X1064.2619 Y1820.1193 Z-19.0000 F4000
G1 X1064.4904 Y1820.7619 Z-19.0000 F4000
G1 X1064.6215 Y1821.4060 Z-19.0000 F4000
G1 X1064.6629 Y1822.0327 Z-19.0000 F4000
G1 X1064.6627 Y2404.0328 Z-19.0000 F4000
G1 X1064.6155 Y2404.7018 Z-19.0000 F4000
G1 X1064.4715 Y2405.3693 Z-19.0000 F4000
G1 X1064.2312 Y2406.0142 Z-19.0000 F4000
G1 X1063.9016 Y2406.6163 Z-19.0000 F4000
G1 X1063.4946 Y2407.1581 Z-19.0000 F4000
G1 X1063.0231 Y2407.6297 Z-19.0000 F4000
G1 X1062.4813 Y2408.0366 Z-19.0000 F4000
G1 X1061.8792 Y2408.3663 Z-19.0000 F4000
G1 X1061.2343 Y2408.6065 Z-19.0000 F4000
G1 X1060.5668 Y2408.7506 Z-19.0000 F4000
G1 X1059.8977 Y2408.7978 Z-19.0000 F4000
G1 X534.8989 Y2408.7975 Z-19.0000 F4000
G1 X534.8989 Y2408.7975 Z10.0000 F9999
G1 X534.8989 Y1804.7534 Z10.0000 F9999
G1 X534.8989 Y1804.7534 Z1.0000 F2500
G1 X504.5880 Y1804.7534 Z-9.0000 F2500
G1 X534.8989 Y1804.7534 Z-19.0000 F2500
G1 X9.9000 Y1804.7532 Z-19.0000 F4000
G1 X9.2734 Y1804.7118 Z-19.0000 F4000
G1 X8.6293 Y1804.5806 Z-19.0000 F4000
G1 X7.9867 Y1804.3522 Z-19.0000 F4000
G1 X7.3672 Y1804.0243 Z-19.0000 F4000
G1 X6.7936 Y1803.6014 Z-19.0000 F4000
G1 X6.2868 Y1803.0946 Z-19.0000 F4000
G1 X5.8639 Y1802.5210 Z-19.0000 F4000
G1 X5.5360 Y1801.9015 Z-19.0000 F4000
G1 X5.3076 Y1801.2589 Z-19.0000 F4000
G1 X5.1764 Y1800.6148 Z-19.0000 F4000
G1 X5.1350 Y1799.9882 Z-19.0000 F4000
G1 X5.1351 Y1217.9882 Z-19.0000 F4000
G1 X5.1823 Y1217.3191 Z-19.0000 F4000
G1 X5.3264 Y1216.6516 Z-19.0000 F4000
G1 X5.5666 Y1216.0067 Z-19.0000 F4000
G1 X5.8963 Y1215.4047 Z-19.0000 F4000
G1 X6.3032 Y1214.8629 Z-19.0000 F4000
G1 X6.7748 Y1214.3913 Z-19.0000 F4000
G1 X7.3166 Y1213.9844 Z-19.0000 F4000
G1 X7.9187 Y1213.6547 Z-19.0000 F4000
G1 X8.5636 Y1213.4145 Z-19.0000 F4000
G1 X9.2311 Y1213.2704 Z-19.0000 F4000
G1 X9.9001 Y1213.2232 Z-19.0000 F4000
G1 X27.5122 Y1213.2232 Z-19.0000 F4000
G1 X27.5122 Y1213.2232 Z-13.0000 F9999
G1 X57.0422 Y1213.2232 Z-13.0000 F4000
G1 X57.0422 Y1213.2232 Z-19.0000 F2500
G1 X994.7117 Y1213.2235 Z-19.0000 F4000
G1 X994.7117 Y1213.2235 Z-13.0000 F9999
G1 X1024.2417 Y1213.2235 Z-13.0000 F4000
G1 X1024.2417 Y1213.2235 Z-19.0000 F2500
G1 X1059.8979 Y1213.2236 Z-19.0000 F4000
G1 X1060.5246 Y1213.2649 Z-19.0000 F4000
G1 X1061.1686 Y1213.3961 Z-19.0000 F4000
G1 X1061.8113 Y1213.6246 Z-19.0000 F4000
G1 X1062.4307 Y1213.9524 Z-19.0000 F4000
G1 X1063.0044 Y1214.3753 Z-19.0000 F4000
G1 X1063.5111 Y1214.8821 Z-19.0000 F4000
G1 X1063.9340 Y1215.4558 Z-19.0000 F4000
G1 X1064.2619 Y1216.0752 Z-19.0000 F4000
G1 X1064.4904 Y1216.7179 Z-19.0000 F4000
G1 X1064.6215 Y1217.3619 Z-19.0000 F4000
G1 X1064.6629 Y1217.9886 Z-19.0000 F4000
G1 X1064.6627 Y1799.9887 Z-19.0000 F4000
G1 X1064.6155 Y1800.6577 Z-19.0000 F4000
G1 X1064.4715 Y1801.3252 Z-19.0000 F4000
G1 X1064.2312 Y1801.9701 Z-19.0000 F4000
G1 X1063.9016 Y1802.5722 Z-19.0000 F4000
G1 X1063.4946 Y1803.1140 Z-19.0000 F4000
G1 X1063.0231 Y1803.5856 Z-19.0000 F4000
G1 X1062.4813 Y1803.9925 Z-19.0000 F4000
G1 X1061.8792 Y1804.3222 Z-19.0000 F4000
G1 X1061.2343 Y1804.5624 Z-19.0000 F4000
G1 X1060.5668 Y1804.7065 Z-19.0000 F4000
G1 X1059.8977 Y1804.7537 Z-19.0000 F4000
G1 X534.8989 Y1804.7534 Z-19.0000 F4000
G1 X534.8989 Y1804.7534 Z10.0000 F9999
G1 X534.8989 Y1200.7093 Z10.0000 F9999
G1 X534.8989 Y1200.7093 Z1.0000 F2500
G1 X504.5880 Y1200.7093 Z-9.0000 F2500
G1 X534.8989 Y1200.7093 Z-19.0000 F2500
G1 X9.9000 Y1200.7091 Z-19.0000 F4000
G1 X9.2734 Y1200.6677 Z-19.0000 F4000
G1 X8.6293 Y1200.5365 Z-19.0000 F4000
G1 X7.9867 Y1200.3081 Z-19.0000 F4000
G1 X7.3672 Y1199.9802 Z-19.0000 F4000
G1 X6.7936 Y1199.5573 Z-19.0000 F4000
G1 X6.2868 Y1199.0505 Z-19.0000 F4000
G1 X5.8639 Y1198.4769 Z-19.0000 F4000
G1 X5.5360 Y1197.8574 Z-19.0000 F4000
G1 X5.3076 Y1197.2148 Z-19.0000 F4000
G1 X5.1764 Y1196.5707 Z-19.0000 F4000
G1 X5.1350 Y1195.9441 Z-19.0000 F4000
G1 X5.1351 Y613.9441 Z-19.0000 F4000
G1 X5.1823 Y613.2750 Z-19.0000 F4000
G1 X5.3264 Y612.6075 Z-19.0000 F4000
G1 X5.5666 Y611.9626 Z-19.0000 F4000
G1 X5.8963 Y611.3606 Z-19.0000 F4000
G1 X6.3032 Y610.8188 Z-19.0000 F4000
G1 X6.7748 Y610.3472 Z-19.0000 F4000
G1 X7.3166 Y609.9403 Z-19.0000 F4000
G1 X7.9187 Y609.6106 Z-19.0000 F4000
G1 X8.5636 Y609.3704 Z-19.0000 F4000
G1 X9.2311 Y609.2263 Z-19.0000 F4000
G1 X9.9001 Y609.1791 Z-19.0000 F4000
G1 X37.0030 Y609.1791 Z-19.0000 F4000
G1 X37.0030 Y609.1791 Z-13.0000 F9999
G1 X66.5330 Y609.1791 Z-13.0000 F4000
G1 X66.5330 Y609.1791 Z-19.0000 F2500
G1 X1001.6141 Y609.1794 Z-19.0000 F4000
G1 X1001.6141 Y609.1794 Z-13.0000 F9999
G1 X1031.1441 Y609.1795 Z-13.0000 F4000
G1 X1031.1441 Y609.1795 Z-19.0000 F2500
G1 X1059.8979 Y609.1795 Z-19.0000 F4000
G1 X1060.5246 Y609.2208 Z-19.0000 F4000
G1 X1061.1686 Y609.3520 Z-19.0000 F4000
G1 X1061.8113 Y609.5805 Z-19.0000 F4000
G1 X1062.4307 Y609.9083 Z-19.0000 F4000
G1 X1063.0044 Y610.3312 Z-19.0000 F4000
G1 X1063.5111 Y610.8380 Z-19.0000 F4000
G1 X1063.9340 Y611.4117 Z-19.0000 F4000
G1 X1064.2619 Y612.0311 Z-19.0000 F4000
G1 X1064.4904 Y612.6738 Z-19.0000 F4000
G1 X1064.6215 Y613.3178 Z-19.0000 F4000
G1 X1064.6629 Y613.9445 Z-19.0000 F4000
G1 X1064.6627 Y1195.9446 Z-19.0000 F4000
G1 X1064.6155 Y1196.6136 Z-19.0000 F4000
G1 X1064.4715 Y1197.2811 Z-19.0000 F4000
G1 X1064.2312 Y1197.9260 Z-19.0000 F4000
G1 X1063.9016 Y1198.5281 Z-19.0000 F4000
G1 X1063.4946 Y1199.0699 Z-19.0000 F4000
G1 X1063.0231 Y1199.5415 Z-19.0000 F4000
G1 X1062.4813 Y1199.9484 Z-19.0000 F4000
G1 X1061.8792 Y1200.2781 Z-19.0000 F4000
G1 X1061.2343 Y1200.5183 Z-19.0000 F4000
G1 X1060.5668 Y1200.6624 Z-19.0000 F4000
G1 X1059.8977 Y1200.7096 Z-19.0000 F4000
G1 X534.8989 Y1200.7093 Z-19.0000 F4000
G1 X534.8989 Y1200.7093 Z10.0000 F9999
G1 X534.8990 Y5.1352 Z10.0000 F9999
G1 X534.8990 Y5.1352 Z1.0000 F2500
G1 X565.2099 Y5.1352 Z-9.0000 F2500
G1 X534.8990 Y5.1352 Z-19.0000 F2500
G1 X1059.8979 Y5.1354 Z-19.0000 F4000
G1 X1060.5246 Y5.1768 Z-19.0000 F4000
G1 X1061.1686 Y5.3079 Z-19.0000 F4000
G1 X1061.8113 Y5.5364 Z-19.0000 F4000
G1 X1062.4307 Y5.8643 Z-19.0000 F4000
G1 X1063.0044 Y6.2872 Z-19.0000 F4000
G1 X1063.5111 Y6.7939 Z-19.0000 F4000
G1 X1063.9340 Y7.3676 Z-19.0000 F4000
G1 X1064.2619 Y7.9870 Z-19.0000 F4000
G1 X1064.4904 Y8.6297 Z-19.0000 F4000
G1 X1064.6215 Y9.2737 Z-19.0000 F4000
G1 X1064.6629 Y9.9004 Z-19.0000 F4000
G1 X1064.6627 Y591.9005 Z-19.0000 F4000
G1 X1064.6155 Y592.5696 Z-19.0000 F4000
G1 X1064.4715 Y593.2370 Z-19.0000 F4000
G1 X1064.2312 Y593.8819 Z-19.0000 F4000
G1 X1063.9016 Y594.4840 Z-19.0000 F4000
G1 X1063.4946 Y595.0258 Z-19.0000 F4000
G1 X1063.0231 Y595.4974 Z-19.0000 F4000
G1 X1062.4813 Y595.9043 Z-19.0000 F4000
G1 X1061.8792 Y596.2340 Z-19.0000 F4000
G1 X1061.2343 Y596.4742 Z-19.0000 F4000
G1 X1060.5668 Y596.6183 Z-19.0000 F4000
G1 X1059.8977 Y596.6655 Z-19.0000 F4000
G1 X9.9000 Y596.6650 Z-19.0000 F4000
G1 X9.2734 Y596.6236 Z-19.0000 F4000
G1 X8.6293 Y596.4924 Z-19.0000 F4000
G1 X7.9867 Y596.2640 Z-19.0000 F4000
G1 X7.3672 Y595.9361 Z-19.0000 F4000
G1 X6.7936 Y595.5132 Z-19.0000 F4000
G1 X6.2868 Y595.0064 Z-19.0000 F4000
G1 X5.8639 Y594.4328 Z-19.0000 F4000
G1 X5.5360 Y593.8133 Z-19.0000 F4000
G1 X5.3076 Y593.1707 Z-19.0000 F4000
G1 X5.1764 Y592.5266 Z-19.0000 F4000
G1 X5.1350 Y591.9000 Z-19.0000 F4000
G1 X5.1351 Y9.9000 Z-19.0000 F4000
G1 X5.1823 Y9.2309 Z-19.0000 F4000
G1 X5.3264 Y8.5635 Z-19.0000 F4000
G1 X5.5666 Y7.9185 Z-19.0000 F4000
G1 X5.8963 Y7.3165 Z-19.0000 F4000
G1 X6.3032 Y6.7747 Z-19.0000 F4000
G1 X6.7748 Y6.3031 Z-19.0000 F4000
G1 X7.3166 Y5.8962 Z-19.0000 F4000
G1 X7.9187 Y5.5665 Z-19.0000 F4000
G1 X8.5636 Y5.3263 Z-19.0000 F4000
G1 X9.2311 Y5.1822 Z-19.0000 F4000
G1 X9.9001 Y5.1350 Z-19.0000 F4000
G1 X534.8990 Y5.1352 Z-19.0000 F4000
G1 X534.8990 Y5.1352 Z10.0000 F9999
G1 X1900.0000 Y2800.0000 Z80.0000 F9999
G1 Z80.0000 F9999
G1 X1900.0000 Y2800.0000 F9999
M5
M30
