(plotsheet 2n3_nested_153 sheets_final v1_0_sheet 60 to 62_S60.1_text_CC8 - stepover 1mm)
(Material Size) (X=1220.000, Y=2440.000, Z=21.000)
(LinuxCNC_NoArcs_MM_TC_medium_50um_G1_verbose.con)
G90 G80 G21 G49
G64 P0.050
M6 T1
(Tool Number:1) (7.998 mm dia. slot drill)
G43 H1 G0Z30.0000
M3 S19000
G04 P10
G1 X587.3300 Y670.9480 Z10.0000 F9999
G1 X587.3300 Y670.9480 Z1.0000 F2000
G1 X574.7062 Y670.9480 Z0.5951 F2000
G1 X574.7062 Y697.2953 Z-0.2500 F2000
G1 X574.7062 Y670.9480 Z-1.0951 F2000
G1 X587.3300 Y670.9480 Z-1.5000 F2000
G1 X574.7062 Y670.9480 Z-1.5000 F4000
G1 X574.7062 Y712.0489 Z-1.5000 F4000
G1 X574.7062 Y670.9480 Z-1.5000 F4000
G1 X574.7062 Y670.9480 Z10.0000 F9999
G1 X614.0456 Y712.0489 Z10.0000 F9999
G1 X614.0456 Y712.0489 Z1.0000 F2000
G1 X602.7429 Y696.0856 Z0.3726 F2000
G1 X601.3563 Y694.1237 Z0.2956 F2000
G1 X600.0273 Y692.1223 Z0.2185 F2000
G1 X598.1007 Y684.9113 Z-0.0209 F2000
G1 X599.2016 Y679.4801 Z-0.1986 F2000
G1 X600.0909 Y678.1488 Z-0.2500 F2000
G1 X599.2016 Y679.4801 Z-0.3014 F2000
G1 X598.1007 Y684.9113 Z-0.4791 F2000
G1 X600.0273 Y692.1223 Z-0.7185 F2000
G1 X601.3563 Y694.1237 Z-0.7956 F2000
G1 X602.7429 Y696.0856 Z-0.8726 F2000
G1 X614.0456 Y712.0489 Z-1.5000 F2000
G1 X602.7429 Y696.0856 Z-1.5000 F4000
G1 X601.3563 Y694.1237 Z-1.5000 F4000
G1 X600.0273 Y692.1223 Z-1.5000 F4000
G1 X598.1007 Y684.9113 Z-1.5000 F4000
G1 X599.2016 Y679.4801 Z-1.5000 F4000
G1 X602.1557 Y675.0581 Z-1.5000 F4000
G1 X606.5227 Y672.0489 Z-1.5000 F4000
G1 X611.9172 Y670.9480 Z-1.5000 F4000
G1 X617.3117 Y672.0489 Z-1.5000 F4000
G1 X621.7521 Y675.0581 Z-1.5000 F4000
G1 X624.7429 Y679.4801 Z-1.5000 F4000
G1 X625.8438 Y684.9113 Z-1.5000 F4000
G1 X624.7429 Y690.3241 Z-1.5000 F4000
G1 X621.7521 Y694.7461 Z-1.5000 F4000
G1 X617.3117 Y697.7186 Z-1.5000 F4000
G1 X611.9172 Y698.8195 Z-1.5000 F4000
G1 X604.9998 Y696.9663 Z-1.5000 F4000
G1 X600.0273 Y692.1223 Z-1.5000 F4000
G1 X604.9998 Y696.9663 Z-1.5000 F4000
G1 X611.9172 Y698.8195 Z-1.5000 F4000
G1 X617.3117 Y697.7186 Z-1.5000 F4000
G1 X621.7521 Y694.7461 Z-1.5000 F4000
G1 X624.7429 Y690.3241 Z-1.5000 F4000
G1 X625.8438 Y684.9113 Z-1.5000 F4000
G1 X624.7429 Y679.4801 Z-1.5000 F4000
G1 X621.7521 Y675.0581 Z-1.5000 F4000
G1 X617.3117 Y672.0489 Z-1.5000 F4000
G1 X611.9172 Y670.9480 Z-1.5000 F4000
G1 X606.5227 Y672.0489 Z-1.5000 F4000
G1 X602.1557 Y675.0581 Z-1.5000 F4000
G1 X599.2016 Y679.4801 Z-1.5000 F4000
G1 X598.1007 Y684.9113 Z-1.5000 F4000
G1 X600.0273 Y692.1223 Z-1.5000 F4000
G1 X600.9814 Y693.5718 Z-1.5000 F4000
G1 X607.5135 Y702.8562 Z-1.5000 F4000
G1 X607.5135 Y702.8562 Z10.0000 F9999
G1 X645.0915 Y712.0489 Z10.0000 F9999
G1 X645.0915 Y712.0489 Z1.0000 F2000
G1 X639.2750 Y712.0489 Z0.8134 F2000
G1 X645.0915 Y712.0489 Z0.6269 F2000
G1 X645.0915 Y684.7108 Z-0.2500 F2000
G1 X645.0915 Y712.0489 Z-1.1269 F2000
G1 X639.2750 Y712.0489 Z-1.3134 F2000
G1 X645.0915 Y712.0489 Z-1.5000 F2000
G1 X639.2750 Y712.0489 Z-1.5000 F4000
G1 X645.0915 Y712.0489 Z-1.5000 F4000
G1 X645.0915 Y670.9480 Z-1.5000 F4000
G1 X645.0915 Y670.9480 Z10.0000 F9999
G1 X511.7429 Y1836.1320 Z10.0000 F9999
G1 X511.7429 Y1836.1320 Z1.0000 F2000
G1 X499.1191 Y1836.1320 Z0.5951 F2000
G1 X499.1191 Y1862.4793 Z-0.2500 F2000
G1 X499.1191 Y1836.1320 Z-1.0951 F2000
G1 X511.7429 Y1836.1320 Z-1.5000 F2000
G1 X499.1191 Y1836.1320 Z-1.5000 F4000
G1 X499.1191 Y1877.2330 Z-1.5000 F4000
G1 X499.1191 Y1836.1320 Z-1.5000 F4000
G1 X499.1191 Y1836.1320 Z10.0000 F9999
G1 X544.7154 Y1877.2330 Z10.0000 F9999
G1 X544.7154 Y1877.2330 Z1.0000 F2000
G1 X523.1393 Y1844.7796 Z-0.2500 F2000
G1 X544.7154 Y1877.2330 Z-1.5000 F2000
G1 X522.5136 Y1843.8385 Z-1.5000 F4000
G1 X551.3209 Y1843.8385 Z-1.5000 F4000
G1 X522.5136 Y1843.8385 Z-1.5000 F4000
G1 X544.7154 Y1877.2330 Z-1.5000 F4000
G1 X544.7154 Y1836.1320 Z-1.5000 F4000
G1 X544.7154 Y1836.1320 Z10.0000 F9999
G1 X570.6787 Y1877.2330 Z10.0000 F9999
G1 X570.6787 Y1877.2330 Z1.0000 F2000
G1 X564.8622 Y1877.2330 Z0.8134 F2000
G1 X570.6787 Y1877.2330 Z0.6269 F2000
G1 X570.6787 Y1849.8948 Z-0.2500 F2000
G1 X570.6787 Y1877.2330 Z-1.1269 F2000
G1 X564.8622 Y1877.2330 Z-1.3134 F2000
G1 X570.6787 Y1877.2330 Z-1.5000 F2000
G1 X564.8622 Y1877.2330 Z-1.5000 F4000
G1 X570.6787 Y1877.2330 Z-1.5000 F4000
G1 X570.6787 Y1836.1320 Z-1.5000 F4000
G1 X570.6787 Y1836.1320 Z10.0000 F9999
(Tool Number:1) (7.998 mm dia. slot drill)
M3 S19000
G1 X52.8989 Y184.8997 Z10.0000 F9999
G1 X52.8989 Y184.8997 Z1.0000 F2000
G1 X52.8989 Y223.8708 Z-10.0000 F2000
G1 X52.8989 Y184.8997 Z-21.0000 F2000
G1 X52.8989 Y264.8995 Z-21.0000 F2750
G1 X52.8632 Y265.4331 Z-21.0000 F2750
G1 X52.7506 Y265.9786 Z-21.0000 F2750
G1 X52.5561 Y266.5194 Z-21.0000 F2750
G1 X52.2795 Y267.0375 Z-21.0000 F2750
G1 X51.9256 Y267.5143 Z-21.0000 F2750
G1 X51.5051 Y267.9335 Z-21.0000 F2750
G1 X51.0326 Y268.2824 Z-21.0000 F2750
G1 X50.5256 Y268.5532 Z-21.0000 F2750
G1 X50.0023 Y268.7436 Z-21.0000 F2750
G1 X49.4795 Y268.8563 Z-21.0000 F2750
G1 X48.6900 Y268.9061 Z-21.0000 F2750
G1 X47.8989 Y268.8985 Z-21.0000 F2750
G1 X47.8989 Y270.9005 Z-21.0000 F2750
G1 X85.9008 Y270.9005 Z-21.0000 F2750
G1 X85.9008 Y268.8985 Z-21.0000 F2750
G1 X85.1098 Y268.9061 Z-21.0000 F2750
G1 X84.3203 Y268.8563 Z-21.0000 F2750
G1 X83.7975 Y268.7436 Z-21.0000 F2750
G1 X83.2742 Y268.5532 Z-21.0000 F2750
G1 X82.7672 Y268.2824 Z-21.0000 F2750
G1 X82.2947 Y267.9335 Z-21.0000 F2750
G1 X81.8742 Y267.5143 Z-21.0000 F2750
G1 X81.5204 Y267.0375 Z-21.0000 F2750
G1 X81.2437 Y266.5194 Z-21.0000 F2750
G1 X81.0492 Y265.9786 Z-21.0000 F2750
G1 X80.9366 Y265.4331 Z-21.0000 F2750
G1 X80.9009 Y264.8995 Z-21.0000 F2750
G1 X80.9009 Y193.8996 Z-21.0000 F2750
G1 X80.9489 Y193.2818 Z-21.0000 F2750
G1 X81.0954 Y192.6676 Z-21.0000 F2750
G1 X81.3385 Y192.0806 Z-21.0000 F2750
G1 X81.6692 Y191.5428 Z-21.0000 F2750
G1 X82.0722 Y191.0719 Z-21.0000 F2750
G1 X82.5430 Y190.6690 Z-21.0000 F2750
G1 X83.0809 Y190.3383 Z-21.0000 F2750
G1 X83.6679 Y190.0951 Z-21.0000 F2750
G1 X84.2820 Y189.9487 Z-21.0000 F2750
G1 X84.8999 Y189.9006 Z-21.0000 F2750
G1 X104.8998 Y189.9006 Z-21.0000 F2750
G1 X105.4334 Y189.9364 Z-21.0000 F2750
G1 X105.9789 Y190.0490 Z-21.0000 F2750
G1 X106.5197 Y190.2434 Z-21.0000 F2750
G1 X107.0378 Y190.5201 Z-21.0000 F2750
G1 X107.5146 Y190.8739 Z-21.0000 F2750
G1 X107.9338 Y191.2945 Z-21.0000 F2750
G1 X108.2827 Y191.7670 Z-21.0000 F2750
G1 X108.5535 Y192.2739 Z-21.0000 F2750
G1 X108.7439 Y192.7973 Z-21.0000 F2750
G1 X108.8566 Y193.3201 Z-21.0000 F2750
G1 X108.9065 Y194.1097 Z-21.0000 F2750
G1 X108.8988 Y194.9008 Z-21.0000 F2750
G1 X110.9008 Y194.9008 Z-21.0000 F2750
G1 X110.9008 Y174.8986 Z-21.0000 F2750
G1 X108.8988 Y174.8986 Z-21.0000 F2750
G1 X108.9065 Y175.6897 Z-21.0000 F2750
G1 X108.8566 Y176.4793 Z-21.0000 F2750
G1 X108.7439 Y177.0021 Z-21.0000 F2750
G1 X108.5535 Y177.5255 Z-21.0000 F2750
G1 X108.2827 Y178.0324 Z-21.0000 F2750
G1 X107.9338 Y178.5049 Z-21.0000 F2750
G1 X107.5146 Y178.9254 Z-21.0000 F2750
G1 X107.0378 Y179.2793 Z-21.0000 F2750
G1 X106.5197 Y179.5560 Z-21.0000 F2750
G1 X105.9789 Y179.7504 Z-21.0000 F2750
G1 X105.4334 Y179.8630 Z-21.0000 F2750
G1 X104.8998 Y179.8988 Z-21.0000 F2750
G1 X84.8999 Y179.8988 Z-21.0000 F2750
G1 X84.2820 Y179.8507 Z-21.0000 F2750
G1 X83.6679 Y179.7042 Z-21.0000 F2750
G1 X83.0809 Y179.4611 Z-21.0000 F2750
G1 X82.5430 Y179.1304 Z-21.0000 F2750
G1 X82.0722 Y178.7275 Z-21.0000 F2750
G1 X81.6692 Y178.2566 Z-21.0000 F2750
G1 X81.3385 Y177.7188 Z-21.0000 F2750
G1 X81.0954 Y177.1318 Z-21.0000 F2750
G1 X80.9489 Y176.5176 Z-21.0000 F2750
G1 X80.9009 Y175.8998 Z-21.0000 F2750
G1 X80.9009 Y104.8999 Z-21.0000 F2750
G1 X80.9366 Y104.3663 Z-21.0000 F2750
G1 X81.0492 Y103.8208 Z-21.0000 F2750
G1 X81.2437 Y103.2800 Z-21.0000 F2750
G1 X81.5204 Y102.7619 Z-21.0000 F2750
G1 X81.8742 Y102.2851 Z-21.0000 F2750
G1 X82.2947 Y101.8659 Z-21.0000 F2750
G1 X82.7672 Y101.5170 Z-21.0000 F2750
G1 X83.2742 Y101.2462 Z-21.0000 F2750
G1 X83.7975 Y101.0558 Z-21.0000 F2750
G1 X84.3203 Y100.9431 Z-21.0000 F2750
G1 X85.1098 Y100.8932 Z-21.0000 F2750
G1 X85.9008 Y100.9009 Z-21.0000 F2750
G1 X85.9008 Y98.8989 Z-21.0000 F2750
G1 X47.8989 Y98.8989 Z-21.0000 F2750
G1 X47.8989 Y100.9009 Z-21.0000 F2750
G1 X48.6900 Y100.8932 Z-21.0000 F2750
G1 X49.4795 Y100.9431 Z-21.0000 F2750
G1 X50.0023 Y101.0558 Z-21.0000 F2750
G1 X50.5256 Y101.2462 Z-21.0000 F2750
G1 X51.0326 Y101.5170 Z-21.0000 F2750
G1 X51.5051 Y101.8659 Z-21.0000 F2750
G1 X51.9256 Y102.2851 Z-21.0000 F2750
G1 X52.2795 Y102.7619 Z-21.0000 F2750
G1 X52.5561 Y103.2800 Z-21.0000 F2750
G1 X52.7506 Y103.8208 Z-21.0000 F2750
G1 X52.8632 Y104.3663 Z-21.0000 F2750
G1 X52.8989 Y104.8999 Z-21.0000 F2750
G1 X52.8989 Y184.8997 Z-21.0000 F2750
G1 X52.8989 Y184.8997 Z10.0000 F9999
G1 X52.8989 Y484.8991 Z10.0000 F9999
G1 X52.8989 Y484.8991 Z1.0000 F2000
G1 X52.8989 Y523.8703 Z-10.0000 F2000
G1 X52.8989 Y484.8991 Z-21.0000 F2000
G1 X52.8989 Y564.8990 Z-21.0000 F2750
G1 X52.8632 Y565.4326 Z-21.0000 F2750
G1 X52.7506 Y565.9781 Z-21.0000 F2750
G1 X52.5561 Y566.5189 Z-21.0000 F2750
G1 X52.2795 Y567.0370 Z-21.0000 F2750
G1 X51.9256 Y567.5138 Z-21.0000 F2750
G1 X51.5051 Y567.9330 Z-21.0000 F2750
G1 X51.0326 Y568.2819 Z-21.0000 F2750
G1 X50.5256 Y568.5527 Z-21.0000 F2750
G1 X50.0023 Y568.7431 Z-21.0000 F2750
G1 X49.4795 Y568.8558 Z-21.0000 F2750
G1 X48.6900 Y568.9057 Z-21.0000 F2750
G1 X47.8989 Y568.8980 Z-21.0000 F2750
G1 X47.8989 Y570.8999 Z-21.0000 F2750
G1 X85.9008 Y570.8999 Z-21.0000 F2750
G1 X85.9008 Y568.8980 Z-21.0000 F2750
G1 X85.1098 Y568.9057 Z-21.0000 F2750
G1 X84.3203 Y568.8558 Z-21.0000 F2750
G1 X83.7975 Y568.7431 Z-21.0000 F2750
G1 X83.2742 Y568.5527 Z-21.0000 F2750
G1 X82.7672 Y568.2819 Z-21.0000 F2750
G1 X82.2947 Y567.9330 Z-21.0000 F2750
G1 X81.8742 Y567.5138 Z-21.0000 F2750
G1 X81.5204 Y567.0370 Z-21.0000 F2750
G1 X81.2437 Y566.5189 Z-21.0000 F2750
G1 X81.0492 Y565.9781 Z-21.0000 F2750
G1 X80.9366 Y565.4326 Z-21.0000 F2750
G1 X80.9009 Y564.8990 Z-21.0000 F2750
G1 X80.9009 Y404.8993 Z-21.0000 F2750
G1 X80.9366 Y404.3657 Z-21.0000 F2750
G1 X81.0492 Y403.8202 Z-21.0000 F2750
G1 X81.2437 Y403.2793 Z-21.0000 F2750
G1 X81.5204 Y402.7613 Z-21.0000 F2750
G1 X81.8742 Y402.2845 Z-21.0000 F2750
G1 X82.2947 Y401.8653 Z-21.0000 F2750
G1 X82.7672 Y401.5164 Z-21.0000 F2750
G1 X83.2742 Y401.2456 Z-21.0000 F2750
G1 X83.7975 Y401.0552 Z-21.0000 F2750
G1 X84.3203 Y400.9425 Z-21.0000 F2750
G1 X85.1098 Y400.8926 Z-21.0000 F2750
G1 X85.9008 Y400.9003 Z-21.0000 F2750
G1 X85.9008 Y398.8983 Z-21.0000 F2750
G1 X47.8989 Y398.8983 Z-21.0000 F2750
G1 X47.8989 Y400.9003 Z-21.0000 F2750
G1 X48.6900 Y400.8926 Z-21.0000 F2750
G1 X49.4795 Y400.9425 Z-21.0000 F2750
G1 X50.0023 Y401.0552 Z-21.0000 F2750
G1 X50.5256 Y401.2456 Z-21.0000 F2750
G1 X51.0326 Y401.5164 Z-21.0000 F2750
G1 X51.5051 Y401.8653 Z-21.0000 F2750
G1 X51.9256 Y402.2845 Z-21.0000 F2750
G1 X52.2795 Y402.7613 Z-21.0000 F2750
G1 X52.5561 Y403.2793 Z-21.0000 F2750
G1 X52.7506 Y403.8202 Z-21.0000 F2750
G1 X52.8632 Y404.3657 Z-21.0000 F2750
G1 X52.8989 Y404.8993 Z-21.0000 F2750
G1 X52.8989 Y484.8991 Z-21.0000 F2750
G1 X52.8989 Y484.8991 Z10.0000 F9999
G1 X70.8989 Y784.8985 Z10.0000 F9999
G1 X70.8989 Y784.8985 Z1.0000 F2000
G1 X70.8989 Y823.8696 Z-10.0000 F2000
G1 X70.8989 Y784.8985 Z-21.0000 F2000
G1 X70.8989 Y864.8983 Z-21.0000 F2750
G1 X70.8631 Y865.4319 Z-21.0000 F2750
G1 X70.7505 Y865.9773 Z-21.0000 F2750
G1 X70.5561 Y866.5182 Z-21.0000 F2750
G1 X70.2794 Y867.0363 Z-21.0000 F2750
G1 X69.9256 Y867.5131 Z-21.0000 F2750
G1 X69.5050 Y867.9323 Z-21.0000 F2750
G1 X69.0326 Y868.2811 Z-21.0000 F2750
G1 X68.5256 Y868.5519 Z-21.0000 F2750
G1 X68.0022 Y868.7424 Z-21.0000 F2750
G1 X67.4794 Y868.8551 Z-21.0000 F2750
G1 X66.6899 Y868.9049 Z-21.0000 F2750
G1 X65.8989 Y868.8973 Z-21.0000 F2750
G1 X65.8989 Y870.8993 Z-21.0000 F2750
G1 X85.9008 Y870.8993 Z-21.0000 F2750
G1 X85.9008 Y868.8973 Z-21.0000 F2750
G1 X85.1098 Y868.9049 Z-21.0000 F2750
G1 X84.3203 Y868.8551 Z-21.0000 F2750
G1 X83.7975 Y868.7424 Z-21.0000 F2750
G1 X83.2742 Y868.5519 Z-21.0000 F2750
G1 X82.7672 Y868.2811 Z-21.0000 F2750
G1 X82.2947 Y867.9323 Z-21.0000 F2750
G1 X81.8742 Y867.5131 Z-21.0000 F2750
G1 X81.5204 Y867.0363 Z-21.0000 F2750
G1 X81.2437 Y866.5182 Z-21.0000 F2750
G1 X81.0492 Y865.9773 Z-21.0000 F2750
G1 X80.9366 Y865.4319 Z-21.0000 F2750
G1 X80.9009 Y864.8983 Z-21.0000 F2750
G1 X80.9009 Y793.8984 Z-21.0000 F2750
G1 X80.9431 Y793.3189 Z-21.0000 F2750
G1 X81.0774 Y792.7235 Z-21.0000 F2750
G1 X81.3113 Y792.1338 Z-21.0000 F2750
G1 X81.6454 Y791.5746 Z-21.0000 F2750
G1 X82.0722 Y791.0707 Z-21.0000 F2750
G1 X82.5760 Y790.6439 Z-21.0000 F2750
G1 X83.1352 Y790.3098 Z-21.0000 F2750
G1 X83.7249 Y790.0759 Z-21.0000 F2750
G1 X84.3203 Y789.9416 Z-21.0000 F2750
G1 X84.8999 Y789.8994 Z-21.0000 F2750
G1 X105.8998 Y789.8994 Z-21.0000 F2750
G1 X106.4334 Y789.9352 Z-21.0000 F2750
G1 X106.9789 Y790.0477 Z-21.0000 F2750
G1 X107.5197 Y790.2422 Z-21.0000 F2750
G1 X108.0378 Y790.5189 Z-21.0000 F2750
G1 X108.5146 Y790.8727 Z-21.0000 F2750
G1 X108.9338 Y791.2933 Z-21.0000 F2750
G1 X109.2827 Y791.7657 Z-21.0000 F2750
G1 X109.5535 Y792.2727 Z-21.0000 F2750
G1 X109.7439 Y792.7961 Z-21.0000 F2750
G1 X109.8566 Y793.3189 Z-21.0000 F2750
G1 X109.9065 Y794.1084 Z-21.0000 F2750
G1 X109.8988 Y794.8994 Z-21.0000 F2750
G1 X111.9008 Y794.8994 Z-21.0000 F2750
G1 X111.9008 Y774.8975 Z-21.0000 F2750
G1 X109.8988 Y774.8975 Z-21.0000 F2750
G1 X109.9065 Y775.6886 Z-21.0000 F2750
G1 X109.8566 Y776.4781 Z-21.0000 F2750
G1 X109.7439 Y777.0009 Z-21.0000 F2750
G1 X109.5535 Y777.5242 Z-21.0000 F2750
G1 X109.2827 Y778.0312 Z-21.0000 F2750
G1 X108.9338 Y778.5037 Z-21.0000 F2750
G1 X108.5146 Y778.9242 Z-21.0000 F2750
G1 X108.0378 Y779.2780 Z-21.0000 F2750
G1 X107.5197 Y779.5547 Z-21.0000 F2750
G1 X106.9789 Y779.7492 Z-21.0000 F2750
G1 X106.4334 Y779.8618 Z-21.0000 F2750
G1 X105.8998 Y779.8975 Z-21.0000 F2750
G1 X84.8999 Y779.8975 Z-21.0000 F2750
G1 X84.2820 Y779.8495 Z-21.0000 F2750
G1 X83.6679 Y779.7030 Z-21.0000 F2750
G1 X83.0809 Y779.4599 Z-21.0000 F2750
G1 X82.5430 Y779.1292 Z-21.0000 F2750
G1 X82.0722 Y778.7263 Z-21.0000 F2750
G1 X81.6692 Y778.2554 Z-21.0000 F2750
G1 X81.3385 Y777.7175 Z-21.0000 F2750
G1 X81.0954 Y777.1306 Z-21.0000 F2750
G1 X80.9489 Y776.5164 Z-21.0000 F2750
G1 X80.9009 Y775.8985 Z-21.0000 F2750
G1 X80.9009 Y704.8987 Z-21.0000 F2750
G1 X80.9366 Y704.3650 Z-21.0000 F2750
G1 X81.0492 Y703.8196 Z-21.0000 F2750
G1 X81.2437 Y703.2787 Z-21.0000 F2750
G1 X81.5204 Y702.7607 Z-21.0000 F2750
G1 X81.8742 Y702.2838 Z-21.0000 F2750
G1 X82.2947 Y701.8647 Z-21.0000 F2750
G1 X82.7672 Y701.5158 Z-21.0000 F2750
G1 X83.2742 Y701.2450 Z-21.0000 F2750
G1 X83.7975 Y701.0546 Z-21.0000 F2750
G1 X84.3203 Y700.9419 Z-21.0000 F2750
G1 X85.1098 Y700.8920 Z-21.0000 F2750
G1 X85.9008 Y700.8997 Z-21.0000 F2750
G1 X85.9008 Y698.8977 Z-21.0000 F2750
G1 X65.8989 Y698.8977 Z-21.0000 F2750
G1 X65.8989 Y700.8997 Z-21.0000 F2750
G1 X66.6899 Y700.8920 Z-21.0000 F2750
G1 X67.4794 Y700.9419 Z-21.0000 F2750
G1 X68.0022 Y701.0546 Z-21.0000 F2750
G1 X68.5256 Y701.2450 Z-21.0000 F2750
G1 X69.0326 Y701.5158 Z-21.0000 F2750
G1 X69.5050 Y701.8647 Z-21.0000 F2750
G1 X69.9256 Y702.2838 Z-21.0000 F2750
G1 X70.2794 Y702.7607 Z-21.0000 F2750
G1 X70.5561 Y703.2787 Z-21.0000 F2750
G1 X70.7505 Y703.8196 Z-21.0000 F2750
G1 X70.8631 Y704.3650 Z-21.0000 F2750
G1 X70.8989 Y704.8987 Z-21.0000 F2750
G1 X70.8989 Y784.8985 Z-21.0000 F2750
G1 X70.8989 Y784.8985 Z10.0000 F9999
G1 X80.9009 Y1084.8979 Z10.0000 F9999
G1 X80.9009 Y1084.8979 Z1.0000 F2000
G1 X80.9009 Y1045.9268 Z-10.0000 F2000
G1 X80.9009 Y1084.8979 Z-21.0000 F2000
G1 X80.9009 Y1004.8981 Z-21.0000 F2750
G1 X80.9366 Y1004.3645 Z-21.0000 F2750
G1 X81.0492 Y1003.8191 Z-21.0000 F2750
G1 X81.2437 Y1003.2782 Z-21.0000 F2750
G1 X81.5204 Y1002.7601 Z-21.0000 F2750
G1 X81.8742 Y1002.2833 Z-21.0000 F2750
G1 X82.2947 Y1001.8641 Z-21.0000 F2750
G1 X82.7672 Y1001.5153 Z-21.0000 F2750
G1 X83.2742 Y1001.2445 Z-21.0000 F2750
G1 X83.7975 Y1001.0540 Z-21.0000 F2750
G1 X84.3203 Y1000.9413 Z-21.0000 F2750
G1 X85.1098 Y1000.8915 Z-21.0000 F2750
G1 X85.9008 Y1000.8991 Z-21.0000 F2750
G1 X85.9008 Y998.8970 Z-21.0000 F2750
G1 X65.8989 Y998.8970 Z-21.0000 F2750
G1 X65.8989 Y1000.8991 Z-21.0000 F2750
G1 X66.6899 Y1000.8915 Z-21.0000 F2750
G1 X67.4794 Y1000.9413 Z-21.0000 F2750
G1 X68.0022 Y1001.0540 Z-21.0000 F2750
G1 X68.5256 Y1001.2445 Z-21.0000 F2750
G1 X69.0326 Y1001.5153 Z-21.0000 F2750
G1 X69.5050 Y1001.8641 Z-21.0000 F2750
G1 X69.9256 Y1002.2833 Z-21.0000 F2750
G1 X70.2794 Y1002.7601 Z-21.0000 F2750
G1 X70.5561 Y1003.2782 Z-21.0000 F2750
G1 X70.7505 Y1003.8191 Z-21.0000 F2750
G1 X70.8631 Y1004.3645 Z-21.0000 F2750
G1 X70.8989 Y1004.8981 Z-21.0000 F2750
G1 X70.8989 Y1075.8979 Z-21.0000 F2750
G1 X70.8567 Y1076.4775 Z-21.0000 F2750
G1 X70.7224 Y1077.0729 Z-21.0000 F2750
G1 X70.4885 Y1077.6626 Z-21.0000 F2750
G1 X70.1544 Y1078.2218 Z-21.0000 F2750
G1 X69.7276 Y1078.7256 Z-21.0000 F2750
G1 X69.2237 Y1079.1524 Z-21.0000 F2750
G1 X68.6645 Y1079.4865 Z-21.0000 F2750
G1 X68.0748 Y1079.7204 Z-21.0000 F2750
G1 X67.4794 Y1079.8547 Z-21.0000 F2750
G1 X66.8999 Y1079.8969 Z-21.0000 F2750
G1 X45.8999 Y1079.8969 Z-21.0000 F2750
G1 X45.3663 Y1079.8612 Z-21.0000 F2750
G1 X44.8209 Y1079.7486 Z-21.0000 F2750
G1 X44.2800 Y1079.5541 Z-21.0000 F2750
G1 X43.7620 Y1079.2774 Z-21.0000 F2750
G1 X43.2851 Y1078.9236 Z-21.0000 F2750
G1 X42.8659 Y1078.5031 Z-21.0000 F2750
G1 X42.5171 Y1078.0306 Z-21.0000 F2750
G1 X42.2463 Y1077.5236 Z-21.0000 F2750
G1 X42.0559 Y1077.0003 Z-21.0000 F2750
G1 X41.9432 Y1076.4775 Z-21.0000 F2750
G1 X41.8933 Y1075.6879 Z-21.0000 F2750
G1 X41.9009 Y1074.8969 Z-21.0000 F2750
G1 X39.8989 Y1074.8969 Z-21.0000 F2750
G1 X39.8989 Y1094.8989 Z-21.0000 F2750
G1 X41.9009 Y1094.8989 Z-21.0000 F2750
G1 X41.8933 Y1094.1078 Z-21.0000 F2750
G1 X41.9432 Y1093.3183 Z-21.0000 F2750
G1 X42.0559 Y1092.7955 Z-21.0000 F2750
G1 X42.2463 Y1092.2721 Z-21.0000 F2750
G1 X42.5171 Y1091.7651 Z-21.0000 F2750
G1 X42.8659 Y1091.2926 Z-21.0000 F2750
G1 X43.2851 Y1090.8721 Z-21.0000 F2750
G1 X43.7620 Y1090.5183 Z-21.0000 F2750
G1 X44.2800 Y1090.2416 Z-21.0000 F2750
G1 X44.8209 Y1090.0471 Z-21.0000 F2750
G1 X45.3663 Y1089.9346 Z-21.0000 F2750
G1 X45.8999 Y1089.8988 Z-21.0000 F2750
G1 X66.8999 Y1089.8988 Z-21.0000 F2750
G1 X67.5177 Y1089.9468 Z-21.0000 F2750
G1 X68.1319 Y1090.0933 Z-21.0000 F2750
G1 X68.7189 Y1090.3365 Z-21.0000 F2750
G1 X69.2567 Y1090.6671 Z-21.0000 F2750
G1 X69.7276 Y1091.0701 Z-21.0000 F2750
G1 X70.1305 Y1091.5409 Z-21.0000 F2750
G1 X70.4612 Y1092.0788 Z-21.0000 F2750
G1 X70.7044 Y1092.6658 Z-21.0000 F2750
G1 X70.8509 Y1093.2799 Z-21.0000 F2750
G1 X70.8989 Y1093.8978 Z-21.0000 F2750
G1 X70.8989 Y1164.8977 Z-21.0000 F2750
G1 X70.8631 Y1165.4313 Z-21.0000 F2750
G1 X70.7505 Y1165.9767 Z-21.0000 F2750
G1 X70.5561 Y1166.5176 Z-21.0000 F2750
G1 X70.2794 Y1167.0356 Z-21.0000 F2750
G1 X69.9256 Y1167.5125 Z-21.0000 F2750
G1 X69.5050 Y1167.9317 Z-21.0000 F2750
G1 X69.0326 Y1168.2805 Z-21.0000 F2750
G1 X68.5256 Y1168.5513 Z-21.0000 F2750
G1 X68.0022 Y1168.7418 Z-21.0000 F2750
G1 X67.4794 Y1168.8545 Z-21.0000 F2750
G1 X66.6899 Y1168.9043 Z-21.0000 F2750
G1 X65.8989 Y1168.8967 Z-21.0000 F2750
G1 X65.8989 Y1170.8987 Z-21.0000 F2750
G1 X85.9008 Y1170.8987 Z-21.0000 F2750
G1 X85.9008 Y1168.8967 Z-21.0000 F2750
G1 X85.1098 Y1168.9043 Z-21.0000 F2750
G1 X84.3203 Y1168.8545 Z-21.0000 F2750
G1 X83.7975 Y1168.7418 Z-21.0000 F2750
G1 X83.2742 Y1168.5513 Z-21.0000 F2750
G1 X82.7672 Y1168.2805 Z-21.0000 F2750
G1 X82.2947 Y1167.9317 Z-21.0000 F2750
G1 X81.8742 Y1167.5125 Z-21.0000 F2750
G1 X81.5204 Y1167.0356 Z-21.0000 F2750
G1 X81.2437 Y1166.5176 Z-21.0000 F2750
G1 X81.0492 Y1165.9767 Z-21.0000 F2750
G1 X80.9366 Y1165.4313 Z-21.0000 F2750
G1 X80.9009 Y1164.8977 Z-21.0000 F2750
G1 X80.9009 Y1084.8979 Z-21.0000 F2750
G1 X80.9009 Y1084.8979 Z10.0000 F9999
G1 X609.8988 Y779.8975 Z10.0000 F9999
G1 X609.8988 Y779.8975 Z1.0000 F2000
G1 X570.9276 Y779.8975 Z-10.0000 F2000
G1 X609.8988 Y779.8975 Z-21.0000 F2000
G1 X568.8978 Y779.8975 Z-21.0000 F2750
G1 X568.8978 Y781.8994 Z-21.0000 F2750
G1 X569.6889 Y781.8918 Z-21.0000 F2750
G1 X570.4784 Y781.9416 Z-21.0000 F2750
G1 X571.0012 Y782.0543 Z-21.0000 F2750
G1 X571.5245 Y782.2448 Z-21.0000 F2750
G1 X572.0315 Y782.5156 Z-21.0000 F2750
G1 X572.5040 Y782.8644 Z-21.0000 F2750
G1 X572.9245 Y783.2836 Z-21.0000 F2750
G1 X573.2784 Y783.7604 Z-21.0000 F2750
G1 X573.5550 Y784.2785 Z-21.0000 F2750
G1 X573.7495 Y784.8194 Z-21.0000 F2750
G1 X573.8621 Y785.3648 Z-21.0000 F2750
G1 X573.8978 Y785.8984 Z-21.0000 F2750
G1 X573.8978 Y794.8994 Z-21.0000 F2750
G1 X575.8998 Y794.8994 Z-21.0000 F2750
G1 X575.8922 Y794.1084 Z-21.0000 F2750
G1 X575.9421 Y793.3189 Z-21.0000 F2750
G1 X576.0548 Y792.7961 Z-21.0000 F2750
G1 X576.2452 Y792.2727 Z-21.0000 F2750
G1 X576.5160 Y791.7657 Z-21.0000 F2750
G1 X576.8648 Y791.2933 Z-21.0000 F2750
G1 X577.2840 Y790.8727 Z-21.0000 F2750
G1 X577.7609 Y790.5189 Z-21.0000 F2750
G1 X578.2789 Y790.2422 Z-21.0000 F2750
G1 X578.8198 Y790.0477 Z-21.0000 F2750
G1 X579.3652 Y789.9352 Z-21.0000 F2750
G1 X579.8988 Y789.8994 Z-21.0000 F2750
G1 X639.8987 Y789.8994 Z-21.0000 F2750
G1 X640.4323 Y789.9352 Z-21.0000 F2750
G1 X640.9778 Y790.0477 Z-21.0000 F2750
G1 X641.5186 Y790.2422 Z-21.0000 F2750
G1 X642.0367 Y790.5189 Z-21.0000 F2750
G1 X642.5135 Y790.8727 Z-21.0000 F2750
G1 X642.9327 Y791.2933 Z-21.0000 F2750
G1 X643.2816 Y791.7657 Z-21.0000 F2750
G1 X643.5524 Y792.2727 Z-21.0000 F2750
G1 X643.7428 Y792.7961 Z-21.0000 F2750
G1 X643.8555 Y793.3189 Z-21.0000 F2750
G1 X643.9054 Y794.1084 Z-21.0000 F2750
G1 X643.8977 Y794.8994 Z-21.0000 F2750
G1 X645.8997 Y794.8994 Z-21.0000 F2750
G1 X645.8997 Y785.8984 Z-21.0000 F2750
G1 X645.9355 Y785.3648 Z-21.0000 F2750
G1 X646.0480 Y784.8194 Z-21.0000 F2750
G1 X646.2425 Y784.2785 Z-21.0000 F2750
G1 X646.5192 Y783.7604 Z-21.0000 F2750
G1 X646.8730 Y783.2836 Z-21.0000 F2750
G1 X647.2936 Y782.8644 Z-21.0000 F2750
G1 X647.7660 Y782.5156 Z-21.0000 F2750
G1 X648.2730 Y782.2448 Z-21.0000 F2750
G1 X648.7964 Y782.0543 Z-21.0000 F2750
G1 X649.3192 Y781.9416 Z-21.0000 F2750
G1 X650.1087 Y781.8918 Z-21.0000 F2750
G1 X650.8997 Y781.8994 Z-21.0000 F2750
G1 X650.8997 Y779.8975 Z-21.0000 F2750
G1 X609.8988 Y779.8975 Z-21.0000 F2750
G1 X609.8988 Y779.8975 Z10.0000 F9999
G1 X1148.8987 Y784.8985 Z10.0000 F9999
G1 X1148.8987 Y784.8985 Z1.0000 F2000
G1 X1148.8987 Y745.9273 Z-10.0000 F2000
G1 X1148.8987 Y784.8985 Z-21.0000 F2000
G1 X1148.8987 Y704.8987 Z-21.0000 F2750
G1 X1148.9344 Y704.3650 Z-21.0000 F2750
G1 X1149.0470 Y703.8196 Z-21.0000 F2750
G1 X1149.2415 Y703.2787 Z-21.0000 F2750
G1 X1149.5182 Y702.7607 Z-21.0000 F2750
G1 X1149.8720 Y702.2838 Z-21.0000 F2750
G1 X1150.2925 Y701.8647 Z-21.0000 F2750
G1 X1150.7650 Y701.5158 Z-21.0000 F2750
G1 X1151.2720 Y701.2450 Z-21.0000 F2750
G1 X1151.7954 Y701.0546 Z-21.0000 F2750
G1 X1152.3181 Y700.9419 Z-21.0000 F2750
G1 X1153.1076 Y700.8920 Z-21.0000 F2750
G1 X1153.8987 Y700.8997 Z-21.0000 F2750
G1 X1153.8987 Y698.8977 Z-21.0000 F2750
G1 X1133.8967 Y698.8977 Z-21.0000 F2750
G1 X1133.8967 Y700.8997 Z-21.0000 F2750
G1 X1134.6877 Y700.8920 Z-21.0000 F2750
G1 X1135.4772 Y700.9419 Z-21.0000 F2750
G1 X1136.0000 Y701.0546 Z-21.0000 F2750
G1 X1136.5234 Y701.2450 Z-21.0000 F2750
G1 X1137.0304 Y701.5158 Z-21.0000 F2750
G1 X1137.5028 Y701.8647 Z-21.0000 F2750
G1 X1137.9234 Y702.2838 Z-21.0000 F2750
G1 X1138.2772 Y702.7607 Z-21.0000 F2750
G1 X1138.5539 Y703.2787 Z-21.0000 F2750
G1 X1138.7483 Y703.8196 Z-21.0000 F2750
G1 X1138.8609 Y704.3650 Z-21.0000 F2750
G1 X1138.8967 Y704.8987 Z-21.0000 F2750
G1 X1138.8967 Y775.8985 Z-21.0000 F2750
G1 X1138.8545 Y776.4781 Z-21.0000 F2750
G1 X1138.7202 Y777.0735 Z-21.0000 F2750
G1 X1138.4863 Y777.6632 Z-21.0000 F2750
G1 X1138.1522 Y778.2224 Z-21.0000 F2750
G1 X1137.7254 Y778.7263 Z-21.0000 F2750
G1 X1137.2215 Y779.1530 Z-21.0000 F2750
G1 X1136.6623 Y779.4871 Z-21.0000 F2750
G1 X1136.0726 Y779.7210 Z-21.0000 F2750
G1 X1135.4772 Y779.8553 Z-21.0000 F2750
G1 X1134.8977 Y779.8975 Z-21.0000 F2750
G1 X1113.8977 Y779.8975 Z-21.0000 F2750
G1 X1113.3641 Y779.8618 Z-21.0000 F2750
G1 X1112.8186 Y779.7492 Z-21.0000 F2750
G1 X1112.2778 Y779.5547 Z-21.0000 F2750
G1 X1111.7597 Y779.2780 Z-21.0000 F2750
G1 X1111.2829 Y778.9242 Z-21.0000 F2750
G1 X1110.8637 Y778.5037 Z-21.0000 F2750
G1 X1110.5148 Y778.0312 Z-21.0000 F2750
G1 X1110.2440 Y777.5242 Z-21.0000 F2750
G1 X1110.0536 Y777.0009 Z-21.0000 F2750
G1 X1109.9409 Y776.4781 Z-21.0000 F2750
G1 X1109.8910 Y775.6886 Z-21.0000 F2750
G1 X1109.8987 Y774.8975 Z-21.0000 F2750
G1 X1107.8968 Y774.8975 Z-21.0000 F2750
G1 X1107.8968 Y794.8994 Z-21.0000 F2750
G1 X1109.8987 Y794.8994 Z-21.0000 F2750
G1 X1109.8910 Y794.1084 Z-21.0000 F2750
G1 X1109.9409 Y793.3189 Z-21.0000 F2750
G1 X1110.0536 Y792.7961 Z-21.0000 F2750
G1 X1110.2440 Y792.2727 Z-21.0000 F2750
G1 X1110.5148 Y791.7657 Z-21.0000 F2750
G1 X1110.8637 Y791.2933 Z-21.0000 F2750
G1 X1111.2829 Y790.8727 Z-21.0000 F2750
G1 X1111.7597 Y790.5189 Z-21.0000 F2750
G1 X1112.2778 Y790.2422 Z-21.0000 F2750
G1 X1112.8186 Y790.0477 Z-21.0000 F2750
G1 X1113.3641 Y789.9352 Z-21.0000 F2750
G1 X1113.8977 Y789.8994 Z-21.0000 F2750
G1 X1134.8977 Y789.8994 Z-21.0000 F2750
G1 X1135.4772 Y789.9416 Z-21.0000 F2750
G1 X1136.0726 Y790.0759 Z-21.0000 F2750
G1 X1136.6623 Y790.3098 Z-21.0000 F2750
G1 X1137.2215 Y790.6439 Z-21.0000 F2750
G1 X1137.7254 Y791.0707 Z-21.0000 F2750
G1 X1138.1522 Y791.5746 Z-21.0000 F2750
G1 X1138.4863 Y792.1338 Z-21.0000 F2750
G1 X1138.7202 Y792.7235 Z-21.0000 F2750
G1 X1138.8545 Y793.3189 Z-21.0000 F2750
G1 X1138.8967 Y793.8984 Z-21.0000 F2750
G1 X1138.8967 Y864.8983 Z-21.0000 F2750
G1 X1138.8609 Y865.4319 Z-21.0000 F2750
G1 X1138.7483 Y865.9773 Z-21.0000 F2750
G1 X1138.5539 Y866.5182 Z-21.0000 F2750
G1 X1138.2772 Y867.0363 Z-21.0000 F2750
G1 X1137.9234 Y867.5131 Z-21.0000 F2750
G1 X1137.5028 Y867.9323 Z-21.0000 F2750
G1 X1137.0304 Y868.2811 Z-21.0000 F2750
G1 X1136.5234 Y868.5519 Z-21.0000 F2750
G1 X1136.0000 Y868.7424 Z-21.0000 F2750
G1 X1135.4772 Y868.8551 Z-21.0000 F2750
G1 X1134.6877 Y868.9049 Z-21.0000 F2750
G1 X1133.8967 Y868.8973 Z-21.0000 F2750
G1 X1133.8967 Y870.8993 Z-21.0000 F2750
G1 X1153.8987 Y870.8993 Z-21.0000 F2750
G1 X1153.8987 Y868.8973 Z-21.0000 F2750
G1 X1153.1076 Y868.9049 Z-21.0000 F2750
G1 X1152.3181 Y868.8551 Z-21.0000 F2750
G1 X1151.7954 Y868.7424 Z-21.0000 F2750
G1 X1151.2720 Y868.5519 Z-21.0000 F2750
G1 X1150.7650 Y868.2811 Z-21.0000 F2750
G1 X1150.2925 Y867.9323 Z-21.0000 F2750
G1 X1149.8720 Y867.5131 Z-21.0000 F2750
G1 X1149.5182 Y867.0363 Z-21.0000 F2750
G1 X1149.2415 Y866.5182 Z-21.0000 F2750
G1 X1149.0470 Y865.9773 Z-21.0000 F2750
G1 X1148.9344 Y865.4319 Z-21.0000 F2750
G1 X1148.8987 Y864.8983 Z-21.0000 F2750
G1 X1148.8987 Y784.8985 Z-21.0000 F2750
G1 X1148.8987 Y784.8985 Z10.0000 F9999
G1 X1138.8967 Y1084.8979 Z10.0000 F9999
G1 X1138.8967 Y1084.8979 Z1.0000 F2000
G1 X1138.8967 Y1123.8690 Z-10.0000 F2000
G1 X1138.8967 Y1084.8979 Z-21.0000 F2000
G1 X1138.8967 Y1164.8977 Z-21.0000 F2750
G1 X1138.8609 Y1165.4313 Z-21.0000 F2750
G1 X1138.7483 Y1165.9767 Z-21.0000 F2750
G1 X1138.5539 Y1166.5176 Z-21.0000 F2750
G1 X1138.2772 Y1167.0356 Z-21.0000 F2750
G1 X1137.9234 Y1167.5125 Z-21.0000 F2750
G1 X1137.5028 Y1167.9317 Z-21.0000 F2750
G1 X1137.0304 Y1168.2805 Z-21.0000 F2750
G1 X1136.5234 Y1168.5513 Z-21.0000 F2750
G1 X1136.0000 Y1168.7418 Z-21.0000 F2750
G1 X1135.4772 Y1168.8545 Z-21.0000 F2750
G1 X1134.6877 Y1168.9043 Z-21.0000 F2750
G1 X1133.8967 Y1168.8967 Z-21.0000 F2750
G1 X1133.8967 Y1170.8987 Z-21.0000 F2750
G1 X1153.8987 Y1170.8987 Z-21.0000 F2750
G1 X1153.8987 Y1168.8967 Z-21.0000 F2750
G1 X1153.1076 Y1168.9043 Z-21.0000 F2750
G1 X1152.3181 Y1168.8545 Z-21.0000 F2750
G1 X1151.7954 Y1168.7418 Z-21.0000 F2750
G1 X1151.2720 Y1168.5513 Z-21.0000 F2750
G1 X1150.7650 Y1168.2805 Z-21.0000 F2750
G1 X1150.2925 Y1167.9317 Z-21.0000 F2750
G1 X1149.8720 Y1167.5125 Z-21.0000 F2750
G1 X1149.5182 Y1167.0356 Z-21.0000 F2750
G1 X1149.2415 Y1166.5176 Z-21.0000 F2750
G1 X1149.0470 Y1165.9767 Z-21.0000 F2750
G1 X1148.9344 Y1165.4313 Z-21.0000 F2750
G1 X1148.8987 Y1164.8977 Z-21.0000 F2750
G1 X1148.8987 Y1093.8978 Z-21.0000 F2750
G1 X1148.9409 Y1093.3183 Z-21.0000 F2750
G1 X1149.0752 Y1092.7228 Z-21.0000 F2750
G1 X1149.3091 Y1092.1332 Z-21.0000 F2750
G1 X1149.6432 Y1091.5739 Z-21.0000 F2750
G1 X1150.0700 Y1091.0701 Z-21.0000 F2750
G1 X1150.5738 Y1090.6433 Z-21.0000 F2750
G1 X1151.1331 Y1090.3092 Z-21.0000 F2750
G1 X1151.7227 Y1090.0753 Z-21.0000 F2750
G1 X1152.3181 Y1089.9410 Z-21.0000 F2750
G1 X1152.8977 Y1089.8988 Z-21.0000 F2750
G1 X1173.8977 Y1089.8988 Z-21.0000 F2750
G1 X1174.4313 Y1089.9346 Z-21.0000 F2750
G1 X1174.9767 Y1090.0471 Z-21.0000 F2750
G1 X1175.5176 Y1090.2416 Z-21.0000 F2750
G1 X1176.0356 Y1090.5183 Z-21.0000 F2750
G1 X1176.5125 Y1090.8721 Z-21.0000 F2750
G1 X1176.9317 Y1091.2926 Z-21.0000 F2750
G1 X1177.2805 Y1091.7651 Z-21.0000 F2750
G1 X1177.5513 Y1092.2721 Z-21.0000 F2750
G1 X1177.7418 Y1092.7955 Z-21.0000 F2750
G1 X1177.8545 Y1093.3183 Z-21.0000 F2750
G1 X1177.9043 Y1094.1078 Z-21.0000 F2750
G1 X1177.8967 Y1094.8989 Z-21.0000 F2750
G1 X1179.8986 Y1094.8989 Z-21.0000 F2750
G1 X1179.8986 Y1074.8969 Z-21.0000 F2750
G1 X1177.8967 Y1074.8969 Z-21.0000 F2750
G1 X1177.9043 Y1075.6879 Z-21.0000 F2750
G1 X1177.8545 Y1076.4775 Z-21.0000 F2750
G1 X1177.7418 Y1077.0003 Z-21.0000 F2750
G1 X1177.5513 Y1077.5236 Z-21.0000 F2750
G1 X1177.2805 Y1078.0306 Z-21.0000 F2750
G1 X1176.9317 Y1078.5031 Z-21.0000 F2750
G1 X1176.5125 Y1078.9236 Z-21.0000 F2750
G1 X1176.0356 Y1079.2774 Z-21.0000 F2750
G1 X1175.5176 Y1079.5541 Z-21.0000 F2750
G1 X1174.9767 Y1079.7486 Z-21.0000 F2750
G1 X1174.4313 Y1079.8612 Z-21.0000 F2750
G1 X1173.8977 Y1079.8969 Z-21.0000 F2750
G1 X1152.8977 Y1079.8969 Z-21.0000 F2750
G1 X1152.3181 Y1079.8547 Z-21.0000 F2750
G1 X1151.7227 Y1079.7204 Z-21.0000 F2750
G1 X1151.1331 Y1079.4865 Z-21.0000 F2750
G1 X1150.5738 Y1079.1524 Z-21.0000 F2750
G1 X1150.0700 Y1078.7256 Z-21.0000 F2750
G1 X1149.6432 Y1078.2218 Z-21.0000 F2750
G1 X1149.3091 Y1077.6626 Z-21.0000 F2750
G1 X1149.0752 Y1077.0729 Z-21.0000 F2750
G1 X1148.9409 Y1076.4775 Z-21.0000 F2750
G1 X1148.8987 Y1075.8979 Z-21.0000 F2750
G1 X1148.8987 Y1004.8981 Z-21.0000 F2750
G1 X1148.9344 Y1004.3645 Z-21.0000 F2750
G1 X1149.0470 Y1003.8191 Z-21.0000 F2750
G1 X1149.2415 Y1003.2782 Z-21.0000 F2750
G1 X1149.5182 Y1002.7601 Z-21.0000 F2750
G1 X1149.8720 Y1002.2833 Z-21.0000 F2750
G1 X1150.2925 Y1001.8641 Z-21.0000 F2750
G1 X1150.7650 Y1001.5153 Z-21.0000 F2750
G1 X1151.2720 Y1001.2445 Z-21.0000 F2750
G1 X1151.7954 Y1001.0540 Z-21.0000 F2750
G1 X1152.3181 Y1000.9413 Z-21.0000 F2750
G1 X1153.1076 Y1000.8915 Z-21.0000 F2750
G1 X1153.8987 Y1000.8991 Z-21.0000 F2750
G1 X1153.8987 Y998.8970 Z-21.0000 F2750
G1 X1133.8967 Y998.8970 Z-21.0000 F2750
G1 X1133.8967 Y1000.8991 Z-21.0000 F2750
G1 X1134.6877 Y1000.8915 Z-21.0000 F2750
G1 X1135.4772 Y1000.9413 Z-21.0000 F2750
G1 X1136.0000 Y1001.0540 Z-21.0000 F2750
G1 X1136.5234 Y1001.2445 Z-21.0000 F2750
G1 X1137.0304 Y1001.5153 Z-21.0000 F2750
G1 X1137.5028 Y1001.8641 Z-21.0000 F2750
G1 X1137.9234 Y1002.2833 Z-21.0000 F2750
G1 X1138.2772 Y1002.7601 Z-21.0000 F2750
G1 X1138.5539 Y1003.2782 Z-21.0000 F2750
G1 X1138.7483 Y1003.8191 Z-21.0000 F2750
G1 X1138.8609 Y1004.3645 Z-21.0000 F2750
G1 X1138.8967 Y1004.8981 Z-21.0000 F2750
G1 X1138.8967 Y1084.8979 Z-21.0000 F2750
G1 X1138.8967 Y1084.8979 Z10.0000 F9999
G1 X1166.8987 Y484.8991 Z10.0000 F9999
G1 X1166.8987 Y484.8991 Z1.0000 F2000
G1 X1166.8987 Y445.9280 Z-10.0000 F2000
G1 X1166.8987 Y484.8991 Z-21.0000 F2000
G1 X1166.8987 Y404.8993 Z-21.0000 F2750
G1 X1166.9344 Y404.3657 Z-21.0000 F2750
G1 X1167.0470 Y403.8202 Z-21.0000 F2750
G1 X1167.2415 Y403.2793 Z-21.0000 F2750
G1 X1167.5182 Y402.7613 Z-21.0000 F2750
G1 X1167.8720 Y402.2845 Z-21.0000 F2750
G1 X1168.2925 Y401.8653 Z-21.0000 F2750
G1 X1168.7650 Y401.5164 Z-21.0000 F2750
G1 X1169.2720 Y401.2456 Z-21.0000 F2750
G1 X1169.7954 Y401.0552 Z-21.0000 F2750
G1 X1170.3181 Y400.9425 Z-21.0000 F2750
G1 X1171.1076 Y400.8926 Z-21.0000 F2750
G1 X1171.8986 Y400.9003 Z-21.0000 F2750
G1 X1171.8986 Y398.8983 Z-21.0000 F2750
G1 X1133.8967 Y398.8983 Z-21.0000 F2750
G1 X1133.8967 Y400.9003 Z-21.0000 F2750
G1 X1134.6877 Y400.8926 Z-21.0000 F2750
G1 X1135.4772 Y400.9425 Z-21.0000 F2750
G1 X1136.0000 Y401.0552 Z-21.0000 F2750
G1 X1136.5234 Y401.2456 Z-21.0000 F2750
G1 X1137.0304 Y401.5164 Z-21.0000 F2750
G1 X1137.5028 Y401.8653 Z-21.0000 F2750
G1 X1137.9234 Y402.2845 Z-21.0000 F2750
G1 X1138.2772 Y402.7613 Z-21.0000 F2750
G1 X1138.5539 Y403.2793 Z-21.0000 F2750
G1 X1138.7483 Y403.8202 Z-21.0000 F2750
G1 X1138.8609 Y404.3657 Z-21.0000 F2750
G1 X1138.8967 Y404.8993 Z-21.0000 F2750
G1 X1138.8967 Y564.8990 Z-21.0000 F2750
G1 X1138.8609 Y565.4326 Z-21.0000 F2750
G1 X1138.7483 Y565.9781 Z-21.0000 F2750
G1 X1138.5539 Y566.5189 Z-21.0000 F2750
G1 X1138.2772 Y567.0370 Z-21.0000 F2750
G1 X1137.9234 Y567.5138 Z-21.0000 F2750
G1 X1137.5028 Y567.9330 Z-21.0000 F2750
G1 X1137.0304 Y568.2819 Z-21.0000 F2750
G1 X1136.5234 Y568.5527 Z-21.0000 F2750
G1 X1136.0000 Y568.7431 Z-21.0000 F2750
G1 X1135.4772 Y568.8558 Z-21.0000 F2750
G1 X1134.6877 Y568.9057 Z-21.0000 F2750
G1 X1133.8967 Y568.8980 Z-21.0000 F2750
G1 X1133.8967 Y570.8999 Z-21.0000 F2750
G1 X1171.8986 Y570.8999 Z-21.0000 F2750
G1 X1171.8986 Y568.8980 Z-21.0000 F2750
G1 X1171.1076 Y568.9057 Z-21.0000 F2750
G1 X1170.3181 Y568.8558 Z-21.0000 F2750
G1 X1169.7954 Y568.7431 Z-21.0000 F2750
G1 X1169.2720 Y568.5527 Z-21.0000 F2750
G1 X1168.7650 Y568.2819 Z-21.0000 F2750
G1 X1168.2925 Y567.9330 Z-21.0000 F2750
G1 X1167.8720 Y567.5138 Z-21.0000 F2750
G1 X1167.5182 Y567.0370 Z-21.0000 F2750
G1 X1167.2415 Y566.5189 Z-21.0000 F2750
G1 X1167.0470 Y565.9781 Z-21.0000 F2750
G1 X1166.9344 Y565.4326 Z-21.0000 F2750
G1 X1166.8987 Y564.8990 Z-21.0000 F2750
G1 X1166.8987 Y484.8991 Z-21.0000 F2750
G1 X1166.8987 Y484.8991 Z10.0000 F9999
G1 X1166.8987 Y184.8997 Z10.0000 F9999
G1 X1166.8987 Y184.8997 Z1.0000 F2000
G1 X1166.8987 Y145.9286 Z-10.0000 F2000
G1 X1166.8987 Y184.8997 Z-21.0000 F2000
G1 X1166.8987 Y104.8999 Z-21.0000 F2750
G1 X1166.9344 Y104.3663 Z-21.0000 F2750
G1 X1167.0470 Y103.8208 Z-21.0000 F2750
G1 X1167.2415 Y103.2800 Z-21.0000 F2750
G1 X1167.5182 Y102.7619 Z-21.0000 F2750
G1 X1167.8720 Y102.2851 Z-21.0000 F2750
G1 X1168.2925 Y101.8659 Z-21.0000 F2750
G1 X1168.7650 Y101.5170 Z-21.0000 F2750
G1 X1169.2720 Y101.2462 Z-21.0000 F2750
G1 X1169.7954 Y101.0558 Z-21.0000 F2750
G1 X1170.3181 Y100.9431 Z-21.0000 F2750
G1 X1171.1076 Y100.8932 Z-21.0000 F2750
G1 X1171.8986 Y100.9009 Z-21.0000 F2750
G1 X1171.8986 Y98.8989 Z-21.0000 F2750
G1 X1133.8967 Y98.8989 Z-21.0000 F2750
G1 X1133.8967 Y100.9009 Z-21.0000 F2750
G1 X1134.6877 Y100.8932 Z-21.0000 F2750
G1 X1135.4772 Y100.9431 Z-21.0000 F2750
G1 X1136.0000 Y101.0558 Z-21.0000 F2750
G1 X1136.5234 Y101.2462 Z-21.0000 F2750
G1 X1137.0304 Y101.5170 Z-21.0000 F2750
G1 X1137.5028 Y101.8659 Z-21.0000 F2750
G1 X1137.9234 Y102.2851 Z-21.0000 F2750
G1 X1138.2772 Y102.7619 Z-21.0000 F2750
G1 X1138.5539 Y103.2800 Z-21.0000 F2750
G1 X1138.7483 Y103.8208 Z-21.0000 F2750
G1 X1138.8609 Y104.3663 Z-21.0000 F2750
G1 X1138.8967 Y104.8999 Z-21.0000 F2750
G1 X1138.8967 Y175.8998 Z-21.0000 F2750
G1 X1138.8487 Y176.5176 Z-21.0000 F2750
G1 X1138.7022 Y177.1318 Z-21.0000 F2750
G1 X1138.4590 Y177.7188 Z-21.0000 F2750
G1 X1138.1283 Y178.2566 Z-21.0000 F2750
G1 X1137.7254 Y178.7275 Z-21.0000 F2750
G1 X1137.2545 Y179.1304 Z-21.0000 F2750
G1 X1136.7167 Y179.4611 Z-21.0000 F2750
G1 X1136.1297 Y179.7042 Z-21.0000 F2750
G1 X1135.5156 Y179.8507 Z-21.0000 F2750
G1 X1134.8977 Y179.8988 Z-21.0000 F2750
G1 X1114.8978 Y179.8988 Z-21.0000 F2750
G1 X1114.3642 Y179.8630 Z-21.0000 F2750
G1 X1113.8188 Y179.7504 Z-21.0000 F2750
G1 X1113.2779 Y179.5560 Z-21.0000 F2750
G1 X1112.7598 Y179.2793 Z-21.0000 F2750
G1 X1112.2830 Y178.9254 Z-21.0000 F2750
G1 X1111.8638 Y178.5049 Z-21.0000 F2750
G1 X1111.5150 Y178.0324 Z-21.0000 F2750
G1 X1111.2442 Y177.5255 Z-21.0000 F2750
G1 X1111.0537 Y177.0021 Z-21.0000 F2750
G1 X1110.9410 Y176.4793 Z-21.0000 F2750
G1 X1110.8912 Y175.6897 Z-21.0000 F2750
G1 X1110.8988 Y174.8986 Z-21.0000 F2750
G1 X1108.8968 Y174.8986 Z-21.0000 F2750
G1 X1108.8968 Y194.9008 Z-21.0000 F2750
G1 X1110.8988 Y194.9008 Z-21.0000 F2750
G1 X1110.8912 Y194.1097 Z-21.0000 F2750
G1 X1110.9410 Y193.3201 Z-21.0000 F2750
G1 X1111.0537 Y192.7973 Z-21.0000 F2750
G1 X1111.2442 Y192.2739 Z-21.0000 F2750
G1 X1111.5150 Y191.7670 Z-21.0000 F2750
G1 X1111.8638 Y191.2945 Z-21.0000 F2750
G1 X1112.2830 Y190.8739 Z-21.0000 F2750
G1 X1112.7598 Y190.5201 Z-21.0000 F2750
G1 X1113.2779 Y190.2434 Z-21.0000 F2750
G1 X1113.8188 Y190.0490 Z-21.0000 F2750
G1 X1114.3642 Y189.9364 Z-21.0000 F2750
G1 X1114.8978 Y189.9006 Z-21.0000 F2750
G1 X1134.8977 Y189.9006 Z-21.0000 F2750
G1 X1135.4772 Y189.9428 Z-21.0000 F2750
G1 X1136.0726 Y190.0771 Z-21.0000 F2750
G1 X1136.6623 Y190.3110 Z-21.0000 F2750
G1 X1137.2215 Y190.6451 Z-21.0000 F2750
G1 X1137.7254 Y191.0719 Z-21.0000 F2750
G1 X1138.1522 Y191.5758 Z-21.0000 F2750
G1 X1138.4863 Y192.1350 Z-21.0000 F2750
G1 X1138.7202 Y192.7247 Z-21.0000 F2750
G1 X1138.8545 Y193.3201 Z-21.0000 F2750
G1 X1138.8967 Y193.8996 Z-21.0000 F2750
G1 X1138.8967 Y264.8995 Z-21.0000 F2750
G1 X1138.8609 Y265.4331 Z-21.0000 F2750
G1 X1138.7483 Y265.9786 Z-21.0000 F2750
G1 X1138.5539 Y266.5194 Z-21.0000 F2750
G1 X1138.2772 Y267.0375 Z-21.0000 F2750
G1 X1137.9234 Y267.5143 Z-21.0000 F2750
G1 X1137.5028 Y267.9335 Z-21.0000 F2750
G1 X1137.0304 Y268.2824 Z-21.0000 F2750
G1 X1136.5234 Y268.5532 Z-21.0000 F2750
G1 X1136.0000 Y268.7436 Z-21.0000 F2750
G1 X1135.4772 Y268.8563 Z-21.0000 F2750
G1 X1134.6877 Y268.9061 Z-21.0000 F2750
G1 X1133.8967 Y268.8985 Z-21.0000 F2750
G1 X1133.8967 Y270.9005 Z-21.0000 F2750
G1 X1171.8986 Y270.9005 Z-21.0000 F2750
G1 X1171.8986 Y268.8985 Z-21.0000 F2750
G1 X1171.1076 Y268.9061 Z-21.0000 F2750
G1 X1170.3181 Y268.8563 Z-21.0000 F2750
G1 X1169.7954 Y268.7436 Z-21.0000 F2750
G1 X1169.2720 Y268.5532 Z-21.0000 F2750
G1 X1168.7650 Y268.2824 Z-21.0000 F2750
G1 X1168.2925 Y267.9335 Z-21.0000 F2750
G1 X1167.8720 Y267.5143 Z-21.0000 F2750
G1 X1167.5182 Y267.0375 Z-21.0000 F2750
G1 X1167.2415 Y266.5194 Z-21.0000 F2750
G1 X1167.0470 Y265.9786 Z-21.0000 F2750
G1 X1166.9344 Y265.4331 Z-21.0000 F2750
G1 X1166.8987 Y264.8995 Z-21.0000 F2750
G1 X1166.8987 Y184.8997 Z-21.0000 F2750
G1 X1166.8987 Y184.8997 Z10.0000 F9999
G1 X609.8988 Y179.8988 Z10.0000 F9999
G1 X609.8988 Y179.8988 Z1.0000 F2000
G1 X570.9276 Y179.8988 Z-10.0000 F2000
G1 X609.8988 Y179.8988 Z-21.0000 F2000
G1 X568.8978 Y179.8988 Z-21.0000 F2750
G1 X568.8978 Y181.9008 Z-21.0000 F2750
G1 X569.6889 Y181.8931 Z-21.0000 F2750
G1 X570.4784 Y181.9430 Z-21.0000 F2750
G1 X571.0012 Y182.0557 Z-21.0000 F2750
G1 X571.5245 Y182.2461 Z-21.0000 F2750
G1 X572.0315 Y182.5169 Z-21.0000 F2750
G1 X572.5040 Y182.8658 Z-21.0000 F2750
G1 X572.9245 Y183.2849 Z-21.0000 F2750
G1 X573.2784 Y183.7618 Z-21.0000 F2750
G1 X573.5550 Y184.2798 Z-21.0000 F2750
G1 X573.7495 Y184.8207 Z-21.0000 F2750
G1 X573.8621 Y185.3661 Z-21.0000 F2750
G1 X573.8978 Y185.8998 Z-21.0000 F2750
G1 X573.8978 Y194.9008 Z-21.0000 F2750
G1 X575.8998 Y194.9008 Z-21.0000 F2750
G1 X575.8922 Y194.1097 Z-21.0000 F2750
G1 X575.9421 Y193.3201 Z-21.0000 F2750
G1 X576.0548 Y192.7973 Z-21.0000 F2750
G1 X576.2452 Y192.2739 Z-21.0000 F2750
G1 X576.5160 Y191.7670 Z-21.0000 F2750
G1 X576.8648 Y191.2945 Z-21.0000 F2750
G1 X577.2840 Y190.8739 Z-21.0000 F2750
G1 X577.7609 Y190.5201 Z-21.0000 F2750
G1 X578.2789 Y190.2434 Z-21.0000 F2750
G1 X578.8198 Y190.0490 Z-21.0000 F2750
G1 X579.3652 Y189.9364 Z-21.0000 F2750
G1 X579.8988 Y189.9006 Z-21.0000 F2750
G1 X639.8987 Y189.9006 Z-21.0000 F2750
G1 X640.4323 Y189.9364 Z-21.0000 F2750
G1 X640.9778 Y190.0490 Z-21.0000 F2750
G1 X641.5186 Y190.2434 Z-21.0000 F2750
G1 X642.0367 Y190.5201 Z-21.0000 F2750
G1 X642.5135 Y190.8739 Z-21.0000 F2750
G1 X642.9327 Y191.2945 Z-21.0000 F2750
G1 X643.2816 Y191.7670 Z-21.0000 F2750
G1 X643.5524 Y192.2739 Z-21.0000 F2750
G1 X643.7428 Y192.7973 Z-21.0000 F2750
G1 X643.8555 Y193.3201 Z-21.0000 F2750
G1 X643.9054 Y194.1097 Z-21.0000 F2750
G1 X643.8977 Y194.9008 Z-21.0000 F2750
G1 X645.8997 Y194.9008 Z-21.0000 F2750
G1 X645.8997 Y185.8998 Z-21.0000 F2750
G1 X645.9355 Y185.3661 Z-21.0000 F2750
G1 X646.0480 Y184.8207 Z-21.0000 F2750
G1 X646.2425 Y184.2798 Z-21.0000 F2750
G1 X646.5192 Y183.7618 Z-21.0000 F2750
G1 X646.8730 Y183.2849 Z-21.0000 F2750
G1 X647.2936 Y182.8658 Z-21.0000 F2750
G1 X647.7660 Y182.5169 Z-21.0000 F2750
G1 X648.2730 Y182.2461 Z-21.0000 F2750
G1 X648.7964 Y182.0557 Z-21.0000 F2750
G1 X649.3192 Y181.9430 Z-21.0000 F2750
G1 X650.1087 Y181.8931 Z-21.0000 F2750
G1 X650.8997 Y181.9008 Z-21.0000 F2750
G1 X650.8997 Y179.8988 Z-21.0000 F2750
G1 X609.8988 Y179.8988 Z-21.0000 F2750
G1 X609.8988 Y179.8988 Z10.0000 F9999
(Tool Number:1) (7.998 mm dia. slot drill)
M3 S19000
G1 X21.7171 Y2407.9177 Z10.0000 F9999
G1 X21.7171 Y2407.9177 Z1.0000 F2000
G1 X20.2270 Y2406.3671 Z0.3930 F2000
G1 X18.7819 Y2404.7373 Z-0.2218 F2000
G1 X17.3873 Y2403.0296 Z-0.8441 F2000
G1 X16.0490 Y2401.2460 Z-1.4735 F2000
G1 X14.7724 Y2399.3889 Z-2.1096 F2000
G1 X13.5630 Y2397.4613 Z-2.7519 F2000
G1 X12.4263 Y2395.4665 Z-3.4000 F2000
G1 X11.3673 Y2393.4086 Z-4.0532 F2000
G1 X10.3908 Y2391.2921 Z-4.7112 F2000
G1 X9.5014 Y2389.1218 Z-5.3732 F2000
G1 X8.7031 Y2386.9031 Z-6.0388 F2000
G1 X7.9995 Y2384.6418 Z-6.7072 F2000
G1 X7.3939 Y2382.3440 Z-7.3780 F2000
G1 X6.8889 Y2380.0160 Z-8.0503 F2000
G1 X6.4866 Y2377.6647 Z-8.7237 F2000
G1 X6.1883 Y2375.2966 Z-9.3973 F2000
G1 X6.0154 Y2373.1686 Z-10.0000 F2000
G1 X6.1883 Y2375.2966 Z-10.6027 F2000
G1 X6.4866 Y2377.6647 Z-11.2763 F2000
G1 X6.8889 Y2380.0160 Z-11.9497 F2000
G1 X7.3939 Y2382.3440 Z-12.6220 F2000
G1 X7.9995 Y2384.6418 Z-13.2928 F2000
G1 X8.7031 Y2386.9031 Z-13.9612 F2000
G1 X9.5014 Y2389.1218 Z-14.6268 F2000
G1 X10.3908 Y2391.2921 Z-15.2888 F2000
G1 X11.3673 Y2393.4086 Z-15.9468 F2000
G1 X12.4263 Y2395.4665 Z-16.6000 F2000
G1 X13.5630 Y2397.4613 Z-17.2481 F2000
G1 X14.7724 Y2399.3889 Z-17.8904 F2000
G1 X16.0490 Y2401.2460 Z-18.5265 F2000
G1 X17.3873 Y2403.0296 Z-19.1559 F2000
G1 X18.7819 Y2404.7373 Z-19.7782 F2000
G1 X20.2270 Y2406.3671 Z-20.3930 F2000
G1 X21.7171 Y2407.9177 Z-21.0000 F2000
G1 X20.2270 Y2406.3671 Z-21.0000 F2750
G1 X18.7819 Y2404.7373 Z-21.0000 F2750
G1 X17.3873 Y2403.0296 Z-21.0000 F2750
G1 X16.0490 Y2401.2460 Z-21.0000 F2750
G1 X14.7724 Y2399.3889 Z-21.0000 F2750
G1 X13.5630 Y2397.4613 Z-21.0000 F2750
G1 X12.4263 Y2395.4665 Z-21.0000 F2750
G1 X11.3673 Y2393.4086 Z-21.0000 F2750
G1 X10.3908 Y2391.2921 Z-21.0000 F2750
G1 X9.5014 Y2389.1218 Z-21.0000 F2750
G1 X8.7031 Y2386.9031 Z-21.0000 F2750
G1 X7.9995 Y2384.6418 Z-21.0000 F2750
G1 X7.3939 Y2382.3440 Z-21.0000 F2750
G1 X6.8889 Y2380.0160 Z-21.0000 F2750
G1 X6.4866 Y2377.6647 Z-21.0000 F2750
G1 X6.1883 Y2375.2966 Z-21.0000 F2750
G1 X5.9951 Y2372.9189 Z-21.0000 F2750
G1 X5.9071 Y2370.5385 Z-21.0000 F2750
G1 X5.9240 Y2368.1623 Z-21.0000 F2750
G1 X6.0449 Y2365.7971 Z-21.0000 F2750
G1 X6.2681 Y2363.4498 Z-21.0000 F2750
G1 X6.5916 Y2361.1267 Z-21.0000 F2750
G1 X7.0128 Y2358.8341 Z-21.0000 F2750
G1 X7.5284 Y2356.5779 Z-21.0000 F2750
G1 X8.1350 Y2354.3636 Z-21.0000 F2750
G1 X8.8286 Y2352.1963 Z-21.0000 F2750
G1 X9.6049 Y2350.0806 Z-21.0000 F2750
G1 X10.4592 Y2348.0209 Z-21.0000 F2750
G1 X11.3868 Y2346.0207 Z-21.0000 F2750
G1 X12.3827 Y2344.0835 Z-21.0000 F2750
G1 X13.4417 Y2342.2119 Z-21.0000 F2750
G1 X13.4417 Y2342.2119 Z-15.0000 F9999
G1 X14.4603 Y2340.5608 Z-15.0000 F2750
G1 X15.5383 Y2338.9463 Z-15.0000 F2750
G1 X16.6736 Y2337.3717 Z-15.0000 F2750
G1 X17.8640 Y2335.8398 Z-15.0000 F2750
G1 X19.1904 Y2334.2578 Z-15.0000 F2750
G1 X20.5773 Y2332.7264 Z-15.0000 F2750
G1 X22.0218 Y2331.2493 Z-15.0000 F2750
G1 X23.5206 Y2329.8295 Z-15.0000 F2750
G1 X23.5206 Y2329.8295 Z-21.0000 F2000
G1 X25.1573 Y2328.3967 Z-21.0000 F2750
G1 X26.8554 Y2327.0271 Z-21.0000 F2750
G1 X28.6110 Y2325.7246 Z-21.0000 F2750
G1 X30.4202 Y2324.4928 Z-21.0000 F2750
G1 X32.2786 Y2323.3348 Z-21.0000 F2750
G1 X34.1816 Y2322.2536 Z-21.0000 F2750
G1 X36.1245 Y2321.2515 Z-21.0000 F2750
G1 X38.1022 Y2320.3308 Z-21.0000 F2750
G1 X40.1097 Y2319.4929 Z-21.0000 F2750
G1 X42.2103 Y2318.7154 Z-21.0000 F2750
G1 X44.3587 Y2318.0205 Z-21.0000 F2750
G1 X46.5503 Y2317.4119 Z-21.0000 F2750
G1 X48.7798 Y2316.8931 Z-21.0000 F2750
G1 X51.0417 Y2316.4672 Z-21.0000 F2750
G1 X53.3304 Y2316.1368 Z-21.0000 F2750
G1 X55.6397 Y2315.9040 Z-21.0000 F2750
G1 X57.9633 Y2315.7704 Z-21.0000 F2750
G1 X60.2948 Y2315.7371 Z-21.0000 F2750
G1 X62.6278 Y2315.8046 Z-21.0000 F2750
G1 X64.9557 Y2315.9728 Z-21.0000 F2750
G1 X67.2720 Y2316.2412 Z-21.0000 F2750
G1 X69.5703 Y2316.6086 Z-21.0000 F2750
G1 X71.8443 Y2317.0732 Z-21.0000 F2750
G1 X74.0880 Y2317.6328 Z-21.0000 F2750
G1 X76.2954 Y2318.2848 Z-21.0000 F2750
G1 X78.4612 Y2319.0259 Z-21.0000 F2750
G1 X80.5802 Y2319.8525 Z-21.0000 F2750
G1 X82.6475 Y2320.7607 Z-21.0000 F2750
G1 X84.6589 Y2321.7462 Z-21.0000 F2750
G1 X86.6277 Y2322.8142 Z-21.0000 F2750
G1 X88.5659 Y2323.9726 Z-21.0000 F2750
G1 X90.4676 Y2325.2204 Z-21.0000 F2750
G1 X92.3267 Y2326.5559 Z-21.0000 F2750
G1 X94.1374 Y2327.9770 Z-21.0000 F2750
G1 X95.8937 Y2329.4811 Z-21.0000 F2750
G1 X97.5903 Y2331.0650 Z-21.0000 F2750
G1 X99.2216 Y2332.7250 Z-21.0000 F2750
G1 X100.7827 Y2334.4571 Z-21.0000 F2750
G1 X102.2690 Y2336.2567 Z-21.0000 F2750
G1 X103.6761 Y2338.1189 Z-21.0000 F2750
G1 X105.0002 Y2340.0382 Z-21.0000 F2750
G1 X106.2379 Y2342.0093 Z-21.0000 F2750
G1 X107.3866 Y2344.0261 Z-21.0000 F2750
G1 X108.4437 Y2346.0827 Z-21.0000 F2750
G1 X109.4075 Y2348.1729 Z-21.0000 F2750
G1 X110.2769 Y2350.2905 Z-21.0000 F2750
G1 X111.0510 Y2352.4292 Z-21.0000 F2750
G1 X111.7298 Y2354.5828 Z-21.0000 F2750
G1 X112.3135 Y2356.7452 Z-21.0000 F2750
G1 X112.3135 Y2356.7452 Z-15.0000 F9999
G1 X112.6559 Y2358.2142 Z-15.0000 F2750
G1 X112.9571 Y2359.6922 Z-15.0000 F2750
G1 X113.2954 Y2361.6823 Z-15.0000 F2750
G1 X113.5593 Y2363.6859 Z-15.0000 F2750
G1 X113.7481 Y2365.6986 Z-15.0000 F2750
G1 X113.8614 Y2367.7163 Z-15.0000 F2750
G1 X113.8991 Y2369.7346 Z-15.0000 F2750
G1 X113.8544 Y2371.9321 Z-15.0000 F2750
G1 X113.7200 Y2374.1295 Z-15.0000 F2750
G1 X113.4959 Y2376.3214 Z-15.0000 F2750
G1 X113.1825 Y2378.5024 Z-15.0000 F2750
G1 X112.7809 Y2380.6670 Z-15.0000 F2750
G1 X112.2922 Y2382.8099 Z-15.0000 F2750
G1 X112.2922 Y2382.8099 Z-21.0000 F2000
G1 X111.6961 Y2385.0013 Z-21.0000 F2750
G1 X111.0083 Y2387.1658 Z-21.0000 F2750
G1 X110.2575 Y2389.2290 Z-21.0000 F2750
G1 X109.4149 Y2391.2795 Z-21.0000 F2750
G1 X108.4801 Y2393.3116 Z-21.0000 F2750
G1 X107.4535 Y2395.3192 Z-21.0000 F2750
G1 X106.3355 Y2397.2963 Z-21.0000 F2750
G1 X105.1275 Y2399.2367 Z-21.0000 F2750
G1 X103.8311 Y2401.1346 Z-21.0000 F2750
G1 X102.4486 Y2402.9839 Z-21.0000 F2750
G1 X100.9828 Y2404.7790 Z-21.0000 F2750
G1 X99.4369 Y2406.5142 Z-21.0000 F2750
G1 X97.8146 Y2408.1844 Z-21.0000 F2750
G1 X96.1203 Y2409.7845 Z-21.0000 F2750
G1 X94.3585 Y2411.3100 Z-21.0000 F2750
G1 X92.5343 Y2412.7568 Z-21.0000 F2750
G1 X90.6529 Y2414.1211 Z-21.0000 F2750
G1 X88.7200 Y2415.3998 Z-21.0000 F2750
G1 X86.7415 Y2416.5901 Z-21.0000 F2750
G1 X84.7233 Y2417.6898 Z-21.0000 F2750
G1 X82.6716 Y2418.6974 Z-21.0000 F2750
G1 X80.5925 Y2419.6117 Z-21.0000 F2750
G1 X78.4922 Y2420.4321 Z-21.0000 F2750
G1 X76.3767 Y2421.1585 Z-21.0000 F2750
G1 X74.2520 Y2421.7915 Z-21.0000 F2750
G1 X72.1241 Y2422.3319 Z-21.0000 F2750
G1 X69.9759 Y2422.7853 Z-21.0000 F2750
G1 X67.7898 Y2423.1542 Z-21.0000 F2750
G1 X65.5708 Y2423.4351 Z-21.0000 F2750
G1 X63.3239 Y2423.6250 Z-21.0000 F2750
G1 X61.0547 Y2423.7213 Z-21.0000 F2750
G1 X58.7690 Y2423.7218 Z-21.0000 F2750
G1 X56.4726 Y2423.6248 Z-21.0000 F2750
G1 X54.1720 Y2423.4290 Z-21.0000 F2750
G1 X51.8733 Y2423.1337 Z-21.0000 F2750
G1 X49.5831 Y2422.7389 Z-21.0000 F2750
G1 X47.3078 Y2422.2449 Z-21.0000 F2750
G1 X45.0539 Y2421.6527 Z-21.0000 F2750
G1 X42.8275 Y2420.9637 Z-21.0000 F2750
G1 X40.6351 Y2420.1802 Z-21.0000 F2750
G1 X38.4823 Y2419.3045 Z-21.0000 F2750
G1 X36.3751 Y2418.3399 Z-21.0000 F2750
G1 X34.3188 Y2417.2897 Z-21.0000 F2750
G1 X32.3183 Y2416.1581 Z-21.0000 F2750
G1 X30.3784 Y2414.9492 Z-21.0000 F2750
G1 X28.5031 Y2413.6678 Z-21.0000 F2750
G1 X26.6963 Y2412.3187 Z-21.0000 F2750
G1 X24.9613 Y2410.9071 Z-21.0000 F2750
G1 X23.3008 Y2409.4383 Z-21.0000 F2750
G1 X21.7171 Y2407.9177 Z-21.0000 F2750
G1 X21.7171 Y2407.9177 Z10.0000 F9999
G1 X147.9334 Y2327.8345 Z10.0000 F9999
G1 X147.9334 Y2327.8345 Z1.0000 F2000
G1 X149.6891 Y2326.4664 Z0.3718 F2000
G1 X151.5176 Y2325.1595 Z-0.2626 F2000
G1 X153.4159 Y2323.9191 Z-0.9027 F2000
G1 X155.3807 Y2322.7505 Z-1.5480 F2000
G1 X157.4078 Y2321.6586 Z-2.1979 F2000
G1 X159.4929 Y2320.6480 Z-2.8519 F2000
G1 X161.6310 Y2319.7231 Z-3.5094 F2000
G1 X163.8170 Y2318.8877 Z-4.1700 F2000
G1 X166.0450 Y2318.1454 Z-4.8328 F2000
G1 X168.3092 Y2317.4990 Z-5.4975 F2000
G1 X170.6032 Y2316.9512 Z-6.1632 F2000
G1 X172.9207 Y2316.5038 Z-6.8294 F2000
G1 X175.2549 Y2316.1581 Z-7.4954 F2000
G1 X177.5992 Y2315.9150 Z-8.1607 F2000
G1 X179.9468 Y2315.7745 Z-8.8245 F2000
G1 X182.2911 Y2315.7365 Z-9.4863 F2000
G1 X184.1104 Y2315.7857 Z-10.0000 F2000
G1 X182.2911 Y2315.7365 Z-10.5137 F2000
G1 X179.9468 Y2315.7745 Z-11.1755 F2000
G1 X177.5992 Y2315.9150 Z-11.8393 F2000
G1 X175.2549 Y2316.1581 Z-12.5046 F2000
G1 X172.9207 Y2316.5038 Z-13.1706 F2000
G1 X170.6032 Y2316.9512 Z-13.8368 F2000
G1 X168.3092 Y2317.4990 Z-14.5025 F2000
G1 X166.0450 Y2318.1454 Z-15.1672 F2000
G1 X163.8170 Y2318.8877 Z-15.8300 F2000
G1 X161.6310 Y2319.7231 Z-16.4906 F2000
G1 X159.4929 Y2320.6480 Z-17.1481 F2000
G1 X157.4078 Y2321.6586 Z-17.8021 F2000
G1 X155.3807 Y2322.7505 Z-18.4520 F2000
G1 X153.4159 Y2323.9191 Z-19.0973 F2000
G1 X151.5176 Y2325.1595 Z-19.7374 F2000
G1 X149.6891 Y2326.4664 Z-20.3718 F2000
G1 X147.9334 Y2327.8345 Z-21.0000 F2000
G1 X149.6891 Y2326.4664 Z-21.0000 F2750
G1 X151.5176 Y2325.1595 Z-21.0000 F2750
G1 X153.4159 Y2323.9191 Z-21.0000 F2750
G1 X155.3807 Y2322.7505 Z-21.0000 F2750
G1 X157.4078 Y2321.6586 Z-21.0000 F2750
G1 X159.4929 Y2320.6480 Z-21.0000 F2750
G1 X161.6310 Y2319.7231 Z-21.0000 F2750
G1 X163.8170 Y2318.8877 Z-21.0000 F2750
G1 X166.0450 Y2318.1454 Z-21.0000 F2750
G1 X168.3092 Y2317.4990 Z-21.0000 F2750
G1 X170.6032 Y2316.9512 Z-21.0000 F2750
G1 X172.9207 Y2316.5038 Z-21.0000 F2750
G1 X175.2549 Y2316.1581 Z-21.0000 F2750
G1 X177.5992 Y2315.9150 Z-21.0000 F2750
G1 X179.9468 Y2315.7745 Z-21.0000 F2750
G1 X182.2911 Y2315.7365 Z-21.0000 F2750
G1 X184.6254 Y2315.7997 Z-21.0000 F2750
G1 X186.9433 Y2315.9627 Z-21.0000 F2750
G1 X189.2385 Y2316.2235 Z-21.0000 F2750
G1 X191.5053 Y2316.5795 Z-21.0000 F2750
G1 X193.7378 Y2317.0277 Z-21.0000 F2750
G1 X195.9308 Y2317.5646 Z-21.0000 F2750
G1 X198.0795 Y2318.1864 Z-21.0000 F2750
G1 X200.1848 Y2318.8911 Z-21.0000 F2750
G1 X202.2749 Y2319.6880 Z-21.0000 F2750
G1 X204.3493 Y2320.5795 Z-21.0000 F2750
G1 X206.4017 Y2321.5656 Z-21.0000 F2750
G1 X208.4260 Y2322.6458 Z-21.0000 F2750
G1 X210.4158 Y2323.8193 Z-21.0000 F2750
G1 X212.3648 Y2325.0845 Z-21.0000 F2750
G1 X214.2668 Y2326.4392 Z-21.0000 F2750
G1 X216.1158 Y2327.8808 Z-21.0000 F2750
G1 X217.9059 Y2329.4062 Z-21.0000 F2750
G1 X219.6314 Y2331.0115 Z-21.0000 F2750
G1 X221.2872 Y2332.6927 Z-21.0000 F2750
G1 X222.8684 Y2334.4451 Z-21.0000 F2750
G1 X224.3704 Y2336.2635 Z-21.0000 F2750
G1 X225.7893 Y2338.1426 Z-21.0000 F2750
G1 X227.1215 Y2340.0766 Z-21.0000 F2750
G1 X228.3641 Y2342.0596 Z-21.0000 F2750
G1 X229.5146 Y2344.0853 Z-21.0000 F2750
G1 X230.5712 Y2346.1475 Z-21.0000 F2750
G1 X231.5326 Y2348.2397 Z-21.0000 F2750
G1 X232.3980 Y2350.3555 Z-21.0000 F2750
G1 X233.1672 Y2352.4887 Z-21.0000 F2750
G1 X233.8405 Y2354.6331 Z-21.0000 F2750
G1 X234.4188 Y2356.7824 Z-21.0000 F2750
G1 X234.4188 Y2356.7824 Z-15.0000 F9999
G1 X234.6437 Y2357.7294 Z-15.0000 F2750
G1 X234.8516 Y2358.6802 Z-15.0000 F2750
G1 X235.2620 Y2360.8666 Z-15.0000 F2750
G1 X235.5824 Y2363.0709 Z-15.0000 F2750
G1 X235.8117 Y2365.2874 Z-15.0000 F2750
G1 X235.9494 Y2367.5105 Z-15.0000 F2750
G1 X235.9952 Y2369.7346 Z-15.0000 F2750
G1 X235.9507 Y2371.9251 Z-15.0000 F2750
G1 X235.8172 Y2374.1156 Z-15.0000 F2750
G1 X235.5945 Y2376.3006 Z-15.0000 F2750
G1 X235.2831 Y2378.4748 Z-15.0000 F2750
G1 X234.8840 Y2380.6327 Z-15.0000 F2750
G1 X234.3984 Y2382.7692 Z-15.0000 F2750
G1 X234.3984 Y2382.7692 Z-21.0000 F2000
G1 X233.9425 Y2384.4815 Z-21.0000 F2750
G1 X233.4307 Y2386.1780 Z-21.0000 F2750
G1 X232.7402 Y2388.1990 Z-21.0000 F2750
G1 X231.9605 Y2390.2153 Z-21.0000 F2750
G1 X231.0904 Y2392.2212 Z-21.0000 F2750
G1 X230.1293 Y2394.2111 Z-21.0000 F2750
G1 X229.0768 Y2396.1790 Z-21.0000 F2750
G1 X227.9333 Y2398.1190 Z-21.0000 F2750
G1 X226.6995 Y2400.0249 Z-21.0000 F2750
G1 X225.3767 Y2401.8908 Z-21.0000 F2750
G1 X223.9668 Y2403.7105 Z-21.0000 F2750
G1 X222.4721 Y2405.4781 Z-21.0000 F2750
G1 X220.8954 Y2407.1878 Z-21.0000 F2750
G1 X219.2403 Y2408.8341 Z-21.0000 F2750
G1 X217.5106 Y2410.4116 Z-21.0000 F2750
G1 X215.7107 Y2411.9155 Z-21.0000 F2750
G1 X213.8454 Y2413.3411 Z-21.0000 F2750
G1 X211.9199 Y2414.6842 Z-21.0000 F2750
G1 X209.9397 Y2415.9413 Z-21.0000 F2750
G1 X207.9107 Y2417.1090 Z-21.0000 F2750
G1 X205.8389 Y2418.1848 Z-21.0000 F2750
G1 X203.7305 Y2419.1665 Z-21.0000 F2750
G1 X201.5919 Y2420.0526 Z-21.0000 F2750
G1 X199.4295 Y2420.8421 Z-21.0000 F2750
G1 X197.2497 Y2421.5345 Z-21.0000 F2750
G1 X195.0587 Y2422.1299 Z-21.0000 F2750
G1 X192.8628 Y2422.6290 Z-21.0000 F2750
G1 X190.6679 Y2423.0328 Z-21.0000 F2750
G1 X188.4800 Y2423.3430 Z-21.0000 F2750
G1 X186.3044 Y2423.5615 Z-21.0000 F2750
G1 X184.1465 Y2423.6908 Z-21.0000 F2750
G1 X182.0112 Y2423.7336 Z-21.0000 F2750
G1 X179.8622 Y2423.6915 Z-21.0000 F2750
G1 X177.6946 Y2423.5620 Z-21.0000 F2750
G1 X175.5133 Y2423.3431 Z-21.0000 F2750
G1 X173.3239 Y2423.0327 Z-21.0000 F2750
G1 X171.1319 Y2422.6294 Z-21.0000 F2750
G1 X168.9430 Y2422.1322 Z-21.0000 F2750
G1 X166.7633 Y2421.5405 Z-21.0000 F2750
G1 X164.5987 Y2420.8543 Z-21.0000 F2750
G1 X162.4553 Y2420.0740 Z-21.0000 F2750
G1 X160.3393 Y2419.2005 Z-21.0000 F2750
G1 X158.2566 Y2418.2354 Z-21.0000 F2750
G1 X156.2131 Y2417.1807 Z-21.0000 F2750
G1 X154.2146 Y2416.0388 Z-21.0000 F2750
G1 X152.2666 Y2414.8128 Z-21.0000 F2750
G1 X150.3742 Y2413.5061 Z-21.0000 F2750
G1 X148.5425 Y2412.1227 Z-21.0000 F2750
G1 X146.7760 Y2410.6667 Z-21.0000 F2750
G1 X145.0788 Y2409.1427 Z-21.0000 F2750
G1 X143.4546 Y2407.5558 Z-21.0000 F2750
G1 X141.9067 Y2405.9110 Z-21.0000 F2750
G1 X140.4379 Y2404.2136 Z-21.0000 F2750
G1 X139.0505 Y2402.4693 Z-21.0000 F2750
G1 X137.7462 Y2400.6836 Z-21.0000 F2750
G1 X136.5265 Y2398.8620 Z-21.0000 F2750
G1 X135.3922 Y2397.0103 Z-21.0000 F2750
G1 X134.3437 Y2395.1340 Z-21.0000 F2750
G1 X134.3437 Y2395.1340 Z-15.0000 F9999
G1 X133.4622 Y2393.4063 Z-15.0000 F2750
G1 X132.6426 Y2391.6462 Z-15.0000 F2750
G1 X131.8866 Y2389.8573 Z-15.0000 F2750
G1 X131.1956 Y2388.0429 Z-15.0000 F2750
G1 X130.5708 Y2386.2066 Z-15.0000 F2750
G1 X129.9904 Y2384.2706 Z-15.0000 F2750
G1 X129.4824 Y2382.3121 Z-15.0000 F2750
G1 X129.0479 Y2380.3353 Z-15.0000 F2750
G1 X128.6880 Y2378.3443 Z-15.0000 F2750
G1 X128.4031 Y2376.3433 Z-15.0000 F2750
G1 X128.4031 Y2376.3433 Z-21.0000 F2000
G1 X128.1777 Y2374.1469 Z-21.0000 F2750
G1 X128.0423 Y2371.9421 Z-21.0000 F2750
G1 X127.9972 Y2369.7346 Z-21.0000 F2750
G1 X128.0428 Y2367.5165 Z-21.0000 F2750
G1 X128.1796 Y2365.2993 Z-21.0000 F2750
G1 X128.4077 Y2363.0886 Z-21.0000 F2750
G1 X128.7264 Y2360.8902 Z-21.0000 F2750
G1 X129.1347 Y2358.7095 Z-21.0000 F2750
G1 X129.6440 Y2356.5005 Z-21.0000 F2750
G1 X130.2497 Y2354.3010 Z-21.0000 F2750
G1 X130.9519 Y2352.1173 Z-21.0000 F2750
G1 X131.7500 Y2349.9555 Z-21.0000 F2750
G1 X132.6431 Y2347.8220 Z-21.0000 F2750
G1 X133.6296 Y2345.7229 Z-21.0000 F2750
G1 X134.7073 Y2343.6644 Z-21.0000 F2750
G1 X135.8738 Y2341.6523 Z-21.0000 F2750
G1 X137.1258 Y2339.6922 Z-21.0000 F2750
G1 X138.4598 Y2337.7897 Z-21.0000 F2750
G1 X139.8718 Y2335.9497 Z-21.0000 F2750
G1 X141.3572 Y2334.1768 Z-21.0000 F2750
G1 X142.9112 Y2332.4753 Z-21.0000 F2750
G1 X144.5289 Y2330.8490 Z-21.0000 F2750
G1 X146.2048 Y2329.3011 Z-21.0000 F2750
G1 X147.9334 Y2327.8345 Z-21.0000 F2750
G1 X147.9334 Y2327.8345 Z10.0000 F9999
G1 X270.3433 Y2327.5813 Z10.0000 F9999
G1 X270.3433 Y2327.5813 Z1.0000 F2000
G1 X272.0974 Y2326.2350 Z0.3759 F2000
G1 X273.9205 Y2324.9512 Z-0.2535 F2000
G1 X275.8094 Y2323.7349 Z-0.8877 F2000
G1 X277.7605 Y2322.5909 Z-1.5261 F2000
G1 X279.7697 Y2321.5236 Z-2.1682 F2000
G1 X281.8323 Y2320.5372 Z-2.8136 F2000
G1 X283.9436 Y2319.6355 Z-3.4616 F2000
G1 X286.0982 Y2318.8219 Z-4.1116 F2000
G1 X288.2905 Y2318.0994 Z-4.7632 F2000
G1 X290.5148 Y2317.4704 Z-5.4156 F2000
G1 X292.7651 Y2316.9370 Z-6.0684 F2000
G1 X295.0350 Y2316.5006 Z-6.7208 F2000
G1 X297.3184 Y2316.1622 Z-7.3724 F2000
G1 X299.6089 Y2315.9221 Z-8.0224 F2000
G1 X301.9003 Y2315.7802 Z-8.6704 F2000
G1 X304.1862 Y2315.7357 Z-9.3158 F2000
G1 X306.4607 Y2315.7876 Z-9.9579 F2000
G1 X306.6093 Y2315.7973 Z-10.0000 F2000
G1 X306.4607 Y2315.7876 Z-10.0421 F2000
G1 X304.1862 Y2315.7357 Z-10.6842 F2000
G1 X301.9003 Y2315.7802 Z-11.3296 F2000
G1 X299.6089 Y2315.9221 Z-11.9776 F2000
G1 X297.3184 Y2316.1622 Z-12.6276 F2000
G1 X295.0350 Y2316.5006 Z-13.2792 F2000
G1 X292.7651 Y2316.9370 Z-13.9316 F2000
G1 X290.5148 Y2317.4704 Z-14.5844 F2000
G1 X288.2905 Y2318.0994 Z-15.2368 F2000
G1 X286.0982 Y2318.8219 Z-15.8884 F2000
G1 X283.9436 Y2319.6355 Z-16.5384 F2000
G1 X281.8323 Y2320.5372 Z-17.1864 F2000
G1 X279.7697 Y2321.5236 Z-17.8318 F2000
G1 X277.7605 Y2322.5909 Z-18.4739 F2000
G1 X275.8094 Y2323.7349 Z-19.1123 F2000
G1 X273.9205 Y2324.9512 Z-19.7465 F2000
G1 X272.0974 Y2326.2350 Z-20.3759 F2000
G1 X270.3433 Y2327.5813 Z-21.0000 F2000
G1 X272.0974 Y2326.2350 Z-21.0000 F2750
G1 X273.9205 Y2324.9512 Z-21.0000 F2750
G1 X275.8094 Y2323.7349 Z-21.0000 F2750
G1 X277.7605 Y2322.5909 Z-21.0000 F2750
G1 X279.7697 Y2321.5236 Z-21.0000 F2750
G1 X281.8323 Y2320.5372 Z-21.0000 F2750
G1 X283.9436 Y2319.6355 Z-21.0000 F2750
G1 X286.0982 Y2318.8219 Z-21.0000 F2750
G1 X288.2905 Y2318.0994 Z-21.0000 F2750
G1 X290.5148 Y2317.4704 Z-21.0000 F2750
G1 X292.7651 Y2316.9370 Z-21.0000 F2750
G1 X295.0350 Y2316.5006 Z-21.0000 F2750
G1 X297.3184 Y2316.1622 Z-21.0000 F2750
G1 X299.6089 Y2315.9221 Z-21.0000 F2750
G1 X301.9003 Y2315.7802 Z-21.0000 F2750
G1 X304.1862 Y2315.7357 Z-21.0000 F2750
G1 X306.4607 Y2315.7876 Z-21.0000 F2750
G1 X308.7177 Y2315.9341 Z-21.0000 F2750
G1 X310.9516 Y2316.1731 Z-21.0000 F2750
G1 X313.1570 Y2316.5019 Z-21.0000 F2750
G1 X315.3288 Y2316.9177 Z-21.0000 F2750
G1 X317.4817 Y2317.4220 Z-21.0000 F2750
G1 X319.6299 Y2318.0194 Z-21.0000 F2750
G1 X321.7677 Y2318.7104 Z-21.0000 F2750
G1 X323.8889 Y2319.4954 Z-21.0000 F2750
G1 X325.9875 Y2320.3738 Z-21.0000 F2750
G1 X328.0574 Y2321.3449 Z-21.0000 F2750
G1 X330.0925 Y2322.4073 Z-21.0000 F2750
G1 X332.0869 Y2323.5590 Z-21.0000 F2750
G1 X334.0348 Y2324.7976 Z-21.0000 F2750
G1 X335.9305 Y2326.1203 Z-21.0000 F2750
G1 X337.7687 Y2327.5235 Z-21.0000 F2750
G1 X339.5444 Y2329.0034 Z-21.0000 F2750
G1 X341.2528 Y2330.5558 Z-21.0000 F2750
G1 X342.8896 Y2332.1759 Z-21.0000 F2750
G1 X344.4510 Y2333.8590 Z-21.0000 F2750
G1 X345.9335 Y2335.5996 Z-21.0000 F2750
G1 X347.3342 Y2337.3923 Z-21.0000 F2750
G1 X348.6506 Y2339.2315 Z-21.0000 F2750
G1 X349.8809 Y2341.1113 Z-21.0000 F2750
G1 X351.0235 Y2343.0261 Z-21.0000 F2750
G1 X352.0776 Y2344.9699 Z-21.0000 F2750
G1 X352.0776 Y2344.9699 Z-15.0000 F9999
G1 X352.9474 Y2346.7332 Z-15.0000 F2750
G1 X353.7534 Y2348.5295 Z-15.0000 F2750
G1 X354.4939 Y2350.3552 Z-15.0000 F2750
G1 X355.1673 Y2352.2067 Z-15.0000 F2750
G1 X355.7723 Y2354.0803 Z-15.0000 F2750
G1 X356.3080 Y2355.9721 Z-15.0000 F2750
G1 X356.7824 Y2357.9176 Z-15.0000 F2750
G1 X357.1848 Y2359.8821 Z-15.0000 F2750
G1 X357.5142 Y2361.8614 Z-15.0000 F2750
G1 X357.7698 Y2363.8517 Z-15.0000 F2750
G1 X357.9512 Y2365.8487 Z-15.0000 F2750
G1 X358.0583 Y2367.8483 Z-15.0000 F2750
G1 X358.0583 Y2367.8483 Z-21.0000 F2000
G1 X358.0830 Y2368.7913 Z-21.0000 F2750
G1 X358.0912 Y2369.7346 Z-21.0000 F2750
G1 X358.0416 Y2372.0497 Z-21.0000 F2750
G1 X357.8924 Y2374.3648 Z-21.0000 F2750
G1 X357.6436 Y2376.6734 Z-21.0000 F2750
G1 X357.2958 Y2378.9692 Z-21.0000 F2750
G1 X356.8500 Y2381.2459 Z-21.0000 F2750
G1 X356.3080 Y2383.4971 Z-21.0000 F2750
G1 X355.7263 Y2385.5403 Z-21.0000 F2750
G1 X355.0558 Y2387.5843 Z-21.0000 F2750
G1 X354.2950 Y2389.6236 Z-21.0000 F2750
G1 X353.4429 Y2391.6527 Z-21.0000 F2750
G1 X352.4988 Y2393.6657 Z-21.0000 F2750
G1 X351.4625 Y2395.6567 Z-21.0000 F2750
G1 X350.3343 Y2397.6195 Z-21.0000 F2750
G1 X349.1150 Y2399.5481 Z-21.0000 F2750
G1 X347.8061 Y2401.4363 Z-21.0000 F2750
G1 X346.4093 Y2403.2780 Z-21.0000 F2750
G1 X344.9273 Y2405.0673 Z-21.0000 F2750
G1 X343.3628 Y2406.7983 Z-21.0000 F2750
G1 X341.7196 Y2408.4654 Z-21.0000 F2750
G1 X340.0015 Y2410.0635 Z-21.0000 F2750
G1 X338.2130 Y2411.5875 Z-21.0000 F2750
G1 X336.3590 Y2413.0330 Z-21.0000 F2750
G1 X334.4448 Y2414.3957 Z-21.0000 F2750
G1 X332.4759 Y2415.6722 Z-21.0000 F2750
G1 X330.4583 Y2416.8592 Z-21.0000 F2750
G1 X328.3980 Y2417.9541 Z-21.0000 F2750
G1 X326.3013 Y2418.9550 Z-21.0000 F2750
G1 X324.1746 Y2419.8604 Z-21.0000 F2750
G1 X322.0241 Y2420.6693 Z-21.0000 F2750
G1 X319.8564 Y2421.3814 Z-21.0000 F2750
G1 X317.6777 Y2421.9968 Z-21.0000 F2750
G1 X315.4941 Y2422.5162 Z-21.0000 F2750
G1 X313.3116 Y2422.9408 Z-21.0000 F2750
G1 X311.1360 Y2423.2723 Z-21.0000 F2750
G1 X308.9727 Y2423.5126 Z-21.0000 F2750
G1 X306.8269 Y2423.6644 Z-21.0000 F2750
G1 X304.7036 Y2423.7302 Z-21.0000 F2750
G1 X302.5410 Y2423.7114 Z-21.0000 F2750
G1 X300.3573 Y2423.6043 Z-21.0000 F2750
G1 X298.1577 Y2423.4065 Z-21.0000 F2750
G1 X295.9475 Y2423.1159 Z-21.0000 F2750
G1 X293.7325 Y2422.7306 Z-21.0000 F2750
G1 X291.5186 Y2422.2494 Z-21.0000 F2750
G1 X289.3120 Y2421.6715 Z-21.0000 F2750
G1 X287.1188 Y2420.9967 Z-21.0000 F2750
G1 X284.9453 Y2420.2251 Z-21.0000 F2750
G1 X282.7980 Y2419.3577 Z-21.0000 F2750
G1 X280.6830 Y2418.3957 Z-21.0000 F2750
G1 X278.6066 Y2417.3411 Z-21.0000 F2750
G1 X276.5748 Y2416.1963 Z-21.0000 F2750
G1 X274.5934 Y2414.9642 Z-21.0000 F2750
G1 X272.6679 Y2413.6483 Z-21.0000 F2750
G1 X270.8037 Y2412.2525 Z-21.0000 F2750
G1 X269.0055 Y2410.7811 Z-21.0000 F2750
G1 X267.2777 Y2409.2389 Z-21.0000 F2750
G1 X265.6244 Y2407.6308 Z-21.0000 F2750
G1 X264.0491 Y2405.9623 Z-21.0000 F2750
G1 X262.5548 Y2404.2388 Z-21.0000 F2750
G1 X261.1441 Y2402.4661 Z-21.0000 F2750
G1 X259.8188 Y2400.6500 Z-21.0000 F2750
G1 X258.5806 Y2398.7963 Z-21.0000 F2750
G1 X257.4303 Y2396.9110 Z-21.0000 F2750
G1 X256.3684 Y2394.9999 Z-21.0000 F2750
G1 X255.3950 Y2393.0687 Z-21.0000 F2750
G1 X255.3950 Y2393.0687 Z-15.0000 F9999
G1 X254.4667 Y2391.0230 Z-15.0000 F2750
G1 X253.6235 Y2388.9387 Z-15.0000 F2750
G1 X252.8678 Y2386.8212 Z-15.0000 F2750
G1 X252.2015 Y2384.6758 Z-15.0000 F2750
G1 X251.7122 Y2382.8581 Z-15.0000 F2750
G1 X251.2863 Y2381.0228 Z-15.0000 F2750
G1 X250.9245 Y2379.1732 Z-15.0000 F2750
G1 X250.6276 Y2377.3127 Z-15.0000 F2750
G1 X250.3960 Y2375.4446 Z-15.0000 F2750
G1 X250.3960 Y2375.4446 Z-21.0000 F2000
G1 X250.2279 Y2373.5454 Z-21.0000 F2750
G1 X250.1269 Y2371.6409 Z-21.0000 F2750
G1 X250.0932 Y2369.7346 Z-21.0000 F2750
G1 X250.1296 Y2367.7524 Z-21.0000 F2750
G1 X250.2390 Y2365.7701 Z-21.0000 F2750
G1 X250.4212 Y2363.7919 Z-21.0000 F2750
G1 X250.6762 Y2361.8216 Z-21.0000 F2750
G1 X251.0031 Y2359.8635 Z-21.0000 F2750
G1 X251.4013 Y2357.9213 Z-21.0000 F2750
G1 X251.9373 Y2355.7434 Z-21.0000 F2750
G1 X252.5675 Y2353.5763 Z-21.0000 F2750
G1 X253.2918 Y2351.4260 Z-21.0000 F2750
G1 X254.1096 Y2349.2986 Z-21.0000 F2750
G1 X255.0200 Y2347.2001 Z-21.0000 F2750
G1 X256.0212 Y2345.1366 Z-21.0000 F2750
G1 X257.1112 Y2343.1138 Z-21.0000 F2750
G1 X258.2873 Y2341.1374 Z-21.0000 F2750
G1 X259.5466 Y2339.2129 Z-21.0000 F2750
G1 X260.8854 Y2337.3455 Z-21.0000 F2750
G1 X262.2998 Y2335.5399 Z-21.0000 F2750
G1 X263.7854 Y2333.8006 Z-21.0000 F2750
G1 X265.3377 Y2332.1318 Z-21.0000 F2750
G1 X266.9516 Y2330.5369 Z-21.0000 F2750
G1 X268.6219 Y2329.0192 Z-21.0000 F2750
G1 X270.3433 Y2327.5813 Z-21.0000 F2750
G1 X270.3433 Y2327.5813 Z10.0000 F9999
G1 X460.4432 Y2327.9914 Z10.0000 F9999
G1 X460.4432 Y2327.9914 Z1.0000 F2000
G1 X462.1515 Y2329.4539 Z0.2766 F2000
G1 X463.8068 Y2330.9952 Z-0.4511 F2000
G1 X465.4037 Y2332.6127 Z-1.1823 F2000
G1 X466.9373 Y2334.3028 Z-1.9164 F2000
G1 X468.4025 Y2336.0619 Z-2.6529 F2000
G1 X469.7949 Y2337.8857 Z-3.3911 F2000
G1 X471.1103 Y2339.7695 Z-4.1303 F2000
G1 X472.3449 Y2341.7085 Z-4.8697 F2000
G1 X473.4953 Y2343.6974 Z-5.6089 F2000
G1 X474.5588 Y2345.7307 Z-6.3471 F2000
G1 X475.5327 Y2347.8025 Z-7.0836 F2000
G1 X476.4154 Y2349.9071 Z-7.8177 F2000
G1 X477.2053 Y2352.0384 Z-8.5489 F2000
G1 X477.9016 Y2354.1904 Z-9.2766 F2000
G1 X478.5040 Y2356.3570 Z-10.0000 F2000
G1 X477.9016 Y2354.1904 Z-10.7234 F2000
G1 X477.2053 Y2352.0384 Z-11.4511 F2000
G1 X476.4154 Y2349.9071 Z-12.1823 F2000
G1 X475.5327 Y2347.8025 Z-12.9164 F2000
G1 X474.5588 Y2345.7307 Z-13.6529 F2000
G1 X473.4953 Y2343.6974 Z-14.3911 F2000
G1 X472.3449 Y2341.7085 Z-15.1303 F2000
G1 X471.1103 Y2339.7695 Z-15.8697 F2000
G1 X469.7949 Y2337.8857 Z-16.6089 F2000
G1 X468.4025 Y2336.0619 Z-17.3471 F2000
G1 X466.9373 Y2334.3028 Z-18.0836 F2000
G1 X465.4037 Y2332.6127 Z-18.8177 F2000
G1 X463.8068 Y2330.9952 Z-19.5489 F2000
G1 X462.1515 Y2329.4539 Z-20.2766 F2000
G1 X460.4432 Y2327.9914 Z-21.0000 F2000
G1 X462.1515 Y2329.4539 Z-21.0000 F2750
G1 X463.8068 Y2330.9952 Z-21.0000 F2750
G1 X465.4037 Y2332.6127 Z-21.0000 F2750
G1 X466.9373 Y2334.3028 Z-21.0000 F2750
G1 X468.4025 Y2336.0619 Z-21.0000 F2750
G1 X469.7949 Y2337.8857 Z-21.0000 F2750
G1 X471.1103 Y2339.7695 Z-21.0000 F2750
G1 X472.3449 Y2341.7085 Z-21.0000 F2750
G1 X473.4953 Y2343.6974 Z-21.0000 F2750
G1 X474.5588 Y2345.7307 Z-21.0000 F2750
G1 X475.5327 Y2347.8025 Z-21.0000 F2750
G1 X476.4154 Y2349.9071 Z-21.0000 F2750
G1 X477.2053 Y2352.0384 Z-21.0000 F2750
G1 X477.9016 Y2354.1904 Z-21.0000 F2750
G1 X478.5040 Y2356.3570 Z-21.0000 F2750
G1 X478.5040 Y2356.3570 Z-15.0000 F9999
G1 X478.8455 Y2357.7719 Z-15.0000 F2750
G1 X479.1489 Y2359.1956 Z-15.0000 F2750
G1 X479.5217 Y2361.2822 Z-15.0000 F2750
G1 X479.8126 Y2363.3843 Z-15.0000 F2750
G1 X480.0208 Y2365.4970 Z-15.0000 F2750
G1 X480.1457 Y2367.6154 Z-15.0000 F2750
G1 X480.1873 Y2369.7346 Z-15.0000 F2750
G1 X480.1401 Y2371.9924 Z-15.0000 F2750
G1 X479.9982 Y2374.2502 Z-15.0000 F2750
G1 X479.7616 Y2376.5020 Z-15.0000 F2750
G1 X479.4308 Y2378.7420 Z-15.0000 F2750
G1 X479.0068 Y2380.9641 Z-15.0000 F2750
G1 X478.4911 Y2383.1627 Z-15.0000 F2750
G1 X478.4911 Y2383.1627 Z-21.0000 F2000
G1 X478.0049 Y2384.9311 Z-21.0000 F2750
G1 X477.4589 Y2386.6820 Z-21.0000 F2750
G1 X476.7465 Y2388.7019 Z-21.0000 F2750
G1 X475.9444 Y2390.7161 Z-21.0000 F2750
G1 X475.0514 Y2392.7192 Z-21.0000 F2750
G1 X474.0669 Y2394.7052 Z-21.0000 F2750
G1 X472.9908 Y2396.6683 Z-21.0000 F2750
G1 X471.8232 Y2398.6023 Z-21.0000 F2750
G1 X470.5652 Y2400.5012 Z-21.0000 F2750
G1 X469.2180 Y2402.3589 Z-21.0000 F2750
G1 X467.7835 Y2404.1691 Z-21.0000 F2750
G1 X466.2642 Y2405.9260 Z-21.0000 F2750
G1 X464.6630 Y2407.6238 Z-21.0000 F2750
G1 X462.9836 Y2409.2568 Z-21.0000 F2750
G1 X461.2298 Y2410.8198 Z-21.0000 F2750
G1 X459.4062 Y2412.3077 Z-21.0000 F2750
G1 X457.5176 Y2413.7161 Z-21.0000 F2750
G1 X455.5694 Y2415.0407 Z-21.0000 F2750
G1 X453.5672 Y2416.2780 Z-21.0000 F2750
G1 X451.5170 Y2417.4248 Z-21.0000 F2750
G1 X449.4248 Y2418.4784 Z-21.0000 F2750
G1 X447.2970 Y2419.4369 Z-21.0000 F2750
G1 X445.1401 Y2420.2987 Z-21.0000 F2750
G1 X442.9605 Y2421.0629 Z-21.0000 F2750
G1 X440.7646 Y2421.7291 Z-21.0000 F2750
G1 X438.5588 Y2422.2976 Z-21.0000 F2750
G1 X436.3494 Y2422.7690 Z-21.0000 F2750
G1 X434.1425 Y2423.1446 Z-21.0000 F2750
G1 X431.9438 Y2423.4260 Z-21.0000 F2750
G1 X429.7589 Y2423.6155 Z-21.0000 F2750
G1 X427.5931 Y2423.7154 Z-21.0000 F2750
G1 X425.4513 Y2423.7286 Z-21.0000 F2750
G1 X423.2942 Y2423.6560 Z-21.0000 F2750
G1 X421.1194 Y2423.4952 Z-21.0000 F2750
G1 X418.9321 Y2423.2439 Z-21.0000 F2750
G1 X416.7377 Y2422.9002 Z-21.0000 F2750
G1 X414.5421 Y2422.4628 Z-21.0000 F2750
G1 X412.3509 Y2421.9306 Z-21.0000 F2750
G1 X410.1704 Y2421.3032 Z-21.0000 F2750
G1 X408.0065 Y2420.5806 Z-21.0000 F2750
G1 X405.8654 Y2419.7634 Z-21.0000 F2750
G1 X403.7534 Y2418.8525 Z-21.0000 F2750
G1 X401.6764 Y2417.8497 Z-21.0000 F2750
G1 X399.6404 Y2416.7570 Z-21.0000 F2750
G1 X397.6513 Y2415.5771 Z-21.0000 F2750
G1 X395.7145 Y2414.3131 Z-21.0000 F2750
G1 X393.8353 Y2412.9686 Z-21.0000 F2750
G1 X392.0187 Y2411.5477 Z-21.0000 F2750
G1 X390.2690 Y2410.0546 Z-21.0000 F2750
G1 X388.5906 Y2408.4942 Z-21.0000 F2750
G1 X386.9870 Y2406.8715 Z-21.0000 F2750
G1 X385.4614 Y2405.1919 Z-21.0000 F2750
G1 X384.0167 Y2403.4607 Z-21.0000 F2750
G1 X382.6549 Y2401.6836 Z-21.0000 F2750
G1 X381.3779 Y2399.8664 Z-21.0000 F2750
G1 X380.1869 Y2398.0147 Z-21.0000 F2750
G1 X379.0825 Y2396.1343 Z-21.0000 F2750
G1 X378.0652 Y2394.2307 Z-21.0000 F2750
G1 X378.0652 Y2394.2307 Z-15.0000 F9999
G1 X377.2202 Y2392.4947 Z-15.0000 F2750
G1 X376.4371 Y2390.7278 Z-15.0000 F2750
G1 X375.7175 Y2388.9334 Z-15.0000 F2750
G1 X375.0628 Y2387.1151 Z-15.0000 F2750
G1 X374.4742 Y2385.2762 Z-15.0000 F2750
G1 X373.9309 Y2383.3380 Z-15.0000 F2750
G1 X373.4597 Y2381.3789 Z-15.0000 F2750
G1 X373.0619 Y2379.4029 Z-15.0000 F2750
G1 X372.7381 Y2377.4140 Z-15.0000 F2750
G1 X372.4891 Y2375.4166 Z-15.0000 F2750
G1 X372.4891 Y2375.4166 Z-21.0000 F2000
G1 X372.3226 Y2373.5267 Z-21.0000 F2750
G1 X372.2226 Y2371.6316 Z-21.0000 F2750
G1 X372.1893 Y2369.7346 Z-21.0000 F2750
G1 X372.2267 Y2367.7255 Z-21.0000 F2750
G1 X372.3390 Y2365.7163 Z-21.0000 F2750
G1 X372.5263 Y2363.7113 Z-21.0000 F2750
G1 X372.7882 Y2361.7147 Z-21.0000 F2750
G1 X373.1241 Y2359.7306 Z-21.0000 F2750
G1 X373.5330 Y2357.7632 Z-21.0000 F2750
G1 X374.0650 Y2355.6259 Z-21.0000 F2750
G1 X374.6902 Y2353.4916 Z-21.0000 F2750
G1 X375.4095 Y2351.3659 Z-21.0000 F2750
G1 X376.2235 Y2349.2550 Z-21.0000 F2750
G1 X377.1321 Y2347.1651 Z-21.0000 F2750
G1 X378.1348 Y2345.1023 Z-21.0000 F2750
G1 X379.2305 Y2343.0728 Z-21.0000 F2750
G1 X380.4175 Y2341.0829 Z-21.0000 F2750
G1 X381.6936 Y2339.1386 Z-21.0000 F2750
G1 X383.0563 Y2337.2459 Z-21.0000 F2750
G1 X384.5022 Y2335.4103 Z-21.0000 F2750
G1 X386.0275 Y2333.6375 Z-21.0000 F2750
G1 X387.6283 Y2331.9323 Z-21.0000 F2750
G1 X389.2997 Y2330.2996 Z-21.0000 F2750
G1 X391.0369 Y2328.7435 Z-21.0000 F2750
G1 X392.8346 Y2327.2679 Z-21.0000 F2750
G1 X394.6871 Y2325.8762 Z-21.0000 F2750
G1 X396.5886 Y2324.5710 Z-21.0000 F2750
G1 X398.5332 Y2323.3548 Z-21.0000 F2750
G1 X400.5148 Y2322.2293 Z-21.0000 F2750
G1 X402.5272 Y2321.1955 Z-21.0000 F2750
G1 X404.5644 Y2320.2544 Z-21.0000 F2750
G1 X406.6202 Y2319.4059 Z-21.0000 F2750
G1 X408.6888 Y2318.6498 Z-21.0000 F2750
G1 X410.7865 Y2317.9787 Z-21.0000 F2750
G1 X412.9308 Y2317.3884 Z-21.0000 F2750
G1 X415.1171 Y2316.8828 Z-21.0000 F2750
G1 X417.3407 Y2316.4654 Z-21.0000 F2750
G1 X419.5962 Y2316.1395 Z-21.0000 F2750
G1 X421.8781 Y2315.9079 Z-21.0000 F2750
G1 X424.1805 Y2315.7730 Z-21.0000 F2750
G1 X426.4972 Y2315.7365 Z-21.0000 F2750
G1 X428.8221 Y2315.7999 Z-21.0000 F2750
G1 X431.1485 Y2315.9639 Z-21.0000 F2750
G1 X433.4700 Y2316.2289 Z-21.0000 F2750
G1 X435.7801 Y2316.5944 Z-21.0000 F2750
G1 X438.0721 Y2317.0595 Z-21.0000 F2750
G1 X440.3398 Y2317.6230 Z-21.0000 F2750
G1 X442.5767 Y2318.2826 Z-21.0000 F2750
G1 X444.7770 Y2319.0360 Z-21.0000 F2750
G1 X446.9349 Y2319.8801 Z-21.0000 F2750
G1 X449.0448 Y2320.8115 Z-21.0000 F2750
G1 X451.1017 Y2321.8262 Z-21.0000 F2750
G1 X453.1009 Y2322.9201 Z-21.0000 F2750
G1 X455.0383 Y2324.0885 Z-21.0000 F2750
G1 X456.9099 Y2325.3266 Z-21.0000 F2750
G1 X458.7125 Y2326.6293 Z-21.0000 F2750
G1 X460.4432 Y2327.9914 Z-21.0000 F2750
G1 X460.4432 Y2327.9914 Z10.0000 F9999
G1 X582.4252 Y2327.8981 Z10.0000 F9999
G1 X582.4252 Y2327.8981 Z1.0000 F2000
G1 X584.1576 Y2329.3737 Z0.2768 F2000
G1 X585.8360 Y2330.9304 Z-0.4507 F2000
G1 X587.4548 Y2332.5652 Z-1.1818 F2000
G1 X589.0088 Y2334.2747 Z-1.9160 F2000
G1 X590.4930 Y2336.0549 Z-2.6526 F2000
G1 X591.9025 Y2337.9015 Z-3.3909 F2000
G1 X593.2332 Y2339.8098 Z-4.1302 F2000
G1 X594.4809 Y2341.7745 Z-4.8698 F2000
G1 X595.6423 Y2343.7901 Z-5.6091 F2000
G1 X596.7144 Y2345.8511 Z-6.3474 F2000
G1 X597.6947 Y2347.9513 Z-7.0840 F2000
G1 X598.5812 Y2350.0847 Z-7.8182 F2000
G1 X599.3726 Y2352.2450 Z-8.5493 F2000
G1 X600.0679 Y2354.4260 Z-9.2768 F2000
G1 X600.6669 Y2356.6214 Z-10.0000 F2000
G1 X600.0679 Y2354.4260 Z-10.7232 F2000
G1 X599.3726 Y2352.2450 Z-11.4507 F2000
G1 X598.5812 Y2350.0847 Z-12.1818 F2000
G1 X597.6947 Y2347.9513 Z-12.9160 F2000
G1 X596.7144 Y2345.8511 Z-13.6526 F2000
G1 X595.6423 Y2343.7901 Z-14.3909 F2000
G1 X594.4809 Y2341.7745 Z-15.1302 F2000
G1 X593.2332 Y2339.8098 Z-15.8698 F2000
G1 X591.9025 Y2337.9015 Z-16.6091 F2000
G1 X590.4930 Y2336.0549 Z-17.3474 F2000
G1 X589.0088 Y2334.2747 Z-18.0840 F2000
G1 X587.4548 Y2332.5652 Z-18.8182 F2000
G1 X585.8360 Y2330.9304 Z-19.5493 F2000
G1 X584.1576 Y2329.3737 Z-20.2768 F2000
G1 X582.4252 Y2327.8981 Z-21.0000 F2000
G1 X584.1576 Y2329.3737 Z-21.0000 F2750
G1 X585.8360 Y2330.9304 Z-21.0000 F2750
G1 X587.4548 Y2332.5652 Z-21.0000 F2750
G1 X589.0088 Y2334.2747 Z-21.0000 F2750
G1 X590.4930 Y2336.0549 Z-21.0000 F2750
G1 X591.9025 Y2337.9015 Z-21.0000 F2750
G1 X593.2332 Y2339.8098 Z-21.0000 F2750
G1 X594.4809 Y2341.7745 Z-21.0000 F2750
G1 X595.6423 Y2343.7901 Z-21.0000 F2750
G1 X596.7144 Y2345.8511 Z-21.0000 F2750
G1 X597.6947 Y2347.9513 Z-21.0000 F2750
G1 X598.5812 Y2350.0847 Z-21.0000 F2750
G1 X599.3726 Y2352.2450 Z-21.0000 F2750
G1 X600.0679 Y2354.4260 Z-21.0000 F2750
G1 X600.6669 Y2356.6214 Z-21.0000 F2750
G1 X600.6669 Y2356.6214 Z-15.0000 F9999
G1 X600.9392 Y2357.7612 Z-15.0000 F2750
G1 X601.1866 Y2358.9067 Z-15.0000 F2750
G1 X601.5803 Y2361.0493 Z-15.0000 F2750
G1 X601.8876 Y2363.2086 Z-15.0000 F2750
G1 X602.1075 Y2365.3795 Z-15.0000 F2750
G1 X602.2394 Y2367.5566 Z-15.0000 F2750
G1 X602.2834 Y2369.7346 Z-15.0000 F2750
G1 X602.2381 Y2371.9458 Z-15.0000 F2750
G1 X602.1020 Y2374.1570 Z-15.0000 F2750
G1 X601.8751 Y2376.3626 Z-15.0000 F2750
G1 X601.5578 Y2378.5570 Z-15.0000 F2750
G1 X601.1511 Y2380.7347 Z-15.0000 F2750
G1 X600.6563 Y2382.8903 Z-15.0000 F2750
G1 X600.6563 Y2382.8903 Z-21.0000 F2000
G1 X600.2724 Y2384.3338 Z-21.0000 F2750
G1 X599.8487 Y2385.7662 Z-21.0000 F2750
G1 X599.1676 Y2387.8119 Z-21.0000 F2750
G1 X598.3954 Y2389.8537 Z-21.0000 F2750
G1 X597.5308 Y2391.8859 Z-21.0000 F2750
G1 X596.5731 Y2393.9026 Z-21.0000 F2750
G1 X595.5219 Y2395.8977 Z-21.0000 F2750
G1 X594.3774 Y2397.8651 Z-21.0000 F2750
G1 X593.1404 Y2399.7984 Z-21.0000 F2750
G1 X591.8121 Y2401.6913 Z-21.0000 F2750
G1 X590.3944 Y2403.5376 Z-21.0000 F2750
G1 X588.8896 Y2405.3311 Z-21.0000 F2750
G1 X587.3008 Y2407.0658 Z-21.0000 F2750
G1 X585.6314 Y2408.7359 Z-21.0000 F2750
G1 X583.8854 Y2410.3359 Z-21.0000 F2750
G1 X582.0674 Y2411.8607 Z-21.0000 F2750
G1 X580.1822 Y2413.3055 Z-21.0000 F2750
G1 X578.2354 Y2414.6660 Z-21.0000 F2750
G1 X576.2326 Y2415.9384 Z-21.0000 F2750
G1 X574.1799 Y2417.1194 Z-21.0000 F2750
G1 X572.0835 Y2418.2062 Z-21.0000 F2750
G1 X569.9498 Y2419.1967 Z-21.0000 F2750
G1 X567.7855 Y2420.0893 Z-21.0000 F2750
G1 X565.5972 Y2420.8830 Z-21.0000 F2750
G1 X563.3915 Y2421.5774 Z-21.0000 F2750
G1 X561.1748 Y2422.1725 Z-21.0000 F2750
G1 X558.9536 Y2422.6691 Z-21.0000 F2750
G1 X556.7341 Y2423.0684 Z-21.0000 F2750
G1 X554.5223 Y2423.3721 Z-21.0000 F2750
G1 X552.3239 Y2423.5823 Z-21.0000 F2750
G1 X550.1442 Y2423.7016 Z-21.0000 F2750
G1 X547.9883 Y2423.7328 Z-21.0000 F2750
G1 X545.7986 Y2423.6764 Z-21.0000 F2750
G1 X543.5896 Y2423.5292 Z-21.0000 F2750
G1 X541.3667 Y2423.2887 Z-21.0000 F2750
G1 X539.1356 Y2422.9530 Z-21.0000 F2750
G1 X536.9023 Y2422.5204 Z-21.0000 F2750
G1 X534.6729 Y2421.9900 Z-21.0000 F2750
G1 X532.4537 Y2421.3610 Z-21.0000 F2750
G1 X530.2512 Y2420.6335 Z-21.0000 F2750
G1 X528.0718 Y2419.8080 Z-21.0000 F2750
G1 X525.9221 Y2418.8857 Z-21.0000 F2750
G1 X523.8085 Y2417.8680 Z-21.0000 F2750
G1 X521.7371 Y2416.7574 Z-21.0000 F2750
G1 X519.7142 Y2415.5564 Z-21.0000 F2750
G1 X517.7455 Y2414.2685 Z-21.0000 F2750
G1 X515.8365 Y2412.8974 Z-21.0000 F2750
G1 X513.9924 Y2411.4474 Z-21.0000 F2750
G1 X512.2180 Y2409.9231 Z-21.0000 F2750
G1 X510.5176 Y2408.3295 Z-21.0000 F2750
G1 X508.8950 Y2406.6720 Z-21.0000 F2750
G1 X507.3535 Y2404.9561 Z-21.0000 F2750
G1 X505.8959 Y2403.1877 Z-21.0000 F2750
G1 X504.5245 Y2401.3727 Z-21.0000 F2750
G1 X503.2411 Y2399.5171 Z-21.0000 F2750
G1 X502.0468 Y2397.6270 Z-21.0000 F2750
G1 X500.9424 Y2395.7082 Z-21.0000 F2750
G1 X499.9279 Y2393.7669 Z-21.0000 F2750
G1 X499.9279 Y2393.7669 Z-15.0000 F9999
G1 X498.9468 Y2391.6822 Z-15.0000 F2750
G1 X498.0546 Y2389.5555 Z-15.0000 F2750
G1 X497.2541 Y2387.3928 Z-15.0000 F2750
G1 X496.5473 Y2385.1998 Z-15.0000 F2750
G1 X496.0290 Y2383.3459 Z-15.0000 F2750
G1 X495.5766 Y2381.4729 Z-15.0000 F2750
G1 X495.1913 Y2379.5843 Z-15.0000 F2750
G1 X494.8737 Y2377.6839 Z-15.0000 F2750
G1 X494.6243 Y2375.7751 Z-15.0000 F2750
G1 X494.6243 Y2375.7751 Z-21.0000 F2000
G1 X494.4361 Y2373.7665 Z-21.0000 F2750
G1 X494.3230 Y2371.7516 Z-21.0000 F2750
G1 X494.2854 Y2369.7346 Z-21.0000 F2750
G1 X494.3330 Y2367.4662 Z-21.0000 F2750
G1 X494.4762 Y2365.1988 Z-21.0000 F2750
G1 X494.7147 Y2362.9385 Z-21.0000 F2750
G1 X495.0480 Y2360.6911 Z-21.0000 F2750
G1 X495.4749 Y2358.4627 Z-21.0000 F2750
G1 X495.9811 Y2356.3084 Z-21.0000 F2750
G1 X496.5815 Y2354.1557 Z-21.0000 F2750
G1 X497.2771 Y2352.0104 Z-21.0000 F2750
G1 X498.0685 Y2349.8788 Z-21.0000 F2750
G1 X498.9557 Y2347.7670 Z-21.0000 F2750
G1 X499.9384 Y2345.6814 Z-21.0000 F2750
G1 X501.0155 Y2343.6283 Z-21.0000 F2750
G1 X502.1853 Y2341.6140 Z-21.0000 F2750
G1 X503.4459 Y2339.6448 Z-21.0000 F2750
G1 X504.7944 Y2337.7266 Z-21.0000 F2750
G1 X506.2277 Y2335.8653 Z-21.0000 F2750
G1 X507.7421 Y2334.0665 Z-21.0000 F2750
G1 X509.3334 Y2332.3353 Z-21.0000 F2750
G1 X510.9969 Y2330.6765 Z-21.0000 F2750
G1 X512.7277 Y2329.0946 Z-21.0000 F2750
G1 X514.5203 Y2327.5935 Z-21.0000 F2750
G1 X516.3691 Y2326.1765 Z-21.0000 F2750
G1 X518.2683 Y2324.8467 Z-21.0000 F2750
G1 X520.2117 Y2323.6064 Z-21.0000 F2750
G1 X522.1933 Y2322.4573 Z-21.0000 F2750
G1 X524.2067 Y2321.4008 Z-21.0000 F2750
G1 X526.2459 Y2320.4376 Z-21.0000 F2750
G1 X528.3046 Y2319.5679 Z-21.0000 F2750
G1 X530.3769 Y2318.7914 Z-21.0000 F2750
G1 X532.4792 Y2318.1005 Z-21.0000 F2750
G1 X534.6293 Y2317.4907 Z-21.0000 F2750
G1 X536.8226 Y2316.9661 Z-21.0000 F2750
G1 X539.0543 Y2316.5303 Z-21.0000 F2750
G1 X541.3190 Y2316.1868 Z-21.0000 F2750
G1 X543.6111 Y2315.9382 Z-21.0000 F2750
G1 X545.9247 Y2315.7872 Z-21.0000 F2750
G1 X548.2534 Y2315.7357 Z-21.0000 F2750
G1 X550.5911 Y2315.7849 Z-21.0000 F2750
G1 X552.9309 Y2315.9359 Z-21.0000 F2750
G1 X555.2665 Y2316.1889 Z-21.0000 F2750
G1 X557.5910 Y2316.5437 Z-21.0000 F2750
G1 X559.8979 Y2316.9993 Z-21.0000 F2750
G1 X562.1806 Y2317.5543 Z-21.0000 F2750
G1 X564.4327 Y2318.2068 Z-21.0000 F2750
G1 X566.6482 Y2318.9541 Z-21.0000 F2750
G1 X568.8211 Y2319.7933 Z-21.0000 F2750
G1 X570.9459 Y2320.7209 Z-21.0000 F2750
G1 X573.0175 Y2321.7329 Z-21.0000 F2750
G1 X575.0310 Y2322.8251 Z-21.0000 F2750
G1 X576.9821 Y2323.9927 Z-21.0000 F2750
G1 X578.8671 Y2325.2308 Z-21.0000 F2750
G1 X580.6824 Y2326.5344 Z-21.0000 F2750
G1 X582.4252 Y2327.8981 Z-21.0000 F2750
G1 X582.4252 Y2327.8981 Z10.0000 F9999
G1 X627.7701 Y2327.1939 Z10.0000 F9999
G1 X627.7701 Y2327.1939 Z1.0000 F2000
G1 X629.5161 Y2325.8115 Z0.3714 F2000
G1 X631.3356 Y2324.4899 Z-0.2634 F2000
G1 X633.2256 Y2323.2344 Z-0.9038 F2000
G1 X635.1825 Y2322.0502 Z-1.5494 F2000
G1 X637.2025 Y2320.9423 Z-2.1997 F2000
G1 X639.2812 Y2319.9153 Z-2.8541 F2000
G1 X641.4137 Y2318.9737 Z-3.5121 F2000
G1 X643.5946 Y2318.1214 Z-4.1731 F2000
G1 X645.8185 Y2317.3620 Z-4.8363 F2000
G1 X648.0792 Y2316.6984 Z-5.5014 F2000
G1 X650.3705 Y2316.1332 Z-6.1675 F2000
G1 X652.6861 Y2315.6683 Z-6.8342 F2000
G1 X655.0192 Y2315.3052 Z-7.5006 F2000
G1 X657.3631 Y2315.0448 Z-8.1663 F2000
G1 X659.7111 Y2314.8871 Z-8.8305 F2000
G1 X662.0565 Y2314.8319 Z-9.4927 F2000
G1 X663.8534 Y2314.8675 Z-10.0000 F2000
G1 X662.0565 Y2314.8319 Z-10.5073 F2000
G1 X659.7111 Y2314.8871 Z-11.1695 F2000
G1 X657.3631 Y2315.0448 Z-11.8337 F2000
G1 X655.0192 Y2315.3052 Z-12.4994 F2000
G1 X652.6861 Y2315.6683 Z-13.1658 F2000
G1 X650.3705 Y2316.1332 Z-13.8325 F2000
G1 X648.0792 Y2316.6984 Z-14.4986 F2000
G1 X645.8185 Y2317.3620 Z-15.1637 F2000
G1 X643.5946 Y2318.1214 Z-15.8269 F2000
G1 X641.4137 Y2318.9737 Z-16.4879 F2000
G1 X639.2812 Y2319.9153 Z-17.1459 F2000
G1 X637.2025 Y2320.9423 Z-17.8003 F2000
G1 X635.1825 Y2322.0502 Z-18.4506 F2000
G1 X633.2256 Y2323.2344 Z-19.0962 F2000
G1 X631.3356 Y2324.4899 Z-19.7366 F2000
G1 X629.5161 Y2325.8115 Z-20.3714 F2000
G1 X627.7701 Y2327.1939 Z-21.0000 F2000
G1 X629.5161 Y2325.8115 Z-21.0000 F2750
G1 X631.3356 Y2324.4899 Z-21.0000 F2750
G1 X633.2256 Y2323.2344 Z-21.0000 F2750
G1 X635.1825 Y2322.0502 Z-21.0000 F2750
G1 X637.2025 Y2320.9423 Z-21.0000 F2750
G1 X639.2812 Y2319.9153 Z-21.0000 F2750
G1 X641.4137 Y2318.9737 Z-21.0000 F2750
G1 X643.5946 Y2318.1214 Z-21.0000 F2750
G1 X645.8185 Y2317.3620 Z-21.0000 F2750
G1 X648.0792 Y2316.6984 Z-21.0000 F2750
G1 X650.3705 Y2316.1332 Z-21.0000 F2750
G1 X652.6861 Y2315.6683 Z-21.0000 F2750
G1 X655.0192 Y2315.3052 Z-21.0000 F2750
G1 X657.3631 Y2315.0448 Z-21.0000 F2750
G1 X659.7111 Y2314.8871 Z-21.0000 F2750
G1 X662.0565 Y2314.8319 Z-21.0000 F2750
G1 X664.3926 Y2314.8782 Z-21.0000 F2750
G1 X666.7131 Y2315.0246 Z-21.0000 F2750
G1 X669.0116 Y2315.2690 Z-21.0000 F2750
G1 X671.2821 Y2315.6089 Z-21.0000 F2750
G1 X673.5191 Y2316.0413 Z-21.0000 F2750
G1 X675.7172 Y2316.5629 Z-21.0000 F2750
G1 X677.8714 Y2317.1698 Z-21.0000 F2750
G1 X679.9829 Y2317.8600 Z-21.0000 F2750
G1 X682.0797 Y2318.6426 Z-21.0000 F2750
G1 X684.1615 Y2319.5199 Z-21.0000 F2750
G1 X686.2221 Y2320.4922 Z-21.0000 F2750
G1 X688.2550 Y2321.5589 Z-21.0000 F2750
G1 X690.2542 Y2322.7192 Z-21.0000 F2750
G1 X692.2131 Y2323.9716 Z-21.0000 F2750
G1 X694.1256 Y2325.3140 Z-21.0000 F2750
G1 X695.9856 Y2326.7438 Z-21.0000 F2750
G1 X697.7872 Y2328.2578 Z-21.0000 F2750
G1 X699.5248 Y2329.8523 Z-21.0000 F2750
G1 X701.1930 Y2331.5233 Z-21.0000 F2750
G1 X702.7870 Y2333.2660 Z-21.0000 F2750
G1 X704.3022 Y2335.0754 Z-21.0000 F2750
G1 X705.7346 Y2336.9461 Z-21.0000 F2750
G1 X707.0805 Y2338.8724 Z-21.0000 F2750
G1 X708.3371 Y2340.8483 Z-21.0000 F2750
G1 X709.5017 Y2342.8676 Z-21.0000 F2750
G1 X710.5726 Y2344.9240 Z-21.0000 F2750
G1 X711.5483 Y2347.0111 Z-21.0000 F2750
G1 X712.4280 Y2349.1225 Z-21.0000 F2750
G1 X713.2116 Y2351.2519 Z-21.0000 F2750
G1 X713.8993 Y2353.3930 Z-21.0000 F2750
G1 X714.4918 Y2355.5397 Z-21.0000 F2750
G1 X714.4918 Y2355.5397 Z-15.0000 F9999
G1 X714.5224 Y2355.6615 Z-15.0000 F2750
G1 X714.5530 Y2355.7833 Z-15.0000 F2750
G1 X715.0396 Y2357.9218 Z-15.0000 F2750
G1 X715.4396 Y2360.0818 Z-15.0000 F2750
G1 X715.7516 Y2362.2582 Z-15.0000 F2750
G1 X715.9747 Y2364.4454 Z-15.0000 F2750
G1 X716.1085 Y2366.6381 Z-15.0000 F2750
G1 X716.1531 Y2368.8308 Z-15.0000 F2750
G1 X716.1067 Y2371.0671 Z-15.0000 F2750
G1 X715.9675 Y2373.3035 Z-15.0000 F2750
G1 X715.7354 Y2375.5340 Z-15.0000 F2750
G1 X715.4109 Y2377.7530 Z-15.0000 F2750
G1 X714.9949 Y2379.9547 Z-15.0000 F2750
G1 X714.4888 Y2382.1335 Z-15.0000 F2750
G1 X714.4888 Y2382.1335 Z-21.0000 F2000
G1 X714.4298 Y2382.3635 Z-21.0000 F2750
G1 X714.3698 Y2382.5933 Z-21.0000 F2750
G1 X713.7736 Y2384.6836 Z-21.0000 F2750
G1 X713.0846 Y2386.7743 Z-21.0000 F2750
G1 X712.3013 Y2388.8595 Z-21.0000 F2750
G1 X711.4225 Y2390.9332 Z-21.0000 F2750
G1 X710.4476 Y2392.9892 Z-21.0000 F2750
G1 X709.3765 Y2395.0211 Z-21.0000 F2750
G1 X708.2097 Y2397.0224 Z-21.0000 F2750
G1 X706.9482 Y2398.9866 Z-21.0000 F2750
G1 X705.5936 Y2400.9072 Z-21.0000 F2750
G1 X704.1481 Y2402.7777 Z-21.0000 F2750
G1 X702.6145 Y2404.5918 Z-21.0000 F2750
G1 X700.9961 Y2406.3433 Z-21.0000 F2750
G1 X699.2968 Y2408.0266 Z-21.0000 F2750
G1 X697.5211 Y2409.6360 Z-21.0000 F2750
G1 X695.6738 Y2411.1666 Z-21.0000 F2750
G1 X693.7604 Y2412.6135 Z-21.0000 F2750
G1 X691.7866 Y2413.9728 Z-21.0000 F2750
G1 X689.7585 Y2415.2408 Z-21.0000 F2750
G1 X687.6825 Y2416.4143 Z-21.0000 F2750
G1 X685.5650 Y2417.4910 Z-21.0000 F2750
G1 X683.4129 Y2418.4690 Z-21.0000 F2750
G1 X681.2328 Y2419.3471 Z-21.0000 F2750
G1 X679.0317 Y2420.1245 Z-21.0000 F2750
G1 X676.8161 Y2420.8012 Z-21.0000 F2750
G1 X674.5927 Y2421.3777 Z-21.0000 F2750
G1 X672.3679 Y2421.8550 Z-21.0000 F2750
G1 X670.1479 Y2422.2348 Z-21.0000 F2750
G1 X667.9387 Y2422.5191 Z-21.0000 F2750
G1 X665.7457 Y2422.7102 Z-21.0000 F2750
G1 X663.5744 Y2422.8111 Z-21.0000 F2750
G1 X661.3591 Y2422.8240 Z-21.0000 F2750
G1 X659.1209 Y2422.7446 Z-21.0000 F2750
G1 X656.8653 Y2422.5702 Z-21.0000 F2750
G1 X654.5980 Y2422.2985 Z-21.0000 F2750
G1 X652.3252 Y2421.9277 Z-21.0000 F2750
G1 X650.0532 Y2421.4565 Z-21.0000 F2750
G1 X647.7886 Y2420.8839 Z-21.0000 F2750
G1 X645.5381 Y2420.2098 Z-21.0000 F2750
G1 X643.3084 Y2419.4345 Z-21.0000 F2750
G1 X641.1064 Y2418.5589 Z-21.0000 F2750
G1 X638.9386 Y2417.5846 Z-21.0000 F2750
G1 X636.8117 Y2416.5137 Z-21.0000 F2750
G1 X634.7321 Y2415.3488 Z-21.0000 F2750
G1 X632.7059 Y2414.0933 Z-21.0000 F2750
G1 X630.7390 Y2412.7510 Z-21.0000 F2750
G1 X628.8368 Y2411.3261 Z-21.0000 F2750
G1 X627.0044 Y2409.8234 Z-21.0000 F2750
G1 X625.2464 Y2408.2480 Z-21.0000 F2750
G1 X623.5668 Y2406.6053 Z-21.0000 F2750
G1 X621.9693 Y2404.9012 Z-21.0000 F2750
G1 X620.4568 Y2403.1416 Z-21.0000 F2750
G1 X619.0318 Y2401.3326 Z-21.0000 F2750
G1 X617.6962 Y2399.4804 Z-21.0000 F2750
G1 X616.4514 Y2397.5912 Z-21.0000 F2750
G1 X615.2981 Y2395.6714 Z-21.0000 F2750
G1 X614.2367 Y2393.7269 Z-21.0000 F2750
G1 X614.2367 Y2393.7269 Z-15.0000 F9999
G1 X613.2292 Y2391.6835 Z-15.0000 F2750
G1 X612.3079 Y2389.5975 Z-15.0000 F2750
G1 X611.4756 Y2387.4745 Z-15.0000 F2750
G1 X610.7343 Y2385.3201 Z-15.0000 F2750
G1 X610.1844 Y2383.4954 Z-15.0000 F2750
G1 X609.6989 Y2381.6506 Z-15.0000 F2750
G1 X609.2787 Y2379.7892 Z-15.0000 F2750
G1 X608.9246 Y2377.9148 Z-15.0000 F2750
G1 X608.6372 Y2376.0307 Z-15.0000 F2750
G1 X608.6372 Y2376.0307 Z-21.0000 F2000
G1 X608.4265 Y2374.2383 Z-21.0000 F2750
G1 X608.2757 Y2372.4388 Z-21.0000 F2750
G1 X608.1852 Y2370.6353 Z-21.0000 F2750
G1 X608.1551 Y2368.8308 Z-21.0000 F2750
G1 X608.1941 Y2366.7783 Z-21.0000 F2750
G1 X608.3113 Y2364.7264 Z-21.0000 F2750
G1 X608.5065 Y2362.6798 Z-21.0000 F2750
G1 X608.7794 Y2360.6429 Z-21.0000 F2750
G1 X609.1292 Y2358.6200 Z-21.0000 F2750
G1 X609.5792 Y2356.5110 Z-21.0000 F2750
G1 X610.1166 Y2354.4089 Z-21.0000 F2750
G1 X610.7415 Y2352.3190 Z-21.0000 F2750
G1 X611.4538 Y2350.2466 Z-21.0000 F2750
G1 X612.2527 Y2348.1972 Z-21.0000 F2750
G1 X613.1371 Y2346.1762 Z-21.0000 F2750
G1 X614.1055 Y2344.1889 Z-21.0000 F2750
G1 X615.1557 Y2342.2404 Z-21.0000 F2750
G1 X616.2854 Y2340.3359 Z-21.0000 F2750
G1 X617.4918 Y2338.4800 Z-21.0000 F2750
G1 X618.7715 Y2336.6774 Z-21.0000 F2750
G1 X620.1210 Y2334.9322 Z-21.0000 F2750
G1 X621.5364 Y2333.2485 Z-21.0000 F2750
G1 X623.0136 Y2331.6298 Z-21.0000 F2750
G1 X624.5480 Y2330.0793 Z-21.0000 F2750
G1 X626.1351 Y2328.5999 Z-21.0000 F2750
G1 X627.7701 Y2327.1939 Z-21.0000 F2750
G1 X627.7701 Y2327.1939 Z10.0000 F9999
G1 X750.6726 Y2326.5408 Z10.0000 F9999
G1 X750.6726 Y2326.5408 Z1.0000 F2000
G1 X752.4311 Y2325.2024 Z0.3762 F2000
G1 X754.2605 Y2323.9252 Z-0.2535 F2000
G1 X756.1579 Y2322.7144 Z-0.8888 F2000
G1 X758.1199 Y2321.5751 Z-1.5292 F2000
G1 X760.1424 Y2320.5120 Z-2.1742 F2000
G1 X762.2210 Y2319.5296 Z-2.8231 F2000
G1 X764.3510 Y2318.6320 Z-3.4755 F2000
G1 X766.5271 Y2317.8231 Z-4.1308 F2000
G1 X768.7438 Y2317.1061 Z-4.7884 F2000
G1 X770.9952 Y2316.4839 Z-5.4477 F2000
G1 X773.2751 Y2315.9589 Z-6.1081 F2000
G1 X775.5773 Y2315.5328 Z-6.7689 F2000
G1 X777.8952 Y2315.2071 Z-7.4296 F2000
G1 X780.2223 Y2314.9822 Z-8.0895 F2000
G1 X782.5521 Y2314.8585 Z-8.7481 F2000
G1 X784.8779 Y2314.8355 Z-9.4046 F2000
G1 X786.9863 Y2314.9052 Z-10.0000 F2000
G1 X784.8779 Y2314.8355 Z-10.5954 F2000
G1 X782.5521 Y2314.8585 Z-11.2519 F2000
G1 X780.2223 Y2314.9822 Z-11.9105 F2000
G1 X777.8952 Y2315.2071 Z-12.5704 F2000
G1 X775.5773 Y2315.5328 Z-13.2311 F2000
G1 X773.2751 Y2315.9589 Z-13.8919 F2000
G1 X770.9952 Y2316.4839 Z-14.5523 F2000
G1 X768.7438 Y2317.1061 Z-15.2116 F2000
G1 X766.5271 Y2317.8231 Z-15.8692 F2000
G1 X764.3510 Y2318.6320 Z-16.5245 F2000
G1 X762.2210 Y2319.5296 Z-17.1769 F2000
G1 X760.1424 Y2320.5120 Z-17.8258 F2000
G1 X758.1199 Y2321.5751 Z-18.4708 F2000
G1 X756.1579 Y2322.7144 Z-19.1112 F2000
G1 X754.2605 Y2323.9252 Z-19.7465 F2000
G1 X752.4311 Y2325.2024 Z-20.3762 F2000
G1 X750.6726 Y2326.5408 Z-21.0000 F2000
G1 X752.4311 Y2325.2024 Z-21.0000 F2750
G1 X754.2605 Y2323.9252 Z-21.0000 F2750
G1 X756.1579 Y2322.7144 Z-21.0000 F2750
G1 X758.1199 Y2321.5751 Z-21.0000 F2750
G1 X760.1424 Y2320.5120 Z-21.0000 F2750
G1 X762.2210 Y2319.5296 Z-21.0000 F2750
G1 X764.3510 Y2318.6320 Z-21.0000 F2750
G1 X766.5271 Y2317.8231 Z-21.0000 F2750
G1 X768.7438 Y2317.1061 Z-21.0000 F2750
G1 X770.9952 Y2316.4839 Z-21.0000 F2750
G1 X773.2751 Y2315.9589 Z-21.0000 F2750
G1 X775.5773 Y2315.5328 Z-21.0000 F2750
G1 X777.8952 Y2315.2071 Z-21.0000 F2750
G1 X780.2223 Y2314.9822 Z-21.0000 F2750
G1 X782.5521 Y2314.8585 Z-21.0000 F2750
G1 X784.8779 Y2314.8355 Z-21.0000 F2750
G1 X787.1934 Y2314.9121 Z-21.0000 F2750
G1 X789.4923 Y2315.0869 Z-21.0000 F2750
G1 X791.7685 Y2315.3578 Z-21.0000 F2750
G1 X794.0162 Y2315.7223 Z-21.0000 F2750
G1 X796.2299 Y2316.1774 Z-21.0000 F2750
G1 X798.4044 Y2316.7199 Z-21.0000 F2750
G1 X800.5351 Y2317.3459 Z-21.0000 F2750
G1 X802.6228 Y2318.0535 Z-21.0000 F2750
G1 X804.6951 Y2318.8518 Z-21.0000 F2750
G1 X806.7513 Y2319.7433 Z-21.0000 F2750
G1 X808.7856 Y2320.7278 Z-21.0000 F2750
G1 X810.7918 Y2321.8050 Z-21.0000 F2750
G1 X812.7637 Y2322.9738 Z-21.0000 F2750
G1 X814.6951 Y2324.2327 Z-21.0000 F2750
G1 X816.5801 Y2325.5796 Z-21.0000 F2750
G1 X818.4127 Y2327.0120 Z-21.0000 F2750
G1 X820.1871 Y2328.5267 Z-21.0000 F2750
G1 X821.8981 Y2330.1200 Z-21.0000 F2750
G1 X823.5403 Y2331.7880 Z-21.0000 F2750
G1 X825.1091 Y2333.5259 Z-21.0000 F2750
G1 X826.6000 Y2335.3289 Z-21.0000 F2750
G1 X828.0092 Y2337.1917 Z-21.0000 F2750
G1 X829.3332 Y2339.1087 Z-21.0000 F2750
G1 X830.5691 Y2341.0740 Z-21.0000 F2750
G1 X831.7145 Y2343.0816 Z-21.0000 F2750
G1 X832.7676 Y2345.1254 Z-21.0000 F2750
G1 X833.7270 Y2347.1991 Z-21.0000 F2750
G1 X834.5920 Y2349.2965 Z-21.0000 F2750
G1 X835.3623 Y2351.4114 Z-21.0000 F2750
G1 X836.0383 Y2353.5377 Z-21.0000 F2750
G1 X836.6206 Y2355.6694 Z-21.0000 F2750
G1 X836.6206 Y2355.6694 Z-15.0000 F9999
G1 X836.6888 Y2355.9467 Z-15.0000 F2750
G1 X836.7569 Y2356.2240 Z-15.0000 F2750
G1 X837.2109 Y2358.2927 Z-15.0000 F2750
G1 X837.5839 Y2360.3807 Z-15.0000 F2750
G1 X837.8748 Y2362.4834 Z-15.0000 F2750
G1 X838.0828 Y2364.5959 Z-15.0000 F2750
G1 X838.2076 Y2366.7134 Z-15.0000 F2750
G1 X838.2491 Y2368.8308 Z-15.0000 F2750
G1 X838.2036 Y2371.0473 Z-15.0000 F2750
G1 X838.0668 Y2373.2639 Z-15.0000 F2750
G1 X837.8388 Y2375.4748 Z-15.0000 F2750
G1 X837.5200 Y2377.6744 Z-15.0000 F2750
G1 X837.1114 Y2379.8572 Z-15.0000 F2750
G1 X836.6142 Y2382.0177 Z-15.0000 F2750
G1 X836.6142 Y2382.0177 Z-21.0000 F2000
G1 X836.4820 Y2382.5321 Z-21.0000 F2750
G1 X836.3447 Y2383.0452 Z-21.0000 F2750
G1 X835.7454 Y2385.0828 Z-21.0000 F2750
G1 X835.0574 Y2387.1204 Z-21.0000 F2750
G1 X834.2793 Y2389.1526 Z-21.0000 F2750
G1 X833.4099 Y2391.1738 Z-21.0000 F2750
G1 X832.4487 Y2393.1780 Z-21.0000 F2750
G1 X831.3956 Y2395.1595 Z-21.0000 F2750
G1 X830.2508 Y2397.1120 Z-21.0000 F2750
G1 X829.0154 Y2399.0296 Z-21.0000 F2750
G1 X827.6906 Y2400.9060 Z-21.0000 F2750
G1 X826.2785 Y2402.7351 Z-21.0000 F2750
G1 X824.7816 Y2404.5112 Z-21.0000 F2750
G1 X823.2029 Y2406.2283 Z-21.0000 F2750
G1 X821.5460 Y2407.8809 Z-21.0000 F2750
G1 X819.8148 Y2409.4638 Z-21.0000 F2750
G1 X818.0140 Y2410.9722 Z-21.0000 F2750
G1 X816.1483 Y2412.4014 Z-21.0000 F2750
G1 X814.2232 Y2413.7475 Z-21.0000 F2750
G1 X812.2441 Y2415.0069 Z-21.0000 F2750
G1 X810.2171 Y2416.1764 Z-21.0000 F2750
G1 X808.1482 Y2417.2537 Z-21.0000 F2750
G1 X806.0438 Y2418.2366 Z-21.0000 F2750
G1 X803.9100 Y2419.1237 Z-21.0000 F2750
G1 X801.7535 Y2419.9143 Z-21.0000 F2750
G1 X799.5804 Y2420.6080 Z-21.0000 F2750
G1 X797.3972 Y2421.2049 Z-21.0000 F2750
G1 X795.2099 Y2421.7059 Z-21.0000 F2750
G1 X793.0245 Y2422.1122 Z-21.0000 F2750
G1 X790.8467 Y2422.4254 Z-21.0000 F2750
G1 X788.6820 Y2422.6476 Z-21.0000 F2750
G1 X786.5356 Y2422.7814 Z-21.0000 F2750
G1 X784.4122 Y2422.8296 Z-21.0000 F2750
G1 X782.2506 Y2422.7928 Z-21.0000 F2750
G1 X780.0686 Y2422.6677 Z-21.0000 F2750
G1 X777.8714 Y2422.4517 Z-21.0000 F2750
G1 X775.6645 Y2422.1429 Z-21.0000 F2750
G1 X773.4535 Y2421.7395 Z-21.0000 F2750
G1 X771.2445 Y2421.2402 Z-21.0000 F2750
G1 X769.0434 Y2420.6444 Z-21.0000 F2750
G1 X766.8567 Y2419.9518 Z-21.0000 F2750
G1 X764.6904 Y2419.1628 Z-21.0000 F2750
G1 X762.5510 Y2418.2782 Z-21.0000 F2750
G1 X760.4448 Y2417.2993 Z-21.0000 F2750
G1 X758.3778 Y2416.2282 Z-21.0000 F2750
G1 X756.3561 Y2415.0673 Z-21.0000 F2750
G1 X754.3855 Y2413.8197 Z-21.0000 F2750
G1 X752.4716 Y2412.4887 Z-21.0000 F2750
G1 X750.6193 Y2411.0784 Z-21.0000 F2750
G1 X748.8337 Y2409.5932 Z-21.0000 F2750
G1 X747.1191 Y2408.0377 Z-21.0000 F2750
G1 X745.4794 Y2406.4170 Z-21.0000 F2750
G1 X743.9181 Y2404.7365 Z-21.0000 F2750
G1 X742.4382 Y2403.0018 Z-21.0000 F2750
G1 X741.0421 Y2401.2185 Z-21.0000 F2750
G1 X739.7319 Y2399.3925 Z-21.0000 F2750
G1 X738.5088 Y2397.5297 Z-21.0000 F2750
G1 X737.3739 Y2395.6359 Z-21.0000 F2750
G1 X736.3276 Y2393.7171 Z-21.0000 F2750
G1 X735.3699 Y2391.7788 Z-21.0000 F2750
G1 X735.3699 Y2391.7788 Z-15.0000 F9999
G1 X734.4574 Y2389.7251 Z-15.0000 F2750
G1 X733.6304 Y2387.6334 Z-15.0000 F2750
G1 X732.8913 Y2385.5091 Z-15.0000 F2750
G1 X732.2418 Y2383.3577 Z-15.0000 F2750
G1 X731.7670 Y2381.5355 Z-15.0000 F2750
G1 X731.3556 Y2379.6962 Z-15.0000 F2750
G1 X731.0085 Y2377.8431 Z-15.0000 F2750
G1 X730.7264 Y2375.9796 Z-15.0000 F2750
G1 X730.5097 Y2374.1091 Z-15.0000 F2750
G1 X730.5097 Y2374.1091 Z-21.0000 F2000
G1 X730.3661 Y2372.3529 Z-21.0000 F2750
G1 X730.2799 Y2370.5926 Z-21.0000 F2750
G1 X730.2511 Y2368.8308 Z-21.0000 F2750
G1 X730.2902 Y2366.7758 Z-21.0000 F2750
G1 X730.4078 Y2364.7207 Z-21.0000 F2750
G1 X730.6037 Y2362.6702 Z-21.0000 F2750
G1 X730.8777 Y2360.6286 Z-21.0000 F2750
G1 X731.2291 Y2358.6004 Z-21.0000 F2750
G1 X731.6568 Y2356.5900 Z-21.0000 F2750
G1 X732.2070 Y2354.4291 Z-21.0000 F2750
G1 X732.8502 Y2352.2797 Z-21.0000 F2750
G1 X733.5862 Y2350.1477 Z-21.0000 F2750
G1 X734.4144 Y2348.0391 Z-21.0000 F2750
G1 X735.3338 Y2345.9597 Z-21.0000 F2750
G1 X736.3427 Y2343.9155 Z-21.0000 F2750
G1 X737.4391 Y2341.9121 Z-21.0000 F2750
G1 X738.6202 Y2339.9552 Z-21.0000 F2750
G1 X739.8831 Y2338.0500 Z-21.0000 F2750
G1 X741.2243 Y2336.2015 Z-21.0000 F2750
G1 X742.6398 Y2334.4146 Z-21.0000 F2750
G1 X744.1254 Y2332.6936 Z-21.0000 F2750
G1 X745.6765 Y2331.0424 Z-21.0000 F2750
G1 X747.2881 Y2329.4645 Z-21.0000 F2750
G1 X748.9553 Y2327.9631 Z-21.0000 F2750
G1 X750.6726 Y2326.5408 Z-21.0000 F2750
G1 X750.6726 Y2326.5408 Z10.0000 F9999
G1 X939.9616 Y2326.5709 Z10.0000 F9999
G1 X939.9616 Y2326.5709 Z1.0000 F2000
G1 X941.6286 Y2327.9524 Z0.3224 F2000
G1 X943.2481 Y2329.4082 Z-0.3590 F2000
G1 X944.8152 Y2330.9359 Z-1.0439 F2000
G1 X946.3253 Y2332.5325 Z-1.7317 F2000
G1 X947.7739 Y2334.1950 Z-2.4217 F2000
G1 X949.1567 Y2335.9196 Z-3.1135 F2000
G1 X950.4700 Y2337.7024 Z-3.8065 F2000
G1 X951.7101 Y2339.5391 Z-4.5000 F2000
G1 X952.8738 Y2341.4251 Z-5.1935 F2000
G1 X953.9583 Y2343.3557 Z-5.8865 F2000
G1 X954.9610 Y2345.3257 Z-6.5783 F2000
G1 X955.8801 Y2347.3300 Z-7.2683 F2000
G1 X956.7139 Y2349.3634 Z-7.9561 F2000
G1 X957.4614 Y2351.4203 Z-8.6410 F2000
G1 X958.1218 Y2353.4953 Z-9.3224 F2000
G1 X958.6949 Y2355.5832 Z-10.0000 F2000
G1 X958.1218 Y2353.4953 Z-10.6776 F2000
G1 X957.4614 Y2351.4203 Z-11.3590 F2000
G1 X956.7139 Y2349.3634 Z-12.0439 F2000
G1 X955.8801 Y2347.3300 Z-12.7317 F2000
G1 X954.9610 Y2345.3257 Z-13.4217 F2000
G1 X953.9583 Y2343.3557 Z-14.1135 F2000
G1 X952.8738 Y2341.4251 Z-14.8065 F2000
G1 X951.7101 Y2339.5391 Z-15.5000 F2000
G1 X950.4700 Y2337.7024 Z-16.1935 F2000
G1 X949.1567 Y2335.9196 Z-16.8865 F2000
G1 X947.7739 Y2334.1950 Z-17.5783 F2000
G1 X946.3253 Y2332.5325 Z-18.2683 F2000
G1 X944.8152 Y2330.9359 Z-18.9561 F2000
G1 X943.2481 Y2329.4082 Z-19.6410 F2000
G1 X941.6286 Y2327.9524 Z-20.3224 F2000
G1 X939.9616 Y2326.5709 Z-21.0000 F2000
G1 X941.6286 Y2327.9524 Z-21.0000 F2750
G1 X943.2481 Y2329.4082 Z-21.0000 F2750
G1 X944.8152 Y2330.9359 Z-21.0000 F2750
G1 X946.3253 Y2332.5325 Z-21.0000 F2750
G1 X947.7739 Y2334.1950 Z-21.0000 F2750
G1 X949.1567 Y2335.9196 Z-21.0000 F2750
G1 X950.4700 Y2337.7024 Z-21.0000 F2750
G1 X951.7101 Y2339.5391 Z-21.0000 F2750
G1 X952.8738 Y2341.4251 Z-21.0000 F2750
G1 X953.9583 Y2343.3557 Z-21.0000 F2750
G1 X954.9610 Y2345.3257 Z-21.0000 F2750
G1 X955.8801 Y2347.3300 Z-21.0000 F2750
G1 X956.7139 Y2349.3634 Z-21.0000 F2750
G1 X957.4614 Y2351.4203 Z-21.0000 F2750
G1 X958.1218 Y2353.4953 Z-21.0000 F2750
G1 X958.6949 Y2355.5832 Z-21.0000 F2750
G1 X958.6949 Y2355.5832 Z-15.0000 F9999
G1 X958.8310 Y2356.1330 Z-15.0000 F2750
G1 X958.9613 Y2356.6842 Z-15.0000 F2750
G1 X959.3824 Y2358.6796 Z-15.0000 F2750
G1 X959.7284 Y2360.6924 Z-15.0000 F2750
G1 X959.9981 Y2362.7182 Z-15.0000 F2750
G1 X960.1910 Y2364.7528 Z-15.0000 F2750
G1 X960.3067 Y2366.7918 Z-15.0000 F2750
G1 X960.3452 Y2368.8308 Z-15.0000 F2750
G1 X960.2991 Y2371.0615 Z-15.0000 F2750
G1 X960.1606 Y2373.2922 Z-15.0000 F2750
G1 X959.9296 Y2375.5172 Z-15.0000 F2750
G1 X959.6067 Y2377.7307 Z-15.0000 F2750
G1 X959.1928 Y2379.9270 Z-15.0000 F2750
G1 X958.6893 Y2382.1007 Z-15.0000 F2750
G1 X958.6893 Y2382.1007 Z-21.0000 F2000
G1 X958.5044 Y2382.8098 Z-21.0000 F2750
G1 X958.3099 Y2383.5163 Z-21.0000 F2750
G1 X957.6900 Y2385.5551 Z-21.0000 F2750
G1 X956.9808 Y2387.5931 Z-21.0000 F2750
G1 X956.1809 Y2389.6250 Z-21.0000 F2750
G1 X955.2891 Y2391.6449 Z-21.0000 F2750
G1 X954.3050 Y2393.6471 Z-21.0000 F2750
G1 X953.2284 Y2395.6254 Z-21.0000 F2750
G1 X952.0598 Y2397.5738 Z-21.0000 F2750
G1 X950.8001 Y2399.4860 Z-21.0000 F2750
G1 X949.4508 Y2401.3559 Z-21.0000 F2750
G1 X948.0140 Y2403.1774 Z-21.0000 F2750
G1 X946.4922 Y2404.9444 Z-21.0000 F2750
G1 X944.8885 Y2406.6512 Z-21.0000 F2750
G1 X943.2067 Y2408.2921 Z-21.0000 F2750
G1 X941.4508 Y2409.8620 Z-21.0000 F2750
G1 X939.6255 Y2411.3558 Z-21.0000 F2750
G1 X937.7358 Y2412.7692 Z-21.0000 F2750
G1 X935.7871 Y2414.0981 Z-21.0000 F2750
G1 X933.7851 Y2415.3389 Z-21.0000 F2750
G1 X931.7358 Y2416.4885 Z-21.0000 F2750
G1 X929.6455 Y2417.5446 Z-21.0000 F2750
G1 X927.5205 Y2418.5051 Z-21.0000 F2750
G1 X925.3673 Y2419.3688 Z-21.0000 F2750
G1 X923.1924 Y2420.1348 Z-21.0000 F2750
G1 X921.0021 Y2420.8029 Z-21.0000 F2750
G1 X918.8029 Y2421.3734 Z-21.0000 F2750
G1 X916.6010 Y2421.8471 Z-21.0000 F2750
G1 X914.4024 Y2422.2255 Z-21.0000 F2750
G1 X912.2128 Y2422.5102 Z-21.0000 F2750
G1 X910.0377 Y2422.7035 Z-21.0000 F2750
G1 X907.8824 Y2422.8080 Z-21.0000 F2750
G1 X905.7515 Y2422.8265 Z-21.0000 F2750
G1 X903.5808 Y2422.7589 Z-21.0000 F2750
G1 X901.3906 Y2422.6019 Z-21.0000 F2750
G1 X899.1864 Y2422.3530 Z-21.0000 F2750
G1 X896.9735 Y2422.0102 Z-21.0000 F2750
G1 X894.7580 Y2421.5717 Z-21.0000 F2750
G1 X892.5457 Y2421.0365 Z-21.0000 F2750
G1 X890.3428 Y2420.4039 Z-21.0000 F2750
G1 X888.1559 Y2419.6737 Z-21.0000 F2750
G1 X885.9911 Y2418.8464 Z-21.0000 F2750
G1 X883.8549 Y2417.9229 Z-21.0000 F2750
G1 X881.7538 Y2416.9048 Z-21.0000 F2750
G1 X879.6938 Y2415.7940 Z-21.0000 F2750
G1 X877.6810 Y2414.5933 Z-21.0000 F2750
G1 X875.7214 Y2413.3057 Z-21.0000 F2750
G1 X873.8204 Y2411.9349 Z-21.0000 F2750
G1 X871.9832 Y2410.4851 Z-21.0000 F2750
G1 X870.2147 Y2408.9607 Z-21.0000 F2750
G1 X868.5191 Y2407.3666 Z-21.0000 F2750
G1 X866.9005 Y2405.7080 Z-21.0000 F2750
G1 X865.3622 Y2403.9905 Z-21.0000 F2750
G1 X863.9072 Y2402.2198 Z-21.0000 F2750
G1 X862.5378 Y2400.4017 Z-21.0000 F2750
G1 X861.2560 Y2398.5421 Z-21.0000 F2750
G1 X860.0629 Y2396.6472 Z-21.0000 F2750
G1 X858.9595 Y2394.7228 Z-21.0000 F2750
G1 X857.9461 Y2392.7749 Z-21.0000 F2750
G1 X857.0224 Y2390.8094 Z-21.0000 F2750
G1 X857.0224 Y2390.8094 Z-15.0000 F9999
G1 X856.1545 Y2388.7477 Z-15.0000 F2750
G1 X855.3720 Y2386.6500 Z-15.0000 F2750
G1 X854.6772 Y2384.5217 Z-15.0000 F2750
G1 X854.0716 Y2382.3683 Z-15.0000 F2750
G1 X853.6331 Y2380.5449 Z-15.0000 F2750
G1 X853.2578 Y2378.7058 Z-15.0000 F2750
G1 X852.9466 Y2376.8541 Z-15.0000 F2750
G1 X852.7000 Y2374.9933 Z-15.0000 F2750
G1 X852.5183 Y2373.1267 Z-15.0000 F2750
G1 X852.5183 Y2373.1267 Z-21.0000 F2000
G1 X852.3900 Y2370.9805 Z-21.0000 F2750
G1 X852.3472 Y2368.8308 Z-21.0000 F2750
G1 X852.3932 Y2366.6019 Z-21.0000 F2750
G1 X852.5315 Y2364.3730 Z-21.0000 F2750
G1 X852.7621 Y2362.1498 Z-21.0000 F2750
G1 X853.0845 Y2359.9381 Z-21.0000 F2750
G1 X853.4977 Y2357.7435 Z-21.0000 F2750
G1 X854.0004 Y2355.5715 Z-21.0000 F2750
