(plotsheet 2n3_nested_153 sheets_final v1_0_sheet 108a_S108.0_20 screws_CC8 - stepover 1mm)
(Material Size) (X=1220.000, Y=2440.000, Z=21.000)
(LinuxCNC_NoArcs_MM_TC_medium_50um_G1_verbose.con)
G90 G80 G21 G49
G64 P0.050
M6 T1
(Tool Number:1) (7.998 mm dia. slot drill)
G43 H1 G0Z80.0000
M3 S9000
G04 P10
G1 X158.7553 Y64.0028 Z10.0000 F9999
G1 X158.7553 Y64.0028 Z2.0000 F9999
G1 X158.7553 Y64.0028 Z-1.0000 F2500
G1 X158.7553 Y64.0028 Z10.0000 F9999
G1 X399.3211 Y463.3239 Z10.0000 F9999
G1 X399.3211 Y463.3239 Z2.0000 F9999
G1 X399.3211 Y463.3239 Z-1.0000 F2500
G1 X399.3211 Y463.3239 Z10.0000 F9999
G1 X709.2220 Y193.4229 Z10.0000 F9999
G1 X709.2220 Y193.4229 Z2.0000 F9999
G1 X709.2220 Y193.4229 Z-1.0000 F2500
G1 X709.2220 Y193.4229 Z10.0000 F9999
G1 X1052.6167 Y62.2772 Z10.0000 F9999
G1 X1052.6167 Y62.2772 Z2.0000 F9999
G1 X1052.6167 Y62.2772 Z-1.0000 F2500
G1 X1052.6167 Y62.2772 Z10.0000 F9999
G1 X971.5134 Y519.5615 Z10.0000 F9999
G1 X971.5134 Y519.5615 Z2.0000 F9999
G1 X971.5134 Y519.5615 Z-1.0000 F2500
G1 X971.5134 Y519.5615 Z10.0000 F9999
G1 X1176.8600 Y894.8798 Z10.0000 F9999
G1 X1176.8600 Y894.8798 Z2.0000 F9999
G1 X1176.8600 Y894.8798 Z-1.0000 F2500
G1 X1176.8600 Y894.8798 Z10.0000 F9999
G1 X1173.4088 Y1179.6040 Z10.0000 F9999
G1 X1173.4088 Y1179.6040 Z2.0000 F9999
G1 X1173.4088 Y1179.6040 Z-1.0000 F2500
G1 X1173.4088 Y1179.6040 Z10.0000 F9999
G1 X1171.6832 Y1491.9377 Z10.0000 F9999
G1 X1171.6832 Y1491.9377 Z2.0000 F9999
G1 X1171.6832 Y1491.9377 Z-1.0000 F2500
G1 X1171.6832 Y1491.9377 Z10.0000 F9999
G1 X973.2390 Y1508.3309 Z10.0000 F9999
G1 X973.2390 Y1508.3309 Z2.0000 F9999
G1 X973.2390 Y1508.3309 Z-1.0000 F2500
G1 X973.2390 Y1508.3309 Z10.0000 F9999
G1 X1168.2319 Y1769.7595 Z10.0000 F9999
G1 X1168.2319 Y1769.7595 Z2.0000 F9999
G1 X1168.2319 Y1769.7595 Z-1.0000 F2500
G1 X1168.2319 Y1769.7595 Z10.0000 F9999
G1 X864.5262 Y2120.9194 Z10.0000 F9999
G1 X864.5262 Y2120.9194 Z2.0000 F9999
G1 X864.5262 Y2120.9194 Z-1.0000 F2500
G1 X864.5262 Y2120.9194 Z10.0000 F9999
G1 X1107.1062 Y2357.4937 Z10.0000 F9999
G1 X1107.1062 Y2357.4937 Z2.0000 F9999
G1 X1107.1062 Y2357.4937 Z-1.0000 F2500
G1 X1107.1062 Y2357.4937 Z10.0000 F9999
G1 X433.1259 Y1821.5276 Z10.0000 F9999
G1 X433.1259 Y1821.5276 Z2.0000 F9999
G1 X433.1259 Y1821.5276 Z-1.0000 F2500
G1 X433.1259 Y1821.5276 Z10.0000 F9999
G1 X417.5955 Y1485.8982 Z10.0000 F9999
G1 X417.5955 Y1485.8982 Z2.0000 F9999
G1 X417.5955 Y1485.8982 Z-1.0000 F2500
G1 X417.5955 Y1485.8982 Z10.0000 F9999
G1 X44.8656 Y1486.7610 Z10.0000 F9999
G1 X44.8656 Y1486.7610 Z2.0000 F9999
G1 X44.8656 Y1486.7610 Z-1.0000 F2500
G1 X44.8656 Y1486.7610 Z10.0000 F9999
G1 X39.0577 Y1776.5437 Z10.0000 F9999
G1 X39.0577 Y1776.5437 Z2.0000 F9999
G1 X39.0577 Y1776.5437 Z-1.0000 F2500
G1 X39.0577 Y1776.5437 Z10.0000 F9999
G1 X236.4073 Y2241.7114 Z10.0000 F9999
G1 X236.4073 Y2241.7114 Z2.0000 F9999
G1 X236.4073 Y2241.7114 Z-1.0000 F2500
G1 X236.4073 Y2241.7114 Z10.0000 F9999
G1 X45.8873 Y1176.8209 Z10.0000 F9999
G1 X45.8873 Y1176.8209 Z2.0000 F9999
G1 X45.8873 Y1176.8209 Z-1.0000 F2500
G1 X45.8873 Y1176.8209 Z10.0000 F9999
G1 X48.3168 Y893.1542 Z10.0000 F9999
G1 X48.3168 Y893.1542 Z2.0000 F9999
G1 X48.3168 Y893.1542 Z-1.0000 F2500
G1 X48.3168 Y893.1542 Z10.0000 F9999
G1 X719.5757 Y987.1995 Z10.0000 F9999
G1 X719.5757 Y987.1995 Z2.0000 F9999
G1 X719.5757 Y987.1995 Z-1.0000 F2500
G1 X719.5757 Y987.1995 Z10.0000 F9999
G1 X1900.0000 Y2800.0000 Z80.0000 F9999
G1 Z80.0000 F9999
G1 X1900.0000 Y2800.0000 F9999
M5
M30
