(plotsheet 2n3_nested_153 sheets_final v1_0_sheet 101 to 106_S101.1_text_CC8 - stepover 1mm)
(Material Size) (X=1220.000, Y=2440.000, Z=21.000)
(LinuxCNC_NoArcs_MM_TC_medium_50um_G1_verbose.con)
G90 G80 G21 G49
G64 P0.050
M6 T1
(Tool Number:1) (7.998 mm dia. slot drill)
G43 H1 G0Z80.0000
M3 S19000
G04 P10
G1 X393.9265 Y299.6342 Z10.0000 F9999
G1 X393.9265 Y299.6342 Z-1.0000 F2000
G1 X408.3669 Y299.6342 Z-1.0000 F2750
G1 X393.9265 Y299.6342 Z-1.0000 F2750
G1 X393.9265 Y317.9278 Z-1.0000 F2750
G1 X409.0458 Y317.9278 Z-1.0000 F2750
G1 X393.9265 Y317.9278 Z-1.0000 F2750
G1 X393.9265 Y276.8269 Z-1.0000 F2750
G1 X393.9265 Y276.8269 Z10.0000 F9999
G1 X437.0824 Y276.8269 Z10.0000 F9999
G1 X437.0824 Y276.8269 Z-1.0000 F2000
G1 X424.4586 Y276.8269 Z-1.0000 F2750
G1 X424.4586 Y317.9278 Z-1.0000 F2750
G1 X424.4586 Y276.8269 Z-1.0000 F2750
G1 X424.4586 Y276.8269 Z10.0000 F9999
G1 X469.0458 Y276.8269 Z10.0000 F9999
G1 X469.0458 Y276.8269 Z-1.0000 F2000
G1 X460.8439 Y278.4232 Z-1.0000 F2750
G1 X454.1100 Y282.8269 Z-1.0000 F2750
G1 X449.5412 Y289.3590 Z-1.0000 F2750
G1 X447.8531 Y297.3406 Z-1.0000 F2750
G1 X449.5412 Y305.3223 Z-1.0000 F2750
G1 X454.1100 Y311.8727 Z-1.0000 F2750
G1 X460.8439 Y316.2947 Z-1.0000 F2750
G1 X469.0458 Y317.9278 Z-1.0000 F2750
G1 X477.3026 Y316.2947 Z-1.0000 F2750
G1 X484.0366 Y311.8727 Z-1.0000 F2750
G1 X488.5687 Y305.3223 Z-1.0000 F2750
G1 X490.2384 Y297.3406 Z-1.0000 F2750
G1 X488.5687 Y289.3590 Z-1.0000 F2750
G1 X484.0366 Y282.8269 Z-1.0000 F2750
G1 X477.3026 Y278.4232 Z-1.0000 F2750
G1 X469.0458 Y276.8269 Z-1.0000 F2750
G1 X460.8439 Y278.4232 Z-1.0000 F2750
G1 X454.1100 Y282.8269 Z-1.0000 F2750
G1 X449.5412 Y289.3590 Z-1.0000 F2750
G1 X447.8531 Y297.3406 Z-1.0000 F2750
G1 X449.5412 Y305.3223 Z-1.0000 F2750
G1 X454.1100 Y311.8727 Z-1.0000 F2750
G1 X460.8439 Y316.2947 Z-1.0000 F2750
G1 X469.0458 Y317.9278 Z-1.0000 F2750
G1 X477.3026 Y316.2947 Z-1.0000 F2750
G1 X484.0366 Y311.8727 Z-1.0000 F2750
G1 X488.5687 Y305.3223 Z-1.0000 F2750
G1 X490.2384 Y297.3406 Z-1.0000 F2750
G1 X488.5687 Y289.3590 Z-1.0000 F2750
G1 X484.0366 Y282.8269 Z-1.0000 F2750
G1 X477.3026 Y278.4232 Z-1.0000 F2750
G1 X469.0458 Y276.8269 Z-1.0000 F2750
G1 X469.0458 Y276.8269 Z10.0000 F9999
G1 X523.0641 Y276.8269 Z10.0000 F9999
G1 X523.0641 Y276.8269 Z-1.0000 F2000
G1 X514.8623 Y278.4232 Z-1.0000 F2750
G1 X508.1283 Y282.8269 Z-1.0000 F2750
G1 X503.5595 Y289.3590 Z-1.0000 F2750
G1 X501.8714 Y297.3406 Z-1.0000 F2750
G1 X503.5595 Y305.3223 Z-1.0000 F2750
G1 X508.1283 Y311.8727 Z-1.0000 F2750
G1 X514.8623 Y316.2947 Z-1.0000 F2750
G1 X523.0641 Y317.9278 Z-1.0000 F2750
G1 X531.3210 Y316.2947 Z-1.0000 F2750
G1 X538.0549 Y311.8727 Z-1.0000 F2750
G1 X542.5870 Y305.3223 Z-1.0000 F2750
G1 X544.2568 Y297.3406 Z-1.0000 F2750
G1 X542.5870 Y289.3590 Z-1.0000 F2750
G1 X538.0549 Y282.8269 Z-1.0000 F2750
G1 X531.3210 Y278.4232 Z-1.0000 F2750
G1 X523.0641 Y276.8269 Z-1.0000 F2750
G1 X514.8623 Y278.4232 Z-1.0000 F2750
G1 X508.1283 Y282.8269 Z-1.0000 F2750
G1 X503.5595 Y289.3590 Z-1.0000 F2750
G1 X501.8714 Y297.3406 Z-1.0000 F2750
G1 X503.5595 Y305.3223 Z-1.0000 F2750
G1 X508.1283 Y311.8727 Z-1.0000 F2750
G1 X514.8623 Y316.2947 Z-1.0000 F2750
G1 X523.0641 Y317.9278 Z-1.0000 F2750
G1 X531.3210 Y316.2947 Z-1.0000 F2750
G1 X538.0549 Y311.8727 Z-1.0000 F2750
G1 X542.5870 Y305.3223 Z-1.0000 F2750
G1 X544.2568 Y297.3406 Z-1.0000 F2750
G1 X542.5870 Y289.3590 Z-1.0000 F2750
G1 X538.0549 Y282.8269 Z-1.0000 F2750
G1 X531.3210 Y278.4232 Z-1.0000 F2750
G1 X523.0641 Y276.8269 Z-1.0000 F2750
G1 X523.0641 Y276.8269 Z10.0000 F9999
G1 X560.6788 Y276.8269 Z10.0000 F9999
G1 X560.6788 Y276.8269 Z-1.0000 F2000
G1 X560.6788 Y317.9278 Z-1.0000 F2750
G1 X567.8347 Y317.9278 Z-1.0000 F2750
G1 X571.7063 Y317.3223 Z-1.0000 F2750
G1 X574.9173 Y315.5058 Z-1.0000 F2750
G1 X577.1375 Y312.3498 Z-1.0000 F2750
G1 X577.9815 Y307.7076 Z-1.0000 F2750
G1 X576.8256 Y303.0287 Z-1.0000 F2750
G1 X574.0549 Y299.7076 Z-1.0000 F2750
G1 X570.7338 Y297.7443 Z-1.0000 F2750
G1 X567.8347 Y297.0837 Z-1.0000 F2750
G1 X560.6788 Y297.0837 Z-1.0000 F2750
G1 X567.8347 Y297.0837 Z-1.0000 F2750
G1 X570.7338 Y297.7443 Z-1.0000 F2750
G1 X574.0549 Y299.7076 Z-1.0000 F2750
G1 X576.8256 Y303.0287 Z-1.0000 F2750
G1 X577.9815 Y307.7076 Z-1.0000 F2750
G1 X577.1375 Y312.3498 Z-1.0000 F2750
G1 X574.9173 Y315.5058 Z-1.0000 F2750
G1 X571.7063 Y317.3223 Z-1.0000 F2750
G1 X567.8347 Y317.9278 Z-1.0000 F2750
G1 X560.6788 Y317.9278 Z-1.0000 F2750
G1 X560.6788 Y317.9278 Z10.0000 F9999
G1 X578.0916 Y276.8269 Z10.0000 F9999
G1 X578.0916 Y276.8269 Z-1.0000 F2000
G1 X564.8623 Y296.9736 Z-1.0000 F2750
G1 X578.0916 Y276.8269 Z-1.0000 F2750
G1 X578.0916 Y276.8269 Z10.0000 F9999
G1 X619.1558 Y327.3223 Z10.0000 F9999
G1 X619.1558 Y327.3223 Z-1.0000 F2000
G1 X588.7705 Y274.4782 Z-1.0000 F2750
G1 X619.1558 Y327.3223 Z-1.0000 F2750
G1 X619.1558 Y327.3223 Z10.0000 F9999
G1 X635.7980 Y317.9278 Z10.0000 F9999
G1 X635.7980 Y317.9278 Z-1.0000 F2000
G1 X654.0549 Y276.8269 Z-1.0000 F2750
G1 X672.3118 Y317.9278 Z-1.0000 F2750
G1 X675.8714 Y276.8269 Z-1.0000 F2750
G1 X672.3118 Y317.9278 Z-1.0000 F2750
G1 X654.0549 Y276.8269 Z-1.0000 F2750
G1 X635.7980 Y317.9278 Z-1.0000 F2750
G1 X632.2935 Y276.8269 Z-1.0000 F2750
G1 X632.2935 Y276.8269 Z10.0000 F9999
G1 X578.0916 Y880.8709 Z10.0000 F9999
G1 X578.0916 Y880.8709 Z-1.0000 F2000
G1 X564.8623 Y901.0177 Z-1.0000 F2750
G1 X578.0916 Y880.8709 Z-1.0000 F2750
G1 X578.0916 Y880.8709 Z10.0000 F9999
G1 X560.6788 Y880.8709 Z10.0000 F9999
G1 X560.6788 Y880.8709 Z-1.0000 F2000
G1 X560.6788 Y921.9719 Z-1.0000 F2750
G1 X567.8347 Y921.9719 Z-1.0000 F2750
G1 X571.7063 Y921.3664 Z-1.0000 F2750
G1 X574.9173 Y919.5498 Z-1.0000 F2750
G1 X577.1375 Y916.3939 Z-1.0000 F2750
G1 X577.9815 Y911.7517 Z-1.0000 F2750
G1 X576.8256 Y907.0728 Z-1.0000 F2750
G1 X574.0549 Y903.7517 Z-1.0000 F2750
G1 X570.7338 Y901.7884 Z-1.0000 F2750
G1 X567.8347 Y901.1278 Z-1.0000 F2750
G1 X560.6788 Y901.1278 Z-1.0000 F2750
G1 X567.8347 Y901.1278 Z-1.0000 F2750
G1 X570.7338 Y901.7884 Z-1.0000 F2750
G1 X574.0549 Y903.7517 Z-1.0000 F2750
G1 X576.8256 Y907.0728 Z-1.0000 F2750
G1 X577.9815 Y911.7517 Z-1.0000 F2750
G1 X577.1375 Y916.3939 Z-1.0000 F2750
G1 X574.9173 Y919.5498 Z-1.0000 F2750
G1 X571.7063 Y921.3664 Z-1.0000 F2750
G1 X567.8347 Y921.9719 Z-1.0000 F2750
G1 X560.6788 Y921.9719 Z-1.0000 F2750
G1 X560.6788 Y921.9719 Z10.0000 F9999
G1 X523.0641 Y880.8709 Z10.0000 F9999
G1 X523.0641 Y880.8709 Z-1.0000 F2000
G1 X514.8623 Y882.4673 Z-1.0000 F2750
G1 X508.1283 Y886.8709 Z-1.0000 F2750
G1 X503.5595 Y893.4031 Z-1.0000 F2750
G1 X501.8714 Y901.3847 Z-1.0000 F2750
G1 X503.5595 Y909.3664 Z-1.0000 F2750
G1 X508.1283 Y915.9168 Z-1.0000 F2750
G1 X514.8623 Y920.3388 Z-1.0000 F2750
G1 X523.0641 Y921.9719 Z-1.0000 F2750
G1 X531.3210 Y920.3388 Z-1.0000 F2750
G1 X538.0549 Y915.9168 Z-1.0000 F2750
G1 X542.5870 Y909.3664 Z-1.0000 F2750
G1 X544.2568 Y901.3847 Z-1.0000 F2750
G1 X542.5870 Y893.4031 Z-1.0000 F2750
G1 X538.0549 Y886.8709 Z-1.0000 F2750
G1 X531.3210 Y882.4673 Z-1.0000 F2750
G1 X523.0641 Y880.8709 Z-1.0000 F2750
G1 X514.8623 Y882.4673 Z-1.0000 F2750
G1 X508.1283 Y886.8709 Z-1.0000 F2750
G1 X503.5595 Y893.4031 Z-1.0000 F2750
G1 X501.8714 Y901.3847 Z-1.0000 F2750
G1 X503.5595 Y909.3664 Z-1.0000 F2750
G1 X508.1283 Y915.9168 Z-1.0000 F2750
G1 X514.8623 Y920.3388 Z-1.0000 F2750
G1 X523.0641 Y921.9719 Z-1.0000 F2750
G1 X531.3210 Y920.3388 Z-1.0000 F2750
G1 X538.0549 Y915.9168 Z-1.0000 F2750
G1 X542.5870 Y909.3664 Z-1.0000 F2750
G1 X544.2568 Y901.3847 Z-1.0000 F2750
G1 X542.5870 Y893.4031 Z-1.0000 F2750
G1 X538.0549 Y886.8709 Z-1.0000 F2750
G1 X531.3210 Y882.4673 Z-1.0000 F2750
G1 X523.0641 Y880.8709 Z-1.0000 F2750
G1 X523.0641 Y880.8709 Z10.0000 F9999
G1 X469.0458 Y880.8709 Z10.0000 F9999
G1 X469.0458 Y880.8709 Z-1.0000 F2000
G1 X460.8439 Y882.4673 Z-1.0000 F2750
G1 X454.1100 Y886.8709 Z-1.0000 F2750
G1 X449.5412 Y893.4031 Z-1.0000 F2750
G1 X447.8531 Y901.3847 Z-1.0000 F2750
G1 X449.5412 Y909.3664 Z-1.0000 F2750
G1 X454.1100 Y915.9168 Z-1.0000 F2750
G1 X460.8439 Y920.3388 Z-1.0000 F2750
G1 X469.0458 Y921.9719 Z-1.0000 F2750
G1 X477.3026 Y920.3388 Z-1.0000 F2750
G1 X484.0366 Y915.9168 Z-1.0000 F2750
G1 X488.5687 Y909.3664 Z-1.0000 F2750
G1 X490.2384 Y901.3847 Z-1.0000 F2750
G1 X488.5687 Y893.4031 Z-1.0000 F2750
G1 X484.0366 Y886.8709 Z-1.0000 F2750
G1 X477.3026 Y882.4673 Z-1.0000 F2750
G1 X469.0458 Y880.8709 Z-1.0000 F2750
G1 X460.8439 Y882.4673 Z-1.0000 F2750
G1 X454.1100 Y886.8709 Z-1.0000 F2750
G1 X449.5412 Y893.4031 Z-1.0000 F2750
G1 X447.8531 Y901.3847 Z-1.0000 F2750
G1 X449.5412 Y909.3664 Z-1.0000 F2750
G1 X454.1100 Y915.9168 Z-1.0000 F2750
G1 X460.8439 Y920.3388 Z-1.0000 F2750
G1 X469.0458 Y921.9719 Z-1.0000 F2750
G1 X477.3026 Y920.3388 Z-1.0000 F2750
G1 X484.0366 Y915.9168 Z-1.0000 F2750
G1 X488.5687 Y909.3664 Z-1.0000 F2750
G1 X490.2384 Y901.3847 Z-1.0000 F2750
G1 X488.5687 Y893.4031 Z-1.0000 F2750
G1 X484.0366 Y886.8709 Z-1.0000 F2750
G1 X477.3026 Y882.4673 Z-1.0000 F2750
G1 X469.0458 Y880.8709 Z-1.0000 F2750
G1 X469.0458 Y880.8709 Z10.0000 F9999
G1 X437.0824 Y880.8709 Z10.0000 F9999
G1 X437.0824 Y880.8709 Z-1.0000 F2000
G1 X424.4586 Y880.8709 Z-1.0000 F2750
G1 X424.4586 Y921.9719 Z-1.0000 F2750
G1 X424.4586 Y880.8709 Z-1.0000 F2750
G1 X424.4586 Y880.8709 Z10.0000 F9999
G1 X393.9265 Y903.6783 Z10.0000 F9999
G1 X393.9265 Y903.6783 Z-1.0000 F2000
G1 X408.3669 Y903.6783 Z-1.0000 F2750
G1 X393.9265 Y903.6783 Z-1.0000 F2750
G1 X393.9265 Y921.9719 Z-1.0000 F2750
G1 X409.0458 Y921.9719 Z-1.0000 F2750
G1 X393.9265 Y921.9719 Z-1.0000 F2750
G1 X393.9265 Y880.8709 Z-1.0000 F2750
G1 X393.9265 Y880.8709 Z10.0000 F9999
G1 X619.1558 Y931.3664 Z10.0000 F9999
G1 X619.1558 Y931.3664 Z-1.0000 F2000
G1 X588.7705 Y878.5223 Z-1.0000 F2750
G1 X619.1558 Y931.3664 Z-1.0000 F2750
G1 X619.1558 Y931.3664 Z10.0000 F9999
G1 X635.7980 Y921.9719 Z10.0000 F9999
G1 X635.7980 Y921.9719 Z-1.0000 F2000
G1 X654.0549 Y880.8709 Z-1.0000 F2750
G1 X672.3118 Y921.9719 Z-1.0000 F2750
G1 X675.8714 Y880.8709 Z-1.0000 F2750
G1 X672.3118 Y921.9719 Z-1.0000 F2750
G1 X654.0549 Y880.8709 Z-1.0000 F2750
G1 X635.7980 Y921.9719 Z-1.0000 F2750
G1 X632.2935 Y880.8709 Z-1.0000 F2750
G1 X632.2935 Y880.8709 Z10.0000 F9999
G1 X578.0916 Y1484.9150 Z10.0000 F9999
G1 X578.0916 Y1484.9150 Z-1.0000 F2000
G1 X564.8623 Y1505.0618 Z-1.0000 F2750
G1 X578.0916 Y1484.9150 Z-1.0000 F2750
G1 X578.0916 Y1484.9150 Z10.0000 F9999
G1 X560.6788 Y1484.9150 Z10.0000 F9999
G1 X560.6788 Y1484.9150 Z-1.0000 F2000
G1 X560.6788 Y1526.0160 Z-1.0000 F2750
G1 X567.8347 Y1526.0160 Z-1.0000 F2750
G1 X571.7063 Y1525.4105 Z-1.0000 F2750
G1 X574.9173 Y1523.5939 Z-1.0000 F2750
G1 X577.1375 Y1520.4380 Z-1.0000 F2750
G1 X577.9815 Y1515.7958 Z-1.0000 F2750
G1 X576.8256 Y1511.1169 Z-1.0000 F2750
G1 X574.0549 Y1507.7958 Z-1.0000 F2750
G1 X570.7338 Y1505.8325 Z-1.0000 F2750
G1 X567.8347 Y1505.1719 Z-1.0000 F2750
G1 X560.6788 Y1505.1719 Z-1.0000 F2750
G1 X567.8347 Y1505.1719 Z-1.0000 F2750
G1 X570.7338 Y1505.8325 Z-1.0000 F2750
G1 X574.0549 Y1507.7958 Z-1.0000 F2750
G1 X576.8256 Y1511.1169 Z-1.0000 F2750
G1 X577.9815 Y1515.7958 Z-1.0000 F2750
G1 X577.1375 Y1520.4380 Z-1.0000 F2750
G1 X574.9173 Y1523.5939 Z-1.0000 F2750
G1 X571.7063 Y1525.4105 Z-1.0000 F2750
G1 X567.8347 Y1526.0160 Z-1.0000 F2750
G1 X560.6788 Y1526.0160 Z-1.0000 F2750
G1 X560.6788 Y1526.0160 Z10.0000 F9999
G1 X523.0641 Y1484.9150 Z10.0000 F9999
G1 X523.0641 Y1484.9150 Z-1.0000 F2000
G1 X514.8623 Y1486.5114 Z-1.0000 F2750
G1 X508.1283 Y1490.9150 Z-1.0000 F2750
G1 X503.5595 Y1497.4472 Z-1.0000 F2750
G1 X501.8714 Y1505.4288 Z-1.0000 F2750
G1 X503.5595 Y1513.4105 Z-1.0000 F2750
G1 X508.1283 Y1519.9609 Z-1.0000 F2750
G1 X514.8623 Y1524.3829 Z-1.0000 F2750
G1 X523.0641 Y1526.0160 Z-1.0000 F2750
G1 X531.3210 Y1524.3829 Z-1.0000 F2750
G1 X538.0549 Y1519.9609 Z-1.0000 F2750
G1 X542.5870 Y1513.4105 Z-1.0000 F2750
G1 X544.2568 Y1505.4288 Z-1.0000 F2750
G1 X542.5870 Y1497.4472 Z-1.0000 F2750
G1 X538.0549 Y1490.9150 Z-1.0000 F2750
G1 X531.3210 Y1486.5114 Z-1.0000 F2750
G1 X523.0641 Y1484.9150 Z-1.0000 F2750
G1 X514.8623 Y1486.5114 Z-1.0000 F2750
G1 X508.1283 Y1490.9150 Z-1.0000 F2750
G1 X503.5595 Y1497.4472 Z-1.0000 F2750
G1 X501.8714 Y1505.4288 Z-1.0000 F2750
G1 X503.5595 Y1513.4105 Z-1.0000 F2750
G1 X508.1283 Y1519.9609 Z-1.0000 F2750
G1 X514.8623 Y1524.3829 Z-1.0000 F2750
G1 X523.0641 Y1526.0160 Z-1.0000 F2750
G1 X531.3210 Y1524.3829 Z-1.0000 F2750
G1 X538.0549 Y1519.9609 Z-1.0000 F2750
G1 X542.5870 Y1513.4105 Z-1.0000 F2750
G1 X544.2568 Y1505.4288 Z-1.0000 F2750
G1 X542.5870 Y1497.4472 Z-1.0000 F2750
G1 X538.0549 Y1490.9150 Z-1.0000 F2750
G1 X531.3210 Y1486.5114 Z-1.0000 F2750
G1 X523.0641 Y1484.9150 Z-1.0000 F2750
G1 X523.0641 Y1484.9150 Z10.0000 F9999
G1 X469.0458 Y1484.9150 Z10.0000 F9999
G1 X469.0458 Y1484.9150 Z-1.0000 F2000
G1 X460.8439 Y1486.5114 Z-1.0000 F2750
G1 X454.1100 Y1490.9150 Z-1.0000 F2750
G1 X449.5412 Y1497.4472 Z-1.0000 F2750
G1 X447.8531 Y1505.4288 Z-1.0000 F2750
G1 X449.5412 Y1513.4105 Z-1.0000 F2750
G1 X454.1100 Y1519.9609 Z-1.0000 F2750
G1 X460.8439 Y1524.3829 Z-1.0000 F2750
G1 X469.0458 Y1526.0160 Z-1.0000 F2750
G1 X477.3026 Y1524.3829 Z-1.0000 F2750
G1 X484.0366 Y1519.9609 Z-1.0000 F2750
G1 X488.5687 Y1513.4105 Z-1.0000 F2750
G1 X490.2384 Y1505.4288 Z-1.0000 F2750
G1 X488.5687 Y1497.4472 Z-1.0000 F2750
G1 X484.0366 Y1490.9150 Z-1.0000 F2750
G1 X477.3026 Y1486.5114 Z-1.0000 F2750
G1 X469.0458 Y1484.9150 Z-1.0000 F2750
G1 X460.8439 Y1486.5114 Z-1.0000 F2750
G1 X454.1100 Y1490.9150 Z-1.0000 F2750
G1 X449.5412 Y1497.4472 Z-1.0000 F2750
G1 X447.8531 Y1505.4288 Z-1.0000 F2750
G1 X449.5412 Y1513.4105 Z-1.0000 F2750
G1 X454.1100 Y1519.9609 Z-1.0000 F2750
G1 X460.8439 Y1524.3829 Z-1.0000 F2750
G1 X469.0458 Y1526.0160 Z-1.0000 F2750
G1 X477.3026 Y1524.3829 Z-1.0000 F2750
G1 X484.0366 Y1519.9609 Z-1.0000 F2750
G1 X488.5687 Y1513.4105 Z-1.0000 F2750
G1 X490.2384 Y1505.4288 Z-1.0000 F2750
G1 X488.5687 Y1497.4472 Z-1.0000 F2750
G1 X484.0366 Y1490.9150 Z-1.0000 F2750
G1 X477.3026 Y1486.5114 Z-1.0000 F2750
G1 X469.0458 Y1484.9150 Z-1.0000 F2750
G1 X469.0458 Y1484.9150 Z10.0000 F9999
G1 X437.0824 Y1484.9150 Z10.0000 F9999
G1 X437.0824 Y1484.9150 Z-1.0000 F2000
G1 X424.4586 Y1484.9150 Z-1.0000 F2750
G1 X424.4586 Y1526.0160 Z-1.0000 F2750
G1 X424.4586 Y1484.9150 Z-1.0000 F2750
G1 X424.4586 Y1484.9150 Z10.0000 F9999
G1 X393.9265 Y1507.7224 Z10.0000 F9999
G1 X393.9265 Y1507.7224 Z-1.0000 F2000
G1 X408.3669 Y1507.7224 Z-1.0000 F2750
G1 X393.9265 Y1507.7224 Z-1.0000 F2750
G1 X393.9265 Y1526.0160 Z-1.0000 F2750
G1 X409.0458 Y1526.0160 Z-1.0000 F2750
G1 X393.9265 Y1526.0160 Z-1.0000 F2750
G1 X393.9265 Y1484.9150 Z-1.0000 F2750
G1 X393.9265 Y1484.9150 Z10.0000 F9999
G1 X619.1558 Y1535.4105 Z10.0000 F9999
G1 X619.1558 Y1535.4105 Z-1.0000 F2000
G1 X588.7705 Y1482.5664 Z-1.0000 F2750
G1 X619.1558 Y1535.4105 Z-1.0000 F2750
G1 X619.1558 Y1535.4105 Z10.0000 F9999
G1 X635.7980 Y1526.0160 Z10.0000 F9999
G1 X635.7980 Y1526.0160 Z-1.0000 F2000
G1 X654.0549 Y1484.9150 Z-1.0000 F2750
G1 X672.3118 Y1526.0160 Z-1.0000 F2750
G1 X675.8714 Y1484.9150 Z-1.0000 F2750
G1 X672.3118 Y1526.0160 Z-1.0000 F2750
G1 X654.0549 Y1484.9150 Z-1.0000 F2750
G1 X635.7980 Y1526.0160 Z-1.0000 F2750
G1 X632.2935 Y1484.9150 Z-1.0000 F2750
G1 X632.2935 Y1484.9150 Z10.0000 F9999
G1 X578.0916 Y2088.9591 Z10.0000 F9999
G1 X578.0916 Y2088.9591 Z-1.0000 F2000
G1 X564.8623 Y2109.1059 Z-1.0000 F2750
G1 X578.0916 Y2088.9591 Z-1.0000 F2750
G1 X578.0916 Y2088.9591 Z10.0000 F9999
G1 X560.6788 Y2088.9591 Z10.0000 F9999
G1 X560.6788 Y2088.9591 Z-1.0000 F2000
G1 X560.6788 Y2130.0601 Z-1.0000 F2750
G1 X567.8347 Y2130.0601 Z-1.0000 F2750
G1 X571.7063 Y2129.4545 Z-1.0000 F2750
G1 X574.9173 Y2127.6380 Z-1.0000 F2750
G1 X577.1375 Y2124.4821 Z-1.0000 F2750
G1 X577.9815 Y2119.8399 Z-1.0000 F2750
G1 X576.8256 Y2115.1610 Z-1.0000 F2750
G1 X574.0549 Y2111.8399 Z-1.0000 F2750
G1 X570.7338 Y2109.8766 Z-1.0000 F2750
G1 X567.8347 Y2109.2160 Z-1.0000 F2750
G1 X560.6788 Y2109.2160 Z-1.0000 F2750
G1 X567.8347 Y2109.2160 Z-1.0000 F2750
G1 X570.7338 Y2109.8766 Z-1.0000 F2750
G1 X574.0549 Y2111.8399 Z-1.0000 F2750
G1 X576.8256 Y2115.1610 Z-1.0000 F2750
G1 X577.9815 Y2119.8399 Z-1.0000 F2750
G1 X577.1375 Y2124.4821 Z-1.0000 F2750
G1 X574.9173 Y2127.6380 Z-1.0000 F2750
G1 X571.7063 Y2129.4545 Z-1.0000 F2750
G1 X567.8347 Y2130.0601 Z-1.0000 F2750
G1 X560.6788 Y2130.0601 Z-1.0000 F2750
G1 X560.6788 Y2130.0601 Z10.0000 F9999
G1 X523.0641 Y2088.9591 Z10.0000 F9999
G1 X523.0641 Y2088.9591 Z-1.0000 F2000
G1 X514.8623 Y2090.5555 Z-1.0000 F2750
G1 X508.1283 Y2094.9591 Z-1.0000 F2750
G1 X503.5595 Y2101.4912 Z-1.0000 F2750
G1 X501.8714 Y2109.4729 Z-1.0000 F2750
G1 X503.5595 Y2117.4545 Z-1.0000 F2750
G1 X508.1283 Y2124.0050 Z-1.0000 F2750
G1 X514.8623 Y2128.4270 Z-1.0000 F2750
G1 X523.0641 Y2130.0601 Z-1.0000 F2750
G1 X531.3210 Y2128.4270 Z-1.0000 F2750
G1 X538.0549 Y2124.0050 Z-1.0000 F2750
G1 X542.5870 Y2117.4545 Z-1.0000 F2750
G1 X544.2568 Y2109.4729 Z-1.0000 F2750
G1 X542.5870 Y2101.4912 Z-1.0000 F2750
G1 X538.0549 Y2094.9591 Z-1.0000 F2750
G1 X531.3210 Y2090.5555 Z-1.0000 F2750
G1 X523.0641 Y2088.9591 Z-1.0000 F2750
G1 X514.8623 Y2090.5555 Z-1.0000 F2750
G1 X508.1283 Y2094.9591 Z-1.0000 F2750
G1 X503.5595 Y2101.4912 Z-1.0000 F2750
G1 X501.8714 Y2109.4729 Z-1.0000 F2750
G1 X503.5595 Y2117.4545 Z-1.0000 F2750
G1 X508.1283 Y2124.0050 Z-1.0000 F2750
G1 X514.8623 Y2128.4270 Z-1.0000 F2750
G1 X523.0641 Y2130.0601 Z-1.0000 F2750
G1 X531.3210 Y2128.4270 Z-1.0000 F2750
G1 X538.0549 Y2124.0050 Z-1.0000 F2750
G1 X542.5870 Y2117.4545 Z-1.0000 F2750
G1 X544.2568 Y2109.4729 Z-1.0000 F2750
G1 X542.5870 Y2101.4912 Z-1.0000 F2750
G1 X538.0549 Y2094.9591 Z-1.0000 F2750
G1 X531.3210 Y2090.5555 Z-1.0000 F2750
G1 X523.0641 Y2088.9591 Z-1.0000 F2750
G1 X523.0641 Y2088.9591 Z10.0000 F9999
G1 X469.0458 Y2088.9591 Z10.0000 F9999
G1 X469.0458 Y2088.9591 Z-1.0000 F2000
G1 X460.8439 Y2090.5555 Z-1.0000 F2750
G1 X454.1100 Y2094.9591 Z-1.0000 F2750
G1 X449.5412 Y2101.4912 Z-1.0000 F2750
G1 X447.8531 Y2109.4729 Z-1.0000 F2750
G1 X449.5412 Y2117.4545 Z-1.0000 F2750
G1 X454.1100 Y2124.0050 Z-1.0000 F2750
G1 X460.8439 Y2128.4270 Z-1.0000 F2750
G1 X469.0458 Y2130.0601 Z-1.0000 F2750
G1 X477.3026 Y2128.4270 Z-1.0000 F2750
G1 X484.0366 Y2124.0050 Z-1.0000 F2750
G1 X488.5687 Y2117.4545 Z-1.0000 F2750
G1 X490.2384 Y2109.4729 Z-1.0000 F2750
G1 X488.5687 Y2101.4912 Z-1.0000 F2750
G1 X484.0366 Y2094.9591 Z-1.0000 F2750
G1 X477.3026 Y2090.5555 Z-1.0000 F2750
G1 X469.0458 Y2088.9591 Z-1.0000 F2750
G1 X460.8439 Y2090.5555 Z-1.0000 F2750
G1 X454.1100 Y2094.9591 Z-1.0000 F2750
G1 X449.5412 Y2101.4912 Z-1.0000 F2750
G1 X447.8531 Y2109.4729 Z-1.0000 F2750
G1 X449.5412 Y2117.4545 Z-1.0000 F2750
G1 X454.1100 Y2124.0050 Z-1.0000 F2750
G1 X460.8439 Y2128.4270 Z-1.0000 F2750
G1 X469.0458 Y2130.0601 Z-1.0000 F2750
G1 X477.3026 Y2128.4270 Z-1.0000 F2750
G1 X484.0366 Y2124.0050 Z-1.0000 F2750
G1 X488.5687 Y2117.4545 Z-1.0000 F2750
G1 X490.2384 Y2109.4729 Z-1.0000 F2750
G1 X488.5687 Y2101.4912 Z-1.0000 F2750
G1 X484.0366 Y2094.9591 Z-1.0000 F2750
G1 X477.3026 Y2090.5555 Z-1.0000 F2750
G1 X469.0458 Y2088.9591 Z-1.0000 F2750
G1 X469.0458 Y2088.9591 Z10.0000 F9999
G1 X437.0824 Y2088.9591 Z10.0000 F9999
G1 X437.0824 Y2088.9591 Z-1.0000 F2000
G1 X424.4586 Y2088.9591 Z-1.0000 F2750
G1 X424.4586 Y2130.0601 Z-1.0000 F2750
G1 X424.4586 Y2088.9591 Z-1.0000 F2750
G1 X424.4586 Y2088.9591 Z10.0000 F9999
G1 X393.9265 Y2111.7665 Z10.0000 F9999
G1 X393.9265 Y2111.7665 Z-1.0000 F2000
G1 X408.3669 Y2111.7665 Z-1.0000 F2750
G1 X393.9265 Y2111.7665 Z-1.0000 F2750
G1 X393.9265 Y2130.0601 Z-1.0000 F2750
G1 X409.0458 Y2130.0601 Z-1.0000 F2750
G1 X393.9265 Y2130.0601 Z-1.0000 F2750
G1 X393.9265 Y2088.9591 Z-1.0000 F2750
G1 X393.9265 Y2088.9591 Z10.0000 F9999
G1 X619.1558 Y2139.4545 Z10.0000 F9999
G1 X619.1558 Y2139.4545 Z-1.0000 F2000
G1 X588.7705 Y2086.6105 Z-1.0000 F2750
G1 X619.1558 Y2139.4545 Z-1.0000 F2750
G1 X619.1558 Y2139.4545 Z10.0000 F9999
G1 X635.7980 Y2130.0601 Z10.0000 F9999
G1 X635.7980 Y2130.0601 Z-1.0000 F2000
G1 X654.0549 Y2088.9591 Z-1.0000 F2750
G1 X672.3118 Y2130.0601 Z-1.0000 F2750
G1 X675.8714 Y2088.9591 Z-1.0000 F2750
G1 X672.3118 Y2130.0601 Z-1.0000 F2750
G1 X654.0549 Y2088.9591 Z-1.0000 F2750
G1 X635.7980 Y2130.0601 Z-1.0000 F2750
G1 X632.2935 Y2088.9591 Z-1.0000 F2750
G1 X632.2935 Y2088.9591 Z10.0000 F9999
(Tool Number:1) (7.998 mm dia. slot drill)
M3 S19000
G1 X534.8989 Y2408.0315 Z10.0000 F9999
G1 X534.8989 Y2408.0315 Z1.0000 F2000
G1 X495.9277 Y2408.0315 Z-9.0000 F2000
G1 X534.8989 Y2408.0315 Z-19.0000 F2000
G1 X9.9000 Y2408.0313 Z-19.0000 F2750
G1 X9.3205 Y2407.9891 Z-19.0000 F2750
G1 X8.7250 Y2407.8548 Z-19.0000 F2750
G1 X8.1354 Y2407.6209 Z-19.0000 F2750
G1 X7.5761 Y2407.2868 Z-19.0000 F2750
G1 X7.0723 Y2406.8600 Z-19.0000 F2750
G1 X6.6455 Y2406.3561 Z-19.0000 F2750
G1 X6.3114 Y2405.7969 Z-19.0000 F2750
G1 X6.0775 Y2405.2072 Z-19.0000 F2750
G1 X5.9432 Y2404.6118 Z-19.0000 F2750
G1 X5.9010 Y2404.0323 Z-19.0000 F2750
G1 X5.9011 Y1822.0323 Z-19.0000 F2750
G1 X5.9491 Y1821.4144 Z-19.0000 F2750
G1 X6.0956 Y1820.8003 Z-19.0000 F2750
G1 X6.3388 Y1820.2133 Z-19.0000 F2750
G1 X6.6695 Y1819.6754 Z-19.0000 F2750
G1 X7.0724 Y1819.2046 Z-19.0000 F2750
G1 X7.5433 Y1818.8016 Z-19.0000 F2750
G1 X8.0811 Y1818.4709 Z-19.0000 F2750
G1 X8.6681 Y1818.2278 Z-19.0000 F2750
G1 X9.2823 Y1818.0813 Z-19.0000 F2750
G1 X9.9001 Y1818.0333 Z-19.0000 F2750
G1 X57.6134 Y1818.0333 Z-19.0000 F2750
G1 X57.6134 Y1818.0333 Z-13.0000 F9999
G1 X85.6114 Y1818.0333 Z-13.0000 F2750
G1 X85.6114 Y1818.0333 Z-19.0000 F2000
G1 X979.0845 Y1818.0336 Z-19.0000 F2750
G1 X979.0845 Y1818.0336 Z-13.0000 F9999
G1 X1007.0825 Y1818.0336 Z-13.0000 F2750
G1 X1007.0825 Y1818.0336 Z-19.0000 F2000
G1 X1059.8979 Y1818.0337 Z-19.0000 F2750
G1 X1060.4775 Y1818.0759 Z-19.0000 F2750
G1 X1061.0729 Y1818.2102 Z-19.0000 F2750
G1 X1061.6626 Y1818.4440 Z-19.0000 F2750
G1 X1062.2218 Y1818.7782 Z-19.0000 F2750
G1 X1062.7256 Y1819.2049 Z-19.0000 F2750
G1 X1063.1524 Y1819.7088 Z-19.0000 F2750
G1 X1063.4865 Y1820.2680 Z-19.0000 F2750
G1 X1063.7204 Y1820.8577 Z-19.0000 F2750
G1 X1063.8547 Y1821.4531 Z-19.0000 F2750
G1 X1063.8969 Y1822.0327 Z-19.0000 F2750
G1 X1063.8967 Y2404.0328 Z-19.0000 F2750
G1 X1063.8487 Y2404.6506 Z-19.0000 F2750
G1 X1063.7022 Y2405.2648 Z-19.0000 F2750
G1 X1063.4591 Y2405.8518 Z-19.0000 F2750
G1 X1063.1284 Y2406.3896 Z-19.0000 F2750
G1 X1062.7255 Y2406.8605 Z-19.0000 F2750
G1 X1062.2546 Y2407.2634 Z-19.0000 F2750
G1 X1061.7168 Y2407.5941 Z-19.0000 F2750
G1 X1061.1298 Y2407.8373 Z-19.0000 F2750
G1 X1060.5156 Y2407.9838 Z-19.0000 F2750
G1 X1059.8977 Y2408.0318 Z-19.0000 F2750
G1 X534.8989 Y2408.0315 Z-19.0000 F2750
G1 X534.8989 Y2408.0315 Z10.0000 F9999
G1 X534.8989 Y1803.9874 Z10.0000 F9999
G1 X534.8989 Y1803.9874 Z1.0000 F2000
G1 X495.9277 Y1803.9874 Z-9.0000 F2000
G1 X534.8989 Y1803.9874 Z-19.0000 F2000
G1 X9.9000 Y1803.9872 Z-19.0000 F2750
G1 X9.3205 Y1803.9450 Z-19.0000 F2750
G1 X8.7250 Y1803.8107 Z-19.0000 F2750
G1 X8.1354 Y1803.5768 Z-19.0000 F2750
G1 X7.5761 Y1803.2427 Z-19.0000 F2750
G1 X7.0723 Y1802.8159 Z-19.0000 F2750
G1 X6.6455 Y1802.3120 Z-19.0000 F2750
G1 X6.3114 Y1801.7528 Z-19.0000 F2750
G1 X6.0775 Y1801.1631 Z-19.0000 F2750
G1 X5.9432 Y1800.5677 Z-19.0000 F2750
G1 X5.9010 Y1799.9882 Z-19.0000 F2750
G1 X5.9011 Y1217.9882 Z-19.0000 F2750
G1 X5.9491 Y1217.3703 Z-19.0000 F2750
G1 X6.0956 Y1216.7562 Z-19.0000 F2750
G1 X6.3388 Y1216.1692 Z-19.0000 F2750
G1 X6.6695 Y1215.6313 Z-19.0000 F2750
G1 X7.0724 Y1215.1605 Z-19.0000 F2750
G1 X7.5433 Y1214.7575 Z-19.0000 F2750
G1 X8.0811 Y1214.4268 Z-19.0000 F2750
G1 X8.6681 Y1214.1837 Z-19.0000 F2750
G1 X9.2823 Y1214.0372 Z-19.0000 F2750
G1 X9.9001 Y1213.9892 Z-19.0000 F2750
G1 X28.2782 Y1213.9892 Z-19.0000 F2750
G1 X28.2782 Y1213.9892 Z-13.0000 F9999
G1 X56.2762 Y1213.9892 Z-13.0000 F2750
G1 X56.2762 Y1213.9892 Z-19.0000 F2000
G1 X995.4777 Y1213.9895 Z-19.0000 F2750
G1 X995.4777 Y1213.9895 Z-13.0000 F9999
G1 X1023.4757 Y1213.9895 Z-13.0000 F2750
G1 X1023.4757 Y1213.9895 Z-19.0000 F2000
G1 X1059.8979 Y1213.9896 Z-19.0000 F2750
G1 X1060.4775 Y1214.0318 Z-19.0000 F2750
G1 X1061.0729 Y1214.1661 Z-19.0000 F2750
G1 X1061.6626 Y1214.4000 Z-19.0000 F2750
G1 X1062.2218 Y1214.7341 Z-19.0000 F2750
G1 X1062.7256 Y1215.1608 Z-19.0000 F2750
G1 X1063.1524 Y1215.6647 Z-19.0000 F2750
G1 X1063.4865 Y1216.2239 Z-19.0000 F2750
G1 X1063.7204 Y1216.8136 Z-19.0000 F2750
G1 X1063.8547 Y1217.4090 Z-19.0000 F2750
G1 X1063.8969 Y1217.9886 Z-19.0000 F2750
G1 X1063.8967 Y1799.9887 Z-19.0000 F2750
G1 X1063.8487 Y1800.6066 Z-19.0000 F2750
G1 X1063.7022 Y1801.2207 Z-19.0000 F2750
G1 X1063.4591 Y1801.8077 Z-19.0000 F2750
G1 X1063.1284 Y1802.3455 Z-19.0000 F2750
G1 X1062.7255 Y1802.8164 Z-19.0000 F2750
G1 X1062.2546 Y1803.2193 Z-19.0000 F2750
G1 X1061.7168 Y1803.5500 Z-19.0000 F2750
G1 X1061.1298 Y1803.7932 Z-19.0000 F2750
G1 X1060.5156 Y1803.9397 Z-19.0000 F2750
G1 X1059.8977 Y1803.9877 Z-19.0000 F2750
G1 X534.8989 Y1803.9874 Z-19.0000 F2750
G1 X534.8989 Y1803.9874 Z10.0000 F9999
G1 X534.8989 Y1199.9433 Z10.0000 F9999
G1 X534.8989 Y1199.9433 Z1.0000 F2000
G1 X495.9277 Y1199.9433 Z-9.0000 F2000
G1 X534.8989 Y1199.9433 Z-19.0000 F2000
G1 X9.9000 Y1199.9431 Z-19.0000 F2750
G1 X9.3205 Y1199.9009 Z-19.0000 F2750
G1 X8.7250 Y1199.7666 Z-19.0000 F2750
G1 X8.1354 Y1199.5327 Z-19.0000 F2750
G1 X7.5761 Y1199.1986 Z-19.0000 F2750
G1 X7.0723 Y1198.7718 Z-19.0000 F2750
G1 X6.6455 Y1198.2679 Z-19.0000 F2750
G1 X6.3114 Y1197.7087 Z-19.0000 F2750
G1 X6.0775 Y1197.1190 Z-19.0000 F2750
G1 X5.9432 Y1196.5236 Z-19.0000 F2750
G1 X5.9010 Y1195.9441 Z-19.0000 F2750
G1 X5.9011 Y613.9441 Z-19.0000 F2750
G1 X5.9491 Y613.3262 Z-19.0000 F2750
G1 X6.0956 Y612.7121 Z-19.0000 F2750
G1 X6.3388 Y612.1251 Z-19.0000 F2750
G1 X6.6695 Y611.5872 Z-19.0000 F2750
G1 X7.0724 Y611.1164 Z-19.0000 F2750
G1 X7.5433 Y610.7134 Z-19.0000 F2750
G1 X8.0811 Y610.3827 Z-19.0000 F2750
G1 X8.6681 Y610.1396 Z-19.0000 F2750
G1 X9.2823 Y609.9931 Z-19.0000 F2750
G1 X9.9001 Y609.9451 Z-19.0000 F2750
G1 X37.7690 Y609.9451 Z-19.0000 F2750
G1 X37.7690 Y609.9451 Z-13.0000 F9999
G1 X65.7670 Y609.9451 Z-13.0000 F2750
G1 X65.7670 Y609.9451 Z-19.0000 F2000
G1 X1002.3801 Y609.9454 Z-19.0000 F2750
G1 X1002.3801 Y609.9454 Z-13.0000 F9999
G1 X1030.3781 Y609.9455 Z-13.0000 F2750
G1 X1030.3781 Y609.9455 Z-19.0000 F2000
G1 X1059.8979 Y609.9455 Z-19.0000 F2750
G1 X1060.4775 Y609.9877 Z-19.0000 F2750
G1 X1061.0729 Y610.1220 Z-19.0000 F2750
G1 X1061.6626 Y610.3559 Z-19.0000 F2750
G1 X1062.2218 Y610.6900 Z-19.0000 F2750
G1 X1062.7256 Y611.1167 Z-19.0000 F2750
G1 X1063.1524 Y611.6206 Z-19.0000 F2750
G1 X1063.4865 Y612.1798 Z-19.0000 F2750
G1 X1063.7204 Y612.7695 Z-19.0000 F2750
G1 X1063.8547 Y613.3649 Z-19.0000 F2750
G1 X1063.8969 Y613.9445 Z-19.0000 F2750
G1 X1063.8967 Y1195.9446 Z-19.0000 F2750
G1 X1063.8487 Y1196.5625 Z-19.0000 F2750
G1 X1063.7022 Y1197.1766 Z-19.0000 F2750
G1 X1063.4591 Y1197.7636 Z-19.0000 F2750
G1 X1063.1284 Y1198.3014 Z-19.0000 F2750
G1 X1062.7255 Y1198.7723 Z-19.0000 F2750
G1 X1062.2546 Y1199.1753 Z-19.0000 F2750
G1 X1061.7168 Y1199.5059 Z-19.0000 F2750
G1 X1061.1298 Y1199.7491 Z-19.0000 F2750
G1 X1060.5156 Y1199.8956 Z-19.0000 F2750
G1 X1059.8977 Y1199.9436 Z-19.0000 F2750
G1 X534.8989 Y1199.9433 Z-19.0000 F2750
G1 X534.8989 Y1199.9433 Z10.0000 F9999
G1 X534.8990 Y5.9012 Z10.0000 F9999
G1 X534.8990 Y5.9012 Z1.0000 F2000
G1 X573.8702 Y5.9012 Z-9.0000 F2000
G1 X534.8990 Y5.9012 Z-19.0000 F2000
G1 X1059.8979 Y5.9014 Z-19.0000 F2750
G1 X1060.4775 Y5.9436 Z-19.0000 F2750
G1 X1061.0729 Y6.0779 Z-19.0000 F2750
G1 X1061.6626 Y6.3118 Z-19.0000 F2750
G1 X1062.2218 Y6.6459 Z-19.0000 F2750
G1 X1062.7256 Y7.0726 Z-19.0000 F2750
G1 X1063.1524 Y7.5765 Z-19.0000 F2750
G1 X1063.4865 Y8.1357 Z-19.0000 F2750
G1 X1063.7204 Y8.7254 Z-19.0000 F2750
G1 X1063.8547 Y9.3208 Z-19.0000 F2750
G1 X1063.8969 Y9.9004 Z-19.0000 F2750
G1 X1063.8967 Y591.9005 Z-19.0000 F2750
G1 X1063.8487 Y592.5184 Z-19.0000 F2750
G1 X1063.7022 Y593.1325 Z-19.0000 F2750
G1 X1063.4591 Y593.7195 Z-19.0000 F2750
G1 X1063.1284 Y594.2574 Z-19.0000 F2750
G1 X1062.7255 Y594.7282 Z-19.0000 F2750
G1 X1062.2546 Y595.1312 Z-19.0000 F2750
G1 X1061.7168 Y595.4618 Z-19.0000 F2750
G1 X1061.1298 Y595.7050 Z-19.0000 F2750
G1 X1060.5156 Y595.8515 Z-19.0000 F2750
G1 X1059.8977 Y595.8995 Z-19.0000 F2750
G1 X9.9000 Y595.8990 Z-19.0000 F2750
G1 X9.3205 Y595.8568 Z-19.0000 F2750
G1 X8.7250 Y595.7225 Z-19.0000 F2750
G1 X8.1354 Y595.4886 Z-19.0000 F2750
G1 X7.5761 Y595.1545 Z-19.0000 F2750
G1 X7.0723 Y594.7277 Z-19.0000 F2750
G1 X6.6455 Y594.2239 Z-19.0000 F2750
G1 X6.3114 Y593.6646 Z-19.0000 F2750
G1 X6.0775 Y593.0750 Z-19.0000 F2750
G1 X5.9432 Y592.4795 Z-19.0000 F2750
G1 X5.9010 Y591.9000 Z-19.0000 F2750
G1 X5.9011 Y9.9000 Z-19.0000 F2750
G1 X5.9491 Y9.2821 Z-19.0000 F2750
G1 X6.0956 Y8.6680 Z-19.0000 F2750
G1 X6.3388 Y8.0810 Z-19.0000 F2750
G1 X6.6695 Y7.5431 Z-19.0000 F2750
G1 X7.0724 Y7.0723 Z-19.0000 F2750
G1 X7.5433 Y6.6693 Z-19.0000 F2750
G1 X8.0811 Y6.3387 Z-19.0000 F2750
G1 X8.6681 Y6.0955 Z-19.0000 F2750
G1 X9.2823 Y5.9490 Z-19.0000 F2750
G1 X9.9001 Y5.9010 Z-19.0000 F2750
G1 X534.8990 Y5.9012 Z-19.0000 F2750
G1 X534.8990 Y5.9012 Z10.0000 F9999
G1 X1900.0000 Y2800.0000 Z80.0000 F9999
G1 Z80.0000 F9999
G1 X1900.0000 Y2800.0000 F9999
M5
M30
