(plotsheet 2n3_nested_153 sheets_final v1_0_sheet 79_S79.1_text_CC8 - stepover 1mm)
(Material Size) (X=1220.000, Y=2440.000, Z=21.000)
(LinuxCNC_NoArcs_MM_TC_medium_50um_G1_verbose.con)
G90 G80 G21 G49
G64 P0.050
M6 T1
(Tool Number:1) (7.998 mm dia. slot drill)
G43 H1 G0Z80.0000
M3 S19000
G04 P10
G1 X173.3387 Y534.6731 Z10.0000 F9999
G1 X173.3387 Y534.6731 Z-0.9000 F2000
G1 X173.3387 Y549.1134 Z-0.9000 F2750
G1 X173.3387 Y534.6731 Z-0.9000 F2750
G1 X155.0451 Y534.6731 Z-0.9000 F2750
G1 X155.0451 Y549.7923 Z-0.9000 F2750
G1 X155.0451 Y534.6731 Z-0.9000 F2750
G1 X196.1460 Y534.6731 Z-0.9000 F2750
G1 X196.1460 Y534.6731 Z10.0000 F9999
G1 X196.1460 Y565.2052 Z10.0000 F9999
G1 X196.1460 Y565.2052 Z-0.9000 F2000
G1 X155.0451 Y565.2052 Z-0.9000 F2750
G1 X155.0451 Y572.3611 Z-0.9000 F2750
G1 X155.6506 Y576.2327 Z-0.9000 F2750
G1 X157.4671 Y579.4437 Z-0.9000 F2750
G1 X160.6231 Y581.6639 Z-0.9000 F2750
G1 X165.2653 Y582.5079 Z-0.9000 F2750
G1 X169.9442 Y581.3520 Z-0.9000 F2750
G1 X173.2653 Y578.5813 Z-0.9000 F2750
G1 X175.2286 Y575.2602 Z-0.9000 F2750
G1 X175.8891 Y572.3611 Z-0.9000 F2750
G1 X175.8891 Y565.2052 Z-0.9000 F2750
G1 X175.8891 Y572.3611 Z-0.9000 F2750
G1 X175.2286 Y575.2602 Z-0.9000 F2750
G1 X173.2653 Y578.5813 Z-0.9000 F2750
G1 X169.9442 Y581.3520 Z-0.9000 F2750
G1 X165.2653 Y582.5079 Z-0.9000 F2750
G1 X160.6231 Y581.6639 Z-0.9000 F2750
G1 X157.4671 Y579.4437 Z-0.9000 F2750
G1 X155.6506 Y576.2327 Z-0.9000 F2750
G1 X155.0451 Y572.3611 Z-0.9000 F2750
G1 X155.0451 Y565.2052 Z-0.9000 F2750
G1 X155.0451 Y565.2052 Z10.0000 F9999
G1 X155.0451 Y609.3153 Z10.0000 F9999
G1 X155.0451 Y609.3153 Z-0.9000 F2000
G1 X196.1460 Y625.3703 Z-0.9000 F2750
G1 X155.0451 Y609.3153 Z-0.9000 F2750
G1 X196.1460 Y593.2969 Z-0.9000 F2750
G1 X196.1460 Y593.2969 Z10.0000 F9999
G1 X196.1460 Y582.6180 Z10.0000 F9999
G1 X196.1460 Y582.6180 Z-0.9000 F2000
G1 X175.9992 Y569.3887 Z-0.9000 F2750
G1 X196.1460 Y582.6180 Z-0.9000 F2750
G1 X196.1460 Y582.6180 Z10.0000 F9999
G1 X181.4488 Y619.6272 Z10.0000 F9999
G1 X181.4488 Y619.6272 Z-0.9000 F2000
G1 X181.4488 Y598.9300 Z-0.9000 F2750
G1 X181.4488 Y619.6272 Z-0.9000 F2750
G1 X181.4488 Y619.6272 Z10.0000 F9999
G1 X171.4855 Y665.9942 Z10.0000 F9999
G1 X171.4855 Y665.9942 Z-0.9000 F2000
G1 X171.4855 Y636.7465 Z-0.9000 F2750
G1 X171.4855 Y665.9942 Z-0.9000 F2750
G1 X171.4855 Y665.9942 Z10.0000 F9999
G1 X155.0451 Y692.6914 Z10.0000 F9999
G1 X155.0451 Y692.6914 Z-0.9000 F2000
G1 X196.1460 Y708.7465 Z-0.9000 F2750
G1 X155.0451 Y692.6914 Z-0.9000 F2750
G1 X196.1460 Y676.6731 Z-0.9000 F2750
G1 X196.1460 Y676.6731 Z10.0000 F9999
G1 X181.4488 Y703.0033 Z10.0000 F9999
G1 X181.4488 Y703.0033 Z-0.9000 F2000
G1 X181.4488 Y682.3061 Z-0.9000 F2750
G1 X181.4488 Y703.0033 Z-0.9000 F2750
G1 X181.4488 Y703.0033 Z10.0000 F9999
G1 X145.6506 Y750.5079 Z10.0000 F9999
G1 X145.6506 Y750.5079 Z-0.9000 F2000
G1 X198.4946 Y720.1226 Z-0.9000 F2750
G1 X145.6506 Y750.5079 Z-0.9000 F2750
G1 X145.6506 Y750.5079 Z10.0000 F9999
G1 X173.3387 Y766.0125 Z10.0000 F9999
G1 X173.3387 Y766.0125 Z-0.9000 F2000
G1 X173.3387 Y780.4529 Z-0.9000 F2750
G1 X173.3387 Y766.0125 Z-0.9000 F2750
G1 X155.0451 Y766.0125 Z-0.9000 F2750
G1 X155.0451 Y781.1318 Z-0.9000 F2750
G1 X155.0451 Y766.0125 Z-0.9000 F2750
G1 X196.1460 Y766.0125 Z-0.9000 F2750
G1 X196.1460 Y766.0125 Z10.0000 F9999
G1 X155.0451 Y807.7006 Z10.0000 F9999
G1 X155.0451 Y807.7006 Z-0.9000 F2000
G1 X171.0084 Y796.3978 Z-0.9000 F2750
G1 X172.9703 Y795.0112 Z-0.9000 F2750
G1 X174.9717 Y793.6822 Z-0.9000 F2750
G1 X182.1827 Y791.7556 Z-0.9000 F2750
G1 X187.6139 Y792.8566 Z-0.9000 F2750
G1 X192.0359 Y795.8107 Z-0.9000 F2750
G1 X195.0451 Y800.1777 Z-0.9000 F2750
G1 X196.1460 Y805.5722 Z-0.9000 F2750
G1 X195.0451 Y810.9666 Z-0.9000 F2750
G1 X192.0359 Y815.4070 Z-0.9000 F2750
G1 X187.6139 Y818.3978 Z-0.9000 F2750
G1 X182.1827 Y819.4988 Z-0.9000 F2750
G1 X176.7699 Y818.3978 Z-0.9000 F2750
G1 X172.3478 Y815.4070 Z-0.9000 F2750
G1 X169.3754 Y810.9666 Z-0.9000 F2750
G1 X168.2744 Y805.5722 Z-0.9000 F2750
G1 X170.1277 Y798.6547 Z-0.9000 F2750
G1 X174.9717 Y793.6822 Z-0.9000 F2750
G1 X170.1277 Y798.6547 Z-0.9000 F2750
G1 X168.2744 Y805.5722 Z-0.9000 F2750
G1 X169.3754 Y810.9666 Z-0.9000 F2750
G1 X172.3478 Y815.4070 Z-0.9000 F2750
G1 X176.7699 Y818.3978 Z-0.9000 F2750
G1 X182.1827 Y819.4988 Z-0.9000 F2750
G1 X187.6139 Y818.3978 Z-0.9000 F2750
G1 X192.0359 Y815.4070 Z-0.9000 F2750
G1 X195.0451 Y810.9666 Z-0.9000 F2750
G1 X196.1460 Y805.5722 Z-0.9000 F2750
G1 X195.0451 Y800.1777 Z-0.9000 F2750
G1 X192.0359 Y795.8107 Z-0.9000 F2750
G1 X187.6139 Y792.8566 Z-0.9000 F2750
G1 X182.1827 Y791.7556 Z-0.9000 F2750
G1 X174.9717 Y793.6822 Z-0.9000 F2750
G1 X173.5221 Y794.6364 Z-0.9000 F2750
G1 X164.2377 Y801.1685 Z-0.9000 F2750
G1 X164.2377 Y801.1685 Z10.0000 F9999
G1 X434.9461 Y813.6059 Z10.0000 F9999
G1 X434.9461 Y813.6059 Z-0.9000 F2000
G1 X434.9461 Y820.0279 Z-0.9000 F2750
G1 X437.5149 Y828.6518 Z-0.9000 F2750
G1 X445.1113 Y831.6426 Z-0.9000 F2750
G1 X452.9828 Y828.5600 Z-0.9000 F2750
G1 X455.8085 Y820.3215 Z-0.9000 F2750
G1 X455.8085 Y813.6059 Z-0.9000 F2750
G1 X455.8085 Y820.3215 Z-0.9000 F2750
G1 X452.9828 Y828.5600 Z-0.9000 F2750
G1 X445.1113 Y831.6426 Z-0.9000 F2750
G1 X437.5149 Y828.6518 Z-0.9000 F2750
G1 X434.9461 Y820.0279 Z-0.9000 F2750
G1 X434.9461 Y813.6059 Z-0.9000 F2750
G1 X476.0470 Y813.6059 Z-0.9000 F2750
G1 X476.0470 Y813.6059 Z10.0000 F9999
G1 X469.2214 Y773.5875 Z10.0000 F9999
G1 X469.2214 Y773.5875 Z-0.9000 F2000
G1 X472.2672 Y775.5325 Z-0.9000 F2750
G1 X474.3223 Y777.9545 Z-0.9000 F2750
G1 X475.5700 Y781.0738 Z-0.9000 F2750
G1 X476.0470 Y785.2022 Z-0.9000 F2750
G1 X475.5883 Y789.6976 Z-0.9000 F2750
G1 X473.8452 Y793.5141 Z-0.9000 F2750
G1 X470.8544 Y796.1930 Z-0.9000 F2750
G1 X466.6892 Y797.3123 Z-0.9000 F2750
G1 X462.6892 Y796.7802 Z-0.9000 F2750
G1 X460.0103 Y795.2389 Z-0.9000 F2750
G1 X458.3223 Y793.2022 Z-0.9000 F2750
G1 X457.2214 Y791.2940 Z-0.9000 F2750
G1 X452.4874 Y782.1013 Z-0.9000 F2750
G1 X451.0746 Y779.7343 Z-0.9000 F2750
G1 X449.4232 Y777.8811 Z-0.9000 F2750
G1 X447.2397 Y776.6334 Z-0.9000 F2750
G1 X444.3590 Y776.1196 Z-0.9000 F2750
G1 X441.0746 Y776.6518 Z-0.9000 F2750
G1 X438.0470 Y778.4866 Z-0.9000 F2750
G1 X435.8269 Y781.6242 Z-0.9000 F2750
G1 X434.9461 Y785.9912 Z-0.9000 F2750
G1 X435.6250 Y790.2481 Z-0.9000 F2750
G1 X437.0929 Y793.0921 Z-0.9000 F2750
G1 X439.2397 Y795.1839 Z-0.9000 F2750
G1 X437.0929 Y793.0921 Z-0.9000 F2750
G1 X435.6250 Y790.2481 Z-0.9000 F2750
G1 X434.9461 Y785.9912 Z-0.9000 F2750
G1 X435.8269 Y781.6242 Z-0.9000 F2750
G1 X438.0470 Y778.4866 Z-0.9000 F2750
G1 X441.0746 Y776.6518 Z-0.9000 F2750
G1 X444.3590 Y776.1196 Z-0.9000 F2750
G1 X447.2397 Y776.6334 Z-0.9000 F2750
G1 X449.4232 Y777.8811 Z-0.9000 F2750
G1 X451.0746 Y779.7343 Z-0.9000 F2750
G1 X452.4874 Y782.1013 Z-0.9000 F2750
G1 X457.2214 Y791.2940 Z-0.9000 F2750
G1 X458.3223 Y793.2022 Z-0.9000 F2750
G1 X460.0103 Y795.2389 Z-0.9000 F2750
G1 X462.6892 Y796.7802 Z-0.9000 F2750
G1 X466.6892 Y797.3123 Z-0.9000 F2750
G1 X470.8544 Y796.1930 Z-0.9000 F2750
G1 X473.8452 Y793.5141 Z-0.9000 F2750
G1 X475.5883 Y789.6976 Z-0.9000 F2750
G1 X476.0470 Y785.2022 Z-0.9000 F2750
G1 X475.5700 Y781.0738 Z-0.9000 F2750
G1 X474.3223 Y777.9545 Z-0.9000 F2750
G1 X472.2672 Y775.5325 Z-0.9000 F2750
G1 X472.2672 Y775.5325 Z10.0000 F9999
G1 X434.9461 Y858.8903 Z10.0000 F9999
G1 X434.9461 Y858.8903 Z-0.9000 F2000
G1 X476.0470 Y874.9453 Z-0.9000 F2750
G1 X434.9461 Y858.8903 Z-0.9000 F2750
G1 X476.0470 Y842.8719 Z-0.9000 F2750
G1 X476.0470 Y842.8719 Z10.0000 F9999
G1 X461.3498 Y869.2022 Z10.0000 F9999
G1 X461.3498 Y869.2022 Z-0.9000 F2000
G1 X461.3498 Y848.5050 Z-0.9000 F2750
G1 X461.3498 Y869.2022 Z-0.9000 F2750
G1 X461.3498 Y869.2022 Z10.0000 F9999
G1 X470.3590 Y922.2297 Z10.0000 F9999
G1 X470.3590 Y922.2297 Z-0.9000 F2000
G1 X474.5241 Y915.6059 Z-0.9000 F2750
G1 X476.0470 Y907.6242 Z-0.9000 F2750
G1 X474.4140 Y899.3490 Z-0.9000 F2750
G1 X469.9920 Y892.5784 Z-0.9000 F2750
G1 X463.4599 Y888.0096 Z-0.9000 F2750
G1 X455.4599 Y886.3215 Z-0.9000 F2750
G1 X447.5149 Y888.0096 Z-0.9000 F2750
G1 X441.0012 Y892.5784 Z-0.9000 F2750
G1 X436.5792 Y899.3490 Z-0.9000 F2750
G1 X434.9461 Y907.6242 Z-0.9000 F2750
G1 X436.3590 Y915.4040 Z-0.9000 F2750
G1 X440.3039 Y921.9545 Z-0.9000 F2750
G1 X436.3590 Y915.4040 Z-0.9000 F2750
G1 X434.9461 Y907.6242 Z-0.9000 F2750
G1 X436.5792 Y899.3490 Z-0.9000 F2750
G1 X441.0012 Y892.5784 Z-0.9000 F2750
G1 X447.5149 Y888.0096 Z-0.9000 F2750
G1 X455.4599 Y886.3215 Z-0.9000 F2750
G1 X463.4599 Y888.0096 Z-0.9000 F2750
G1 X469.9920 Y892.5784 Z-0.9000 F2750
G1 X474.4140 Y899.3490 Z-0.9000 F2750
G1 X476.0470 Y907.6242 Z-0.9000 F2750
G1 X474.5241 Y915.6059 Z-0.9000 F2750
G1 X474.5241 Y915.6059 Z10.0000 F9999
G1 X476.0470 Y938.0829 Z10.0000 F9999
G1 X476.0470 Y938.0829 Z-0.9000 F2000
G1 X453.2397 Y938.0829 Z-0.9000 F2750
G1 X453.2397 Y954.5417 Z-0.9000 F2750
G1 X453.2397 Y938.0829 Z-0.9000 F2750
G1 X434.9461 Y938.0829 Z-0.9000 F2750
G1 X434.9461 Y955.8444 Z-0.9000 F2750
G1 X434.9461 Y938.0829 Z-0.9000 F2750
G1 X476.0470 Y938.0829 Z-0.9000 F2750
G1 X476.0470 Y955.8444 Z-0.9000 F2750
G1 X476.0470 Y955.8444 Z10.0000 F9999
G1 X476.0470 Y970.9637 Z10.0000 F9999
G1 X476.0470 Y970.9637 Z-0.9000 F2000
G1 X434.9461 Y970.9637 Z-0.9000 F2750
G1 X434.9461 Y978.1196 Z-0.9000 F2750
G1 X435.5516 Y981.9912 Z-0.9000 F2750
G1 X437.3681 Y985.2022 Z-0.9000 F2750
G1 X440.5241 Y987.4224 Z-0.9000 F2750
G1 X445.1663 Y988.2664 Z-0.9000 F2750
G1 X449.8452 Y987.1105 Z-0.9000 F2750
G1 X453.1663 Y984.3398 Z-0.9000 F2750
G1 X455.1296 Y981.0187 Z-0.9000 F2750
G1 X455.7902 Y978.1196 Z-0.9000 F2750
G1 X455.7902 Y970.9637 Z-0.9000 F2750
G1 X455.7902 Y978.1196 Z-0.9000 F2750
G1 X455.1296 Y981.0187 Z-0.9000 F2750
G1 X453.1663 Y984.3398 Z-0.9000 F2750
G1 X449.8452 Y987.1105 Z-0.9000 F2750
G1 X445.1663 Y988.2664 Z-0.9000 F2750
G1 X440.5241 Y987.4224 Z-0.9000 F2750
G1 X437.3681 Y985.2022 Z-0.9000 F2750
G1 X435.5516 Y981.9912 Z-0.9000 F2750
G1 X434.9461 Y978.1196 Z-0.9000 F2750
G1 X434.9461 Y970.9637 Z-0.9000 F2750
G1 X434.9461 Y970.9637 Z10.0000 F9999
G1 X476.0470 Y988.3765 Z10.0000 F9999
G1 X476.0470 Y988.3765 Z-0.9000 F2000
G1 X455.9003 Y975.1472 Z-0.9000 F2750
G1 X476.0470 Y988.3765 Z-0.9000 F2750
G1 X476.0470 Y988.3765 Z10.0000 F9999
G1 X476.0470 Y1044.9453 Z10.0000 F9999
G1 X476.0470 Y1044.9453 Z-0.9000 F2000
G1 X434.9461 Y1044.9453 Z-0.9000 F2750
G1 X434.9461 Y1052.1013 Z-0.9000 F2750
G1 X435.5516 Y1055.9729 Z-0.9000 F2750
G1 X437.3681 Y1059.1839 Z-0.9000 F2750
G1 X440.5241 Y1061.4040 Z-0.9000 F2750
G1 X445.1663 Y1062.2481 Z-0.9000 F2750
G1 X449.8452 Y1061.0921 Z-0.9000 F2750
G1 X453.1663 Y1058.3215 Z-0.9000 F2750
G1 X455.1296 Y1055.0004 Z-0.9000 F2750
G1 X455.7902 Y1052.1013 Z-0.9000 F2750
G1 X455.7902 Y1044.9453 Z-0.9000 F2750
G1 X455.7902 Y1052.1013 Z-0.9000 F2750
G1 X455.1296 Y1055.0004 Z-0.9000 F2750
G1 X453.1663 Y1058.3215 Z-0.9000 F2750
G1 X449.8452 Y1061.0921 Z-0.9000 F2750
G1 X445.1663 Y1062.2481 Z-0.9000 F2750
G1 X440.5241 Y1061.4040 Z-0.9000 F2750
G1 X437.3681 Y1059.1839 Z-0.9000 F2750
G1 X435.5516 Y1055.9729 Z-0.9000 F2750
G1 X434.9461 Y1052.1013 Z-0.9000 F2750
G1 X434.9461 Y1044.9453 Z-0.9000 F2750
G1 X434.9461 Y1044.9453 Z10.0000 F9999
G1 X425.5516 Y1029.4407 Z10.0000 F9999
G1 X425.5516 Y1029.4407 Z-0.9000 F2000
G1 X478.3957 Y999.0554 Z-0.9000 F2750
G1 X425.5516 Y1029.4407 Z-0.9000 F2750
G1 X425.5516 Y1029.4407 Z10.0000 F9999
G1 X476.0470 Y1062.3582 Z10.0000 F9999
G1 X476.0470 Y1062.3582 Z-0.9000 F2000
G1 X455.9003 Y1049.1288 Z-0.9000 F2750
G1 X476.0470 Y1062.3582 Z-0.9000 F2750
G1 X476.0470 Y1062.3582 Z10.0000 F9999
G1 X699.9507 Y998.8309 Z10.0000 F9999
G1 X699.9507 Y998.8309 Z-0.9000 F2000
G1 X722.7580 Y998.8309 Z-0.9000 F2750
G1 X722.7580 Y982.3722 Z-0.9000 F2750
G1 X722.7580 Y998.8309 Z-0.9000 F2750
G1 X741.0516 Y998.8309 Z-0.9000 F2750
G1 X741.0516 Y981.0695 Z-0.9000 F2750
G1 X741.0516 Y998.8309 Z-0.9000 F2750
G1 X699.9507 Y998.8309 Z-0.9000 F2750
G1 X699.9507 Y981.0695 Z-0.9000 F2750
G1 X699.9507 Y981.0695 Z10.0000 F9999
G1 X699.9507 Y965.9502 Z10.0000 F9999
G1 X699.9507 Y965.9502 Z-0.9000 F2000
G1 X741.0516 Y965.9502 Z-0.9000 F2750
G1 X741.0516 Y958.7942 Z-0.9000 F2750
G1 X740.4461 Y954.9227 Z-0.9000 F2750
G1 X738.6296 Y951.7117 Z-0.9000 F2750
G1 X735.4736 Y949.4915 Z-0.9000 F2750
G1 X730.8314 Y948.6474 Z-0.9000 F2750
G1 X726.1525 Y949.8034 Z-0.9000 F2750
G1 X722.8314 Y952.5741 Z-0.9000 F2750
G1 X720.8681 Y955.8952 Z-0.9000 F2750
G1 X720.2076 Y958.7942 Z-0.9000 F2750
G1 X720.2076 Y965.9502 Z-0.9000 F2750
G1 X720.2076 Y958.7942 Z-0.9000 F2750
G1 X720.8681 Y955.8952 Z-0.9000 F2750
G1 X722.8314 Y952.5741 Z-0.9000 F2750
G1 X726.1525 Y949.8034 Z-0.9000 F2750
G1 X730.8314 Y948.6474 Z-0.9000 F2750
G1 X735.4736 Y949.4915 Z-0.9000 F2750
G1 X738.6296 Y951.7117 Z-0.9000 F2750
G1 X740.4461 Y954.9227 Z-0.9000 F2750
G1 X741.0516 Y958.7942 Z-0.9000 F2750
G1 X741.0516 Y965.9502 Z-0.9000 F2750
G1 X741.0516 Y965.9502 Z10.0000 F9999
G1 X699.9507 Y948.5374 Z10.0000 F9999
G1 X699.9507 Y948.5374 Z-0.9000 F2000
G1 X720.0975 Y961.7667 Z-0.9000 F2750
G1 X699.9507 Y948.5374 Z-0.9000 F2750
G1 X699.9507 Y948.5374 Z10.0000 F9999
G1 X722.7580 Y891.9686 Z10.0000 F9999
G1 X722.7580 Y891.9686 Z-0.9000 F2000
G1 X722.7580 Y877.5282 Z-0.9000 F2750
G1 X722.7580 Y891.9686 Z-0.9000 F2750
G1 X741.0516 Y891.9686 Z-0.9000 F2750
G1 X741.0516 Y876.8493 Z-0.9000 F2750
G1 X741.0516 Y891.9686 Z-0.9000 F2750
G1 X699.9507 Y891.9686 Z-0.9000 F2750
G1 X699.9507 Y891.9686 Z10.0000 F9999
G1 X750.4461 Y907.4731 Z10.0000 F9999
G1 X750.4461 Y907.4731 Z-0.9000 F2000
G1 X697.6021 Y937.8585 Z-0.9000 F2750
G1 X750.4461 Y907.4731 Z-0.9000 F2750
G1 X750.4461 Y907.4731 Z10.0000 F9999
G1 X705.6388 Y1014.6841 Z10.0000 F9999
G1 X705.6388 Y1014.6841 Z-0.9000 F2000
G1 X701.4736 Y1021.3080 Z-0.9000 F2750
G1 X699.9507 Y1029.2897 Z-0.9000 F2750
G1 X701.5837 Y1037.5649 Z-0.9000 F2750
G1 X706.0058 Y1044.3355 Z-0.9000 F2750
G1 X712.5379 Y1048.9043 Z-0.9000 F2750
G1 X720.5379 Y1050.5924 Z-0.9000 F2750
G1 X728.4828 Y1048.9043 Z-0.9000 F2750
G1 X734.9966 Y1044.3355 Z-0.9000 F2750
G1 X739.4186 Y1037.5649 Z-0.9000 F2750
G1 X741.0516 Y1029.2897 Z-0.9000 F2750
G1 X739.6388 Y1021.5098 Z-0.9000 F2750
G1 X735.6938 Y1014.9594 Z-0.9000 F2750
G1 X739.6388 Y1021.5098 Z-0.9000 F2750
G1 X741.0516 Y1029.2897 Z-0.9000 F2750
G1 X739.4186 Y1037.5649 Z-0.9000 F2750
G1 X734.9966 Y1044.3355 Z-0.9000 F2750
G1 X728.4828 Y1048.9043 Z-0.9000 F2750
G1 X720.5379 Y1050.5924 Z-0.9000 F2750
G1 X712.5379 Y1048.9043 Z-0.9000 F2750
G1 X706.0058 Y1044.3355 Z-0.9000 F2750
G1 X701.5837 Y1037.5649 Z-0.9000 F2750
G1 X699.9507 Y1029.2897 Z-0.9000 F2750
G1 X701.4736 Y1021.3080 Z-0.9000 F2750
G1 X701.4736 Y1021.3080 Z10.0000 F9999
G1 X714.6480 Y1067.7117 Z10.0000 F9999
G1 X714.6480 Y1067.7117 Z-0.9000 F2000
G1 X714.6480 Y1088.4089 Z-0.9000 F2750
G1 X714.6480 Y1067.7117 Z-0.9000 F2750
G1 X714.6480 Y1067.7117 Z10.0000 F9999
G1 X741.0516 Y1078.0236 Z10.0000 F9999
G1 X741.0516 Y1078.0236 Z-0.9000 F2000
G1 X699.9507 Y1061.9686 Z-0.9000 F2750
G1 X741.0516 Y1078.0236 Z-0.9000 F2750
G1 X699.9507 Y1094.0419 Z-0.9000 F2750
G1 X699.9507 Y1094.0419 Z10.0000 F9999
G1 X741.0516 Y1123.3080 Z10.0000 F9999
G1 X741.0516 Y1123.3080 Z-0.9000 F2000
G1 X741.0516 Y1116.8860 Z-0.9000 F2750
G1 X738.4828 Y1108.2621 Z-0.9000 F2750
G1 X730.8865 Y1105.2713 Z-0.9000 F2750
G1 X723.0149 Y1108.3539 Z-0.9000 F2750
G1 X720.1892 Y1116.5924 Z-0.9000 F2750
G1 X720.1892 Y1123.3080 Z-0.9000 F2750
G1 X720.1892 Y1116.5924 Z-0.9000 F2750
G1 X723.0149 Y1108.3539 Z-0.9000 F2750
G1 X730.8865 Y1105.2713 Z-0.9000 F2750
G1 X738.4828 Y1108.2621 Z-0.9000 F2750
G1 X741.0516 Y1116.8860 Z-0.9000 F2750
G1 X741.0516 Y1123.3080 Z-0.9000 F2750
G1 X699.9507 Y1123.3080 Z-0.9000 F2750
G1 X699.9507 Y1123.3080 Z10.0000 F9999
G1 X706.7764 Y1163.3263 Z10.0000 F9999
G1 X706.7764 Y1163.3263 Z-0.9000 F2000
G1 X703.7305 Y1161.3814 Z-0.9000 F2750
G1 X701.6755 Y1158.9594 Z-0.9000 F2750
G1 X700.4278 Y1155.8401 Z-0.9000 F2750
G1 X699.9507 Y1151.7117 Z-0.9000 F2750
G1 X700.4094 Y1147.2163 Z-0.9000 F2750
G1 X702.1525 Y1143.3997 Z-0.9000 F2750
G1 X705.1434 Y1140.7208 Z-0.9000 F2750
G1 X709.3085 Y1139.6016 Z-0.9000 F2750
G1 X713.3085 Y1140.1337 Z-0.9000 F2750
G1 X715.9874 Y1141.6750 Z-0.9000 F2750
G1 X717.6755 Y1143.7117 Z-0.9000 F2750
G1 X718.7764 Y1145.6199 Z-0.9000 F2750
G1 X723.5103 Y1154.8126 Z-0.9000 F2750
G1 X724.9232 Y1157.1796 Z-0.9000 F2750
G1 X726.5746 Y1159.0328 Z-0.9000 F2750
G1 X728.7580 Y1160.2805 Z-0.9000 F2750
G1 X731.6388 Y1160.7942 Z-0.9000 F2750
G1 X734.9232 Y1160.2621 Z-0.9000 F2750
G1 X737.9507 Y1158.4273 Z-0.9000 F2750
G1 X740.1709 Y1155.2897 Z-0.9000 F2750
G1 X741.0516 Y1150.9227 Z-0.9000 F2750
G1 X740.3727 Y1146.6658 Z-0.9000 F2750
G1 X738.9048 Y1143.8218 Z-0.9000 F2750
G1 X736.7580 Y1141.7300 Z-0.9000 F2750
G1 X738.9048 Y1143.8218 Z-0.9000 F2750
G1 X740.3727 Y1146.6658 Z-0.9000 F2750
G1 X741.0516 Y1150.9227 Z-0.9000 F2750
G1 X740.1709 Y1155.2897 Z-0.9000 F2750
G1 X737.9507 Y1158.4273 Z-0.9000 F2750
G1 X734.9232 Y1160.2621 Z-0.9000 F2750
G1 X731.6388 Y1160.7942 Z-0.9000 F2750
G1 X728.7580 Y1160.2805 Z-0.9000 F2750
G1 X726.5746 Y1159.0328 Z-0.9000 F2750
G1 X724.9232 Y1157.1796 Z-0.9000 F2750
G1 X723.5103 Y1154.8126 Z-0.9000 F2750
G1 X718.7764 Y1145.6199 Z-0.9000 F2750
G1 X717.6755 Y1143.7117 Z-0.9000 F2750
G1 X715.9874 Y1141.6750 Z-0.9000 F2750
G1 X713.3085 Y1140.1337 Z-0.9000 F2750
G1 X709.3085 Y1139.6016 Z-0.9000 F2750
G1 X705.1434 Y1140.7208 Z-0.9000 F2750
G1 X702.1525 Y1143.3997 Z-0.9000 F2750
G1 X700.4094 Y1147.2163 Z-0.9000 F2750
G1 X699.9507 Y1151.7117 Z-0.9000 F2750
G1 X700.4278 Y1155.8401 Z-0.9000 F2750
G1 X701.6755 Y1158.9594 Z-0.9000 F2750
G1 X703.7305 Y1161.3814 Z-0.9000 F2750
G1 X703.7305 Y1161.3814 Z10.0000 F9999
G1 X1012.9682 Y1224.4168 Z10.0000 F9999
G1 X1012.9682 Y1224.4168 Z-0.9000 F2000
G1 X1012.9682 Y1209.9764 Z-0.9000 F2750
G1 X1012.9682 Y1224.4168 Z-0.9000 F2750
G1 X1031.2618 Y1224.4168 Z-0.9000 F2750
G1 X1031.2618 Y1209.2975 Z-0.9000 F2750
G1 X1031.2618 Y1224.4168 Z-0.9000 F2750
G1 X990.1609 Y1224.4168 Z-0.9000 F2750
G1 X990.1609 Y1224.4168 Z10.0000 F9999
G1 X1040.6563 Y1239.9214 Z10.0000 F9999
G1 X1040.6563 Y1239.9214 Z-0.9000 F2000
G1 X987.8123 Y1270.3067 Z-0.9000 F2750
G1 X1040.6563 Y1239.9214 Z-0.9000 F2750
G1 X1040.6563 Y1239.9214 Z10.0000 F9999
G1 X1031.2618 Y1182.7287 Z10.0000 F9999
G1 X1031.2618 Y1182.7287 Z-0.9000 F2000
G1 X1015.2985 Y1194.0315 Z-0.9000 F2750
G1 X1013.3366 Y1195.4181 Z-0.9000 F2750
G1 X1011.3352 Y1196.7471 Z-0.9000 F2750
G1 X1004.1242 Y1198.6737 Z-0.9000 F2750
G1 X998.6930 Y1197.5728 Z-0.9000 F2750
G1 X994.2710 Y1194.6186 Z-0.9000 F2750
G1 X991.2618 Y1190.2517 Z-0.9000 F2750
G1 X990.1609 Y1184.8572 Z-0.9000 F2750
G1 X991.2618 Y1179.4627 Z-0.9000 F2750
G1 X994.2710 Y1175.0223 Z-0.9000 F2750
G1 X998.6930 Y1172.0315 Z-0.9000 F2750
G1 X1004.1242 Y1170.9306 Z-0.9000 F2750
G1 X1009.5370 Y1172.0315 Z-0.9000 F2750
G1 X1013.9590 Y1175.0223 Z-0.9000 F2750
G1 X1016.9315 Y1179.4627 Z-0.9000 F2750
G1 X1018.0324 Y1184.8572 Z-0.9000 F2750
G1 X1016.1792 Y1191.7746 Z-0.9000 F2750
G1 X1011.3352 Y1196.7471 Z-0.9000 F2750
G1 X1016.1792 Y1191.7746 Z-0.9000 F2750
G1 X1018.0324 Y1184.8572 Z-0.9000 F2750
G1 X1016.9315 Y1179.4627 Z-0.9000 F2750
G1 X1013.9590 Y1175.0223 Z-0.9000 F2750
G1 X1009.5370 Y1172.0315 Z-0.9000 F2750
G1 X1004.1242 Y1170.9306 Z-0.9000 F2750
G1 X998.6930 Y1172.0315 Z-0.9000 F2750
G1 X994.2710 Y1175.0223 Z-0.9000 F2750
G1 X991.2618 Y1179.4627 Z-0.9000 F2750
G1 X990.1609 Y1184.8572 Z-0.9000 F2750
G1 X991.2618 Y1190.2517 Z-0.9000 F2750
G1 X994.2710 Y1194.6186 Z-0.9000 F2750
G1 X998.6930 Y1197.5728 Z-0.9000 F2750
G1 X1004.1242 Y1198.6737 Z-0.9000 F2750
G1 X1011.3352 Y1196.7471 Z-0.9000 F2750
G1 X1012.7847 Y1195.7929 Z-0.9000 F2750
G1 X1022.0691 Y1189.2608 Z-0.9000 F2750
G1 X1022.0691 Y1189.2608 Z10.0000 F9999
G1 X1004.8581 Y1287.4260 Z10.0000 F9999
G1 X1004.8581 Y1287.4260 Z-0.9000 F2000
G1 X1004.8581 Y1308.1232 Z-0.9000 F2750
G1 X1004.8581 Y1287.4260 Z-0.9000 F2750
G1 X1004.8581 Y1287.4260 Z10.0000 F9999
G1 X1031.2618 Y1297.7379 Z10.0000 F9999
G1 X1031.2618 Y1297.7379 Z-0.9000 F2000
G1 X990.1609 Y1281.6829 Z-0.9000 F2750
G1 X1031.2618 Y1297.7379 Z-0.9000 F2750
G1 X990.1609 Y1313.7562 Z-0.9000 F2750
G1 X990.1609 Y1313.7562 Z10.0000 F9999
G1 X1014.8214 Y1324.4351 Z10.0000 F9999
G1 X1014.8214 Y1324.4351 Z-0.9000 F2000
G1 X1014.8214 Y1353.6829 Z-0.9000 F2750
G1 X1014.8214 Y1324.4351 Z-0.9000 F2750
G1 X1014.8214 Y1324.4351 Z10.0000 F9999
G1 X1004.8581 Y1370.8021 Z10.0000 F9999
G1 X1004.8581 Y1370.8021 Z-0.9000 F2000
G1 X1004.8581 Y1391.4994 Z-0.9000 F2750
G1 X1004.8581 Y1370.8021 Z-0.9000 F2750
G1 X1004.8581 Y1370.8021 Z10.0000 F9999
G1 X1031.2618 Y1381.1140 Z10.0000 F9999
G1 X1031.2618 Y1381.1140 Z-0.9000 F2000
G1 X990.1609 Y1365.0590 Z-0.9000 F2750
G1 X1031.2618 Y1381.1140 Z-0.9000 F2750
G1 X990.1609 Y1397.1324 Z-0.9000 F2750
G1 X990.1609 Y1397.1324 Z10.0000 F9999
G1 X990.1609 Y1407.8113 Z10.0000 F9999
G1 X990.1609 Y1407.8113 Z-0.9000 F2000
G1 X1010.3077 Y1421.0406 Z-0.9000 F2750
G1 X990.1609 Y1407.8113 Z-0.9000 F2750
G1 X990.1609 Y1407.8113 Z10.0000 F9999
G1 X990.1609 Y1425.2241 Z10.0000 F9999
G1 X990.1609 Y1425.2241 Z-0.9000 F2000
G1 X1031.2618 Y1425.2241 Z-0.9000 F2750
G1 X1031.2618 Y1418.0682 Z-0.9000 F2750
G1 X1030.6563 Y1414.1966 Z-0.9000 F2750
G1 X1028.8398 Y1410.9856 Z-0.9000 F2750
G1 X1025.6838 Y1408.7654 Z-0.9000 F2750
G1 X1021.0416 Y1407.9214 Z-0.9000 F2750
G1 X1016.3627 Y1409.0773 Z-0.9000 F2750
G1 X1013.0416 Y1411.8480 Z-0.9000 F2750
G1 X1011.0783 Y1415.1691 Z-0.9000 F2750
G1 X1010.4178 Y1418.0682 Z-0.9000 F2750
G1 X1010.4178 Y1425.2241 Z-0.9000 F2750
G1 X1010.4178 Y1418.0682 Z-0.9000 F2750
G1 X1011.0783 Y1415.1691 Z-0.9000 F2750
G1 X1013.0416 Y1411.8480 Z-0.9000 F2750
G1 X1016.3627 Y1409.0773 Z-0.9000 F2750
G1 X1021.0416 Y1407.9214 Z-0.9000 F2750
G1 X1025.6838 Y1408.7654 Z-0.9000 F2750
G1 X1028.8398 Y1410.9856 Z-0.9000 F2750
G1 X1030.6563 Y1414.1966 Z-0.9000 F2750
G1 X1031.2618 Y1418.0682 Z-0.9000 F2750
G1 X1031.2618 Y1425.2241 Z-0.9000 F2750
G1 X1031.2618 Y1425.2241 Z10.0000 F9999
G1 X1012.9682 Y1455.7562 Z10.0000 F9999
G1 X1012.9682 Y1455.7562 Z-0.9000 F2000
G1 X1012.9682 Y1441.3159 Z-0.9000 F2750
G1 X1012.9682 Y1455.7562 Z-0.9000 F2750
G1 X1031.2618 Y1455.7562 Z-0.9000 F2750
G1 X1031.2618 Y1440.6370 Z-0.9000 F2750
G1 X1031.2618 Y1455.7562 Z-0.9000 F2750
G1 X990.1609 Y1455.7562 Z-0.9000 F2750
G1 X990.1609 Y1455.7562 Z10.0000 F9999
G1 X729.6618 Y1682.1281 Z10.0000 F9999
G1 X729.6618 Y1682.1281 Z-0.9000 F2000
G1 X718.8316 Y1682.1281 Z-0.9000 F2750
G1 X729.6618 Y1682.1281 Z-0.9000 F2750
G1 X729.6618 Y1668.4079 Z-0.9000 F2750
G1 X718.3224 Y1668.4079 Z-0.9000 F2750
G1 X729.6618 Y1668.4079 Z-0.9000 F2750
G1 X729.6618 Y1699.2336 Z-0.9000 F2750
G1 X729.6618 Y1699.2336 Z10.0000 F9999
G1 X706.7628 Y1699.2336 Z10.0000 F9999
G1 X706.7628 Y1699.2336 Z-0.9000 F2000
G1 X706.7628 Y1668.4079 Z-0.9000 F2750
G1 X701.3958 Y1668.4079 Z-0.9000 F2750
G1 X698.4921 Y1668.8620 Z-0.9000 F2750
G1 X696.0839 Y1670.2244 Z-0.9000 F2750
G1 X694.4187 Y1672.5914 Z-0.9000 F2750
G1 X693.7857 Y1676.0731 Z-0.9000 F2750
G1 X694.6527 Y1679.5822 Z-0.9000 F2750
G1 X696.7307 Y1682.0731 Z-0.9000 F2750
G1 X699.2215 Y1683.5455 Z-0.9000 F2750
G1 X701.3958 Y1684.0409 Z-0.9000 F2750
G1 X706.7628 Y1684.0409 Z-0.9000 F2750
G1 X701.3958 Y1684.0409 Z-0.9000 F2750
G1 X699.2215 Y1683.5455 Z-0.9000 F2750
G1 X696.7307 Y1682.0731 Z-0.9000 F2750
G1 X694.6527 Y1679.5822 Z-0.9000 F2750
G1 X693.7857 Y1676.0731 Z-0.9000 F2750
G1 X694.4187 Y1672.5914 Z-0.9000 F2750
G1 X696.0839 Y1670.2244 Z-0.9000 F2750
G1 X698.4921 Y1668.8620 Z-0.9000 F2750
G1 X701.3958 Y1668.4079 Z-0.9000 F2750
G1 X706.7628 Y1668.4079 Z-0.9000 F2750
G1 X706.7628 Y1668.4079 Z10.0000 F9999
G1 X673.6802 Y1668.4079 Z10.0000 F9999
G1 X673.6802 Y1668.4079 Z-0.9000 F2000
G1 X661.6389 Y1699.2336 Z-0.9000 F2750
G1 X673.6802 Y1668.4079 Z-0.9000 F2750
G1 X685.6940 Y1699.2336 Z-0.9000 F2750
G1 X685.6940 Y1699.2336 Z10.0000 F9999
G1 X693.7031 Y1699.2336 Z10.0000 F9999
G1 X693.7031 Y1699.2336 Z-0.9000 F2000
G1 X703.6251 Y1684.1235 Z-0.9000 F2750
G1 X693.7031 Y1699.2336 Z-0.9000 F2750
G1 X693.7031 Y1699.2336 Z10.0000 F9999
G1 X665.9463 Y1688.2107 Z10.0000 F9999
G1 X665.9463 Y1688.2107 Z-0.9000 F2000
G1 X681.4692 Y1688.2107 Z-0.9000 F2750
G1 X665.9463 Y1688.2107 Z-0.9000 F2750
G1 X665.9463 Y1688.2107 Z10.0000 F9999
G1 X631.1710 Y1680.7382 Z10.0000 F9999
G1 X631.1710 Y1680.7382 Z-0.9000 F2000
G1 X653.1068 Y1680.7382 Z-0.9000 F2750
G1 X631.1710 Y1680.7382 Z-0.9000 F2750
G1 X631.1710 Y1680.7382 Z10.0000 F9999
G1 X611.1481 Y1668.4079 Z10.0000 F9999
G1 X611.1481 Y1668.4079 Z-0.9000 F2000
G1 X599.1068 Y1699.2336 Z-0.9000 F2750
G1 X611.1481 Y1668.4079 Z-0.9000 F2750
G1 X623.1618 Y1699.2336 Z-0.9000 F2750
G1 X623.1618 Y1699.2336 Z10.0000 F9999
G1 X603.4141 Y1688.2107 Z10.0000 F9999
G1 X603.4141 Y1688.2107 Z-0.9000 F2000
G1 X618.9371 Y1688.2107 Z-0.9000 F2750
G1 X603.4141 Y1688.2107 Z-0.9000 F2750
G1 X603.4141 Y1688.2107 Z10.0000 F9999
G1 X559.7490 Y1694.1143 Z10.0000 F9999
G1 X559.7490 Y1694.1143 Z-0.9000 F2000
G1 X558.2903 Y1696.3987 Z-0.9000 F2750
G1 X556.4738 Y1697.9400 Z-0.9000 F2750
G1 X554.1343 Y1698.8758 Z-0.9000 F2750
G1 X551.0380 Y1699.2336 Z-0.9000 F2750
G1 X547.6664 Y1698.8896 Z-0.9000 F2750
G1 X544.8040 Y1697.5822 Z-0.9000 F2750
G1 X542.7949 Y1695.3391 Z-0.9000 F2750
G1 X541.9554 Y1692.2153 Z-0.9000 F2750
G1 X542.3545 Y1689.2153 Z-0.9000 F2750
G1 X543.5105 Y1687.2061 Z-0.9000 F2750
G1 X545.0380 Y1685.9400 Z-0.9000 F2750
G1 X546.4692 Y1685.1143 Z-0.9000 F2750
G1 X553.3637 Y1681.5639 Z-0.9000 F2750
G1 X555.1389 Y1680.5042 Z-0.9000 F2750
G1 X556.5288 Y1679.2657 Z-0.9000 F2750
G1 X557.4646 Y1677.6281 Z-0.9000 F2750
G1 X557.8499 Y1675.4675 Z-0.9000 F2750
G1 X557.4508 Y1673.0042 Z-0.9000 F2750
G1 X556.0747 Y1670.7336 Z-0.9000 F2750
G1 X553.7215 Y1669.0685 Z-0.9000 F2750
G1 X550.4463 Y1668.4079 Z-0.9000 F2750
G1 X547.2536 Y1668.9171 Z-0.9000 F2750
G1 X545.1206 Y1670.0180 Z-0.9000 F2750
G1 X543.5518 Y1671.6281 Z-0.9000 F2750
G1 X545.1206 Y1670.0180 Z-0.9000 F2750
G1 X547.2536 Y1668.9171 Z-0.9000 F2750
G1 X550.4463 Y1668.4079 Z-0.9000 F2750
G1 X553.7215 Y1669.0685 Z-0.9000 F2750
G1 X556.0747 Y1670.7336 Z-0.9000 F2750
G1 X557.4508 Y1673.0042 Z-0.9000 F2750
G1 X557.8499 Y1675.4675 Z-0.9000 F2750
G1 X557.4646 Y1677.6281 Z-0.9000 F2750
G1 X556.5288 Y1679.2657 Z-0.9000 F2750
G1 X555.1389 Y1680.5042 Z-0.9000 F2750
G1 X553.3637 Y1681.5639 Z-0.9000 F2750
G1 X546.4692 Y1685.1143 Z-0.9000 F2750
G1 X545.0380 Y1685.9400 Z-0.9000 F2750
G1 X543.5105 Y1687.2061 Z-0.9000 F2750
G1 X542.3545 Y1689.2153 Z-0.9000 F2750
G1 X541.9554 Y1692.2153 Z-0.9000 F2750
G1 X542.7949 Y1695.3391 Z-0.9000 F2750
G1 X544.8040 Y1697.5822 Z-0.9000 F2750
G1 X547.6664 Y1698.8896 Z-0.9000 F2750
G1 X551.0380 Y1699.2336 Z-0.9000 F2750
G1 X554.1343 Y1698.8758 Z-0.9000 F2750
G1 X556.4738 Y1697.9400 Z-0.9000 F2750
G1 X558.2903 Y1696.3987 Z-0.9000 F2750
G1 X558.2903 Y1696.3987 Z10.0000 F9999
G1 X567.7857 Y1661.3620 Z10.0000 F9999
G1 X567.7857 Y1661.3620 Z-0.9000 F2000
G1 X590.5747 Y1700.9951 Z-0.9000 F2750
G1 X567.7857 Y1661.3620 Z-0.9000 F2750
G1 X567.7857 Y1661.3620 Z10.0000 F9999
G1 X516.6756 Y1668.4079 Z10.0000 F9999
G1 X516.6756 Y1668.4079 Z-0.9000 F2000
G1 X533.3270 Y1693.4538 Z-0.9000 F2750
G1 X511.7215 Y1693.4538 Z-0.9000 F2750
G1 X533.3270 Y1693.4538 Z-0.9000 F2750
G1 X516.6756 Y1668.4079 Z-0.9000 F2750
G1 X516.6756 Y1699.2336 Z-0.9000 F2750
G1 X516.6756 Y1699.2336 Z10.0000 F9999
G1 X480.5930 Y1661.3620 Z10.0000 F9999
G1 X480.5930 Y1661.3620 Z-0.9000 F2000
G1 X503.3820 Y1700.9951 Z-0.9000 F2750
G1 X480.5930 Y1661.3620 Z-0.9000 F2750
G1 X480.5930 Y1661.3620 Z10.0000 F9999
G1 X468.9646 Y1668.4079 Z10.0000 F9999
G1 X468.9646 Y1668.4079 Z-0.9000 F2000
G1 X468.9646 Y1699.2336 Z-0.9000 F2750
G1 X468.9646 Y1668.4079 Z-0.9000 F2750
G1 X468.9646 Y1668.4079 Z10.0000 F9999
G1 X453.9921 Y1668.4079 Z10.0000 F9999
G1 X453.9921 Y1668.4079 Z-0.9000 F2000
G1 X426.1664 Y1699.2336 Z-0.9000 F2750
G1 X426.1664 Y1668.4079 Z-0.9000 F2750
G1 X426.1664 Y1699.2336 Z-0.9000 F2750
G1 X453.9921 Y1668.4079 Z-0.9000 F2750
G1 X453.9921 Y1699.2336 Z-0.9000 F2750
G1 X453.9921 Y1699.2336 Z10.0000 F9999
G1 X497.2842 Y2214.2446 Z10.0000 F9999
G1 X497.2842 Y2214.2446 Z-0.9000 F2000
G1 X527.6695 Y2267.0886 Z-0.9000 F2750
G1 X497.2842 Y2214.2446 Z-0.9000 F2750
G1 X497.2842 Y2214.2446 Z10.0000 F9999
G1 X481.7796 Y2241.9327 Z10.0000 F9999
G1 X481.7796 Y2241.9327 Z-0.9000 F2000
G1 X467.3392 Y2241.9327 Z-0.9000 F2750
G1 X481.7796 Y2241.9327 Z-0.9000 F2750
G1 X481.7796 Y2223.6391 Z-0.9000 F2750
G1 X466.6603 Y2223.6391 Z-0.9000 F2750
G1 X481.7796 Y2223.6391 Z-0.9000 F2750
G1 X481.7796 Y2264.7400 Z-0.9000 F2750
G1 X481.7796 Y2264.7400 Z10.0000 F9999
G1 X538.3484 Y2264.7400 Z10.0000 F9999
G1 X538.3484 Y2264.7400 Z-0.9000 F2000
G1 X551.5777 Y2244.5932 Z-0.9000 F2750
G1 X538.3484 Y2264.7400 Z-0.9000 F2750
G1 X538.3484 Y2264.7400 Z10.0000 F9999
G1 X555.7612 Y2264.7400 Z10.0000 F9999
G1 X555.7612 Y2264.7400 Z-0.9000 F2000
G1 X555.7612 Y2223.6391 Z-0.9000 F2750
G1 X548.6053 Y2223.6391 Z-0.9000 F2750
G1 X544.7337 Y2224.2446 Z-0.9000 F2750
G1 X541.5227 Y2226.0611 Z-0.9000 F2750
G1 X539.3025 Y2229.2171 Z-0.9000 F2750
G1 X538.4585 Y2233.8593 Z-0.9000 F2750
G1 X539.6144 Y2238.5382 Z-0.9000 F2750
G1 X542.3851 Y2241.8593 Z-0.9000 F2750
G1 X545.7062 Y2243.8226 Z-0.9000 F2750
G1 X548.6053 Y2244.4831 Z-0.9000 F2750
G1 X555.7612 Y2244.4831 Z-0.9000 F2750
G1 X548.6053 Y2244.4831 Z-0.9000 F2750
G1 X545.7062 Y2243.8226 Z-0.9000 F2750
G1 X542.3851 Y2241.8593 Z-0.9000 F2750
G1 X539.6144 Y2238.5382 Z-0.9000 F2750
G1 X538.4585 Y2233.8593 Z-0.9000 F2750
G1 X539.3025 Y2229.2171 Z-0.9000 F2750
G1 X541.5227 Y2226.0611 Z-0.9000 F2750
G1 X544.7337 Y2224.2446 Z-0.9000 F2750
G1 X548.6053 Y2223.6391 Z-0.9000 F2750
G1 X555.7612 Y2223.6391 Z-0.9000 F2750
G1 X555.7612 Y2223.6391 Z10.0000 F9999
G1 X588.6420 Y2264.7400 Z10.0000 F9999
G1 X588.6420 Y2264.7400 Z-0.9000 F2000
G1 X588.6420 Y2241.9327 Z-0.9000 F2750
G1 X572.1832 Y2241.9327 Z-0.9000 F2750
G1 X588.6420 Y2241.9327 Z-0.9000 F2750
G1 X588.6420 Y2223.6391 Z-0.9000 F2750
G1 X570.8805 Y2223.6391 Z-0.9000 F2750
G1 X588.6420 Y2223.6391 Z-0.9000 F2750
G1 X588.6420 Y2264.7400 Z-0.9000 F2750
G1 X570.8805 Y2264.7400 Z-0.9000 F2750
G1 X570.8805 Y2264.7400 Z10.0000 F9999
G1 X604.4952 Y2259.0519 Z10.0000 F9999
G1 X604.4952 Y2259.0519 Z-0.9000 F2000
G1 X611.1190 Y2263.2171 Z-0.9000 F2750
G1 X619.1007 Y2264.7400 Z-0.9000 F2750
G1 X627.3759 Y2263.1070 Z-0.9000 F2750
G1 X634.1465 Y2258.6850 Z-0.9000 F2750
G1 X638.7154 Y2252.1529 Z-0.9000 F2750
G1 X640.4034 Y2244.1529 Z-0.9000 F2750
G1 X638.7154 Y2236.2079 Z-0.9000 F2750
G1 X634.1465 Y2229.6941 Z-0.9000 F2750
G1 X627.3759 Y2225.2721 Z-0.9000 F2750
G1 X619.1007 Y2223.6391 Z-0.9000 F2750
G1 X611.3209 Y2225.0519 Z-0.9000 F2750
G1 X604.7704 Y2228.9969 Z-0.9000 F2750
G1 X611.3209 Y2225.0519 Z-0.9000 F2750
G1 X619.1007 Y2223.6391 Z-0.9000 F2750
G1 X627.3759 Y2225.2721 Z-0.9000 F2750
G1 X634.1465 Y2229.6941 Z-0.9000 F2750
G1 X638.7154 Y2236.2079 Z-0.9000 F2750
G1 X640.4034 Y2244.1529 Z-0.9000 F2750
G1 X638.7154 Y2252.1529 Z-0.9000 F2750
G1 X634.1465 Y2258.6850 Z-0.9000 F2750
G1 X627.3759 Y2263.1070 Z-0.9000 F2750
G1 X619.1007 Y2264.7400 Z-0.9000 F2750
G1 X611.1190 Y2263.2171 Z-0.9000 F2750
G1 X611.1190 Y2263.2171 Z10.0000 F9999
G1 X657.5227 Y2250.0428 Z10.0000 F9999
G1 X657.5227 Y2250.0428 Z-0.9000 F2000
G1 X678.2199 Y2250.0428 Z-0.9000 F2750
G1 X657.5227 Y2250.0428 Z-0.9000 F2750
G1 X657.5227 Y2250.0428 Z10.0000 F9999
G1 X667.8346 Y2223.6391 Z10.0000 F9999
G1 X667.8346 Y2223.6391 Z-0.9000 F2000
G1 X651.7796 Y2264.7400 Z-0.9000 F2750
G1 X667.8346 Y2223.6391 Z-0.9000 F2750
G1 X683.8530 Y2264.7400 Z-0.9000 F2750
G1 X683.8530 Y2264.7400 Z10.0000 F9999
G1 X713.1190 Y2223.6391 Z10.0000 F9999
G1 X713.1190 Y2223.6391 Z-0.9000 F2000
G1 X706.6970 Y2223.6391 Z-0.9000 F2750
G1 X698.0732 Y2226.2079 Z-0.9000 F2750
G1 X695.0823 Y2233.8042 Z-0.9000 F2750
G1 X698.1649 Y2241.6758 Z-0.9000 F2750
G1 X706.4034 Y2244.5015 Z-0.9000 F2750
G1 X713.1190 Y2244.5015 Z-0.9000 F2750
G1 X706.4034 Y2244.5015 Z-0.9000 F2750
G1 X698.1649 Y2241.6758 Z-0.9000 F2750
G1 X695.0823 Y2233.8042 Z-0.9000 F2750
G1 X698.0732 Y2226.2079 Z-0.9000 F2750
G1 X706.6970 Y2223.6391 Z-0.9000 F2750
G1 X713.1190 Y2223.6391 Z-0.9000 F2750
G1 X713.1190 Y2264.7400 Z-0.9000 F2750
G1 X713.1190 Y2264.7400 Z10.0000 F9999
G1 X753.1374 Y2257.9143 Z10.0000 F9999
G1 X753.1374 Y2257.9143 Z-0.9000 F2000
G1 X751.1924 Y2260.9602 Z-0.9000 F2750
G1 X748.7704 Y2263.0152 Z-0.9000 F2750
G1 X745.6511 Y2264.2630 Z-0.9000 F2750
G1 X741.5227 Y2264.7400 Z-0.9000 F2750
G1 X737.0273 Y2264.2813 Z-0.9000 F2750
G1 X733.2108 Y2262.5382 Z-0.9000 F2750
G1 X730.5319 Y2259.5474 Z-0.9000 F2750
G1 X729.4126 Y2255.3822 Z-0.9000 F2750
G1 X729.9447 Y2251.3822 Z-0.9000 F2750
G1 X731.4860 Y2248.7033 Z-0.9000 F2750
G1 X733.5227 Y2247.0152 Z-0.9000 F2750
G1 X735.4310 Y2245.9143 Z-0.9000 F2750
G1 X744.6236 Y2241.1804 Z-0.9000 F2750
G1 X746.9906 Y2239.7675 Z-0.9000 F2750
G1 X748.8438 Y2238.1162 Z-0.9000 F2750
G1 X750.0915 Y2235.9327 Z-0.9000 F2750
G1 X750.6053 Y2233.0519 Z-0.9000 F2750
G1 X750.0732 Y2229.7675 Z-0.9000 F2750
G1 X748.2383 Y2226.7400 Z-0.9000 F2750
G1 X745.1007 Y2224.5198 Z-0.9000 F2750
G1 X740.7337 Y2223.6391 Z-0.9000 F2750
G1 X736.4768 Y2224.3180 Z-0.9000 F2750
G1 X733.6328 Y2225.7859 Z-0.9000 F2750
G1 X731.5410 Y2227.9327 Z-0.9000 F2750
G1 X733.6328 Y2225.7859 Z-0.9000 F2750
G1 X736.4768 Y2224.3180 Z-0.9000 F2750
G1 X740.7337 Y2223.6391 Z-0.9000 F2750
G1 X745.1007 Y2224.5198 Z-0.9000 F2750
G1 X748.2383 Y2226.7400 Z-0.9000 F2750
G1 X750.0732 Y2229.7675 Z-0.9000 F2750
G1 X750.6053 Y2233.0519 Z-0.9000 F2750
G1 X750.0915 Y2235.9327 Z-0.9000 F2750
G1 X748.8438 Y2238.1162 Z-0.9000 F2750
G1 X746.9906 Y2239.7675 Z-0.9000 F2750
G1 X744.6236 Y2241.1804 Z-0.9000 F2750
G1 X735.4310 Y2245.9143 Z-0.9000 F2750
G1 X733.5227 Y2247.0152 Z-0.9000 F2750
G1 X731.4860 Y2248.7033 Z-0.9000 F2750
G1 X729.9447 Y2251.3822 Z-0.9000 F2750
G1 X729.4126 Y2255.3822 Z-0.9000 F2750
G1 X730.5319 Y2259.5474 Z-0.9000 F2750
G1 X733.2108 Y2262.5382 Z-0.9000 F2750
G1 X737.0273 Y2264.2813 Z-0.9000 F2750
G1 X741.5227 Y2264.7400 Z-0.9000 F2750
G1 X745.6511 Y2264.2630 Z-0.9000 F2750
G1 X748.7704 Y2263.0152 Z-0.9000 F2750
G1 X751.1924 Y2260.9602 Z-0.9000 F2750
G1 X751.1924 Y2260.9602 Z10.0000 F9999
(Tool Number:1) (7.998 mm dia. slot drill)
M3 S19000
G1 X31.8990 Y153.9002 Z10.0000 F9999
G1 X31.8990 Y153.9002 Z1.0000 F2000
G1 X31.8990 Y184.9006 Z-6.9547 F2000
G1 X31.9010 Y182.8996 Z-7.4682 F2000
G1 X31.9432 Y182.3201 Z-7.6173 F2000
G1 X32.0775 Y181.7246 Z-7.7739 F2000
G1 X32.3114 Y181.1350 Z-7.9367 F2000
G1 X32.6455 Y180.5757 Z-8.1038 F2000
G1 X33.0723 Y180.0719 Z-8.2733 F2000
G1 X33.5761 Y179.6451 Z-8.4427 F2000
G1 X34.1354 Y179.3110 Z-8.6099 F2000
G1 X34.7250 Y179.0771 Z-8.7726 F2000
G1 X35.3205 Y178.9428 Z-8.9293 F2000
G1 X35.5955 Y178.9228 Z-9.0000 F2000
G1 X35.3205 Y178.9428 Z-9.0707 F2000
G1 X34.7250 Y179.0771 Z-9.2274 F2000
G1 X34.1354 Y179.3110 Z-9.3901 F2000
G1 X33.5761 Y179.6451 Z-9.5573 F2000
G1 X33.0723 Y180.0719 Z-9.7267 F2000
G1 X32.6455 Y180.5757 Z-9.8962 F2000
G1 X32.3114 Y181.1350 Z-10.0633 F2000
G1 X32.0775 Y181.7246 Z-10.2261 F2000
G1 X31.9432 Y182.3201 Z-10.3827 F2000
G1 X31.9010 Y182.8996 Z-10.5318 F2000
G1 X31.8990 Y184.9006 Z-11.0453 F2000
G1 X31.8990 Y153.9002 Z-19.0000 F2000
G1 X31.8990 Y184.9006 Z-19.0000 F2750
G1 X31.9010 Y182.8996 Z-19.0000 F2750
G1 X31.9432 Y182.3201 Z-19.0000 F2750
G1 X32.0775 Y181.7246 Z-19.0000 F2750
G1 X32.3114 Y181.1350 Z-19.0000 F2750
G1 X32.6455 Y180.5757 Z-19.0000 F2750
G1 X33.0723 Y180.0719 Z-19.0000 F2750
G1 X33.5761 Y179.6451 Z-19.0000 F2750
G1 X34.1354 Y179.3110 Z-19.0000 F2750
G1 X34.7250 Y179.0771 Z-19.0000 F2750
G1 X35.3205 Y178.9428 Z-19.0000 F2750
G1 X35.9000 Y178.9006 Z-19.0000 F2750
G1 X47.9010 Y178.9006 Z-19.0000 F2750
G1 X45.9000 Y178.8986 Z-19.0000 F2750
G1 X45.3204 Y178.8564 Z-19.0000 F2750
G1 X44.7250 Y178.7221 Z-19.0000 F2750
G1 X44.1353 Y178.4882 Z-19.0000 F2750
G1 X43.5761 Y178.1541 Z-19.0000 F2750
G1 X43.0722 Y177.7273 Z-19.0000 F2750
G1 X42.6455 Y177.2234 Z-19.0000 F2750
G1 X42.3114 Y176.6642 Z-19.0000 F2750
G1 X42.0775 Y176.0745 Z-19.0000 F2750
G1 X41.9432 Y175.4791 Z-19.0000 F2750
G1 X41.9010 Y174.8996 Z-19.0000 F2750
G1 X41.9010 Y130.8998 Z-19.0000 F2750
G1 X41.9490 Y130.2820 Z-19.0000 F2750
G1 X42.0955 Y129.6678 Z-19.0000 F2750
G1 X42.3386 Y129.0808 Z-19.0000 F2750
G1 X42.6693 Y128.5430 Z-19.0000 F2750
G1 X43.0722 Y128.0721 Z-19.0000 F2750
G1 X43.5431 Y127.6692 Z-19.0000 F2750
G1 X44.0810 Y127.3385 Z-19.0000 F2750
G1 X44.6680 Y127.0953 Z-19.0000 F2750
G1 X45.2821 Y126.9489 Z-19.0000 F2750
G1 X45.9000 Y126.9008 Z-19.0000 F2750
G1 X47.9010 Y126.9008 Z-19.0000 F2750
G1 X35.9000 Y126.8988 Z-19.0000 F2750
G1 X35.3205 Y126.8566 Z-19.0000 F2750
G1 X34.7250 Y126.7223 Z-19.0000 F2750
G1 X34.1354 Y126.4884 Z-19.0000 F2750
G1 X33.5761 Y126.1543 Z-19.0000 F2750
G1 X33.0723 Y125.7276 Z-19.0000 F2750
G1 X32.6455 Y125.2237 Z-19.0000 F2750
G1 X32.3114 Y124.6645 Z-19.0000 F2750
G1 X32.0775 Y124.0748 Z-19.0000 F2750
G1 X31.9432 Y123.4794 Z-19.0000 F2750
G1 X31.9010 Y122.8998 Z-19.0000 F2750
G1 X31.9010 Y120.8988 Z-19.0000 F2750
G1 X31.8918 Y137.3995 Z-19.0000 F2750
G1 X31.8990 Y153.9002 Z-19.0000 F2750
G1 X31.8990 Y153.9002 Z10.0000 F9999
G1 X152.8999 Y157.9007 Z10.0000 F9999
G1 X152.8999 Y157.9007 Z1.0000 F2000
G1 X178.8999 Y157.9007 Z-5.6716 F2000
G1 X179.4335 Y157.9365 Z-5.8088 F2000
G1 X179.9789 Y158.0490 Z-5.9517 F2000
G1 X180.5198 Y158.2435 Z-6.0992 F2000
G1 X181.0378 Y158.5202 Z-6.2499 F2000
G1 X181.5147 Y158.8740 Z-6.4023 F2000
G1 X181.9339 Y159.2945 Z-6.5547 F2000
G1 X182.2827 Y159.7670 Z-6.7054 F2000
G1 X182.5535 Y160.2740 Z-6.8528 F2000
G1 X182.7439 Y160.7974 Z-6.9958 F2000
G1 X182.8567 Y161.3202 Z-7.1330 F2000
G1 X182.9065 Y162.1097 Z-7.3360 F2000
G1 X182.8989 Y162.9007 Z-7.5390 F2000
G1 X184.9008 Y162.9007 Z-8.0526 F2000
G1 X184.9008 Y159.2087 Z-9.0000 F2000
G1 X184.9008 Y162.9007 Z-9.9474 F2000
G1 X182.8989 Y162.9007 Z-10.4610 F2000
G1 X182.9065 Y162.1097 Z-10.6640 F2000
G1 X182.8567 Y161.3202 Z-10.8670 F2000
G1 X182.7439 Y160.7974 Z-11.0042 F2000
G1 X182.5535 Y160.2740 Z-11.1472 F2000
G1 X182.2827 Y159.7670 Z-11.2946 F2000
G1 X181.9339 Y159.2945 Z-11.4453 F2000
G1 X181.5147 Y158.8740 Z-11.5977 F2000
G1 X181.0378 Y158.5202 Z-11.7501 F2000
G1 X180.5198 Y158.2435 Z-11.9008 F2000
G1 X179.9789 Y158.0490 Z-12.0483 F2000
G1 X179.4335 Y157.9365 Z-12.1912 F2000
G1 X178.8999 Y157.9007 Z-12.3284 F2000
G1 X152.8999 Y157.9007 Z-19.0000 F2000
G1 X178.8999 Y157.9007 Z-19.0000 F2750
G1 X179.4335 Y157.9365 Z-19.0000 F2750
G1 X179.9789 Y158.0490 Z-19.0000 F2750
G1 X180.5198 Y158.2435 Z-19.0000 F2750
G1 X181.0378 Y158.5202 Z-19.0000 F2750
G1 X181.5147 Y158.8740 Z-19.0000 F2750
G1 X181.9339 Y159.2945 Z-19.0000 F2750
G1 X182.2827 Y159.7670 Z-19.0000 F2750
G1 X182.5535 Y160.2740 Z-19.0000 F2750
G1 X182.7439 Y160.7974 Z-19.0000 F2750
G1 X182.8567 Y161.3202 Z-19.0000 F2750
G1 X182.9065 Y162.1097 Z-19.0000 F2750
G1 X182.8989 Y162.9007 Z-19.0000 F2750
G1 X184.9008 Y162.9007 Z-19.0000 F2750
G1 X184.9008 Y142.8987 Z-19.0000 F2750
G1 X182.8989 Y142.8987 Z-19.0000 F2750
G1 X182.9065 Y143.6898 Z-19.0000 F2750
G1 X182.8567 Y144.4793 Z-19.0000 F2750
G1 X182.7439 Y145.0021 Z-19.0000 F2750
G1 X182.5535 Y145.5254 Z-19.0000 F2750
G1 X182.2827 Y146.0324 Z-19.0000 F2750
G1 X181.9339 Y146.5049 Z-19.0000 F2750
G1 X181.5147 Y146.9254 Z-19.0000 F2750
G1 X181.0378 Y147.2792 Z-19.0000 F2750
G1 X180.5198 Y147.5559 Z-19.0000 F2750
G1 X179.9789 Y147.7504 Z-19.0000 F2750
G1 X179.4335 Y147.8630 Z-19.0000 F2750
G1 X178.8999 Y147.8987 Z-19.0000 F2750
G1 X126.8999 Y147.8987 Z-19.0000 F2750
G1 X126.3663 Y147.8630 Z-19.0000 F2750
G1 X125.8208 Y147.7504 Z-19.0000 F2750
G1 X125.2800 Y147.5559 Z-19.0000 F2750
G1 X124.7619 Y147.2792 Z-19.0000 F2750
G1 X124.2851 Y146.9254 Z-19.0000 F2750
G1 X123.8659 Y146.5049 Z-19.0000 F2750
G1 X123.5170 Y146.0324 Z-19.0000 F2750
G1 X123.2462 Y145.5254 Z-19.0000 F2750
G1 X123.0558 Y145.0021 Z-19.0000 F2750
G1 X122.9431 Y144.4793 Z-19.0000 F2750
G1 X122.8932 Y143.6898 Z-19.0000 F2750
G1 X122.9009 Y142.8987 Z-19.0000 F2750
G1 X120.8989 Y142.8987 Z-19.0000 F2750
G1 X120.8989 Y162.9007 Z-19.0000 F2750
G1 X122.9009 Y162.9007 Z-19.0000 F2750
G1 X122.8932 Y162.1097 Z-19.0000 F2750
G1 X122.9431 Y161.3202 Z-19.0000 F2750
G1 X123.0558 Y160.7974 Z-19.0000 F2750
G1 X123.2462 Y160.2740 Z-19.0000 F2750
G1 X123.5170 Y159.7670 Z-19.0000 F2750
G1 X123.8659 Y159.2945 Z-19.0000 F2750
G1 X124.2851 Y158.8740 Z-19.0000 F2750
G1 X124.7619 Y158.5202 Z-19.0000 F2750
G1 X125.2800 Y158.2435 Z-19.0000 F2750
G1 X125.8208 Y158.0490 Z-19.0000 F2750
G1 X126.3663 Y157.9365 Z-19.0000 F2750
G1 X126.8999 Y157.9007 Z-19.0000 F2750
G1 X152.8999 Y157.9007 Z-19.0000 F2750
G1 X152.8999 Y157.9007 Z10.0000 F9999
G1 X147.8989 Y243.3995 Z10.0000 F9999
G1 X147.8989 Y243.3995 Z1.0000 F2000
G1 X147.8989 Y282.3707 Z-9.0000 F2000
G1 X147.8989 Y243.3995 Z-19.0000 F2000
G1 X147.8989 Y302.8994 Z-19.0000 F2750
G1 X147.8509 Y303.5173 Z-19.0000 F2750
G1 X147.7044 Y304.1314 Z-19.0000 F2750
G1 X147.4612 Y304.7184 Z-19.0000 F2750
G1 X147.1305 Y305.2563 Z-19.0000 F2750
G1 X146.7276 Y305.7271 Z-19.0000 F2750
G1 X146.2567 Y306.1301 Z-19.0000 F2750
G1 X145.7189 Y306.4607 Z-19.0000 F2750
G1 X145.1319 Y306.7039 Z-19.0000 F2750
G1 X144.5177 Y306.8504 Z-19.0000 F2750
G1 X143.8999 Y306.8984 Z-19.0000 F2750
G1 X141.8989 Y306.9004 Z-19.0000 F2750
G1 X163.9009 Y306.8984 Z-19.0000 F2750
G1 X161.8999 Y306.8984 Z-19.0000 F2750
G1 X161.2820 Y306.8504 Z-19.0000 F2750
G1 X160.6679 Y306.7039 Z-19.0000 F2750
G1 X160.0809 Y306.4607 Z-19.0000 F2750
G1 X159.5430 Y306.1301 Z-19.0000 F2750
G1 X159.0722 Y305.7271 Z-19.0000 F2750
G1 X158.6692 Y305.2563 Z-19.0000 F2750
G1 X158.3385 Y304.7184 Z-19.0000 F2750
G1 X158.0954 Y304.1314 Z-19.0000 F2750
G1 X157.9489 Y303.5173 Z-19.0000 F2750
G1 X157.9009 Y302.8994 Z-19.0000 F2750
G1 X157.9009 Y183.8997 Z-19.0000 F2750
G1 X157.9431 Y183.3201 Z-19.0000 F2750
G1 X158.0774 Y182.7247 Z-19.0000 F2750
G1 X158.3113 Y182.1351 Z-19.0000 F2750
G1 X158.6454 Y181.5758 Z-19.0000 F2750
G1 X159.0722 Y181.0720 Z-19.0000 F2750
G1 X159.5760 Y180.6452 Z-19.0000 F2750
G1 X160.1352 Y180.3111 Z-19.0000 F2750
G1 X160.7249 Y180.0772 Z-19.0000 F2750
G1 X161.3203 Y179.9429 Z-19.0000 F2750
G1 X161.8999 Y179.9007 Z-19.0000 F2750
G1 X163.9009 Y179.9007 Z-19.0000 F2750
G1 X141.8989 Y179.8987 Z-19.0000 F2750
G1 X143.8999 Y179.9007 Z-19.0000 F2750
G1 X144.5177 Y179.9487 Z-19.0000 F2750
G1 X145.1319 Y180.0952 Z-19.0000 F2750
G1 X145.7189 Y180.3383 Z-19.0000 F2750
G1 X146.2567 Y180.6690 Z-19.0000 F2750
G1 X146.7276 Y181.0720 Z-19.0000 F2750
G1 X147.1305 Y181.5428 Z-19.0000 F2750
G1 X147.4612 Y182.0807 Z-19.0000 F2750
G1 X147.7044 Y182.6677 Z-19.0000 F2750
G1 X147.8509 Y183.2818 Z-19.0000 F2750
G1 X147.8989 Y183.8997 Z-19.0000 F2750
G1 X147.8989 Y243.3995 Z-19.0000 F2750
G1 X147.8989 Y243.3995 Z10.0000 F9999
G1 X31.8990 Y453.8996 Z10.0000 F9999
G1 X31.8990 Y453.8996 Z1.0000 F2000
G1 X31.8990 Y484.9000 Z-6.9547 F2000
G1 X31.9010 Y482.8990 Z-7.4682 F2000
G1 X31.9432 Y482.3194 Z-7.6173 F2000
G1 X32.0775 Y481.7240 Z-7.7739 F2000
G1 X32.3114 Y481.1343 Z-7.9367 F2000
G1 X32.6455 Y480.5751 Z-8.1038 F2000
G1 X33.0723 Y480.0712 Z-8.2733 F2000
G1 X33.5761 Y479.6445 Z-8.4427 F2000
G1 X34.1354 Y479.3104 Z-8.6099 F2000
G1 X34.7250 Y479.0765 Z-8.7726 F2000
G1 X35.3205 Y478.9422 Z-8.9293 F2000
G1 X35.5955 Y478.9221 Z-9.0000 F2000
G1 X35.3205 Y478.9422 Z-9.0707 F2000
G1 X34.7250 Y479.0765 Z-9.2274 F2000
G1 X34.1354 Y479.3104 Z-9.3901 F2000
G1 X33.5761 Y479.6445 Z-9.5573 F2000
G1 X33.0723 Y480.0712 Z-9.7267 F2000
G1 X32.6455 Y480.5751 Z-9.8962 F2000
G1 X32.3114 Y481.1343 Z-10.0633 F2000
G1 X32.0775 Y481.7240 Z-10.2261 F2000
G1 X31.9432 Y482.3194 Z-10.3827 F2000
G1 X31.9010 Y482.8990 Z-10.5318 F2000
G1 X31.8990 Y484.9000 Z-11.0453 F2000
G1 X31.8990 Y453.8996 Z-19.0000 F2000
G1 X31.8990 Y484.9000 Z-19.0000 F2750
G1 X31.9010 Y482.8990 Z-19.0000 F2750
G1 X31.9432 Y482.3194 Z-19.0000 F2750
G1 X32.0775 Y481.7240 Z-19.0000 F2750
G1 X32.3114 Y481.1343 Z-19.0000 F2750
G1 X32.6455 Y480.5751 Z-19.0000 F2750
G1 X33.0723 Y480.0712 Z-19.0000 F2750
G1 X33.5761 Y479.6445 Z-19.0000 F2750
G1 X34.1354 Y479.3104 Z-19.0000 F2750
G1 X34.7250 Y479.0765 Z-19.0000 F2750
G1 X35.3205 Y478.9422 Z-19.0000 F2750
G1 X35.9000 Y478.9000 Z-19.0000 F2750
G1 X47.9010 Y478.9000 Z-19.0000 F2750
G1 X45.9000 Y478.8980 Z-19.0000 F2750
G1 X45.2821 Y478.8499 Z-19.0000 F2750
G1 X44.6680 Y478.7035 Z-19.0000 F2750
G1 X44.0810 Y478.4603 Z-19.0000 F2750
G1 X43.5431 Y478.1296 Z-19.0000 F2750
G1 X43.0722 Y477.7267 Z-19.0000 F2750
G1 X42.6693 Y477.2558 Z-19.0000 F2750
G1 X42.3386 Y476.7180 Z-19.0000 F2750
G1 X42.0955 Y476.1310 Z-19.0000 F2750
G1 X41.9490 Y475.5168 Z-19.0000 F2750
G1 X41.9010 Y474.8990 Z-19.0000 F2750
G1 X41.9010 Y430.8992 Z-19.0000 F2750
G1 X41.9432 Y430.3197 Z-19.0000 F2750
G1 X42.0775 Y429.7243 Z-19.0000 F2750
G1 X42.3114 Y429.1346 Z-19.0000 F2750
G1 X42.6455 Y428.5754 Z-19.0000 F2750
G1 X43.0722 Y428.0715 Z-19.0000 F2750
G1 X43.5761 Y427.6447 Z-19.0000 F2750
G1 X44.1353 Y427.3106 Z-19.0000 F2750
G1 X44.7250 Y427.0767 Z-19.0000 F2750
G1 X45.3204 Y426.9424 Z-19.0000 F2750
G1 X45.9000 Y426.9002 Z-19.0000 F2750
G1 X47.9010 Y426.9002 Z-19.0000 F2750
G1 X35.9000 Y426.8982 Z-19.0000 F2750
G1 X35.3205 Y426.8560 Z-19.0000 F2750
G1 X34.7250 Y426.7217 Z-19.0000 F2750
G1 X34.1354 Y426.4878 Z-19.0000 F2750
G1 X33.5761 Y426.1537 Z-19.0000 F2750
G1 X33.0723 Y425.7269 Z-19.0000 F2750
G1 X32.6455 Y425.2231 Z-19.0000 F2750
G1 X32.3114 Y424.6638 Z-19.0000 F2750
G1 X32.0775 Y424.0742 Z-19.0000 F2750
G1 X31.9432 Y423.4787 Z-19.0000 F2750
G1 X31.9010 Y422.8992 Z-19.0000 F2750
G1 X31.9010 Y420.8982 Z-19.0000 F2750
G1 X31.8918 Y437.3989 Z-19.0000 F2750
G1 X31.8990 Y453.8996 Z-19.0000 F2750
G1 X31.8990 Y453.8996 Z10.0000 F9999
G1 X273.9005 Y451.8986 Z10.0000 F9999
G1 X273.9005 Y451.8986 Z1.0000 F2000
G1 X273.9005 Y420.8982 Z-6.9547 F2000
G1 X273.8985 Y422.8992 Z-7.4682 F2000
G1 X273.8505 Y423.5171 Z-7.6272 F2000
G1 X273.7040 Y424.1312 Z-7.7892 F2000
G1 X273.4608 Y424.7182 Z-7.9522 F2000
G1 X273.1302 Y425.2561 Z-8.1142 F2000
G1 X272.7272 Y425.7269 Z-8.2733 F2000
G1 X272.2563 Y426.1299 Z-8.4323 F2000
G1 X271.7185 Y426.4606 Z-8.5943 F2000
G1 X271.1315 Y426.7037 Z-8.7573 F2000
G1 X270.5174 Y426.8502 Z-8.9193 F2000
G1 X270.2040 Y426.8745 Z-9.0000 F2000
G1 X270.5174 Y426.8502 Z-9.0807 F2000
G1 X271.1315 Y426.7037 Z-9.2427 F2000
G1 X271.7185 Y426.4606 Z-9.4057 F2000
G1 X272.2563 Y426.1299 Z-9.5677 F2000
G1 X272.7272 Y425.7269 Z-9.7267 F2000
G1 X273.1302 Y425.2561 Z-9.8858 F2000
G1 X273.4608 Y424.7182 Z-10.0478 F2000
G1 X273.7040 Y424.1312 Z-10.2108 F2000
G1 X273.8505 Y423.5171 Z-10.3728 F2000
G1 X273.8985 Y422.8992 Z-10.5318 F2000
G1 X273.9005 Y420.8982 Z-11.0453 F2000
G1 X273.9005 Y451.8986 Z-19.0000 F2000
G1 X273.9005 Y420.8982 Z-19.0000 F2750
G1 X273.8985 Y422.8992 Z-19.0000 F2750
G1 X273.8505 Y423.5171 Z-19.0000 F2750
G1 X273.7040 Y424.1312 Z-19.0000 F2750
G1 X273.4608 Y424.7182 Z-19.0000 F2750
G1 X273.1302 Y425.2561 Z-19.0000 F2750
G1 X272.7272 Y425.7269 Z-19.0000 F2750
G1 X272.2563 Y426.1299 Z-19.0000 F2750
G1 X271.7185 Y426.4606 Z-19.0000 F2750
G1 X271.1315 Y426.7037 Z-19.0000 F2750
G1 X270.5174 Y426.8502 Z-19.0000 F2750
G1 X269.8995 Y426.8982 Z-19.0000 F2750
G1 X257.8985 Y426.8982 Z-19.0000 F2750
G1 X259.8995 Y426.9002 Z-19.0000 F2750
G1 X260.5174 Y426.9482 Z-19.0000 F2750
G1 X261.1315 Y427.0947 Z-19.0000 F2750
G1 X261.7185 Y427.3379 Z-19.0000 F2750
G1 X262.2564 Y427.6685 Z-19.0000 F2750
G1 X262.7272 Y428.0715 Z-19.0000 F2750
G1 X263.1302 Y428.5423 Z-19.0000 F2750
G1 X263.4609 Y429.0802 Z-19.0000 F2750
G1 X263.7040 Y429.6672 Z-19.0000 F2750
G1 X263.8505 Y430.2813 Z-19.0000 F2750
G1 X263.8985 Y430.8992 Z-19.0000 F2750
G1 X263.8985 Y474.8990 Z-19.0000 F2750
G1 X263.8563 Y475.4785 Z-19.0000 F2750
G1 X263.7220 Y476.0739 Z-19.0000 F2750
G1 X263.4881 Y476.6636 Z-19.0000 F2750
G1 X263.1540 Y477.2228 Z-19.0000 F2750
G1 X262.7272 Y477.7267 Z-19.0000 F2750
G1 X262.2234 Y478.1535 Z-19.0000 F2750
G1 X261.6641 Y478.4876 Z-19.0000 F2750
G1 X261.0745 Y478.7215 Z-19.0000 F2750
G1 X260.4790 Y478.8557 Z-19.0000 F2750
G1 X259.8995 Y478.8980 Z-19.0000 F2750
G1 X257.8985 Y478.8980 Z-19.0000 F2750
G1 X269.8995 Y478.9000 Z-19.0000 F2750
G1 X270.4790 Y478.9422 Z-19.0000 F2750
G1 X271.0744 Y479.0765 Z-19.0000 F2750
G1 X271.6641 Y479.3104 Z-19.0000 F2750
G1 X272.2233 Y479.6445 Z-19.0000 F2750
G1 X272.7272 Y480.0712 Z-19.0000 F2750
G1 X273.1540 Y480.5751 Z-19.0000 F2750
G1 X273.4881 Y481.1343 Z-19.0000 F2750
G1 X273.7220 Y481.7240 Z-19.0000 F2750
G1 X273.8563 Y482.3194 Z-19.0000 F2750
G1 X273.8985 Y482.8990 Z-19.0000 F2750
G1 X273.8985 Y484.9000 Z-19.0000 F2750
G1 X273.9077 Y468.3993 Z-19.0000 F2750
G1 X273.9005 Y451.8986 Z-19.0000 F2750
G1 X273.9005 Y451.8986 Z10.0000 F9999
G1 X453.8997 Y273.9005 Z10.0000 F9999
G1 X453.8997 Y273.9005 Z1.0000 F2000
G1 X484.9001 Y273.9005 Z-6.9547 F2000
G1 X482.8991 Y273.8985 Z-7.4682 F2000
G1 X482.2812 Y273.8504 Z-7.6272 F2000
G1 X481.6671 Y273.7039 Z-7.7892 F2000
G1 X481.0801 Y273.4608 Z-7.9522 F2000
G1 X480.5422 Y273.1301 Z-8.1142 F2000
G1 X480.0714 Y272.7272 Z-8.2733 F2000
G1 X479.6684 Y272.2563 Z-8.4323 F2000
G1 X479.3377 Y271.7185 Z-8.5943 F2000
G1 X479.0946 Y271.1315 Z-8.7573 F2000
G1 X478.9481 Y270.5173 Z-8.9193 F2000
G1 X478.9237 Y270.2039 Z-9.0000 F2000
G1 X478.9481 Y270.5173 Z-9.0807 F2000
G1 X479.0946 Y271.1315 Z-9.2427 F2000
G1 X479.3377 Y271.7185 Z-9.4057 F2000
G1 X479.6684 Y272.2563 Z-9.5677 F2000
G1 X480.0714 Y272.7272 Z-9.7267 F2000
G1 X480.5422 Y273.1301 Z-9.8858 F2000
G1 X481.0801 Y273.4608 Z-10.0478 F2000
G1 X481.6671 Y273.7039 Z-10.2108 F2000
G1 X482.2812 Y273.8504 Z-10.3728 F2000
G1 X482.8991 Y273.8985 Z-10.5318 F2000
G1 X484.9001 Y273.9005 Z-11.0453 F2000
G1 X453.8997 Y273.9005 Z-19.0000 F2000
G1 X484.9001 Y273.9005 Z-19.0000 F2750
G1 X482.8991 Y273.8985 Z-19.0000 F2750
G1 X482.2812 Y273.8504 Z-19.0000 F2750
G1 X481.6671 Y273.7039 Z-19.0000 F2750
G1 X481.0801 Y273.4608 Z-19.0000 F2750
G1 X480.5422 Y273.1301 Z-19.0000 F2750
G1 X480.0714 Y272.7272 Z-19.0000 F2750
G1 X479.6684 Y272.2563 Z-19.0000 F2750
G1 X479.3377 Y271.7185 Z-19.0000 F2750
G1 X479.0946 Y271.1315 Z-19.0000 F2750
G1 X478.9481 Y270.5173 Z-19.0000 F2750
G1 X478.9001 Y269.8995 Z-19.0000 F2750
G1 X478.9001 Y257.8985 Z-19.0000 F2750
G1 X478.8981 Y259.8995 Z-19.0000 F2750
G1 X478.8559 Y260.4790 Z-19.0000 F2750
G1 X478.7216 Y261.0744 Z-19.0000 F2750
G1 X478.4877 Y261.6641 Z-19.0000 F2750
G1 X478.1536 Y262.2233 Z-19.0000 F2750
G1 X477.7268 Y262.7272 Z-19.0000 F2750
G1 X477.2229 Y263.1540 Z-19.0000 F2750
G1 X476.6637 Y263.4881 Z-19.0000 F2750
G1 X476.0740 Y263.7220 Z-19.0000 F2750
G1 X475.4786 Y263.8563 Z-19.0000 F2750
G1 X474.8991 Y263.8985 Z-19.0000 F2750
G1 X430.8993 Y263.8985 Z-19.0000 F2750
G1 X430.3198 Y263.8563 Z-19.0000 F2750
G1 X429.7244 Y263.7220 Z-19.0000 F2750
G1 X429.1347 Y263.4881 Z-19.0000 F2750
G1 X428.5755 Y263.1540 Z-19.0000 F2750
G1 X428.0716 Y262.7272 Z-19.0000 F2750
G1 X427.6448 Y262.2233 Z-19.0000 F2750
G1 X427.3107 Y261.6641 Z-19.0000 F2750
G1 X427.0768 Y261.0744 Z-19.0000 F2750
G1 X426.9425 Y260.4790 Z-19.0000 F2750
G1 X426.9003 Y259.8995 Z-19.0000 F2750
G1 X426.9003 Y257.8985 Z-19.0000 F2750
G1 X426.8983 Y269.8995 Z-19.0000 F2750
G1 X426.8561 Y270.4790 Z-19.0000 F2750
G1 X426.7218 Y271.0744 Z-19.0000 F2750
G1 X426.4879 Y271.6641 Z-19.0000 F2750
G1 X426.1538 Y272.2233 Z-19.0000 F2750
G1 X425.7270 Y272.7272 Z-19.0000 F2750
G1 X425.2232 Y273.1539 Z-19.0000 F2750
G1 X424.6640 Y273.4881 Z-19.0000 F2750
G1 X424.0743 Y273.7219 Z-19.0000 F2750
G1 X423.4789 Y273.8562 Z-19.0000 F2750
G1 X422.8993 Y273.8985 Z-19.0000 F2750
G1 X420.8983 Y273.8985 Z-19.0000 F2750
G1 X437.3990 Y273.9077 Z-19.0000 F2750
G1 X453.8997 Y273.9005 Z-19.0000 F2750
G1 X453.8997 Y273.9005 Z10.0000 F9999
G1 X457.9001 Y152.8997 Z10.0000 F9999
G1 X457.9001 Y152.8997 Z1.0000 F2000
G1 X457.9001 Y126.8998 Z-5.6716 F2000
G1 X457.9359 Y126.3662 Z-5.8088 F2000
G1 X458.0485 Y125.8207 Z-5.9517 F2000
G1 X458.2429 Y125.2798 Z-6.0992 F2000
G1 X458.5196 Y124.7618 Z-6.2499 F2000
G1 X458.8735 Y124.2850 Z-6.4023 F2000
G1 X459.2940 Y123.8658 Z-6.5546 F2000
G1 X459.7665 Y123.5169 Z-6.7053 F2000
G1 X460.2734 Y123.2461 Z-6.8528 F2000
G1 X460.7968 Y123.0557 Z-6.9957 F2000
G1 X461.3196 Y122.9430 Z-7.1330 F2000
G1 X462.1091 Y122.8931 Z-7.3360 F2000
G1 X462.9001 Y122.9008 Z-7.5390 F2000
G1 X462.9001 Y120.8988 Z-8.0527 F2000
G1 X459.2083 Y120.8988 Z-9.0000 F2000
G1 X462.9001 Y120.8988 Z-9.9473 F2000
G1 X462.9001 Y122.9008 Z-10.4610 F2000
G1 X462.1091 Y122.8931 Z-10.6640 F2000
G1 X461.3196 Y122.9430 Z-10.8670 F2000
G1 X460.7968 Y123.0557 Z-11.0043 F2000
G1 X460.2734 Y123.2461 Z-11.1472 F2000
G1 X459.7665 Y123.5169 Z-11.2947 F2000
G1 X459.2940 Y123.8658 Z-11.4454 F2000
G1 X458.8735 Y124.2850 Z-11.5977 F2000
G1 X458.5196 Y124.7618 Z-11.7501 F2000
G1 X458.2429 Y125.2798 Z-11.9008 F2000
G1 X458.0485 Y125.8207 Z-12.0483 F2000
G1 X457.9359 Y126.3662 Z-12.1912 F2000
G1 X457.9001 Y126.8998 Z-12.3284 F2000
G1 X457.9001 Y152.8997 Z-19.0000 F2000
G1 X457.9001 Y126.8998 Z-19.0000 F2750
G1 X457.9359 Y126.3662 Z-19.0000 F2750
G1 X458.0485 Y125.8207 Z-19.0000 F2750
G1 X458.2429 Y125.2798 Z-19.0000 F2750
G1 X458.5196 Y124.7618 Z-19.0000 F2750
G1 X458.8735 Y124.2850 Z-19.0000 F2750
G1 X459.2940 Y123.8658 Z-19.0000 F2750
G1 X459.7665 Y123.5169 Z-19.0000 F2750
G1 X460.2734 Y123.2461 Z-19.0000 F2750
G1 X460.7968 Y123.0557 Z-19.0000 F2750
G1 X461.3196 Y122.9430 Z-19.0000 F2750
G1 X462.1091 Y122.8931 Z-19.0000 F2750
G1 X462.9001 Y122.9008 Z-19.0000 F2750
G1 X462.9001 Y120.8988 Z-19.0000 F2750
G1 X442.8983 Y120.8988 Z-19.0000 F2750
G1 X442.8983 Y122.9008 Z-19.0000 F2750
G1 X443.6893 Y122.8931 Z-19.0000 F2750
G1 X444.4788 Y122.9430 Z-19.0000 F2750
G1 X445.0016 Y123.0557 Z-19.0000 F2750
G1 X445.5250 Y123.2461 Z-19.0000 F2750
G1 X446.0319 Y123.5169 Z-19.0000 F2750
G1 X446.5044 Y123.8658 Z-19.0000 F2750
G1 X446.9250 Y124.2850 Z-19.0000 F2750
G1 X447.2788 Y124.7618 Z-19.0000 F2750
G1 X447.5555 Y125.2798 Z-19.0000 F2750
G1 X447.7499 Y125.8207 Z-19.0000 F2750
G1 X447.8625 Y126.3662 Z-19.0000 F2750
G1 X447.8983 Y126.8998 Z-19.0000 F2750
G1 X447.8983 Y178.8997 Z-19.0000 F2750
G1 X447.8625 Y179.4333 Z-19.0000 F2750
G1 X447.7499 Y179.9787 Z-19.0000 F2750
G1 X447.5555 Y180.5196 Z-19.0000 F2750
G1 X447.2788 Y181.0376 Z-19.0000 F2750
G1 X446.9250 Y181.5145 Z-19.0000 F2750
G1 X446.5044 Y181.9337 Z-19.0000 F2750
G1 X446.0319 Y182.2825 Z-19.0000 F2750
G1 X445.5250 Y182.5533 Z-19.0000 F2750
G1 X445.0016 Y182.7437 Z-19.0000 F2750
G1 X444.4788 Y182.8564 Z-19.0000 F2750
G1 X443.6893 Y182.9063 Z-19.0000 F2750
G1 X442.8983 Y182.8987 Z-19.0000 F2750
G1 X442.8983 Y184.9006 Z-19.0000 F2750
G1 X462.9001 Y184.9006 Z-19.0000 F2750
G1 X462.9001 Y182.8987 Z-19.0000 F2750
G1 X462.1091 Y182.9063 Z-19.0000 F2750
G1 X461.3196 Y182.8564 Z-19.0000 F2750
G1 X460.7968 Y182.7437 Z-19.0000 F2750
G1 X460.2734 Y182.5533 Z-19.0000 F2750
G1 X459.7665 Y182.2825 Z-19.0000 F2750
G1 X459.2940 Y181.9337 Z-19.0000 F2750
G1 X458.8735 Y181.5145 Z-19.0000 F2750
G1 X458.5196 Y181.0376 Z-19.0000 F2750
G1 X458.2429 Y180.5196 Z-19.0000 F2750
G1 X458.0485 Y179.9787 Z-19.0000 F2750
G1 X457.9359 Y179.4333 Z-19.0000 F2750
G1 X457.9001 Y178.8997 Z-19.0000 F2750
G1 X457.9001 Y152.8997 Z-19.0000 F2750
G1 X457.9001 Y152.8997 Z10.0000 F9999
G1 X451.8987 Y31.8990 Z10.0000 F9999
G1 X451.8987 Y31.8990 Z1.0000 F2000
G1 X420.8983 Y31.8990 Z-6.9547 F2000
G1 X422.8993 Y31.9010 Z-7.4682 F2000
G1 X423.5172 Y31.9490 Z-7.6272 F2000
G1 X424.1313 Y32.0955 Z-7.7892 F2000
G1 X424.7183 Y32.3386 Z-7.9522 F2000
G1 X425.2562 Y32.6693 Z-8.1142 F2000
G1 X425.7270 Y33.0722 Z-8.2733 F2000
G1 X426.1300 Y33.5431 Z-8.4323 F2000
G1 X426.4607 Y34.0810 Z-8.5943 F2000
G1 X426.7038 Y34.6679 Z-8.7573 F2000
G1 X426.8503 Y35.2821 Z-8.9193 F2000
G1 X426.8747 Y35.5955 Z-9.0000 F2000
G1 X426.8503 Y35.2821 Z-9.0807 F2000
G1 X426.7038 Y34.6679 Z-9.2427 F2000
G1 X426.4607 Y34.0810 Z-9.4057 F2000
G1 X426.1300 Y33.5431 Z-9.5677 F2000
G1 X425.7270 Y33.0722 Z-9.7267 F2000
G1 X425.2562 Y32.6693 Z-9.8858 F2000
G1 X424.7183 Y32.3386 Z-10.0478 F2000
G1 X424.1313 Y32.0955 Z-10.2108 F2000
G1 X423.5172 Y31.9490 Z-10.3728 F2000
G1 X422.8993 Y31.9010 Z-10.5318 F2000
G1 X420.8983 Y31.8990 Z-11.0453 F2000
G1 X451.8987 Y31.8990 Z-19.0000 F2000
G1 X420.8983 Y31.8990 Z-19.0000 F2750
G1 X422.8993 Y31.9010 Z-19.0000 F2750
G1 X423.5172 Y31.9490 Z-19.0000 F2750
G1 X424.1313 Y32.0955 Z-19.0000 F2750
G1 X424.7183 Y32.3386 Z-19.0000 F2750
G1 X425.2562 Y32.6693 Z-19.0000 F2750
G1 X425.7270 Y33.0722 Z-19.0000 F2750
G1 X426.1300 Y33.5431 Z-19.0000 F2750
G1 X426.4607 Y34.0810 Z-19.0000 F2750
G1 X426.7038 Y34.6679 Z-19.0000 F2750
G1 X426.8503 Y35.2821 Z-19.0000 F2750
G1 X426.8983 Y35.9000 Z-19.0000 F2750
G1 X426.8983 Y47.9009 Z-19.0000 F2750
G1 X426.9003 Y45.8999 Z-19.0000 F2750
G1 X426.9425 Y45.3204 Z-19.0000 F2750
G1 X427.0768 Y44.7250 Z-19.0000 F2750
G1 X427.3107 Y44.1353 Z-19.0000 F2750
G1 X427.6448 Y43.5761 Z-19.0000 F2750
G1 X428.0716 Y43.0722 Z-19.0000 F2750
G1 X428.5755 Y42.6454 Z-19.0000 F2750
G1 X429.1347 Y42.3113 Z-19.0000 F2750
G1 X429.7244 Y42.0774 Z-19.0000 F2750
G1 X430.3198 Y41.9432 Z-19.0000 F2750
G1 X430.8993 Y41.9009 Z-19.0000 F2750
G1 X474.8991 Y41.9009 Z-19.0000 F2750
G1 X475.5170 Y41.9490 Z-19.0000 F2750
G1 X476.1311 Y42.0954 Z-19.0000 F2750
G1 X476.7181 Y42.3386 Z-19.0000 F2750
G1 X477.2559 Y42.6693 Z-19.0000 F2750
G1 X477.7268 Y43.0722 Z-19.0000 F2750
G1 X478.1297 Y43.5431 Z-19.0000 F2750
G1 X478.4604 Y44.0809 Z-19.0000 F2750
G1 X478.7036 Y44.6679 Z-19.0000 F2750
G1 X478.8501 Y45.2821 Z-19.0000 F2750
G1 X478.8981 Y45.8999 Z-19.0000 F2750
G1 X478.8981 Y47.9009 Z-19.0000 F2750
G1 X478.9001 Y35.9000 Z-19.0000 F2750
G1 X478.9481 Y35.2821 Z-19.0000 F2750
G1 X479.0946 Y34.6679 Z-19.0000 F2750
G1 X479.3377 Y34.0810 Z-19.0000 F2750
G1 X479.6684 Y33.5431 Z-19.0000 F2750
G1 X480.0714 Y33.0722 Z-19.0000 F2750
G1 X480.5422 Y32.6693 Z-19.0000 F2750
G1 X481.0801 Y32.3386 Z-19.0000 F2750
G1 X481.6671 Y32.0955 Z-19.0000 F2750
G1 X482.2812 Y31.9490 Z-19.0000 F2750
G1 X482.8991 Y31.9010 Z-19.0000 F2750
G1 X484.9001 Y31.9010 Z-19.0000 F2750
G1 X468.3994 Y31.8917 Z-19.0000 F2750
G1 X451.8987 Y31.8990 Z-19.0000 F2750
G1 X451.8987 Y31.8990 Z10.0000 F9999
G1 X751.8982 Y31.8990 Z10.0000 F9999
G1 X751.8982 Y31.8990 Z1.0000 F2000
G1 X720.8978 Y31.8990 Z-6.9547 F2000
G1 X722.8988 Y31.9010 Z-7.4682 F2000
G1 X723.5167 Y31.9490 Z-7.6272 F2000
G1 X724.1308 Y32.0955 Z-7.7892 F2000
G1 X724.7178 Y32.3386 Z-7.9522 F2000
G1 X725.2556 Y32.6693 Z-8.1142 F2000
G1 X725.7265 Y33.0722 Z-8.2733 F2000
G1 X726.1294 Y33.5431 Z-8.4323 F2000
G1 X726.4601 Y34.0810 Z-8.5943 F2000
G1 X726.7033 Y34.6679 Z-8.7573 F2000
G1 X726.8498 Y35.2821 Z-8.9193 F2000
G1 X726.8741 Y35.5955 Z-9.0000 F2000
G1 X726.8498 Y35.2821 Z-9.0807 F2000
G1 X726.7033 Y34.6679 Z-9.2427 F2000
G1 X726.4601 Y34.0810 Z-9.4057 F2000
G1 X726.1294 Y33.5431 Z-9.5677 F2000
G1 X725.7265 Y33.0722 Z-9.7267 F2000
G1 X725.2556 Y32.6693 Z-9.8858 F2000
G1 X724.7178 Y32.3386 Z-10.0478 F2000
G1 X724.1308 Y32.0955 Z-10.2108 F2000
G1 X723.5167 Y31.9490 Z-10.3728 F2000
G1 X722.8988 Y31.9010 Z-10.5318 F2000
G1 X720.8978 Y31.8990 Z-11.0453 F2000
G1 X751.8982 Y31.8990 Z-19.0000 F2000
G1 X720.8978 Y31.8990 Z-19.0000 F2750
G1 X722.8988 Y31.9010 Z-19.0000 F2750
G1 X723.5167 Y31.9490 Z-19.0000 F2750
G1 X724.1308 Y32.0955 Z-19.0000 F2750
G1 X724.7178 Y32.3386 Z-19.0000 F2750
G1 X725.2556 Y32.6693 Z-19.0000 F2750
G1 X725.7265 Y33.0722 Z-19.0000 F2750
G1 X726.1294 Y33.5431 Z-19.0000 F2750
G1 X726.4601 Y34.0810 Z-19.0000 F2750
G1 X726.7033 Y34.6679 Z-19.0000 F2750
G1 X726.8498 Y35.2821 Z-19.0000 F2750
G1 X726.8978 Y35.9000 Z-19.0000 F2750
G1 X726.8978 Y47.9009 Z-19.0000 F2750
G1 X726.8998 Y45.8999 Z-19.0000 F2750
G1 X726.9420 Y45.3204 Z-19.0000 F2750
G1 X727.0763 Y44.7250 Z-19.0000 F2750
G1 X727.3102 Y44.1353 Z-19.0000 F2750
G1 X727.6443 Y43.5761 Z-19.0000 F2750
G1 X728.0711 Y43.0722 Z-19.0000 F2750
G1 X728.5749 Y42.6454 Z-19.0000 F2750
G1 X729.1342 Y42.3113 Z-19.0000 F2750
G1 X729.7238 Y42.0774 Z-19.0000 F2750
G1 X730.3192 Y41.9432 Z-19.0000 F2750
G1 X730.8988 Y41.9009 Z-19.0000 F2750
G1 X774.8985 Y41.9009 Z-19.0000 F2750
G1 X775.4781 Y41.9432 Z-19.0000 F2750
G1 X776.0735 Y42.0774 Z-19.0000 F2750
G1 X776.6632 Y42.3113 Z-19.0000 F2750
G1 X777.2224 Y42.6454 Z-19.0000 F2750
G1 X777.7263 Y43.0722 Z-19.0000 F2750
G1 X778.1530 Y43.5761 Z-19.0000 F2750
G1 X778.4871 Y44.1353 Z-19.0000 F2750
G1 X778.7210 Y44.7250 Z-19.0000 F2750
G1 X778.8553 Y45.3204 Z-19.0000 F2750
G1 X778.8975 Y45.8999 Z-19.0000 F2750
G1 X778.8975 Y47.9009 Z-19.0000 F2750
G1 X778.8995 Y35.9000 Z-19.0000 F2750
G1 X778.9476 Y35.2821 Z-19.0000 F2750
G1 X779.0940 Y34.6679 Z-19.0000 F2750
G1 X779.3372 Y34.0810 Z-19.0000 F2750
G1 X779.6679 Y33.5431 Z-19.0000 F2750
G1 X780.0708 Y33.0722 Z-19.0000 F2750
G1 X780.5417 Y32.6693 Z-19.0000 F2750
G1 X781.0795 Y32.3386 Z-19.0000 F2750
G1 X781.6665 Y32.0955 Z-19.0000 F2750
G1 X782.2807 Y31.9490 Z-19.0000 F2750
G1 X782.8985 Y31.9010 Z-19.0000 F2750
G1 X784.8995 Y31.9010 Z-19.0000 F2750
G1 X768.3988 Y31.8917 Z-19.0000 F2750
G1 X751.8982 Y31.8990 Z-19.0000 F2750
G1 X751.8982 Y31.8990 Z10.0000 F9999
G1 X753.8992 Y273.9005 Z10.0000 F9999
G1 X753.8992 Y273.9005 Z1.0000 F2000
G1 X784.8995 Y273.9005 Z-6.9547 F2000
G1 X782.8985 Y273.8985 Z-7.4682 F2000
G1 X782.3190 Y273.8562 Z-7.6173 F2000
G1 X781.7236 Y273.7219 Z-7.7739 F2000
G1 X781.1339 Y273.4881 Z-7.9367 F2000
G1 X780.5747 Y273.1539 Z-8.1038 F2000
G1 X780.0708 Y272.7272 Z-8.2733 F2000
G1 X779.6440 Y272.2233 Z-8.4427 F2000
G1 X779.3099 Y271.6641 Z-8.6099 F2000
G1 X779.0760 Y271.0744 Z-8.7726 F2000
G1 X778.9418 Y270.4790 Z-8.9293 F2000
G1 X778.9217 Y270.2040 Z-9.0000 F2000
G1 X778.9418 Y270.4790 Z-9.0707 F2000
G1 X779.0760 Y271.0744 Z-9.2274 F2000
G1 X779.3099 Y271.6641 Z-9.3901 F2000
G1 X779.6440 Y272.2233 Z-9.5573 F2000
G1 X780.0708 Y272.7272 Z-9.7267 F2000
G1 X780.5747 Y273.1539 Z-9.8962 F2000
G1 X781.1339 Y273.4881 Z-10.0633 F2000
G1 X781.7236 Y273.7219 Z-10.2261 F2000
G1 X782.3190 Y273.8562 Z-10.3827 F2000
G1 X782.8985 Y273.8985 Z-10.5318 F2000
G1 X784.8995 Y273.9005 Z-11.0453 F2000
G1 X753.8992 Y273.9005 Z-19.0000 F2000
G1 X784.8995 Y273.9005 Z-19.0000 F2750
G1 X782.8985 Y273.8985 Z-19.0000 F2750
G1 X782.3190 Y273.8562 Z-19.0000 F2750
G1 X781.7236 Y273.7219 Z-19.0000 F2750
G1 X781.1339 Y273.4881 Z-19.0000 F2750
G1 X780.5747 Y273.1539 Z-19.0000 F2750
G1 X780.0708 Y272.7272 Z-19.0000 F2750
G1 X779.6440 Y272.2233 Z-19.0000 F2750
G1 X779.3099 Y271.6641 Z-19.0000 F2750
G1 X779.0760 Y271.0744 Z-19.0000 F2750
G1 X778.9418 Y270.4790 Z-19.0000 F2750
G1 X778.8995 Y269.8995 Z-19.0000 F2750
G1 X778.8995 Y257.8985 Z-19.0000 F2750
G1 X778.8975 Y259.8995 Z-19.0000 F2750
G1 X778.8495 Y260.5174 Z-19.0000 F2750
G1 X778.7030 Y261.1315 Z-19.0000 F2750
G1 X778.4599 Y261.7185 Z-19.0000 F2750
G1 X778.1292 Y262.2563 Z-19.0000 F2750
G1 X777.7263 Y262.7272 Z-19.0000 F2750
G1 X777.2554 Y263.1301 Z-19.0000 F2750
G1 X776.7175 Y263.4608 Z-19.0000 F2750
G1 X776.1306 Y263.7040 Z-19.0000 F2750
G1 X775.5164 Y263.8505 Z-19.0000 F2750
G1 X774.8985 Y263.8985 Z-19.0000 F2750
G1 X730.8988 Y263.8985 Z-19.0000 F2750
G1 X730.3192 Y263.8563 Z-19.0000 F2750
G1 X729.7238 Y263.7220 Z-19.0000 F2750
G1 X729.1342 Y263.4881 Z-19.0000 F2750
G1 X728.5749 Y263.1540 Z-19.0000 F2750
G1 X728.0711 Y262.7272 Z-19.0000 F2750
G1 X727.6443 Y262.2233 Z-19.0000 F2750
G1 X727.3102 Y261.6641 Z-19.0000 F2750
G1 X727.0763 Y261.0744 Z-19.0000 F2750
G1 X726.9420 Y260.4790 Z-19.0000 F2750
G1 X726.8998 Y259.8995 Z-19.0000 F2750
G1 X726.8998 Y257.8985 Z-19.0000 F2750
G1 X726.8978 Y269.8995 Z-19.0000 F2750
G1 X726.8498 Y270.5173 Z-19.0000 F2750
G1 X726.7033 Y271.1315 Z-19.0000 F2750
G1 X726.4601 Y271.7185 Z-19.0000 F2750
G1 X726.1294 Y272.2563 Z-19.0000 F2750
G1 X725.7265 Y272.7272 Z-19.0000 F2750
G1 X725.2556 Y273.1301 Z-19.0000 F2750
G1 X724.7178 Y273.4608 Z-19.0000 F2750
G1 X724.1308 Y273.7039 Z-19.0000 F2750
G1 X723.5167 Y273.8504 Z-19.0000 F2750
G1 X722.8988 Y273.8985 Z-19.0000 F2750
G1 X720.8978 Y273.8985 Z-19.0000 F2750
G1 X737.3985 Y273.9077 Z-19.0000 F2750
G1 X753.8992 Y273.9005 Z-19.0000 F2750
G1 X753.8992 Y273.9005 Z10.0000 F9999
G1 X733.0240 Y473.0900 Z10.0000 F9999
G1 X733.0240 Y473.0900 Z1.0000 F2000
G1 X743.0250 Y473.0900 Z-1.5663 F2000
G1 X743.0250 Y471.0880 Z-2.0800 F2000
G1 X742.2147 Y471.0954 Z-2.2879 F2000
G1 X741.4062 Y471.0400 Z-2.4959 F2000
G1 X740.8296 Y470.9054 Z-2.6478 F2000
G1 X740.2557 Y470.6757 Z-2.8064 F2000
G1 X739.7074 Y470.3486 Z-2.9702 F2000
G1 X739.2091 Y469.9294 Z-3.1373 F2000
G1 X738.7828 Y469.4313 Z-3.3056 F2000
G1 X738.4456 Y468.8742 Z-3.4727 F2000
G1 X738.2071 Y468.2820 Z-3.6365 F2000
G1 X738.0689 Y467.6794 Z-3.7951 F2000
G1 X738.0250 Y467.0890 Z-3.9470 F2000
G1 X738.0250 Y448.0890 Z-8.8224 F2000
G1 X738.0608 Y447.5554 Z-8.9597 F2000
G1 X738.0926 Y447.4015 Z-9.0000 F2000
G1 X738.0608 Y447.5554 Z-9.0403 F2000
G1 X738.0250 Y448.0890 Z-9.1776 F2000
G1 X738.0250 Y467.0890 Z-14.0530 F2000
G1 X738.0689 Y467.6794 Z-14.2049 F2000
G1 X738.2071 Y468.2820 Z-14.3635 F2000
G1 X738.4456 Y468.8742 Z-14.5273 F2000
G1 X738.7828 Y469.4313 Z-14.6944 F2000
G1 X739.2091 Y469.9294 Z-14.8627 F2000
G1 X739.7074 Y470.3486 Z-15.0298 F2000
G1 X740.2557 Y470.6757 Z-15.1936 F2000
G1 X740.8296 Y470.9054 Z-15.3522 F2000
G1 X741.4062 Y471.0400 Z-15.5041 F2000
G1 X742.2147 Y471.0954 Z-15.7121 F2000
G1 X743.0250 Y471.0880 Z-15.9200 F2000
G1 X743.0250 Y473.0900 Z-16.4337 F2000
G1 X733.0240 Y473.0900 Z-19.0000 F2000
G1 X743.0250 Y473.0900 Z-19.0000 F2750
G1 X743.0250 Y471.0880 Z-19.0000 F2750
G1 X742.2147 Y471.0954 Z-19.0000 F2750
G1 X741.4062 Y471.0400 Z-19.0000 F2750
G1 X740.8296 Y470.9054 Z-19.0000 F2750
G1 X740.2557 Y470.6757 Z-19.0000 F2750
G1 X739.7074 Y470.3486 Z-19.0000 F2750
G1 X739.2091 Y469.9294 Z-19.0000 F2750
G1 X738.7828 Y469.4313 Z-19.0000 F2750
G1 X738.4456 Y468.8742 Z-19.0000 F2750
G1 X738.2071 Y468.2820 Z-19.0000 F2750
G1 X738.0689 Y467.6794 Z-19.0000 F2750
G1 X738.0250 Y467.0890 Z-19.0000 F2750
G1 X738.0250 Y448.0890 Z-19.0000 F2750
G1 X738.0608 Y447.5554 Z-19.0000 F2750
G1 X738.1734 Y447.0099 Z-19.0000 F2750
G1 X738.3678 Y446.4691 Z-19.0000 F2750
G1 X738.6445 Y445.9510 Z-19.0000 F2750
G1 X738.9984 Y445.4742 Z-19.0000 F2750
G1 X739.4189 Y445.0550 Z-19.0000 F2750
G1 X739.8914 Y444.7061 Z-19.0000 F2750
G1 X740.3983 Y444.4353 Z-19.0000 F2750
G1 X740.9217 Y444.2449 Z-19.0000 F2750
G1 X741.4445 Y444.1322 Z-19.0000 F2750
G1 X742.2340 Y444.0823 Z-19.0000 F2750
G1 X743.0250 Y444.0900 Z-19.0000 F2750
G1 X743.0250 Y442.0881 Z-19.0000 F2750
G1 X723.0230 Y442.0881 Z-19.0000 F2750
G1 X723.0230 Y444.0900 Z-19.0000 F2750
G1 X723.8141 Y444.0823 Z-19.0000 F2750
G1 X724.6036 Y444.1322 Z-19.0000 F2750
G1 X725.1264 Y444.2449 Z-19.0000 F2750
G1 X725.6497 Y444.4353 Z-19.0000 F2750
G1 X726.1567 Y444.7061 Z-19.0000 F2750
G1 X726.6292 Y445.0550 Z-19.0000 F2750
G1 X727.0497 Y445.4742 Z-19.0000 F2750
G1 X727.4036 Y445.9510 Z-19.0000 F2750
G1 X727.6802 Y446.4691 Z-19.0000 F2750
G1 X727.8747 Y447.0099 Z-19.0000 F2750
G1 X727.9873 Y447.5554 Z-19.0000 F2750
G1 X728.0230 Y448.0890 Z-19.0000 F2750
G1 X728.0230 Y467.0890 Z-19.0000 F2750
G1 X727.9873 Y467.6226 Z-19.0000 F2750
G1 X727.8747 Y468.1680 Z-19.0000 F2750
G1 X727.6802 Y468.7089 Z-19.0000 F2750
G1 X727.4036 Y469.2269 Z-19.0000 F2750
G1 X727.0497 Y469.7038 Z-19.0000 F2750
G1 X726.6292 Y470.1230 Z-19.0000 F2750
G1 X726.1567 Y470.4718 Z-19.0000 F2750
G1 X725.6497 Y470.7426 Z-19.0000 F2750
G1 X725.1264 Y470.9330 Z-19.0000 F2750
G1 X724.6036 Y471.0458 Z-19.0000 F2750
G1 X723.8141 Y471.0956 Z-19.0000 F2750
G1 X723.0230 Y471.0880 Z-19.0000 F2750
G1 X723.0230 Y473.0900 Z-19.0000 F2750
G1 X733.0240 Y473.0900 Z-19.0000 F2750
G1 X733.0240 Y473.0900 Z10.0000 F9999
G1 X905.5587 Y442.5774 Z10.0000 F9999
G1 X905.5587 Y442.5774 Z1.0000 F2000
G1 X905.5587 Y473.5777 Z-6.9547 F2000
G1 X905.5607 Y471.5767 Z-7.4682 F2000
G1 X905.6030 Y470.9972 Z-7.6173 F2000
G1 X905.7372 Y470.4018 Z-7.7739 F2000
G1 X905.9711 Y469.8121 Z-7.9367 F2000
G1 X906.3052 Y469.2529 Z-8.1038 F2000
G1 X906.7320 Y468.7490 Z-8.2733 F2000
G1 X907.2359 Y468.3222 Z-8.4427 F2000
G1 X907.7951 Y467.9881 Z-8.6099 F2000
G1 X908.3848 Y467.7542 Z-8.7726 F2000
G1 X908.9802 Y467.6200 Z-8.9293 F2000
G1 X909.2552 Y467.5999 Z-9.0000 F2000
G1 X908.9802 Y467.6200 Z-9.0707 F2000
G1 X908.3848 Y467.7542 Z-9.2274 F2000
G1 X907.7951 Y467.9881 Z-9.3901 F2000
G1 X907.2359 Y468.3222 Z-9.5573 F2000
G1 X906.7320 Y468.7490 Z-9.7267 F2000
G1 X906.3052 Y469.2529 Z-9.8962 F2000
G1 X905.9711 Y469.8121 Z-10.0633 F2000
G1 X905.7372 Y470.4018 Z-10.2261 F2000
G1 X905.6030 Y470.9972 Z-10.3827 F2000
G1 X905.5607 Y471.5767 Z-10.5318 F2000
G1 X905.5587 Y473.5777 Z-11.0453 F2000
G1 X905.5587 Y442.5774 Z-19.0000 F2000
G1 X905.5587 Y473.5777 Z-19.0000 F2750
G1 X905.5607 Y471.5767 Z-19.0000 F2750
G1 X905.6030 Y470.9972 Z-19.0000 F2750
G1 X905.7372 Y470.4018 Z-19.0000 F2750
G1 X905.9711 Y469.8121 Z-19.0000 F2750
G1 X906.3052 Y469.2529 Z-19.0000 F2750
G1 X906.7320 Y468.7490 Z-19.0000 F2750
G1 X907.2359 Y468.3222 Z-19.0000 F2750
G1 X907.7951 Y467.9881 Z-19.0000 F2750
G1 X908.3848 Y467.7542 Z-19.0000 F2750
G1 X908.9802 Y467.6200 Z-19.0000 F2750
G1 X909.5597 Y467.5777 Z-19.0000 F2750
G1 X921.5607 Y467.5777 Z-19.0000 F2750
G1 X919.5597 Y467.5757 Z-19.0000 F2750
G1 X918.9418 Y467.5277 Z-19.0000 F2750
G1 X918.3277 Y467.3812 Z-19.0000 F2750
G1 X917.7407 Y467.1381 Z-19.0000 F2750
G1 X917.2028 Y466.8074 Z-19.0000 F2750
G1 X916.7320 Y466.4045 Z-19.0000 F2750
G1 X916.3290 Y465.9336 Z-19.0000 F2750
G1 X915.9984 Y465.3957 Z-19.0000 F2750
G1 X915.7552 Y464.8088 Z-19.0000 F2750
G1 X915.6087 Y464.1946 Z-19.0000 F2750
G1 X915.5607 Y463.5767 Z-19.0000 F2750
G1 X915.5607 Y419.5770 Z-19.0000 F2750
G1 X915.6029 Y418.9974 Z-19.0000 F2750
G1 X915.7372 Y418.4020 Z-19.0000 F2750
G1 X915.9711 Y417.8124 Z-19.0000 F2750
G1 X916.3052 Y417.2531 Z-19.0000 F2750
G1 X916.7320 Y416.7493 Z-19.0000 F2750
G1 X917.2359 Y416.3225 Z-19.0000 F2750
G1 X917.7951 Y415.9884 Z-19.0000 F2750
G1 X918.3848 Y415.7545 Z-19.0000 F2750
G1 X918.9802 Y415.6202 Z-19.0000 F2750
G1 X919.5597 Y415.5780 Z-19.0000 F2750
G1 X921.5607 Y415.5780 Z-19.0000 F2750
G1 X909.5597 Y415.5760 Z-19.0000 F2750
G1 X908.9419 Y415.5280 Z-19.0000 F2750
G1 X908.3277 Y415.3815 Z-19.0000 F2750
G1 X907.7407 Y415.1383 Z-19.0000 F2750
G1 X907.2029 Y414.8076 Z-19.0000 F2750
G1 X906.7320 Y414.4047 Z-19.0000 F2750
G1 X906.3291 Y413.9338 Z-19.0000 F2750
G1 X905.9984 Y413.3960 Z-19.0000 F2750
G1 X905.7552 Y412.8090 Z-19.0000 F2750
G1 X905.6088 Y412.1949 Z-19.0000 F2750
G1 X905.5607 Y411.5770 Z-19.0000 F2750
G1 X905.5607 Y409.5760 Z-19.0000 F2750
G1 X905.5515 Y426.0767 Z-19.0000 F2750
G1 X905.5587 Y442.5774 Z-19.0000 F2750
G1 X905.5587 Y442.5774 Z10.0000 F9999
G1 X1026.5573 Y446.5712 Z10.0000 F9999
G1 X1026.5573 Y446.5712 Z1.0000 F2000
G1 X1038.5573 Y446.5645 Z-2.0792 F2000
G1 X1039.1754 Y446.6122 Z-2.2383 F2000
G1 X1039.7898 Y446.7585 Z-2.4004 F2000
G1 X1040.3771 Y447.0015 Z-2.5634 F2000
G1 X1040.9153 Y447.3321 Z-2.7255 F2000
G1 X1041.3865 Y447.7350 Z-2.8846 F2000
G1 X1041.7897 Y448.2059 Z-3.0437 F2000
G1 X1042.1206 Y448.7439 Z-3.2057 F2000
G1 X1042.3639 Y449.3311 Z-3.3688 F2000
G1 X1042.5105 Y449.9455 Z-3.5309 F2000
G1 X1042.5585 Y450.5635 Z-3.6900 F2000
G1 X1042.5605 Y452.5556 Z-4.2011 F2000
G1 X1042.5605 Y433.8539 Z-9.0000 F2000
G1 X1042.5605 Y452.5556 Z-13.7989 F2000
G1 X1042.5585 Y450.5635 Z-14.3100 F2000
G1 X1042.5105 Y449.9455 Z-14.4691 F2000
G1 X1042.3639 Y449.3311 Z-14.6312 F2000
G1 X1042.1206 Y448.7439 Z-14.7943 F2000
G1 X1041.7897 Y448.2059 Z-14.9563 F2000
G1 X1041.3865 Y447.7350 Z-15.1154 F2000
G1 X1040.9153 Y447.3321 Z-15.2745 F2000
G1 X1040.3771 Y447.0015 Z-15.4366 F2000
G1 X1039.7898 Y446.7585 Z-15.5996 F2000
G1 X1039.1754 Y446.6122 Z-15.7617 F2000
G1 X1038.5573 Y446.5645 Z-15.9208 F2000
G1 X1026.5573 Y446.5712 Z-19.0000 F2000
G1 X1038.5573 Y446.5645 Z-19.0000 F2750
G1 X1039.1754 Y446.6122 Z-19.0000 F2750
G1 X1039.7898 Y446.7585 Z-19.0000 F2750
G1 X1040.3771 Y447.0015 Z-19.0000 F2750
G1 X1040.9153 Y447.3321 Z-19.0000 F2750
G1 X1041.3865 Y447.7350 Z-19.0000 F2750
G1 X1041.7897 Y448.2059 Z-19.0000 F2750
G1 X1042.1206 Y448.7439 Z-19.0000 F2750
G1 X1042.3639 Y449.3311 Z-19.0000 F2750
G1 X1042.5105 Y449.9455 Z-19.0000 F2750
G1 X1042.5585 Y450.5635 Z-19.0000 F2750
G1 X1042.5605 Y452.5556 Z-19.0000 F2750
G1 X1042.5605 Y430.5759 Z-19.0000 F2750
G1 X1042.5585 Y432.5769 Z-19.0000 F2750
G1 X1042.5163 Y433.1565 Z-19.0000 F2750
G1 X1042.3820 Y433.7519 Z-19.0000 F2750
G1 X1042.1481 Y434.3415 Z-19.0000 F2750
G1 X1041.8140 Y434.9008 Z-19.0000 F2750
G1 X1041.3872 Y435.4046 Z-19.0000 F2750
G1 X1040.8834 Y435.8314 Z-19.0000 F2750
G1 X1040.3242 Y436.1655 Z-19.0000 F2750
G1 X1039.7345 Y436.3994 Z-19.0000 F2750
G1 X1039.1391 Y436.5337 Z-19.0000 F2750
G1 X1038.5595 Y436.5759 Z-19.0000 F2750
G1 X1014.5595 Y436.5759 Z-19.0000 F2750
G1 X1013.9800 Y436.5337 Z-19.0000 F2750
G1 X1013.3846 Y436.3994 Z-19.0000 F2750
G1 X1012.7949 Y436.1655 Z-19.0000 F2750
G1 X1012.2357 Y435.8314 Z-19.0000 F2750
G1 X1011.7318 Y435.4046 Z-19.0000 F2750
G1 X1011.3050 Y434.9008 Z-19.0000 F2750
G1 X1010.9709 Y434.3415 Z-19.0000 F2750
G1 X1010.7370 Y433.7519 Z-19.0000 F2750
G1 X1010.6027 Y433.1565 Z-19.0000 F2750
G1 X1010.5605 Y432.5769 Z-19.0000 F2750
G1 X1010.5605 Y430.5759 Z-19.0000 F2750
G1 X1010.5585 Y452.5556 Z-19.0000 F2750
G1 X1010.5605 Y450.5769 Z-19.0000 F2750
G1 X1010.6027 Y449.9976 Z-19.0000 F2750
G1 X1010.7369 Y449.4023 Z-19.0000 F2750
G1 X1010.9707 Y448.8128 Z-19.0000 F2750
G1 X1011.3045 Y448.2538 Z-19.0000 F2750
G1 X1011.7310 Y447.7500 Z-19.0000 F2750
G1 X1012.2346 Y447.3232 Z-19.0000 F2750
G1 X1012.7934 Y446.9890 Z-19.0000 F2750
G1 X1013.3828 Y446.7550 Z-19.0000 F2750
G1 X1013.9780 Y446.6204 Z-19.0000 F2750
G1 X1014.5573 Y446.5779 Z-19.0000 F2750
G1 X1026.5573 Y446.5712 Z-19.0000 F2750
G1 X1026.5573 Y446.5712 Z10.0000 F9999
G1 X1147.5602 Y440.5764 Z10.0000 F9999
G1 X1147.5602 Y440.5764 Z1.0000 F2000
G1 X1147.5602 Y409.5760 Z-6.9547 F2000
G1 X1147.5582 Y411.5770 Z-7.4682 F2000
G1 X1147.5102 Y412.1949 Z-7.6272 F2000
G1 X1147.3637 Y412.8090 Z-7.7892 F2000
G1 X1147.1206 Y413.3960 Z-7.9522 F2000
G1 X1146.7899 Y413.9338 Z-8.1142 F2000
G1 X1146.3869 Y414.4047 Z-8.2733 F2000
G1 X1145.9161 Y414.8076 Z-8.4323 F2000
G1 X1145.3782 Y415.1383 Z-8.5943 F2000
G1 X1144.7912 Y415.3815 Z-8.7573 F2000
G1 X1144.1771 Y415.5280 Z-8.9193 F2000
G1 X1143.8637 Y415.5523 Z-9.0000 F2000
G1 X1144.1771 Y415.5280 Z-9.0807 F2000
G1 X1144.7912 Y415.3815 Z-9.2427 F2000
G1 X1145.3782 Y415.1383 Z-9.4057 F2000
G1 X1145.9161 Y414.8076 Z-9.5677 F2000
G1 X1146.3869 Y414.4047 Z-9.7267 F2000
G1 X1146.7899 Y413.9338 Z-9.8858 F2000
G1 X1147.1206 Y413.3960 Z-10.0478 F2000
G1 X1147.3637 Y412.8090 Z-10.2108 F2000
G1 X1147.5102 Y412.1949 Z-10.3728 F2000
G1 X1147.5582 Y411.5770 Z-10.5318 F2000
G1 X1147.5602 Y409.5760 Z-11.0453 F2000
G1 X1147.5602 Y440.5764 Z-19.0000 F2000
G1 X1147.5602 Y409.5760 Z-19.0000 F2750
G1 X1147.5582 Y411.5770 Z-19.0000 F2750
G1 X1147.5102 Y412.1949 Z-19.0000 F2750
G1 X1147.3637 Y412.8090 Z-19.0000 F2750
G1 X1147.1206 Y413.3960 Z-19.0000 F2750
G1 X1146.7899 Y413.9338 Z-19.0000 F2750
G1 X1146.3869 Y414.4047 Z-19.0000 F2750
G1 X1145.9161 Y414.8076 Z-19.0000 F2750
G1 X1145.3782 Y415.1383 Z-19.0000 F2750
G1 X1144.7912 Y415.3815 Z-19.0000 F2750
G1 X1144.1771 Y415.5280 Z-19.0000 F2750
G1 X1143.5592 Y415.5760 Z-19.0000 F2750
G1 X1131.5583 Y415.5760 Z-19.0000 F2750
G1 X1133.5593 Y415.5780 Z-19.0000 F2750
G1 X1134.1388 Y415.6202 Z-19.0000 F2750
G1 X1134.7342 Y415.7545 Z-19.0000 F2750
G1 X1135.3239 Y415.9884 Z-19.0000 F2750
G1 X1135.8831 Y416.3225 Z-19.0000 F2750
G1 X1136.3870 Y416.7493 Z-19.0000 F2750
G1 X1136.8137 Y417.2531 Z-19.0000 F2750
G1 X1137.1479 Y417.8124 Z-19.0000 F2750
G1 X1137.3817 Y418.4020 Z-19.0000 F2750
G1 X1137.5160 Y418.9974 Z-19.0000 F2750
G1 X1137.5583 Y419.5770 Z-19.0000 F2750
G1 X1137.5583 Y463.5767 Z-19.0000 F2750
G1 X1137.5160 Y464.1563 Z-19.0000 F2750
G1 X1137.3817 Y464.7517 Z-19.0000 F2750
G1 X1137.1479 Y465.3414 Z-19.0000 F2750
G1 X1136.8137 Y465.9006 Z-19.0000 F2750
G1 X1136.3870 Y466.4045 Z-19.0000 F2750
G1 X1135.8831 Y466.8312 Z-19.0000 F2750
G1 X1135.3239 Y467.1653 Z-19.0000 F2750
G1 X1134.7342 Y467.3992 Z-19.0000 F2750
G1 X1134.1388 Y467.5335 Z-19.0000 F2750
G1 X1133.5593 Y467.5757 Z-19.0000 F2750
G1 X1131.5583 Y467.5757 Z-19.0000 F2750
G1 X1143.5592 Y467.5777 Z-19.0000 F2750
G1 X1144.1388 Y467.6200 Z-19.0000 F2750
G1 X1144.7342 Y467.7542 Z-19.0000 F2750
G1 X1145.3238 Y467.9881 Z-19.0000 F2750
G1 X1145.8831 Y468.3222 Z-19.0000 F2750
G1 X1146.3869 Y468.7490 Z-19.0000 F2750
G1 X1146.8137 Y469.2529 Z-19.0000 F2750
G1 X1147.1478 Y469.8121 Z-19.0000 F2750
G1 X1147.3817 Y470.4018 Z-19.0000 F2750
G1 X1147.5160 Y470.9972 Z-19.0000 F2750
G1 X1147.5582 Y471.5767 Z-19.0000 F2750
G1 X1147.5582 Y473.5777 Z-19.0000 F2750
G1 X1147.5675 Y457.0770 Z-19.0000 F2750
G1 X1147.5602 Y440.5764 Z-19.0000 F2750
G1 X1147.5602 Y440.5764 Z10.0000 F9999
G1 X1147.5602 Y740.5757 Z10.0000 F9999
G1 X1147.5602 Y740.5757 Z1.0000 F2000
G1 X1147.5602 Y709.5754 Z-6.9547 F2000
G1 X1147.5582 Y711.5764 Z-7.4682 F2000
G1 X1147.5102 Y712.1942 Z-7.6272 F2000
G1 X1147.3637 Y712.8084 Z-7.7892 F2000
G1 X1147.1206 Y713.3954 Z-7.9522 F2000
G1 X1146.7899 Y713.9332 Z-8.1142 F2000
G1 X1146.3869 Y714.4041 Z-8.2733 F2000
G1 X1145.9161 Y714.8070 Z-8.4323 F2000
G1 X1145.3782 Y715.1377 Z-8.5943 F2000
G1 X1144.7912 Y715.3809 Z-8.7573 F2000
G1 X1144.1771 Y715.5274 Z-8.9193 F2000
G1 X1143.8637 Y715.5517 Z-9.0000 F2000
G1 X1144.1771 Y715.5274 Z-9.0807 F2000
G1 X1144.7912 Y715.3809 Z-9.2427 F2000
G1 X1145.3782 Y715.1377 Z-9.4057 F2000
G1 X1145.9161 Y714.8070 Z-9.5677 F2000
G1 X1146.3869 Y714.4041 Z-9.7267 F2000
G1 X1146.7899 Y713.9332 Z-9.8858 F2000
G1 X1147.1206 Y713.3954 Z-10.0478 F2000
G1 X1147.3637 Y712.8084 Z-10.2108 F2000
G1 X1147.5102 Y712.1942 Z-10.3728 F2000
G1 X1147.5582 Y711.5764 Z-10.5318 F2000
G1 X1147.5602 Y709.5754 Z-11.0453 F2000
G1 X1147.5602 Y740.5757 Z-19.0000 F2000
G1 X1147.5602 Y709.5754 Z-19.0000 F2750
G1 X1147.5582 Y711.5764 Z-19.0000 F2750
G1 X1147.5102 Y712.1942 Z-19.0000 F2750
G1 X1147.3637 Y712.8084 Z-19.0000 F2750
G1 X1147.1206 Y713.3954 Z-19.0000 F2750
G1 X1146.7899 Y713.9332 Z-19.0000 F2750
G1 X1146.3869 Y714.4041 Z-19.0000 F2750
G1 X1145.9161 Y714.8070 Z-19.0000 F2750
G1 X1145.3782 Y715.1377 Z-19.0000 F2750
G1 X1144.7912 Y715.3809 Z-19.0000 F2750
G1 X1144.1771 Y715.5274 Z-19.0000 F2750
G1 X1143.5592 Y715.5754 Z-19.0000 F2750
G1 X1131.5583 Y715.5754 Z-19.0000 F2750
G1 X1133.5593 Y715.5774 Z-19.0000 F2750
G1 X1134.1388 Y715.6196 Z-19.0000 F2750
G1 X1134.7342 Y715.7539 Z-19.0000 F2750
G1 X1135.3239 Y715.9878 Z-19.0000 F2750
G1 X1135.8831 Y716.3219 Z-19.0000 F2750
G1 X1136.3870 Y716.7487 Z-19.0000 F2750
G1 X1136.8137 Y717.2525 Z-19.0000 F2750
G1 X1137.1479 Y717.8117 Z-19.0000 F2750
G1 X1137.3817 Y718.4014 Z-19.0000 F2750
G1 X1137.5160 Y718.9968 Z-19.0000 F2750
G1 X1137.5583 Y719.5764 Z-19.0000 F2750
G1 X1137.5583 Y763.5761 Z-19.0000 F2750
G1 X1137.5160 Y764.1557 Z-19.0000 F2750
G1 X1137.3817 Y764.7511 Z-19.0000 F2750
G1 X1137.1479 Y765.3408 Z-19.0000 F2750
G1 X1136.8137 Y765.9000 Z-19.0000 F2750
G1 X1136.3870 Y766.4038 Z-19.0000 F2750
G1 X1135.8831 Y766.8306 Z-19.0000 F2750
G1 X1135.3239 Y767.1647 Z-19.0000 F2750
G1 X1134.7342 Y767.3986 Z-19.0000 F2750
G1 X1134.1388 Y767.5329 Z-19.0000 F2750
G1 X1133.5593 Y767.5751 Z-19.0000 F2750
G1 X1131.5583 Y767.5751 Z-19.0000 F2750
G1 X1143.5592 Y767.5771 Z-19.0000 F2750
G1 X1144.1388 Y767.6193 Z-19.0000 F2750
G1 X1144.7342 Y767.7536 Z-19.0000 F2750
G1 X1145.3238 Y767.9875 Z-19.0000 F2750
G1 X1145.8831 Y768.3216 Z-19.0000 F2750
G1 X1146.3869 Y768.7484 Z-19.0000 F2750
G1 X1146.8137 Y769.2523 Z-19.0000 F2750
G1 X1147.1478 Y769.8115 Z-19.0000 F2750
G1 X1147.3817 Y770.4012 Z-19.0000 F2750
G1 X1147.5160 Y770.9966 Z-19.0000 F2750
G1 X1147.5582 Y771.5761 Z-19.0000 F2750
G1 X1147.5582 Y773.5771 Z-19.0000 F2750
G1 X1147.5675 Y757.0764 Z-19.0000 F2750
G1 X1147.5602 Y740.5757 Z-19.0000 F2750
G1 X1147.5602 Y740.5757 Z10.0000 F9999
G1 X905.5587 Y742.5767 Z10.0000 F9999
G1 X905.5587 Y742.5767 Z1.0000 F2000
G1 X905.5587 Y773.5771 Z-6.9547 F2000
G1 X905.5607 Y771.5761 Z-7.4682 F2000
G1 X905.6030 Y770.9966 Z-7.6173 F2000
G1 X905.7372 Y770.4012 Z-7.7739 F2000
G1 X905.9711 Y769.8115 Z-7.9367 F2000
G1 X906.3052 Y769.2523 Z-8.1038 F2000
G1 X906.7320 Y768.7484 Z-8.2733 F2000
G1 X907.2359 Y768.3216 Z-8.4427 F2000
G1 X907.7951 Y767.9875 Z-8.6099 F2000
G1 X908.3848 Y767.7536 Z-8.7726 F2000
G1 X908.9802 Y767.6193 Z-8.9293 F2000
G1 X909.2552 Y767.5993 Z-9.0000 F2000
G1 X908.9802 Y767.6193 Z-9.0707 F2000
G1 X908.3848 Y767.7536 Z-9.2274 F2000
G1 X907.7951 Y767.9875 Z-9.3901 F2000
G1 X907.2359 Y768.3216 Z-9.5573 F2000
G1 X906.7320 Y768.7484 Z-9.7267 F2000
G1 X906.3052 Y769.2523 Z-9.8962 F2000
G1 X905.9711 Y769.8115 Z-10.0633 F2000
G1 X905.7372 Y770.4012 Z-10.2261 F2000
G1 X905.6030 Y770.9966 Z-10.3827 F2000
G1 X905.5607 Y771.5761 Z-10.5318 F2000
G1 X905.5587 Y773.5771 Z-11.0453 F2000
G1 X905.5587 Y742.5767 Z-19.0000 F2000
G1 X905.5587 Y773.5771 Z-19.0000 F2750
G1 X905.5607 Y771.5761 Z-19.0000 F2750
G1 X905.6030 Y770.9966 Z-19.0000 F2750
G1 X905.7372 Y770.4012 Z-19.0000 F2750
G1 X905.9711 Y769.8115 Z-19.0000 F2750
G1 X906.3052 Y769.2523 Z-19.0000 F2750
G1 X906.7320 Y768.7484 Z-19.0000 F2750
G1 X907.2359 Y768.3216 Z-19.0000 F2750
G1 X907.7951 Y767.9875 Z-19.0000 F2750
G1 X908.3848 Y767.7536 Z-19.0000 F2750
G1 X908.9802 Y767.6193 Z-19.0000 F2750
G1 X909.5597 Y767.5771 Z-19.0000 F2750
G1 X921.5607 Y767.5771 Z-19.0000 F2750
G1 X919.5597 Y767.5751 Z-19.0000 F2750
G1 X918.9418 Y767.5271 Z-19.0000 F2750
G1 X918.3277 Y767.3806 Z-19.0000 F2750
G1 X917.7407 Y767.1375 Z-19.0000 F2750
G1 X917.2028 Y766.8068 Z-19.0000 F2750
G1 X916.7320 Y766.4038 Z-19.0000 F2750
G1 X916.3290 Y765.9330 Z-19.0000 F2750
G1 X915.9984 Y765.3951 Z-19.0000 F2750
G1 X915.7552 Y764.8081 Z-19.0000 F2750
G1 X915.6087 Y764.1940 Z-19.0000 F2750
G1 X915.5607 Y763.5761 Z-19.0000 F2750
G1 X915.5607 Y719.5764 Z-19.0000 F2750
G1 X915.6029 Y718.9968 Z-19.0000 F2750
G1 X915.7372 Y718.4014 Z-19.0000 F2750
G1 X915.9711 Y717.8117 Z-19.0000 F2750
G1 X916.3052 Y717.2525 Z-19.0000 F2750
G1 X916.7320 Y716.7487 Z-19.0000 F2750
G1 X917.2359 Y716.3219 Z-19.0000 F2750
G1 X917.7951 Y715.9878 Z-19.0000 F2750
G1 X918.3848 Y715.7539 Z-19.0000 F2750
G1 X918.9802 Y715.6196 Z-19.0000 F2750
G1 X919.5597 Y715.5774 Z-19.0000 F2750
G1 X921.5607 Y715.5774 Z-19.0000 F2750
G1 X909.5597 Y715.5754 Z-19.0000 F2750
G1 X908.9802 Y715.5332 Z-19.0000 F2750
G1 X908.3848 Y715.3989 Z-19.0000 F2750
G1 X907.7951 Y715.1650 Z-19.0000 F2750
G1 X907.2359 Y714.8309 Z-19.0000 F2750
G1 X906.7320 Y714.4041 Z-19.0000 F2750
G1 X906.3052 Y713.9002 Z-19.0000 F2750
G1 X905.9711 Y713.3410 Z-19.0000 F2750
G1 X905.7372 Y712.7513 Z-19.0000 F2750
G1 X905.6030 Y712.1559 Z-19.0000 F2750
G1 X905.5607 Y711.5764 Z-19.0000 F2750
G1 X905.5607 Y709.5754 Z-19.0000 F2750
G1 X905.5515 Y726.0761 Z-19.0000 F2750
G1 X905.5587 Y742.5767 Z-19.0000 F2750
G1 X905.5587 Y742.5767 Z10.0000 F9999
G1 X905.5587 Y1042.5761 Z10.0000 F9999
G1 X905.5587 Y1042.5761 Z1.0000 F2000
G1 X905.5587 Y1073.5765 Z-6.9547 F2000
G1 X905.5607 Y1071.5755 Z-7.4682 F2000
G1 X905.6030 Y1070.9960 Z-7.6173 F2000
G1 X905.7372 Y1070.4006 Z-7.7739 F2000
G1 X905.9711 Y1069.8109 Z-7.9367 F2000
G1 X906.3052 Y1069.2517 Z-8.1038 F2000
G1 X906.7320 Y1068.7478 Z-8.2733 F2000
G1 X907.2359 Y1068.3210 Z-8.4427 F2000
G1 X907.7951 Y1067.9869 Z-8.6099 F2000
G1 X908.3848 Y1067.7530 Z-8.7726 F2000
G1 X908.9802 Y1067.6187 Z-8.9293 F2000
G1 X909.2552 Y1067.5987 Z-9.0000 F2000
G1 X908.9802 Y1067.6187 Z-9.0707 F2000
G1 X908.3848 Y1067.7530 Z-9.2274 F2000
G1 X907.7951 Y1067.9869 Z-9.3901 F2000
G1 X907.2359 Y1068.3210 Z-9.5573 F2000
G1 X906.7320 Y1068.7478 Z-9.7267 F2000
G1 X906.3052 Y1069.2517 Z-9.8962 F2000
G1 X905.9711 Y1069.8109 Z-10.0633 F2000
G1 X905.7372 Y1070.4006 Z-10.2261 F2000
G1 X905.6030 Y1070.9960 Z-10.3827 F2000
G1 X905.5607 Y1071.5755 Z-10.5318 F2000
G1 X905.5587 Y1073.5765 Z-11.0453 F2000
G1 X905.5587 Y1042.5761 Z-19.0000 F2000
G1 X905.5587 Y1073.5765 Z-19.0000 F2750
G1 X905.5607 Y1071.5755 Z-19.0000 F2750
G1 X905.6030 Y1070.9960 Z-19.0000 F2750
G1 X905.7372 Y1070.4006 Z-19.0000 F2750
G1 X905.9711 Y1069.8109 Z-19.0000 F2750
G1 X906.3052 Y1069.2517 Z-19.0000 F2750
G1 X906.7320 Y1068.7478 Z-19.0000 F2750
G1 X907.2359 Y1068.3210 Z-19.0000 F2750
G1 X907.7951 Y1067.9869 Z-19.0000 F2750
G1 X908.3848 Y1067.7530 Z-19.0000 F2750
G1 X908.9802 Y1067.6187 Z-19.0000 F2750
G1 X909.5597 Y1067.5765 Z-19.0000 F2750
G1 X921.5607 Y1067.5765 Z-19.0000 F2750
G1 X919.5597 Y1067.5745 Z-19.0000 F2750
G1 X918.9802 Y1067.5323 Z-19.0000 F2750
G1 X918.3848 Y1067.3980 Z-19.0000 F2750
G1 X917.7951 Y1067.1641 Z-19.0000 F2750
G1 X917.2359 Y1066.8300 Z-19.0000 F2750
G1 X916.7320 Y1066.4032 Z-19.0000 F2750
G1 X916.3052 Y1065.8994 Z-19.0000 F2750
G1 X915.9711 Y1065.3401 Z-19.0000 F2750
G1 X915.7372 Y1064.7505 Z-19.0000 F2750
G1 X915.6029 Y1064.1551 Z-19.0000 F2750
G1 X915.5607 Y1063.5755 Z-19.0000 F2750
G1 X915.5607 Y1019.5758 Z-19.0000 F2750
G1 X915.6029 Y1018.9962 Z-19.0000 F2750
G1 X915.7372 Y1018.4008 Z-19.0000 F2750
G1 X915.9711 Y1017.8111 Z-19.0000 F2750
G1 X916.3052 Y1017.2519 Z-19.0000 F2750
G1 X916.7320 Y1016.7480 Z-19.0000 F2750
G1 X917.2359 Y1016.3213 Z-19.0000 F2750
G1 X917.7951 Y1015.9872 Z-19.0000 F2750
G1 X918.3848 Y1015.7533 Z-19.0000 F2750
G1 X918.9802 Y1015.6190 Z-19.0000 F2750
G1 X919.5597 Y1015.5768 Z-19.0000 F2750
G1 X921.5607 Y1015.5768 Z-19.0000 F2750
G1 X909.5597 Y1015.5748 Z-19.0000 F2750
G1 X908.9419 Y1015.5267 Z-19.0000 F2750
G1 X908.3277 Y1015.3802 Z-19.0000 F2750
G1 X907.7407 Y1015.1371 Z-19.0000 F2750
G1 X907.2029 Y1014.8064 Z-19.0000 F2750
G1 X906.7320 Y1014.4035 Z-19.0000 F2750
G1 X906.3291 Y1013.9326 Z-19.0000 F2750
G1 X905.9984 Y1013.3948 Z-19.0000 F2750
G1 X905.7552 Y1012.8078 Z-19.0000 F2750
G1 X905.6088 Y1012.1936 Z-19.0000 F2750
G1 X905.5607 Y1011.5758 Z-19.0000 F2750
G1 X905.5607 Y1009.5748 Z-19.0000 F2750
G1 X905.5515 Y1026.0755 Z-19.0000 F2750
G1 X905.5587 Y1042.5761 Z-19.0000 F2750
G1 X905.5587 Y1042.5761 Z10.0000 F9999
G1 X1026.5573 Y1046.5699 Z10.0000 F9999
G1 X1026.5573 Y1046.5699 Z1.0000 F2000
G1 X1038.5573 Y1046.5632 Z-2.0792 F2000
G1 X1039.1754 Y1046.6109 Z-2.2383 F2000
G1 X1039.7898 Y1046.7572 Z-2.4004 F2000
G1 X1040.3771 Y1047.0001 Z-2.5634 F2000
G1 X1040.9153 Y1047.3307 Z-2.7255 F2000
G1 X1041.3865 Y1047.7337 Z-2.8846 F2000
G1 X1041.7897 Y1048.2046 Z-3.0437 F2000
G1 X1042.1206 Y1048.7426 Z-3.2057 F2000
G1 X1042.3639 Y1049.3298 Z-3.3688 F2000
G1 X1042.5105 Y1049.9441 Z-3.5309 F2000
G1 X1042.5585 Y1050.5622 Z-3.6900 F2000
G1 X1042.5605 Y1052.5543 Z-4.2011 F2000
G1 X1042.5605 Y1033.8526 Z-9.0000 F2000
G1 X1042.5605 Y1052.5543 Z-13.7989 F2000
G1 X1042.5585 Y1050.5622 Z-14.3100 F2000
G1 X1042.5105 Y1049.9441 Z-14.4691 F2000
G1 X1042.3639 Y1049.3298 Z-14.6312 F2000
G1 X1042.1206 Y1048.7426 Z-14.7943 F2000
G1 X1041.7897 Y1048.2046 Z-14.9563 F2000
G1 X1041.3865 Y1047.7337 Z-15.1154 F2000
G1 X1040.9153 Y1047.3307 Z-15.2745 F2000
G1 X1040.3771 Y1047.0001 Z-15.4366 F2000
G1 X1039.7898 Y1046.7572 Z-15.5996 F2000
G1 X1039.1754 Y1046.6109 Z-15.7617 F2000
G1 X1038.5573 Y1046.5632 Z-15.9208 F2000
G1 X1026.5573 Y1046.5699 Z-19.0000 F2000
G1 X1038.5573 Y1046.5632 Z-19.0000 F2750
G1 X1039.1754 Y1046.6109 Z-19.0000 F2750
G1 X1039.7898 Y1046.7572 Z-19.0000 F2750
G1 X1040.3771 Y1047.0001 Z-19.0000 F2750
G1 X1040.9153 Y1047.3307 Z-19.0000 F2750
G1 X1041.3865 Y1047.7337 Z-19.0000 F2750
G1 X1041.7897 Y1048.2046 Z-19.0000 F2750
G1 X1042.1206 Y1048.7426 Z-19.0000 F2750
G1 X1042.3639 Y1049.3298 Z-19.0000 F2750
G1 X1042.5105 Y1049.9441 Z-19.0000 F2750
G1 X1042.5585 Y1050.5622 Z-19.0000 F2750
G1 X1042.5605 Y1052.5543 Z-19.0000 F2750
G1 X1042.5605 Y1030.5746 Z-19.0000 F2750
G1 X1042.5585 Y1032.5756 Z-19.0000 F2750
G1 X1042.5163 Y1033.1551 Z-19.0000 F2750
G1 X1042.3820 Y1033.7505 Z-19.0000 F2750
G1 X1042.1481 Y1034.3402 Z-19.0000 F2750
G1 X1041.8140 Y1034.8994 Z-19.0000 F2750
G1 X1041.3872 Y1035.4033 Z-19.0000 F2750
G1 X1040.8834 Y1035.8301 Z-19.0000 F2750
G1 X1040.3242 Y1036.1642 Z-19.0000 F2750
G1 X1039.7345 Y1036.3981 Z-19.0000 F2750
G1 X1039.1391 Y1036.5324 Z-19.0000 F2750
G1 X1038.5595 Y1036.5746 Z-19.0000 F2750
G1 X1014.5595 Y1036.5746 Z-19.0000 F2750
G1 X1013.9417 Y1036.5266 Z-19.0000 F2750
G1 X1013.3275 Y1036.3801 Z-19.0000 F2750
G1 X1012.7405 Y1036.1369 Z-19.0000 F2750
G1 X1012.2027 Y1035.8062 Z-19.0000 F2750
G1 X1011.7318 Y1035.4033 Z-19.0000 F2750
G1 X1011.3289 Y1034.9324 Z-19.0000 F2750
G1 X1010.9982 Y1034.3946 Z-19.0000 F2750
G1 X1010.7550 Y1033.8076 Z-19.0000 F2750
G1 X1010.6085 Y1033.1935 Z-19.0000 F2750
G1 X1010.5605 Y1032.5756 Z-19.0000 F2750
G1 X1010.5605 Y1030.5746 Z-19.0000 F2750
G1 X1010.5585 Y1052.5543 Z-19.0000 F2750
G1 X1010.5605 Y1050.5756 Z-19.0000 F2750
G1 X1010.6027 Y1049.9962 Z-19.0000 F2750
G1 X1010.7369 Y1049.4010 Z-19.0000 F2750
G1 X1010.9707 Y1048.8115 Z-19.0000 F2750
G1 X1011.3045 Y1048.2524 Z-19.0000 F2750
G1 X1011.7310 Y1047.7486 Z-19.0000 F2750
G1 X1012.2346 Y1047.3219 Z-19.0000 F2750
G1 X1012.7934 Y1046.9877 Z-19.0000 F2750
G1 X1013.3828 Y1046.7536 Z-19.0000 F2750
G1 X1013.9780 Y1046.6191 Z-19.0000 F2750
G1 X1014.5573 Y1046.5766 Z-19.0000 F2750
G1 X1026.5573 Y1046.5699 Z-19.0000 F2750
G1 X1026.5573 Y1046.5699 Z10.0000 F9999
G1 X1147.5602 Y1040.5751 Z10.0000 F9999
G1 X1147.5602 Y1040.5751 Z1.0000 F2000
G1 X1147.5602 Y1009.5748 Z-6.9547 F2000
G1 X1147.5582 Y1011.5758 Z-7.4682 F2000
G1 X1147.5102 Y1012.1936 Z-7.6272 F2000
G1 X1147.3637 Y1012.8078 Z-7.7892 F2000
G1 X1147.1206 Y1013.3948 Z-7.9522 F2000
G1 X1146.7899 Y1013.9326 Z-8.1142 F2000
G1 X1146.3869 Y1014.4035 Z-8.2733 F2000
G1 X1145.9161 Y1014.8064 Z-8.4323 F2000
G1 X1145.3782 Y1015.1371 Z-8.5943 F2000
G1 X1144.7912 Y1015.3802 Z-8.7573 F2000
G1 X1144.1771 Y1015.5267 Z-8.9193 F2000
G1 X1143.8637 Y1015.5511 Z-9.0000 F2000
G1 X1144.1771 Y1015.5267 Z-9.0807 F2000
G1 X1144.7912 Y1015.3802 Z-9.2427 F2000
G1 X1145.3782 Y1015.1371 Z-9.4057 F2000
G1 X1145.9161 Y1014.8064 Z-9.5677 F2000
G1 X1146.3869 Y1014.4035 Z-9.7267 F2000
G1 X1146.7899 Y1013.9326 Z-9.8858 F2000
G1 X1147.1206 Y1013.3948 Z-10.0478 F2000
G1 X1147.3637 Y1012.8078 Z-10.2108 F2000
G1 X1147.5102 Y1012.1936 Z-10.3728 F2000
G1 X1147.5582 Y1011.5758 Z-10.5318 F2000
G1 X1147.5602 Y1009.5748 Z-11.0453 F2000
G1 X1147.5602 Y1040.5751 Z-19.0000 F2000
G1 X1147.5602 Y1009.5748 Z-19.0000 F2750
G1 X1147.5582 Y1011.5758 Z-19.0000 F2750
G1 X1147.5102 Y1012.1936 Z-19.0000 F2750
G1 X1147.3637 Y1012.8078 Z-19.0000 F2750
G1 X1147.1206 Y1013.3948 Z-19.0000 F2750
G1 X1146.7899 Y1013.9326 Z-19.0000 F2750
G1 X1146.3869 Y1014.4035 Z-19.0000 F2750
G1 X1145.9161 Y1014.8064 Z-19.0000 F2750
G1 X1145.3782 Y1015.1371 Z-19.0000 F2750
G1 X1144.7912 Y1015.3802 Z-19.0000 F2750
G1 X1144.1771 Y1015.5267 Z-19.0000 F2750
G1 X1143.5592 Y1015.5748 Z-19.0000 F2750
G1 X1131.5583 Y1015.5748 Z-19.0000 F2750
G1 X1133.5593 Y1015.5768 Z-19.0000 F2750
G1 X1134.1771 Y1015.6248 Z-19.0000 F2750
G1 X1134.7913 Y1015.7713 Z-19.0000 F2750
G1 X1135.3783 Y1016.0144 Z-19.0000 F2750
G1 X1135.9161 Y1016.3451 Z-19.0000 F2750
G1 X1136.3870 Y1016.7480 Z-19.0000 F2750
G1 X1136.7899 Y1017.2189 Z-19.0000 F2750
G1 X1137.1206 Y1017.7568 Z-19.0000 F2750
G1 X1137.3637 Y1018.3437 Z-19.0000 F2750
G1 X1137.5102 Y1018.9579 Z-19.0000 F2750
G1 X1137.5583 Y1019.5758 Z-19.0000 F2750
G1 X1137.5583 Y1063.5755 Z-19.0000 F2750
G1 X1137.5160 Y1064.1551 Z-19.0000 F2750
G1 X1137.3817 Y1064.7505 Z-19.0000 F2750
G1 X1137.1479 Y1065.3401 Z-19.0000 F2750
G1 X1136.8137 Y1065.8994 Z-19.0000 F2750
G1 X1136.3870 Y1066.4032 Z-19.0000 F2750
G1 X1135.8831 Y1066.8300 Z-19.0000 F2750
G1 X1135.3239 Y1067.1641 Z-19.0000 F2750
G1 X1134.7342 Y1067.3980 Z-19.0000 F2750
G1 X1134.1388 Y1067.5323 Z-19.0000 F2750
G1 X1133.5593 Y1067.5745 Z-19.0000 F2750
G1 X1131.5583 Y1067.5745 Z-19.0000 F2750
G1 X1143.5592 Y1067.5765 Z-19.0000 F2750
G1 X1144.1771 Y1067.6245 Z-19.0000 F2750
G1 X1144.7912 Y1067.7710 Z-19.0000 F2750
G1 X1145.3782 Y1068.0142 Z-19.0000 F2750
G1 X1145.9161 Y1068.3449 Z-19.0000 F2750
G1 X1146.3869 Y1068.7478 Z-19.0000 F2750
G1 X1146.7899 Y1069.2187 Z-19.0000 F2750
G1 X1147.1206 Y1069.7565 Z-19.0000 F2750
G1 X1147.3637 Y1070.3435 Z-19.0000 F2750
G1 X1147.5102 Y1070.9576 Z-19.0000 F2750
G1 X1147.5582 Y1071.5755 Z-19.0000 F2750
G1 X1147.5582 Y1073.5765 Z-19.0000 F2750
G1 X1147.5675 Y1057.0758 Z-19.0000 F2750
G1 X1147.5602 Y1040.5751 Z-19.0000 F2750
G1 X1147.5602 Y1040.5751 Z10.0000 F9999
G1 X1147.5602 Y1340.5745 Z10.0000 F9999
G1 X1147.5602 Y1340.5745 Z1.0000 F2000
G1 X1147.5602 Y1309.5742 Z-6.9547 F2000
G1 X1147.5582 Y1311.5752 Z-7.4682 F2000
G1 X1147.5160 Y1312.1547 Z-7.6173 F2000
G1 X1147.3817 Y1312.7501 Z-7.7739 F2000
G1 X1147.1478 Y1313.3398 Z-7.9367 F2000
G1 X1146.8137 Y1313.8990 Z-8.1038 F2000
G1 X1146.3869 Y1314.4029 Z-8.2733 F2000
G1 X1145.8831 Y1314.8296 Z-8.4427 F2000
G1 X1145.3238 Y1315.1638 Z-8.6099 F2000
G1 X1144.7342 Y1315.3976 Z-8.7726 F2000
G1 X1144.1388 Y1315.5319 Z-8.9293 F2000
G1 X1143.8638 Y1315.5520 Z-9.0000 F2000
G1 X1144.1388 Y1315.5319 Z-9.0707 F2000
G1 X1144.7342 Y1315.3976 Z-9.2274 F2000
G1 X1145.3238 Y1315.1638 Z-9.3901 F2000
G1 X1145.8831 Y1314.8296 Z-9.5573 F2000
G1 X1146.3869 Y1314.4029 Z-9.7267 F2000
G1 X1146.8137 Y1313.8990 Z-9.8962 F2000
G1 X1147.1478 Y1313.3398 Z-10.0633 F2000
G1 X1147.3817 Y1312.7501 Z-10.2261 F2000
G1 X1147.5160 Y1312.1547 Z-10.3827 F2000
G1 X1147.5582 Y1311.5752 Z-10.5318 F2000
G1 X1147.5602 Y1309.5742 Z-11.0453 F2000
G1 X1147.5602 Y1340.5745 Z-19.0000 F2000
G1 X1147.5602 Y1309.5742 Z-19.0000 F2750
G1 X1147.5582 Y1311.5752 Z-19.0000 F2750
G1 X1147.5160 Y1312.1547 Z-19.0000 F2750
G1 X1147.3817 Y1312.7501 Z-19.0000 F2750
G1 X1147.1478 Y1313.3398 Z-19.0000 F2750
G1 X1146.8137 Y1313.8990 Z-19.0000 F2750
G1 X1146.3869 Y1314.4029 Z-19.0000 F2750
G1 X1145.8831 Y1314.8296 Z-19.0000 F2750
G1 X1145.3238 Y1315.1638 Z-19.0000 F2750
G1 X1144.7342 Y1315.3976 Z-19.0000 F2750
G1 X1144.1388 Y1315.5319 Z-19.0000 F2750
G1 X1143.5592 Y1315.5742 Z-19.0000 F2750
G1 X1131.5583 Y1315.5742 Z-19.0000 F2750
G1 X1133.5593 Y1315.5762 Z-19.0000 F2750
G1 X1134.1388 Y1315.6184 Z-19.0000 F2750
G1 X1134.7342 Y1315.7527 Z-19.0000 F2750
G1 X1135.3239 Y1315.9865 Z-19.0000 F2750
G1 X1135.8831 Y1316.3207 Z-19.0000 F2750
G1 X1136.3870 Y1316.7474 Z-19.0000 F2750
G1 X1136.8137 Y1317.2513 Z-19.0000 F2750
G1 X1137.1479 Y1317.8105 Z-19.0000 F2750
G1 X1137.3817 Y1318.4002 Z-19.0000 F2750
G1 X1137.5160 Y1318.9956 Z-19.0000 F2750
G1 X1137.5583 Y1319.5752 Z-19.0000 F2750
G1 X1137.5583 Y1363.5749 Z-19.0000 F2750
G1 X1137.5160 Y1364.1544 Z-19.0000 F2750
G1 X1137.3817 Y1364.7499 Z-19.0000 F2750
G1 X1137.1479 Y1365.3395 Z-19.0000 F2750
G1 X1136.8137 Y1365.8988 Z-19.0000 F2750
G1 X1136.3870 Y1366.4026 Z-19.0000 F2750
G1 X1135.8831 Y1366.8294 Z-19.0000 F2750
G1 X1135.3239 Y1367.1635 Z-19.0000 F2750
G1 X1134.7342 Y1367.3974 Z-19.0000 F2750
G1 X1134.1388 Y1367.5317 Z-19.0000 F2750
G1 X1133.5593 Y1367.5739 Z-19.0000 F2750
G1 X1131.5583 Y1367.5739 Z-19.0000 F2750
G1 X1143.5592 Y1367.5759 Z-19.0000 F2750
G1 X1144.1771 Y1367.6239 Z-19.0000 F2750
G1 X1144.7912 Y1367.7704 Z-19.0000 F2750
G1 X1145.3782 Y1368.0136 Z-19.0000 F2750
G1 X1145.9161 Y1368.3442 Z-19.0000 F2750
G1 X1146.3869 Y1368.7472 Z-19.0000 F2750
G1 X1146.7899 Y1369.2180 Z-19.0000 F2750
G1 X1147.1206 Y1369.7559 Z-19.0000 F2750
G1 X1147.3637 Y1370.3429 Z-19.0000 F2750
G1 X1147.5102 Y1370.9570 Z-19.0000 F2750
G1 X1147.5582 Y1371.5749 Z-19.0000 F2750
G1 X1147.5582 Y1373.5759 Z-19.0000 F2750
G1 X1147.5675 Y1357.0752 Z-19.0000 F2750
G1 X1147.5602 Y1340.5745 Z-19.0000 F2750
G1 X1147.5602 Y1340.5745 Z10.0000 F9999
G1 X905.5587 Y1342.5755 Z10.0000 F9999
G1 X905.5587 Y1342.5755 Z1.0000 F2000
G1 X905.5587 Y1373.5759 Z-6.9547 F2000
G1 X905.5607 Y1371.5749 Z-7.4682 F2000
G1 X905.6030 Y1370.9954 Z-7.6173 F2000
G1 X905.7372 Y1370.4000 Z-7.7739 F2000
G1 X905.9711 Y1369.8103 Z-7.9367 F2000
G1 X906.3052 Y1369.2511 Z-8.1038 F2000
G1 X906.7320 Y1368.7472 Z-8.2733 F2000
G1 X907.2359 Y1368.3204 Z-8.4427 F2000
G1 X907.7951 Y1367.9863 Z-8.6099 F2000
G1 X908.3848 Y1367.7524 Z-8.7726 F2000
G1 X908.9802 Y1367.6181 Z-8.9293 F2000
G1 X909.2552 Y1367.5981 Z-9.0000 F2000
G1 X908.9802 Y1367.6181 Z-9.0707 F2000
G1 X908.3848 Y1367.7524 Z-9.2274 F2000
G1 X907.7951 Y1367.9863 Z-9.3901 F2000
G1 X907.2359 Y1368.3204 Z-9.5573 F2000
G1 X906.7320 Y1368.7472 Z-9.7267 F2000
G1 X906.3052 Y1369.2511 Z-9.8962 F2000
G1 X905.9711 Y1369.8103 Z-10.0633 F2000
G1 X905.7372 Y1370.4000 Z-10.2261 F2000
G1 X905.6030 Y1370.9954 Z-10.3827 F2000
G1 X905.5607 Y1371.5749 Z-10.5318 F2000
G1 X905.5587 Y1373.5759 Z-11.0453 F2000
G1 X905.5587 Y1342.5755 Z-19.0000 F2000
G1 X905.5587 Y1373.5759 Z-19.0000 F2750
G1 X905.5607 Y1371.5749 Z-19.0000 F2750
G1 X905.6030 Y1370.9954 Z-19.0000 F2750
G1 X905.7372 Y1370.4000 Z-19.0000 F2750
G1 X905.9711 Y1369.8103 Z-19.0000 F2750
G1 X906.3052 Y1369.2511 Z-19.0000 F2750
G1 X906.7320 Y1368.7472 Z-19.0000 F2750
G1 X907.2359 Y1368.3204 Z-19.0000 F2750
G1 X907.7951 Y1367.9863 Z-19.0000 F2750
G1 X908.3848 Y1367.7524 Z-19.0000 F2750
G1 X908.9802 Y1367.6181 Z-19.0000 F2750
G1 X909.5597 Y1367.5759 Z-19.0000 F2750
G1 X921.5607 Y1367.5759 Z-19.0000 F2750
G1 X919.5597 Y1367.5739 Z-19.0000 F2750
G1 X918.9418 Y1367.5259 Z-19.0000 F2750
G1 X918.3277 Y1367.3794 Z-19.0000 F2750
G1 X917.7407 Y1367.1363 Z-19.0000 F2750
G1 X917.2028 Y1366.8056 Z-19.0000 F2750
G1 X916.7320 Y1366.4026 Z-19.0000 F2750
G1 X916.3290 Y1365.9318 Z-19.0000 F2750
G1 X915.9984 Y1365.3939 Z-19.0000 F2750
G1 X915.7552 Y1364.8069 Z-19.0000 F2750
G1 X915.6087 Y1364.1928 Z-19.0000 F2750
G1 X915.5607 Y1363.5749 Z-19.0000 F2750
G1 X915.5607 Y1319.5752 Z-19.0000 F2750
G1 X915.6029 Y1318.9956 Z-19.0000 F2750
G1 X915.7372 Y1318.4002 Z-19.0000 F2750
G1 X915.9711 Y1317.8105 Z-19.0000 F2750
G1 X916.3052 Y1317.2513 Z-19.0000 F2750
G1 X916.7320 Y1316.7474 Z-19.0000 F2750
G1 X917.2359 Y1316.3207 Z-19.0000 F2750
G1 X917.7951 Y1315.9865 Z-19.0000 F2750
G1 X918.3848 Y1315.7527 Z-19.0000 F2750
G1 X918.9802 Y1315.6184 Z-19.0000 F2750
G1 X919.5597 Y1315.5762 Z-19.0000 F2750
G1 X921.5607 Y1315.5762 Z-19.0000 F2750
G1 X909.5597 Y1315.5742 Z-19.0000 F2750
G1 X908.9802 Y1315.5319 Z-19.0000 F2750
G1 X908.3848 Y1315.3976 Z-19.0000 F2750
G1 X907.7951 Y1315.1638 Z-19.0000 F2750
G1 X907.2359 Y1314.8296 Z-19.0000 F2750
G1 X906.7320 Y1314.4029 Z-19.0000 F2750
G1 X906.3052 Y1313.8990 Z-19.0000 F2750
G1 X905.9711 Y1313.3398 Z-19.0000 F2750
G1 X905.7372 Y1312.7501 Z-19.0000 F2750
G1 X905.6030 Y1312.1547 Z-19.0000 F2750
G1 X905.5607 Y1311.5752 Z-19.0000 F2750
G1 X905.5607 Y1309.5742 Z-19.0000 F2750
G1 X905.5515 Y1326.0748 Z-19.0000 F2750
G1 X905.5587 Y1342.5755 Z-19.0000 F2750
G1 X905.5587 Y1342.5755 Z10.0000 F9999
G1 X733.0240 Y1567.0858 Z10.0000 F9999
G1 X733.0240 Y1567.0858 Z1.0000 F2000
G1 X723.0230 Y1567.0858 Z-1.5663 F2000
G1 X723.0230 Y1569.0878 Z-2.0800 F2000
G1 X723.8141 Y1569.0801 Z-2.2830 F2000
G1 X724.6036 Y1569.1300 Z-2.4859 F2000
G1 X725.1264 Y1569.2427 Z-2.6232 F2000
G1 X725.6497 Y1569.4331 Z-2.7661 F2000
G1 X726.1567 Y1569.7039 Z-2.9136 F2000
G1 X726.6292 Y1570.0528 Z-3.0643 F2000
G1 X727.0497 Y1570.4720 Z-3.2166 F2000
G1 X727.4036 Y1570.9488 Z-3.3690 F2000
G1 X727.6802 Y1571.4669 Z-3.5197 F2000
G1 X727.8747 Y1572.0077 Z-3.6672 F2000
G1 X727.9873 Y1572.5532 Z-3.8101 F2000
G1 X728.0230 Y1573.0868 Z-3.9473 F2000
G1 X728.0230 Y1592.0867 Z-8.8227 F2000
G1 X727.9873 Y1592.6203 Z-8.9600 F2000
G1 X727.9557 Y1592.7732 Z-9.0000 F2000
G1 X727.9873 Y1592.6203 Z-9.0400 F2000
G1 X728.0230 Y1592.0867 Z-9.1773 F2000
G1 X728.0230 Y1573.0868 Z-14.0527 F2000
G1 X727.9873 Y1572.5532 Z-14.1899 F2000
G1 X727.8747 Y1572.0077 Z-14.3328 F2000
G1 X727.6802 Y1571.4669 Z-14.4803 F2000
G1 X727.4036 Y1570.9488 Z-14.6310 F2000
G1 X727.0497 Y1570.4720 Z-14.7834 F2000
G1 X726.6292 Y1570.0528 Z-14.9357 F2000
G1 X726.1567 Y1569.7039 Z-15.0864 F2000
G1 X725.6497 Y1569.4331 Z-15.2339 F2000
G1 X725.1264 Y1569.2427 Z-15.3768 F2000
G1 X724.6036 Y1569.1300 Z-15.5141 F2000
G1 X723.8141 Y1569.0801 Z-15.7170 F2000
G1 X723.0230 Y1569.0878 Z-15.9200 F2000
G1 X723.0230 Y1567.0858 Z-16.4337 F2000
G1 X733.0240 Y1567.0858 Z-19.0000 F2000
G1 X723.0230 Y1567.0858 Z-19.0000 F2750
G1 X723.0230 Y1569.0878 Z-19.0000 F2750
G1 X723.8141 Y1569.0801 Z-19.0000 F2750
G1 X724.6036 Y1569.1300 Z-19.0000 F2750
G1 X725.1264 Y1569.2427 Z-19.0000 F2750
G1 X725.6497 Y1569.4331 Z-19.0000 F2750
G1 X726.1567 Y1569.7039 Z-19.0000 F2750
G1 X726.6292 Y1570.0528 Z-19.0000 F2750
G1 X727.0497 Y1570.4720 Z-19.0000 F2750
G1 X727.4036 Y1570.9488 Z-19.0000 F2750
G1 X727.6802 Y1571.4669 Z-19.0000 F2750
G1 X727.8747 Y1572.0077 Z-19.0000 F2750
G1 X727.9873 Y1572.5532 Z-19.0000 F2750
G1 X728.0230 Y1573.0868 Z-19.0000 F2750
