(plotsheet 2n3_nested_153 sheets_final v1_0_sheet 81 to 85_S81.1_text_CC8 - stepover 1mm)
(Material Size) (X=1220.000, Y=2440.000, Z=21.000)
(LinuxCNC_NoArcs_MM_TC_medium_50um_G1_verbose.con)
G90 G80 G21 G49
G64 P0.050
M6 T1
(Tool Number:1) (7.998 mm dia. slot drill)
G43 H1 G0Z80.0000
M3 S19000
G04 P10
G1 X154.6758 Y632.2192 Z10.0000 F9999
G1 X154.6758 Y632.2192 Z-0.9000 F2000
G1 X154.6758 Y646.6596 Z-0.9000 F2750
G1 X154.6758 Y632.2192 Z-0.9000 F2750
G1 X136.3822 Y632.2192 Z-0.9000 F2750
G1 X136.3822 Y647.3385 Z-0.9000 F2750
G1 X136.3822 Y632.2192 Z-0.9000 F2750
G1 X177.4831 Y632.2192 Z-0.9000 F2750
G1 X177.4831 Y632.2192 Z10.0000 F9999
G1 X177.4831 Y662.7513 Z10.0000 F9999
G1 X177.4831 Y662.7513 Z-0.9000 F2000
G1 X136.3822 Y662.7513 Z-0.9000 F2750
G1 X136.3822 Y669.9073 Z-0.9000 F2750
G1 X136.9877 Y673.7788 Z-0.9000 F2750
G1 X138.8043 Y676.9898 Z-0.9000 F2750
G1 X141.9602 Y679.2100 Z-0.9000 F2750
G1 X146.6024 Y680.0541 Z-0.9000 F2750
G1 X151.2813 Y678.8981 Z-0.9000 F2750
G1 X154.6024 Y676.1275 Z-0.9000 F2750
G1 X156.5657 Y672.8064 Z-0.9000 F2750
G1 X157.2263 Y669.9073 Z-0.9000 F2750
G1 X157.2263 Y662.7513 Z-0.9000 F2750
G1 X157.2263 Y669.9073 Z-0.9000 F2750
G1 X156.5657 Y672.8064 Z-0.9000 F2750
G1 X154.6024 Y676.1275 Z-0.9000 F2750
G1 X151.2813 Y678.8981 Z-0.9000 F2750
G1 X146.6024 Y680.0541 Z-0.9000 F2750
G1 X141.9602 Y679.2100 Z-0.9000 F2750
G1 X138.8043 Y676.9898 Z-0.9000 F2750
G1 X136.9877 Y673.7788 Z-0.9000 F2750
G1 X136.3822 Y669.9073 Z-0.9000 F2750
G1 X136.3822 Y662.7513 Z-0.9000 F2750
G1 X136.3822 Y662.7513 Z10.0000 F9999
G1 X136.3822 Y706.8614 Z10.0000 F9999
G1 X136.3822 Y706.8614 Z-0.9000 F2000
G1 X177.4831 Y722.9164 Z-0.9000 F2750
G1 X136.3822 Y706.8614 Z-0.9000 F2750
G1 X177.4831 Y690.8431 Z-0.9000 F2750
G1 X177.4831 Y690.8431 Z10.0000 F9999
G1 X177.4831 Y680.1642 Z10.0000 F9999
G1 X177.4831 Y680.1642 Z-0.9000 F2000
G1 X157.3364 Y666.9348 Z-0.9000 F2750
G1 X177.4831 Y680.1642 Z-0.9000 F2750
G1 X177.4831 Y680.1642 Z10.0000 F9999
G1 X162.7859 Y717.1733 Z10.0000 F9999
G1 X162.7859 Y717.1733 Z-0.9000 F2000
G1 X162.7859 Y696.4761 Z-0.9000 F2750
G1 X162.7859 Y717.1733 Z-0.9000 F2750
G1 X162.7859 Y717.1733 Z10.0000 F9999
G1 X152.8226 Y763.5403 Z10.0000 F9999
G1 X152.8226 Y763.5403 Z-0.9000 F2000
G1 X152.8226 Y734.2926 Z-0.9000 F2750
G1 X152.8226 Y763.5403 Z-0.9000 F2750
G1 X152.8226 Y763.5403 Z10.0000 F9999
G1 X136.3822 Y790.2375 Z10.0000 F9999
G1 X136.3822 Y790.2375 Z-0.9000 F2000
G1 X177.4831 Y806.2926 Z-0.9000 F2750
G1 X136.3822 Y790.2375 Z-0.9000 F2750
G1 X177.4831 Y774.2192 Z-0.9000 F2750
G1 X177.4831 Y774.2192 Z10.0000 F9999
G1 X162.7859 Y800.5495 Z10.0000 F9999
G1 X162.7859 Y800.5495 Z-0.9000 F2000
G1 X162.7859 Y779.8522 Z-0.9000 F2750
G1 X162.7859 Y800.5495 Z-0.9000 F2750
G1 X162.7859 Y800.5495 Z10.0000 F9999
G1 X126.9877 Y848.0541 Z10.0000 F9999
G1 X126.9877 Y848.0541 Z-0.9000 F2000
G1 X179.8318 Y817.6687 Z-0.9000 F2750
G1 X126.9877 Y848.0541 Z-0.9000 F2750
G1 X126.9877 Y848.0541 Z10.0000 F9999
G1 X154.6758 Y863.5586 Z10.0000 F9999
G1 X154.6758 Y863.5586 Z-0.9000 F2000
G1 X154.6758 Y877.9990 Z-0.9000 F2750
G1 X154.6758 Y863.5586 Z-0.9000 F2750
G1 X136.3822 Y863.5586 Z-0.9000 F2750
G1 X136.3822 Y878.6779 Z-0.9000 F2750
G1 X136.3822 Y863.5586 Z-0.9000 F2750
G1 X177.4831 Y863.5586 Z-0.9000 F2750
G1 X177.4831 Y863.5586 Z10.0000 F9999
G1 X136.3822 Y905.2467 Z10.0000 F9999
G1 X136.3822 Y905.2467 Z-0.9000 F2000
G1 X152.3455 Y893.9440 Z-0.9000 F2750
G1 X154.3074 Y892.5574 Z-0.9000 F2750
G1 X156.3088 Y891.2284 Z-0.9000 F2750
G1 X163.5198 Y889.3018 Z-0.9000 F2750
G1 X168.9510 Y890.4027 Z-0.9000 F2750
G1 X173.3731 Y893.3568 Z-0.9000 F2750
G1 X176.3822 Y897.7238 Z-0.9000 F2750
G1 X177.4831 Y903.1183 Z-0.9000 F2750
G1 X176.3822 Y908.5128 Z-0.9000 F2750
G1 X173.3731 Y912.9531 Z-0.9000 F2750
G1 X168.9510 Y915.9440 Z-0.9000 F2750
G1 X163.5198 Y917.0449 Z-0.9000 F2750
G1 X158.1070 Y915.9440 Z-0.9000 F2750
G1 X153.6850 Y912.9531 Z-0.9000 F2750
G1 X150.7125 Y908.5128 Z-0.9000 F2750
G1 X149.6116 Y903.1183 Z-0.9000 F2750
G1 X151.4648 Y896.2008 Z-0.9000 F2750
G1 X156.3088 Y891.2284 Z-0.9000 F2750
G1 X151.4648 Y896.2008 Z-0.9000 F2750
G1 X149.6116 Y903.1183 Z-0.9000 F2750
G1 X150.7125 Y908.5128 Z-0.9000 F2750
G1 X153.6850 Y912.9531 Z-0.9000 F2750
G1 X158.1070 Y915.9440 Z-0.9000 F2750
G1 X163.5198 Y917.0449 Z-0.9000 F2750
G1 X168.9510 Y915.9440 Z-0.9000 F2750
G1 X173.3731 Y912.9531 Z-0.9000 F2750
G1 X176.3822 Y908.5128 Z-0.9000 F2750
G1 X177.4831 Y903.1183 Z-0.9000 F2750
G1 X176.3822 Y897.7238 Z-0.9000 F2750
G1 X173.3731 Y893.3568 Z-0.9000 F2750
G1 X168.9510 Y890.4027 Z-0.9000 F2750
G1 X163.5198 Y889.3018 Z-0.9000 F2750
G1 X156.3088 Y891.2284 Z-0.9000 F2750
G1 X154.8593 Y892.1825 Z-0.9000 F2750
G1 X145.5749 Y898.7146 Z-0.9000 F2750
G1 X145.5749 Y898.7146 Z10.0000 F9999
G1 X592.9698 Y841.9772 Z10.0000 F9999
G1 X592.9698 Y841.9772 Z-0.9000 F2000
G1 X634.0707 Y858.0323 Z-0.9000 F2750
G1 X592.9698 Y841.9772 Z-0.9000 F2750
G1 X634.0707 Y825.9589 Z-0.9000 F2750
G1 X634.0707 Y825.9589 Z10.0000 F9999
G1 X619.3735 Y852.2892 Z10.0000 F9999
G1 X619.3735 Y852.2892 Z-0.9000 F2000
G1 X619.3735 Y831.5919 Z-0.9000 F2750
G1 X619.3735 Y852.2892 Z-0.9000 F2750
G1 X619.3735 Y852.2892 Z10.0000 F9999
G1 X628.3827 Y905.3167 Z10.0000 F9999
G1 X628.3827 Y905.3167 Z-0.9000 F2000
G1 X632.5478 Y898.6928 Z-0.9000 F2750
G1 X634.0707 Y890.7112 Z-0.9000 F2750
G1 X632.4377 Y882.4359 Z-0.9000 F2750
G1 X628.0157 Y875.6653 Z-0.9000 F2750
G1 X621.4836 Y871.0965 Z-0.9000 F2750
G1 X613.4836 Y869.4084 Z-0.9000 F2750
G1 X605.5386 Y871.0965 Z-0.9000 F2750
G1 X599.0249 Y875.6653 Z-0.9000 F2750
G1 X594.6028 Y882.4359 Z-0.9000 F2750
G1 X592.9698 Y890.7112 Z-0.9000 F2750
G1 X594.3827 Y898.4910 Z-0.9000 F2750
G1 X598.3276 Y905.0415 Z-0.9000 F2750
G1 X594.3827 Y898.4910 Z-0.9000 F2750
G1 X592.9698 Y890.7112 Z-0.9000 F2750
G1 X594.6028 Y882.4359 Z-0.9000 F2750
G1 X599.0249 Y875.6653 Z-0.9000 F2750
G1 X605.5386 Y871.0965 Z-0.9000 F2750
G1 X613.4836 Y869.4084 Z-0.9000 F2750
G1 X621.4836 Y871.0965 Z-0.9000 F2750
G1 X628.0157 Y875.6653 Z-0.9000 F2750
G1 X632.4377 Y882.4359 Z-0.9000 F2750
G1 X634.0707 Y890.7112 Z-0.9000 F2750
G1 X632.5478 Y898.6928 Z-0.9000 F2750
G1 X632.5478 Y898.6928 Z10.0000 F9999
G1 X634.0707 Y921.1699 Z10.0000 F9999
G1 X634.0707 Y921.1699 Z-0.9000 F2000
G1 X611.2634 Y921.1699 Z-0.9000 F2750
G1 X611.2634 Y937.6286 Z-0.9000 F2750
G1 X611.2634 Y921.1699 Z-0.9000 F2750
G1 X592.9698 Y921.1699 Z-0.9000 F2750
G1 X592.9698 Y938.9314 Z-0.9000 F2750
G1 X592.9698 Y921.1699 Z-0.9000 F2750
G1 X634.0707 Y921.1699 Z-0.9000 F2750
G1 X634.0707 Y938.9314 Z-0.9000 F2750
G1 X634.0707 Y938.9314 Z10.0000 F9999
G1 X634.0707 Y954.0506 Z10.0000 F9999
G1 X634.0707 Y954.0506 Z-0.9000 F2000
G1 X592.9698 Y954.0506 Z-0.9000 F2750
G1 X592.9698 Y961.2066 Z-0.9000 F2750
G1 X593.5753 Y965.0782 Z-0.9000 F2750
G1 X595.3918 Y968.2892 Z-0.9000 F2750
G1 X598.5478 Y970.5093 Z-0.9000 F2750
G1 X603.1900 Y971.3534 Z-0.9000 F2750
G1 X607.8689 Y970.1974 Z-0.9000 F2750
G1 X611.1900 Y967.4268 Z-0.9000 F2750
G1 X613.1533 Y964.1057 Z-0.9000 F2750
G1 X613.8138 Y961.2066 Z-0.9000 F2750
G1 X613.8138 Y954.0506 Z-0.9000 F2750
G1 X613.8138 Y961.2066 Z-0.9000 F2750
G1 X613.1533 Y964.1057 Z-0.9000 F2750
G1 X611.1900 Y967.4268 Z-0.9000 F2750
G1 X607.8689 Y970.1974 Z-0.9000 F2750
G1 X603.1900 Y971.3534 Z-0.9000 F2750
G1 X598.5478 Y970.5093 Z-0.9000 F2750
G1 X595.3918 Y968.2892 Z-0.9000 F2750
G1 X593.5753 Y965.0782 Z-0.9000 F2750
G1 X592.9698 Y961.2066 Z-0.9000 F2750
G1 X592.9698 Y954.0506 Z-0.9000 F2750
G1 X592.9698 Y954.0506 Z10.0000 F9999
G1 X634.0707 Y971.4635 Z10.0000 F9999
G1 X634.0707 Y971.4635 Z-0.9000 F2000
G1 X613.9239 Y958.2341 Z-0.9000 F2750
G1 X634.0707 Y971.4635 Z-0.9000 F2750
G1 X634.0707 Y971.4635 Z10.0000 F9999
G1 X611.2634 Y1028.0323 Z10.0000 F9999
G1 X611.2634 Y1028.0323 Z-0.9000 F2000
G1 X611.2634 Y1042.4726 Z-0.9000 F2750
G1 X611.2634 Y1028.0323 Z-0.9000 F2750
G1 X592.9698 Y1028.0323 Z-0.9000 F2750
G1 X592.9698 Y1043.1515 Z-0.9000 F2750
G1 X592.9698 Y1028.0323 Z-0.9000 F2750
G1 X634.0707 Y1028.0323 Z-0.9000 F2750
G1 X634.0707 Y1028.0323 Z10.0000 F9999
G1 X583.5753 Y1012.5277 Z10.0000 F9999
G1 X583.5753 Y1012.5277 Z-0.9000 F2000
G1 X636.4194 Y982.1424 Z-0.9000 F2750
G1 X583.5753 Y1012.5277 Z-0.9000 F2750
G1 X583.5753 Y1012.5277 Z10.0000 F9999
G1 X592.9698 Y796.6928 Z10.0000 F9999
G1 X592.9698 Y796.6928 Z-0.9000 F2000
G1 X592.9698 Y803.1148 Z-0.9000 F2750
G1 X595.5386 Y811.7387 Z-0.9000 F2750
G1 X603.1349 Y814.7295 Z-0.9000 F2750
G1 X611.0065 Y811.6470 Z-0.9000 F2750
G1 X613.8322 Y803.4084 Z-0.9000 F2750
G1 X613.8322 Y796.6928 Z-0.9000 F2750
G1 X613.8322 Y803.4084 Z-0.9000 F2750
G1 X611.0065 Y811.6470 Z-0.9000 F2750
G1 X603.1349 Y814.7295 Z-0.9000 F2750
G1 X595.5386 Y811.7387 Z-0.9000 F2750
G1 X592.9698 Y803.1148 Z-0.9000 F2750
G1 X592.9698 Y796.6928 Z-0.9000 F2750
G1 X634.0707 Y796.6928 Z-0.9000 F2750
G1 X634.0707 Y796.6928 Z10.0000 F9999
G1 X627.2450 Y756.6745 Z10.0000 F9999
G1 X627.2450 Y756.6745 Z-0.9000 F2000
G1 X630.2909 Y758.6194 Z-0.9000 F2750
G1 X632.3460 Y761.0415 Z-0.9000 F2750
G1 X633.5937 Y764.1607 Z-0.9000 F2750
G1 X634.0707 Y768.2892 Z-0.9000 F2750
G1 X633.6120 Y772.7846 Z-0.9000 F2750
G1 X631.8689 Y776.6011 Z-0.9000 F2750
G1 X628.8781 Y779.2800 Z-0.9000 F2750
G1 X624.7129 Y780.3993 Z-0.9000 F2750
G1 X620.7129 Y779.8671 Z-0.9000 F2750
G1 X618.0340 Y778.3259 Z-0.9000 F2750
G1 X616.3460 Y776.2892 Z-0.9000 F2750
G1 X615.2450 Y774.3809 Z-0.9000 F2750
G1 X610.5111 Y765.1882 Z-0.9000 F2750
G1 X609.0983 Y762.8213 Z-0.9000 F2750
G1 X607.4469 Y760.9681 Z-0.9000 F2750
G1 X605.2634 Y759.7204 Z-0.9000 F2750
G1 X602.3827 Y759.2066 Z-0.9000 F2750
G1 X599.0983 Y759.7387 Z-0.9000 F2750
G1 X596.0707 Y761.5736 Z-0.9000 F2750
G1 X593.8505 Y764.7112 Z-0.9000 F2750
G1 X592.9698 Y769.0782 Z-0.9000 F2750
G1 X593.6487 Y773.3350 Z-0.9000 F2750
G1 X595.1166 Y776.1791 Z-0.9000 F2750
G1 X597.2634 Y778.2708 Z-0.9000 F2750
G1 X595.1166 Y776.1791 Z-0.9000 F2750
G1 X593.6487 Y773.3350 Z-0.9000 F2750
G1 X592.9698 Y769.0782 Z-0.9000 F2750
G1 X593.8505 Y764.7112 Z-0.9000 F2750
G1 X596.0707 Y761.5736 Z-0.9000 F2750
G1 X599.0983 Y759.7387 Z-0.9000 F2750
G1 X602.3827 Y759.2066 Z-0.9000 F2750
G1 X605.2634 Y759.7204 Z-0.9000 F2750
G1 X607.4469 Y760.9681 Z-0.9000 F2750
G1 X609.0983 Y762.8213 Z-0.9000 F2750
G1 X610.5111 Y765.1882 Z-0.9000 F2750
G1 X615.2450 Y774.3809 Z-0.9000 F2750
G1 X616.3460 Y776.2892 Z-0.9000 F2750
G1 X618.0340 Y778.3259 Z-0.9000 F2750
G1 X620.7129 Y779.8671 Z-0.9000 F2750
G1 X624.7129 Y780.3993 Z-0.9000 F2750
G1 X628.8781 Y779.2800 Z-0.9000 F2750
G1 X631.8689 Y776.6011 Z-0.9000 F2750
G1 X633.6120 Y772.7846 Z-0.9000 F2750
G1 X634.0707 Y768.2892 Z-0.9000 F2750
G1 X633.5937 Y764.1607 Z-0.9000 F2750
G1 X632.3460 Y761.0415 Z-0.9000 F2750
G1 X630.2909 Y758.6194 Z-0.9000 F2750
G1 X630.2909 Y758.6194 Z10.0000 F9999
G1 X1045.0825 Y1250.6318 Z10.0000 F9999
G1 X1045.0825 Y1250.6318 Z-0.9000 F2000
G1 X1029.1192 Y1261.9346 Z-0.9000 F2750
G1 X1027.1573 Y1263.3212 Z-0.9000 F2750
G1 X1025.1559 Y1264.6502 Z-0.9000 F2750
G1 X1017.9449 Y1266.5768 Z-0.9000 F2750
G1 X1012.5137 Y1265.4759 Z-0.9000 F2750
G1 X1008.0917 Y1262.5217 Z-0.9000 F2750
G1 X1005.0825 Y1258.1548 Z-0.9000 F2750
G1 X1003.9816 Y1252.7603 Z-0.9000 F2750
G1 X1005.0825 Y1247.3658 Z-0.9000 F2750
G1 X1008.0917 Y1242.9254 Z-0.9000 F2750
G1 X1012.5137 Y1239.9346 Z-0.9000 F2750
G1 X1017.9449 Y1238.8337 Z-0.9000 F2750
G1 X1023.3577 Y1239.9346 Z-0.9000 F2750
G1 X1027.7798 Y1242.9254 Z-0.9000 F2750
G1 X1030.7522 Y1247.3658 Z-0.9000 F2750
G1 X1031.8531 Y1252.7603 Z-0.9000 F2750
G1 X1029.9999 Y1259.6777 Z-0.9000 F2750
G1 X1025.1559 Y1264.6502 Z-0.9000 F2750
G1 X1029.9999 Y1259.6777 Z-0.9000 F2750
G1 X1031.8531 Y1252.7603 Z-0.9000 F2750
G1 X1030.7522 Y1247.3658 Z-0.9000 F2750
G1 X1027.7798 Y1242.9254 Z-0.9000 F2750
G1 X1023.3577 Y1239.9346 Z-0.9000 F2750
G1 X1017.9449 Y1238.8337 Z-0.9000 F2750
G1 X1012.5137 Y1239.9346 Z-0.9000 F2750
G1 X1008.0917 Y1242.9254 Z-0.9000 F2750
G1 X1005.0825 Y1247.3658 Z-0.9000 F2750
G1 X1003.9816 Y1252.7603 Z-0.9000 F2750
G1 X1005.0825 Y1258.1548 Z-0.9000 F2750
G1 X1008.0917 Y1262.5217 Z-0.9000 F2750
G1 X1012.5137 Y1265.4759 Z-0.9000 F2750
G1 X1017.9449 Y1266.5768 Z-0.9000 F2750
G1 X1025.1559 Y1264.6502 Z-0.9000 F2750
G1 X1026.6054 Y1263.6961 Z-0.9000 F2750
G1 X1035.8898 Y1257.1639 Z-0.9000 F2750
G1 X1035.8898 Y1257.1639 Z10.0000 F9999
G1 X1026.7889 Y1292.3199 Z10.0000 F9999
G1 X1026.7889 Y1292.3199 Z-0.9000 F2000
G1 X1026.7889 Y1277.8795 Z-0.9000 F2750
G1 X1026.7889 Y1292.3199 Z-0.9000 F2750
G1 X1045.0825 Y1292.3199 Z-0.9000 F2750
G1 X1045.0825 Y1277.2006 Z-0.9000 F2750
G1 X1045.0825 Y1292.3199 Z-0.9000 F2750
G1 X1003.9816 Y1292.3199 Z-0.9000 F2750
G1 X1003.9816 Y1292.3199 Z10.0000 F9999
G1 X1054.4770 Y1307.8245 Z10.0000 F9999
G1 X1054.4770 Y1307.8245 Z-0.9000 F2000
G1 X1001.6330 Y1338.2098 Z-0.9000 F2750
G1 X1054.4770 Y1307.8245 Z-0.9000 F2750
G1 X1054.4770 Y1307.8245 Z10.0000 F9999
G1 X1045.0825 Y1365.6410 Z10.0000 F9999
G1 X1045.0825 Y1365.6410 Z-0.9000 F2000
G1 X1003.9816 Y1349.5860 Z-0.9000 F2750
G1 X1045.0825 Y1365.6410 Z-0.9000 F2750
G1 X1003.9816 Y1381.6594 Z-0.9000 F2750
G1 X1003.9816 Y1381.6594 Z10.0000 F9999
G1 X1028.6421 Y1392.3383 Z10.0000 F9999
G1 X1028.6421 Y1392.3383 Z-0.9000 F2000
G1 X1028.6421 Y1421.5860 Z-0.9000 F2750
G1 X1028.6421 Y1392.3383 Z-0.9000 F2750
G1 X1028.6421 Y1392.3383 Z10.0000 F9999
G1 X1018.6788 Y1355.3291 Z10.0000 F9999
G1 X1018.6788 Y1355.3291 Z-0.9000 F2000
G1 X1018.6788 Y1376.0263 Z-0.9000 F2750
G1 X1018.6788 Y1355.3291 Z-0.9000 F2750
G1 X1018.6788 Y1355.3291 Z10.0000 F9999
G1 X1018.6788 Y1438.7052 Z10.0000 F9999
G1 X1018.6788 Y1438.7052 Z-0.9000 F2000
G1 X1018.6788 Y1459.4025 Z-0.9000 F2750
G1 X1018.6788 Y1438.7052 Z-0.9000 F2750
G1 X1018.6788 Y1438.7052 Z10.0000 F9999
G1 X1045.0825 Y1449.0172 Z10.0000 F9999
G1 X1045.0825 Y1449.0172 Z-0.9000 F2000
G1 X1003.9816 Y1432.9621 Z-0.9000 F2750
G1 X1045.0825 Y1449.0172 Z-0.9000 F2750
G1 X1003.9816 Y1465.0355 Z-0.9000 F2750
G1 X1003.9816 Y1465.0355 Z10.0000 F9999
G1 X1003.9816 Y1475.7144 Z10.0000 F9999
G1 X1003.9816 Y1475.7144 Z-0.9000 F2000
G1 X1024.1284 Y1488.9438 Z-0.9000 F2750
G1 X1003.9816 Y1475.7144 Z-0.9000 F2750
G1 X1003.9816 Y1475.7144 Z10.0000 F9999
G1 X1003.9816 Y1493.1273 Z10.0000 F9999
G1 X1003.9816 Y1493.1273 Z-0.9000 F2000
G1 X1045.0825 Y1493.1273 Z-0.9000 F2750
G1 X1045.0825 Y1485.9713 Z-0.9000 F2750
G1 X1044.4770 Y1482.0997 Z-0.9000 F2750
G1 X1042.6605 Y1478.8887 Z-0.9000 F2750
G1 X1039.5045 Y1476.6685 Z-0.9000 F2750
G1 X1034.8623 Y1475.8245 Z-0.9000 F2750
G1 X1030.1834 Y1476.9805 Z-0.9000 F2750
G1 X1026.8623 Y1479.7511 Z-0.9000 F2750
G1 X1024.8990 Y1483.0722 Z-0.9000 F2750
G1 X1024.2385 Y1485.9713 Z-0.9000 F2750
G1 X1024.2385 Y1493.1273 Z-0.9000 F2750
G1 X1024.2385 Y1485.9713 Z-0.9000 F2750
G1 X1024.8990 Y1483.0722 Z-0.9000 F2750
G1 X1026.8623 Y1479.7511 Z-0.9000 F2750
G1 X1030.1834 Y1476.9805 Z-0.9000 F2750
G1 X1034.8623 Y1475.8245 Z-0.9000 F2750
G1 X1039.5045 Y1476.6685 Z-0.9000 F2750
G1 X1042.6605 Y1478.8887 Z-0.9000 F2750
G1 X1044.4770 Y1482.0997 Z-0.9000 F2750
G1 X1045.0825 Y1485.9713 Z-0.9000 F2750
G1 X1045.0825 Y1493.1273 Z-0.9000 F2750
G1 X1045.0825 Y1493.1273 Z10.0000 F9999
G1 X1026.7889 Y1523.6594 Z10.0000 F9999
G1 X1026.7889 Y1523.6594 Z-0.9000 F2000
G1 X1026.7889 Y1509.2190 Z-0.9000 F2750
G1 X1026.7889 Y1523.6594 Z-0.9000 F2750
G1 X1045.0825 Y1523.6594 Z-0.9000 F2750
G1 X1045.0825 Y1508.5401 Z-0.9000 F2750
G1 X1045.0825 Y1523.6594 Z-0.9000 F2750
G1 X1003.9816 Y1523.6594 Z-0.9000 F2750
G1 X1003.9816 Y1523.6594 Z10.0000 F9999
G1 X751.2635 Y1539.9745 Z10.0000 F9999
G1 X751.2635 Y1539.9745 Z-0.9000 F2000
G1 X754.3094 Y1541.9195 Z-0.9000 F2750
G1 X756.3644 Y1544.3415 Z-0.9000 F2750
G1 X757.6121 Y1547.4608 Z-0.9000 F2750
G1 X758.0892 Y1551.5892 Z-0.9000 F2750
G1 X757.6305 Y1556.0846 Z-0.9000 F2750
G1 X755.8874 Y1559.9012 Z-0.9000 F2750
G1 X752.8965 Y1562.5801 Z-0.9000 F2750
G1 X748.7314 Y1563.6993 Z-0.9000 F2750
G1 X744.7314 Y1563.1672 Z-0.9000 F2750
G1 X742.0525 Y1561.6259 Z-0.9000 F2750
G1 X740.3644 Y1559.5892 Z-0.9000 F2750
G1 X739.2635 Y1557.6810 Z-0.9000 F2750
G1 X734.5296 Y1548.4883 Z-0.9000 F2750
G1 X733.1167 Y1546.1213 Z-0.9000 F2750
G1 X731.4653 Y1544.2681 Z-0.9000 F2750
G1 X729.2819 Y1543.0204 Z-0.9000 F2750
G1 X726.4011 Y1542.5067 Z-0.9000 F2750
G1 X723.1167 Y1543.0388 Z-0.9000 F2750
G1 X720.0892 Y1544.8736 Z-0.9000 F2750
G1 X717.8690 Y1548.0112 Z-0.9000 F2750
G1 X716.9883 Y1552.3782 Z-0.9000 F2750
G1 X717.6672 Y1556.6351 Z-0.9000 F2750
G1 X719.1351 Y1559.4791 Z-0.9000 F2750
G1 X721.2819 Y1561.5709 Z-0.9000 F2750
G1 X719.1351 Y1559.4791 Z-0.9000 F2750
G1 X717.6672 Y1556.6351 Z-0.9000 F2750
G1 X716.9883 Y1552.3782 Z-0.9000 F2750
G1 X717.8690 Y1548.0112 Z-0.9000 F2750
G1 X720.0892 Y1544.8736 Z-0.9000 F2750
G1 X723.1167 Y1543.0388 Z-0.9000 F2750
G1 X726.4011 Y1542.5067 Z-0.9000 F2750
G1 X729.2819 Y1543.0204 Z-0.9000 F2750
G1 X731.4653 Y1544.2681 Z-0.9000 F2750
G1 X733.1167 Y1546.1213 Z-0.9000 F2750
G1 X734.5296 Y1548.4883 Z-0.9000 F2750
G1 X739.2635 Y1557.6810 Z-0.9000 F2750
G1 X740.3644 Y1559.5892 Z-0.9000 F2750
G1 X742.0525 Y1561.6259 Z-0.9000 F2750
G1 X744.7314 Y1563.1672 Z-0.9000 F2750
G1 X748.7314 Y1563.6993 Z-0.9000 F2750
G1 X752.8965 Y1562.5801 Z-0.9000 F2750
G1 X755.8874 Y1559.9012 Z-0.9000 F2750
G1 X757.6305 Y1556.0846 Z-0.9000 F2750
G1 X758.0892 Y1551.5892 Z-0.9000 F2750
G1 X757.6121 Y1547.4608 Z-0.9000 F2750
G1 X756.3644 Y1544.3415 Z-0.9000 F2750
G1 X754.3094 Y1541.9195 Z-0.9000 F2750
G1 X754.3094 Y1541.9195 Z10.0000 F9999
G1 X751.2635 Y1616.3048 Z10.0000 F9999
G1 X751.2635 Y1616.3048 Z-0.9000 F2000
G1 X754.3094 Y1618.2498 Z-0.9000 F2750
G1 X756.3644 Y1620.6718 Z-0.9000 F2750
G1 X757.6121 Y1623.7911 Z-0.9000 F2750
G1 X758.0892 Y1627.9195 Z-0.9000 F2750
G1 X757.6305 Y1632.4149 Z-0.9000 F2750
G1 X755.8874 Y1636.2314 Z-0.9000 F2750
G1 X752.8965 Y1638.9103 Z-0.9000 F2750
G1 X748.7314 Y1640.0296 Z-0.9000 F2750
G1 X744.7314 Y1639.4975 Z-0.9000 F2750
G1 X742.0525 Y1637.9562 Z-0.9000 F2750
G1 X740.3644 Y1635.9195 Z-0.9000 F2750
G1 X739.2635 Y1634.0112 Z-0.9000 F2750
G1 X734.5296 Y1624.8186 Z-0.9000 F2750
G1 X733.1167 Y1622.4516 Z-0.9000 F2750
G1 X731.4653 Y1620.5984 Z-0.9000 F2750
G1 X729.2819 Y1619.3507 Z-0.9000 F2750
G1 X726.4011 Y1618.8369 Z-0.9000 F2750
G1 X723.1167 Y1619.3690 Z-0.9000 F2750
G1 X720.0892 Y1621.2039 Z-0.9000 F2750
G1 X717.8690 Y1624.3415 Z-0.9000 F2750
G1 X716.9883 Y1628.7085 Z-0.9000 F2750
G1 X717.6672 Y1632.9654 Z-0.9000 F2750
G1 X719.1351 Y1635.8094 Z-0.9000 F2750
G1 X721.2819 Y1637.9012 Z-0.9000 F2750
G1 X719.1351 Y1635.8094 Z-0.9000 F2750
G1 X717.6672 Y1632.9654 Z-0.9000 F2750
G1 X716.9883 Y1628.7085 Z-0.9000 F2750
G1 X717.8690 Y1624.3415 Z-0.9000 F2750
G1 X720.0892 Y1621.2039 Z-0.9000 F2750
G1 X723.1167 Y1619.3690 Z-0.9000 F2750
G1 X726.4011 Y1618.8369 Z-0.9000 F2750
G1 X729.2819 Y1619.3507 Z-0.9000 F2750
G1 X731.4653 Y1620.5984 Z-0.9000 F2750
G1 X733.1167 Y1622.4516 Z-0.9000 F2750
G1 X734.5296 Y1624.8186 Z-0.9000 F2750
G1 X739.2635 Y1634.0112 Z-0.9000 F2750
G1 X740.3644 Y1635.9195 Z-0.9000 F2750
G1 X742.0525 Y1637.9562 Z-0.9000 F2750
G1 X744.7314 Y1639.4975 Z-0.9000 F2750
G1 X748.7314 Y1640.0296 Z-0.9000 F2750
G1 X752.8965 Y1638.9103 Z-0.9000 F2750
G1 X755.8874 Y1636.2314 Z-0.9000 F2750
G1 X757.6305 Y1632.4149 Z-0.9000 F2750
G1 X758.0892 Y1627.9195 Z-0.9000 F2750
G1 X757.6121 Y1623.7911 Z-0.9000 F2750
G1 X756.3644 Y1620.6718 Z-0.9000 F2750
G1 X754.3094 Y1618.2498 Z-0.9000 F2750
G1 X754.3094 Y1618.2498 Z10.0000 F9999
G1 X707.5938 Y1605.5892 Z10.0000 F9999
G1 X707.5938 Y1605.5892 Z-0.9000 F2000
G1 X760.4378 Y1575.2039 Z-0.9000 F2750
G1 X707.5938 Y1605.5892 Z-0.9000 F2750
G1 X707.5938 Y1605.5892 Z10.0000 F9999
G1 X484.6860 Y1530.5143 Z10.0000 F9999
G1 X484.6860 Y1530.5143 Z-0.9000 F2000
G1 X488.2151 Y1529.7358 Z-0.9000 F2750
G1 X491.3808 Y1529.9953 Z-0.9000 F2750
G1 X494.4687 Y1531.3187 Z-0.9000 F2750
G1 X497.7253 Y1533.9006 Z-0.9000 F2750
G1 X500.5797 Y1537.4037 Z-0.9000 F2750
G1 X502.0458 Y1541.3349 Z-0.9000 F2750
G1 X501.8253 Y1545.3440 Z-0.9000 F2750
G1 X499.6715 Y1549.0807 Z-0.9000 F2750
G1 X496.4668 Y1551.5329 Z-0.9000 F2750
G1 X493.4827 Y1552.3373 Z-0.9000 F2750
G1 X490.8489 Y1552.0908 Z-0.9000 F2750
G1 X488.7211 Y1551.5199 Z-0.9000 F2750
G1 X478.8735 Y1548.3671 Z-0.9000 F2750
G1 X476.2007 Y1547.6924 Z-0.9000 F2750
G1 X473.7226 Y1547.5497 Z-0.9000 F2750
G1 X471.2964 Y1548.2114 Z-0.9000 F2750
G1 X468.8961 Y1549.8851 Z-0.9000 F2750
G1 X466.9500 Y1552.5838 Z-0.9000 F2750
G1 X466.1066 Y1556.0220 Z-0.9000 F2750
G1 X466.7554 Y1559.8105 Z-0.9000 F2750
G1 X469.2205 Y1563.5212 Z-0.9000 F2750
G1 X472.7106 Y1566.0512 Z-0.9000 F2750
G1 X475.7596 Y1567.0243 Z-0.9000 F2750
G1 X478.7567 Y1566.9854 Z-0.9000 F2750
G1 X475.7596 Y1567.0243 Z-0.9000 F2750
G1 X472.7106 Y1566.0512 Z-0.9000 F2750
G1 X469.2205 Y1563.5212 Z-0.9000 F2750
G1 X466.7554 Y1559.8105 Z-0.9000 F2750
G1 X466.1066 Y1556.0220 Z-0.9000 F2750
G1 X466.9500 Y1552.5838 Z-0.9000 F2750
G1 X468.8961 Y1549.8851 Z-0.9000 F2750
G1 X471.2964 Y1548.2114 Z-0.9000 F2750
G1 X473.7226 Y1547.5497 Z-0.9000 F2750
G1 X476.2007 Y1547.6924 Z-0.9000 F2750
G1 X478.8735 Y1548.3671 Z-0.9000 F2750
G1 X488.7211 Y1551.5199 Z-0.9000 F2750
G1 X490.8489 Y1552.0908 Z-0.9000 F2750
G1 X493.4827 Y1552.3373 Z-0.9000 F2750
G1 X496.4668 Y1551.5329 Z-0.9000 F2750
G1 X499.6715 Y1549.0807 Z-0.9000 F2750
G1 X501.8253 Y1545.3440 Z-0.9000 F2750
G1 X502.0458 Y1541.3349 Z-0.9000 F2750
G1 X500.5797 Y1537.4037 Z-0.9000 F2750
G1 X497.7253 Y1533.9006 Z-0.9000 F2750
G1 X494.4687 Y1531.3187 Z-0.9000 F2750
G1 X491.3808 Y1529.9953 Z-0.9000 F2750
G1 X488.2151 Y1529.7358 Z-0.9000 F2750
G1 X488.2151 Y1529.7358 Z10.0000 F9999
G1 X446.2298 Y1553.8164 Z10.0000 F9999
G1 X446.2298 Y1553.8164 Z-0.9000 F2000
G1 X462.1105 Y1494.9643 Z-0.9000 F2750
G1 X446.2298 Y1553.8164 Z-0.9000 F2750
G1 X446.2298 Y1553.8164 Z10.0000 F9999
G1 X430.7124 Y1476.5406 Z10.0000 F9999
G1 X430.7124 Y1476.5406 Z-0.9000 F2000
G1 X434.2414 Y1475.7621 Z-0.9000 F2750
G1 X437.4072 Y1476.0216 Z-0.9000 F2750
G1 X440.4951 Y1477.3450 Z-0.9000 F2750
G1 X443.7517 Y1479.9269 Z-0.9000 F2750
G1 X446.6061 Y1483.4300 Z-0.9000 F2750
G1 X448.0722 Y1487.3613 Z-0.9000 F2750
G1 X447.8516 Y1491.3704 Z-0.9000 F2750
G1 X445.6978 Y1495.1070 Z-0.9000 F2750
G1 X442.4932 Y1497.5592 Z-0.9000 F2750
G1 X439.5090 Y1498.3636 Z-0.9000 F2750
G1 X436.8752 Y1498.1171 Z-0.9000 F2750
G1 X434.7474 Y1497.5462 Z-0.9000 F2750
G1 X424.8998 Y1494.3934 Z-0.9000 F2750
G1 X422.2271 Y1493.7188 Z-0.9000 F2750
G1 X419.7490 Y1493.5760 Z-0.9000 F2750
G1 X417.3227 Y1494.2377 Z-0.9000 F2750
G1 X414.9225 Y1495.9114 Z-0.9000 F2750
G1 X412.9763 Y1498.6101 Z-0.9000 F2750
G1 X412.1330 Y1502.0484 Z-0.9000 F2750
G1 X412.7817 Y1505.8369 Z-0.9000 F2750
G1 X415.2468 Y1509.5476 Z-0.9000 F2750
G1 X418.7370 Y1512.0776 Z-0.9000 F2750
G1 X421.7860 Y1513.0507 Z-0.9000 F2750
G1 X424.7830 Y1513.0118 Z-0.9000 F2750
G1 X421.7860 Y1513.0507 Z-0.9000 F2750
G1 X418.7370 Y1512.0776 Z-0.9000 F2750
G1 X415.2468 Y1509.5476 Z-0.9000 F2750
G1 X412.7817 Y1505.8369 Z-0.9000 F2750
G1 X412.1330 Y1502.0484 Z-0.9000 F2750
G1 X412.9763 Y1498.6101 Z-0.9000 F2750
G1 X414.9225 Y1495.9114 Z-0.9000 F2750
G1 X417.3227 Y1494.2377 Z-0.9000 F2750
G1 X419.7490 Y1493.5760 Z-0.9000 F2750
G1 X422.2271 Y1493.7188 Z-0.9000 F2750
G1 X424.8998 Y1494.3934 Z-0.9000 F2750
G1 X434.7474 Y1497.5462 Z-0.9000 F2750
G1 X436.8752 Y1498.1171 Z-0.9000 F2750
G1 X439.5090 Y1498.3636 Z-0.9000 F2750
G1 X442.4932 Y1497.5592 Z-0.9000 F2750
G1 X445.6978 Y1495.1070 Z-0.9000 F2750
G1 X447.8516 Y1491.3704 Z-0.9000 F2750
G1 X448.0722 Y1487.3613 Z-0.9000 F2750
G1 X446.6061 Y1483.4300 Z-0.9000 F2750
G1 X443.7517 Y1479.9269 Z-0.9000 F2750
G1 X440.4951 Y1477.3450 Z-0.9000 F2750
G1 X437.4072 Y1476.0216 Z-0.9000 F2750
G1 X434.2414 Y1475.7621 Z-0.9000 F2750
G1 X434.2414 Y1475.7621 Z10.0000 F9999
G1 X490.7922 Y2197.7137 Z10.0000 F9999
G1 X490.7922 Y2197.7137 Z-0.9000 F2000
G1 X521.1776 Y2250.5577 Z-0.9000 F2750
G1 X490.7922 Y2197.7137 Z-0.9000 F2750
G1 X490.7922 Y2197.7137 Z10.0000 F9999
G1 X475.2877 Y2225.4017 Z10.0000 F9999
G1 X475.2877 Y2225.4017 Z-0.9000 F2000
G1 X460.8473 Y2225.4017 Z-0.9000 F2750
G1 X475.2877 Y2225.4017 Z-0.9000 F2750
G1 X475.2877 Y2207.1082 Z-0.9000 F2750
G1 X460.1684 Y2207.1082 Z-0.9000 F2750
G1 X475.2877 Y2207.1082 Z-0.9000 F2750
G1 X475.2877 Y2248.2091 Z-0.9000 F2750
G1 X475.2877 Y2248.2091 Z10.0000 F9999
G1 X531.8565 Y2248.2091 Z10.0000 F9999
G1 X531.8565 Y2248.2091 Z-0.9000 F2000
G1 X545.0858 Y2228.0623 Z-0.9000 F2750
G1 X531.8565 Y2248.2091 Z-0.9000 F2750
G1 X531.8565 Y2248.2091 Z10.0000 F9999
G1 X549.2693 Y2248.2091 Z10.0000 F9999
G1 X549.2693 Y2248.2091 Z-0.9000 F2000
G1 X549.2693 Y2207.1082 Z-0.9000 F2750
G1 X542.1133 Y2207.1082 Z-0.9000 F2750
G1 X538.2418 Y2207.7137 Z-0.9000 F2750
G1 X535.0308 Y2209.5302 Z-0.9000 F2750
G1 X532.8106 Y2212.6861 Z-0.9000 F2750
G1 X531.9666 Y2217.3283 Z-0.9000 F2750
G1 X533.1225 Y2222.0072 Z-0.9000 F2750
G1 X535.8932 Y2225.3283 Z-0.9000 F2750
G1 X539.2143 Y2227.2916 Z-0.9000 F2750
G1 X542.1133 Y2227.9522 Z-0.9000 F2750
G1 X549.2693 Y2227.9522 Z-0.9000 F2750
G1 X542.1133 Y2227.9522 Z-0.9000 F2750
G1 X539.2143 Y2227.2916 Z-0.9000 F2750
G1 X535.8932 Y2225.3283 Z-0.9000 F2750
G1 X533.1225 Y2222.0072 Z-0.9000 F2750
G1 X531.9666 Y2217.3283 Z-0.9000 F2750
G1 X532.8106 Y2212.6861 Z-0.9000 F2750
G1 X535.0308 Y2209.5302 Z-0.9000 F2750
G1 X538.2418 Y2207.7137 Z-0.9000 F2750
G1 X542.1133 Y2207.1082 Z-0.9000 F2750
G1 X549.2693 Y2207.1082 Z-0.9000 F2750
G1 X549.2693 Y2207.1082 Z10.0000 F9999
G1 X582.1500 Y2248.2091 Z10.0000 F9999
G1 X582.1500 Y2248.2091 Z-0.9000 F2000
G1 X582.1500 Y2225.4017 Z-0.9000 F2750
G1 X565.6913 Y2225.4017 Z-0.9000 F2750
G1 X582.1500 Y2225.4017 Z-0.9000 F2750
G1 X582.1500 Y2207.1082 Z-0.9000 F2750
G1 X564.3886 Y2207.1082 Z-0.9000 F2750
G1 X582.1500 Y2207.1082 Z-0.9000 F2750
G1 X582.1500 Y2248.2091 Z-0.9000 F2750
G1 X564.3886 Y2248.2091 Z-0.9000 F2750
G1 X564.3886 Y2248.2091 Z10.0000 F9999
G1 X598.0033 Y2242.5210 Z10.0000 F9999
G1 X598.0033 Y2242.5210 Z-0.9000 F2000
G1 X604.6271 Y2246.6861 Z-0.9000 F2750
G1 X612.6088 Y2248.2091 Z-0.9000 F2750
G1 X620.8840 Y2246.5760 Z-0.9000 F2750
G1 X627.6546 Y2242.1540 Z-0.9000 F2750
G1 X632.2234 Y2235.6219 Z-0.9000 F2750
G1 X633.9115 Y2227.6219 Z-0.9000 F2750
G1 X632.2234 Y2219.6770 Z-0.9000 F2750
G1 X627.6546 Y2213.1632 Z-0.9000 F2750
G1 X620.8840 Y2208.7412 Z-0.9000 F2750
G1 X612.6088 Y2207.1082 Z-0.9000 F2750
G1 X604.8289 Y2208.5210 Z-0.9000 F2750
G1 X598.2785 Y2212.4660 Z-0.9000 F2750
G1 X604.8289 Y2208.5210 Z-0.9000 F2750
G1 X612.6088 Y2207.1082 Z-0.9000 F2750
G1 X620.8840 Y2208.7412 Z-0.9000 F2750
G1 X627.6546 Y2213.1632 Z-0.9000 F2750
G1 X632.2234 Y2219.6770 Z-0.9000 F2750
G1 X633.9115 Y2227.6219 Z-0.9000 F2750
G1 X632.2234 Y2235.6219 Z-0.9000 F2750
G1 X627.6546 Y2242.1540 Z-0.9000 F2750
G1 X620.8840 Y2246.5760 Z-0.9000 F2750
G1 X612.6088 Y2248.2091 Z-0.9000 F2750
G1 X604.6271 Y2246.6861 Z-0.9000 F2750
G1 X604.6271 Y2246.6861 Z10.0000 F9999
G1 X651.0308 Y2233.5118 Z10.0000 F9999
G1 X651.0308 Y2233.5118 Z-0.9000 F2000
G1 X671.7280 Y2233.5118 Z-0.9000 F2750
G1 X651.0308 Y2233.5118 Z-0.9000 F2750
G1 X651.0308 Y2233.5118 Z10.0000 F9999
G1 X661.3427 Y2207.1082 Z10.0000 F9999
G1 X661.3427 Y2207.1082 Z-0.9000 F2000
G1 X645.2877 Y2248.2091 Z-0.9000 F2750
G1 X661.3427 Y2207.1082 Z-0.9000 F2750
G1 X677.3611 Y2248.2091 Z-0.9000 F2750
G1 X677.3611 Y2248.2091 Z10.0000 F9999
G1 X706.6271 Y2207.1082 Z10.0000 F9999
G1 X706.6271 Y2207.1082 Z-0.9000 F2000
G1 X700.2051 Y2207.1082 Z-0.9000 F2750
G1 X691.5812 Y2209.6770 Z-0.9000 F2750
G1 X688.5904 Y2217.2733 Z-0.9000 F2750
G1 X691.6730 Y2225.1449 Z-0.9000 F2750
G1 X699.9115 Y2227.9705 Z-0.9000 F2750
G1 X706.6271 Y2227.9705 Z-0.9000 F2750
G1 X699.9115 Y2227.9705 Z-0.9000 F2750
G1 X691.6730 Y2225.1449 Z-0.9000 F2750
G1 X688.5904 Y2217.2733 Z-0.9000 F2750
G1 X691.5812 Y2209.6770 Z-0.9000 F2750
G1 X700.2051 Y2207.1082 Z-0.9000 F2750
G1 X706.6271 Y2207.1082 Z-0.9000 F2750
G1 X706.6271 Y2248.2091 Z-0.9000 F2750
G1 X706.6271 Y2248.2091 Z10.0000 F9999
G1 X746.6455 Y2241.3834 Z10.0000 F9999
G1 X746.6455 Y2241.3834 Z-0.9000 F2000
G1 X744.7005 Y2244.4293 Z-0.9000 F2750
G1 X742.2785 Y2246.4843 Z-0.9000 F2750
G1 X739.1592 Y2247.7320 Z-0.9000 F2750
G1 X735.0308 Y2248.2091 Z-0.9000 F2750
G1 X730.5354 Y2247.7504 Z-0.9000 F2750
G1 X726.7188 Y2246.0072 Z-0.9000 F2750
G1 X724.0399 Y2243.0164 Z-0.9000 F2750
G1 X722.9207 Y2238.8513 Z-0.9000 F2750
G1 X723.4528 Y2234.8513 Z-0.9000 F2750
G1 X724.9941 Y2232.1724 Z-0.9000 F2750
G1 X727.0308 Y2230.4843 Z-0.9000 F2750
G1 X728.9390 Y2229.3834 Z-0.9000 F2750
G1 X738.1317 Y2224.6494 Z-0.9000 F2750
G1 X740.4987 Y2223.2366 Z-0.9000 F2750
G1 X742.3519 Y2221.5852 Z-0.9000 F2750
G1 X743.5996 Y2219.4017 Z-0.9000 F2750
G1 X744.1133 Y2216.5210 Z-0.9000 F2750
G1 X743.5812 Y2213.2366 Z-0.9000 F2750
G1 X741.7464 Y2210.2091 Z-0.9000 F2750
G1 X738.6088 Y2207.9889 Z-0.9000 F2750
G1 X734.2418 Y2207.1082 Z-0.9000 F2750
G1 X729.9849 Y2207.7871 Z-0.9000 F2750
G1 X727.1409 Y2209.2549 Z-0.9000 F2750
G1 X725.0491 Y2211.4017 Z-0.9000 F2750
G1 X727.1409 Y2209.2549 Z-0.9000 F2750
G1 X729.9849 Y2207.7871 Z-0.9000 F2750
G1 X734.2418 Y2207.1082 Z-0.9000 F2750
G1 X738.6088 Y2207.9889 Z-0.9000 F2750
G1 X741.7464 Y2210.2091 Z-0.9000 F2750
G1 X743.5812 Y2213.2366 Z-0.9000 F2750
G1 X744.1133 Y2216.5210 Z-0.9000 F2750
G1 X743.5996 Y2219.4017 Z-0.9000 F2750
G1 X742.3519 Y2221.5852 Z-0.9000 F2750
G1 X740.4987 Y2223.2366 Z-0.9000 F2750
G1 X738.1317 Y2224.6494 Z-0.9000 F2750
G1 X728.9390 Y2229.3834 Z-0.9000 F2750
G1 X727.0308 Y2230.4843 Z-0.9000 F2750
G1 X724.9941 Y2232.1724 Z-0.9000 F2750
G1 X723.4528 Y2234.8513 Z-0.9000 F2750
G1 X722.9207 Y2238.8513 Z-0.9000 F2750
G1 X724.0399 Y2243.0164 Z-0.9000 F2750
G1 X726.7188 Y2246.0072 Z-0.9000 F2750
G1 X730.5354 Y2247.7504 Z-0.9000 F2750
G1 X735.0308 Y2248.2091 Z-0.9000 F2750
G1 X739.1592 Y2247.7320 Z-0.9000 F2750
G1 X742.2785 Y2246.4843 Z-0.9000 F2750
G1 X744.7005 Y2244.4293 Z-0.9000 F2750
G1 X744.7005 Y2244.4293 Z10.0000 F9999
(Tool Number:1) (7.998 mm dia. slot drill)
M3 S19000
G1 X31.8990 Y153.9002 Z10.0000 F9999
G1 X31.8990 Y153.9002 Z1.0000 F2000
G1 X31.8990 Y184.9006 Z-6.9547 F2000
G1 X31.9010 Y178.9006 Z-8.4943 F2000
G1 X33.8718 Y178.9006 Z-9.0000 F2000
G1 X31.9010 Y178.9006 Z-9.5057 F2000
G1 X31.8990 Y184.9006 Z-11.0453 F2000
G1 X31.8990 Y153.9002 Z-19.0000 F2000
G1 X31.8990 Y184.9006 Z-19.0000 F2750
G1 X31.9010 Y178.9006 Z-19.0000 F2750
G1 X47.9010 Y178.9006 Z-19.0000 F2750
G1 X41.9010 Y178.8986 Z-19.0000 F2750
G1 X41.9010 Y126.9008 Z-19.0000 F2750
G1 X47.9010 Y126.9008 Z-19.0000 F2750
G1 X31.9010 Y126.8988 Z-19.0000 F2750
G1 X31.9010 Y120.8988 Z-19.0000 F2750
G1 X31.8918 Y137.3995 Z-19.0000 F2750
G1 X31.8990 Y153.9002 Z-19.0000 F2750
G1 X31.8990 Y153.9002 Z10.0000 F9999
G1 X152.8999 Y157.9007 Z10.0000 F9999
G1 X152.8999 Y157.9007 Z1.0000 F2000
G1 X182.8989 Y157.9007 Z-6.6977 F2000
G1 X182.8989 Y162.9007 Z-7.9807 F2000
G1 X184.9008 Y162.9007 Z-8.4944 F2000
G1 X184.9008 Y160.9304 Z-9.0000 F2000
G1 X184.9008 Y162.9007 Z-9.5056 F2000
G1 X182.8989 Y162.9007 Z-10.0193 F2000
G1 X182.8989 Y157.9007 Z-11.3023 F2000
G1 X152.8999 Y157.9007 Z-19.0000 F2000
G1 X182.8989 Y157.9007 Z-19.0000 F2750
G1 X182.8989 Y162.9007 Z-19.0000 F2750
G1 X184.9008 Y162.9007 Z-19.0000 F2750
G1 X184.9008 Y142.8987 Z-19.0000 F2750
G1 X182.8989 Y142.8987 Z-19.0000 F2750
G1 X182.8989 Y147.8987 Z-19.0000 F2750
G1 X122.9009 Y147.8987 Z-19.0000 F2750
G1 X122.9009 Y142.8987 Z-19.0000 F2750
G1 X120.8989 Y142.8987 Z-19.0000 F2750
G1 X120.8989 Y162.9007 Z-19.0000 F2750
G1 X122.9009 Y162.9007 Z-19.0000 F2750
G1 X122.9009 Y157.9007 Z-19.0000 F2750
G1 X152.8999 Y157.9007 Z-19.0000 F2750
G1 X152.8999 Y157.9007 Z10.0000 F9999
G1 X147.8989 Y243.3995 Z10.0000 F9999
G1 X147.8989 Y243.3995 Z1.0000 F2000
G1 X147.8989 Y282.3707 Z-9.0000 F2000
G1 X147.8989 Y243.3995 Z-19.0000 F2000
G1 X147.8989 Y306.8984 Z-19.0000 F2750
G1 X141.8989 Y306.9004 Z-19.0000 F2750
G1 X163.9009 Y306.8984 Z-19.0000 F2750
G1 X157.9009 Y306.8984 Z-19.0000 F2750
G1 X157.9009 Y179.9007 Z-19.0000 F2750
G1 X163.9009 Y179.9007 Z-19.0000 F2750
G1 X141.8989 Y179.8987 Z-19.0000 F2750
G1 X147.8989 Y179.9007 Z-19.0000 F2750
G1 X147.8989 Y243.3995 Z-19.0000 F2750
G1 X147.8989 Y243.3995 Z10.0000 F9999
G1 X31.8990 Y453.8996 Z10.0000 F9999
G1 X31.8990 Y453.8996 Z1.0000 F2000
G1 X31.8990 Y484.9000 Z-6.9547 F2000
G1 X31.9010 Y478.9000 Z-8.4943 F2000
G1 X33.8718 Y478.9000 Z-9.0000 F2000
G1 X31.9010 Y478.9000 Z-9.5057 F2000
G1 X31.8990 Y484.9000 Z-11.0453 F2000
G1 X31.8990 Y453.8996 Z-19.0000 F2000
G1 X31.8990 Y484.9000 Z-19.0000 F2750
G1 X31.9010 Y478.9000 Z-19.0000 F2750
G1 X47.9010 Y478.9000 Z-19.0000 F2750
G1 X41.9010 Y478.8980 Z-19.0000 F2750
G1 X41.9010 Y426.9002 Z-19.0000 F2750
G1 X47.9010 Y426.9002 Z-19.0000 F2750
G1 X31.9010 Y426.8982 Z-19.0000 F2750
G1 X31.9010 Y420.8982 Z-19.0000 F2750
G1 X31.8918 Y437.3989 Z-19.0000 F2750
G1 X31.8990 Y453.8996 Z-19.0000 F2750
G1 X31.8990 Y453.8996 Z10.0000 F9999
G1 X273.9005 Y451.8986 Z10.0000 F9999
G1 X273.9005 Y451.8986 Z1.0000 F2000
G1 X273.9005 Y420.8982 Z-6.9547 F2000
G1 X273.8985 Y426.8982 Z-8.4943 F2000
G1 X271.9277 Y426.8982 Z-9.0000 F2000
G1 X273.8985 Y426.8982 Z-9.5057 F2000
G1 X273.9005 Y420.8982 Z-11.0453 F2000
G1 X273.9005 Y451.8986 Z-19.0000 F2000
G1 X273.9005 Y420.8982 Z-19.0000 F2750
G1 X273.8985 Y426.8982 Z-19.0000 F2750
G1 X257.8985 Y426.8982 Z-19.0000 F2750
G1 X263.8985 Y426.9002 Z-19.0000 F2750
G1 X263.8985 Y478.8980 Z-19.0000 F2750
G1 X257.8985 Y478.8980 Z-19.0000 F2750
G1 X273.8985 Y478.9000 Z-19.0000 F2750
G1 X273.8985 Y484.9000 Z-19.0000 F2750
G1 X273.9077 Y468.3993 Z-19.0000 F2750
G1 X273.9005 Y451.8986 Z-19.0000 F2750
G1 X273.9005 Y451.8986 Z10.0000 F9999
G1 X453.8997 Y273.9005 Z10.0000 F9999
G1 X453.8997 Y273.9005 Z1.0000 F2000
G1 X484.9001 Y273.9005 Z-6.9547 F2000
G1 X478.9001 Y273.8985 Z-8.4943 F2000
G1 X478.9001 Y271.9277 Z-9.0000 F2000
G1 X478.9001 Y273.8985 Z-9.5057 F2000
G1 X484.9001 Y273.9005 Z-11.0453 F2000
G1 X453.8997 Y273.9005 Z-19.0000 F2000
G1 X484.9001 Y273.9005 Z-19.0000 F2750
G1 X478.9001 Y273.8985 Z-19.0000 F2750
G1 X478.9001 Y257.8985 Z-19.0000 F2750
G1 X478.8981 Y263.8985 Z-19.0000 F2750
G1 X426.9003 Y263.8985 Z-19.0000 F2750
G1 X426.9003 Y257.8985 Z-19.0000 F2750
G1 X426.8983 Y273.8985 Z-19.0000 F2750
G1 X420.8983 Y273.8985 Z-19.0000 F2750
G1 X437.3990 Y273.9077 Z-19.0000 F2750
G1 X453.8997 Y273.9005 Z-19.0000 F2750
G1 X453.8997 Y273.9005 Z10.0000 F9999
G1 X457.9001 Y152.8997 Z10.0000 F9999
G1 X457.9001 Y152.8997 Z1.0000 F2000
G1 X457.9001 Y122.9008 Z-6.6977 F2000
G1 X462.9001 Y122.9008 Z-7.9807 F2000
G1 X462.9001 Y120.8988 Z-8.4944 F2000
G1 X460.9299 Y120.8988 Z-9.0000 F2000
G1 X462.9001 Y120.8988 Z-9.5056 F2000
G1 X462.9001 Y122.9008 Z-10.0193 F2000
G1 X457.9001 Y122.9008 Z-11.3023 F2000
G1 X457.9001 Y152.8997 Z-19.0000 F2000
G1 X457.9001 Y122.9008 Z-19.0000 F2750
G1 X462.9001 Y122.9008 Z-19.0000 F2750
G1 X462.9001 Y120.8988 Z-19.0000 F2750
G1 X442.8983 Y120.8988 Z-19.0000 F2750
G1 X442.8983 Y122.9008 Z-19.0000 F2750
G1 X447.8983 Y122.9008 Z-19.0000 F2750
G1 X447.8983 Y182.8987 Z-19.0000 F2750
G1 X442.8983 Y182.8987 Z-19.0000 F2750
G1 X442.8983 Y184.9006 Z-19.0000 F2750
G1 X462.9001 Y184.9006 Z-19.0000 F2750
G1 X462.9001 Y182.8987 Z-19.0000 F2750
G1 X457.9001 Y182.8987 Z-19.0000 F2750
G1 X457.9001 Y152.8997 Z-19.0000 F2750
G1 X457.9001 Y152.8997 Z10.0000 F9999
G1 X451.8987 Y31.8990 Z10.0000 F9999
G1 X451.8987 Y31.8990 Z1.0000 F2000
G1 X420.8983 Y31.8990 Z-6.9547 F2000
G1 X426.8983 Y31.9010 Z-8.4943 F2000
G1 X426.8983 Y33.8717 Z-9.0000 F2000
G1 X426.8983 Y31.9010 Z-9.5057 F2000
G1 X420.8983 Y31.8990 Z-11.0453 F2000
G1 X451.8987 Y31.8990 Z-19.0000 F2000
G1 X420.8983 Y31.8990 Z-19.0000 F2750
G1 X426.8983 Y31.9010 Z-19.0000 F2750
G1 X426.8983 Y47.9009 Z-19.0000 F2750
G1 X426.9003 Y41.9009 Z-19.0000 F2750
G1 X478.8981 Y41.9009 Z-19.0000 F2750
G1 X478.8981 Y47.9009 Z-19.0000 F2750
G1 X478.9001 Y31.9010 Z-19.0000 F2750
G1 X484.9001 Y31.9010 Z-19.0000 F2750
G1 X468.3994 Y31.8917 Z-19.0000 F2750
G1 X451.8987 Y31.8990 Z-19.0000 F2750
G1 X451.8987 Y31.8990 Z10.0000 F9999
G1 X751.8982 Y31.8990 Z10.0000 F9999
G1 X751.8982 Y31.8990 Z1.0000 F2000
G1 X720.8978 Y31.8990 Z-6.9547 F2000
G1 X726.8978 Y31.9010 Z-8.4943 F2000
G1 X726.8978 Y33.8717 Z-9.0000 F2000
G1 X726.8978 Y31.9010 Z-9.5057 F2000
G1 X720.8978 Y31.8990 Z-11.0453 F2000
G1 X751.8982 Y31.8990 Z-19.0000 F2000
G1 X720.8978 Y31.8990 Z-19.0000 F2750
G1 X726.8978 Y31.9010 Z-19.0000 F2750
G1 X726.8978 Y47.9009 Z-19.0000 F2750
G1 X726.8998 Y41.9009 Z-19.0000 F2750
G1 X778.8975 Y41.9009 Z-19.0000 F2750
G1 X778.8975 Y47.9009 Z-19.0000 F2750
G1 X778.8995 Y31.9010 Z-19.0000 F2750
G1 X784.8995 Y31.9010 Z-19.0000 F2750
G1 X768.3988 Y31.8917 Z-19.0000 F2750
G1 X751.8982 Y31.8990 Z-19.0000 F2750
G1 X751.8982 Y31.8990 Z10.0000 F9999
G1 X753.8992 Y273.9005 Z10.0000 F9999
G1 X753.8992 Y273.9005 Z1.0000 F2000
G1 X784.8995 Y273.9005 Z-6.9547 F2000
G1 X778.8995 Y273.8985 Z-8.4943 F2000
G1 X778.8995 Y271.9277 Z-9.0000 F2000
G1 X778.8995 Y273.8985 Z-9.5057 F2000
G1 X784.8995 Y273.9005 Z-11.0453 F2000
G1 X753.8992 Y273.9005 Z-19.0000 F2000
G1 X784.8995 Y273.9005 Z-19.0000 F2750
G1 X778.8995 Y273.8985 Z-19.0000 F2750
G1 X778.8995 Y257.8985 Z-19.0000 F2750
G1 X778.8975 Y263.8985 Z-19.0000 F2750
G1 X726.8998 Y263.8985 Z-19.0000 F2750
G1 X726.8998 Y257.8985 Z-19.0000 F2750
G1 X726.8978 Y273.8985 Z-19.0000 F2750
G1 X720.8978 Y273.8985 Z-19.0000 F2750
G1 X737.3985 Y273.9077 Z-19.0000 F2750
G1 X753.8992 Y273.9005 Z-19.0000 F2750
G1 X753.8992 Y273.9005 Z10.0000 F9999
G1 X605.9984 Y337.4141 Z10.0000 F9999
G1 X605.9984 Y337.4141 Z1.0000 F2000
G1 X605.9984 Y323.9151 Z-2.4638 F2000
G1 X610.9984 Y323.9151 Z-3.7468 F2000
G1 X610.9984 Y321.9131 Z-4.2606 F2000
G1 X592.5282 Y321.9131 Z-9.0000 F2000
G1 X610.9984 Y321.9131 Z-13.7394 F2000
G1 X610.9984 Y323.9151 Z-14.2532 F2000
G1 X605.9984 Y323.9151 Z-15.5362 F2000
G1 X605.9984 Y337.4141 Z-19.0000 F2000
G1 X605.9984 Y323.9151 Z-19.0000 F2750
G1 X610.9984 Y323.9151 Z-19.0000 F2750
G1 X610.9984 Y321.9131 Z-19.0000 F2750
G1 X590.9964 Y321.9131 Z-19.0000 F2750
G1 X590.9964 Y323.9151 Z-19.0000 F2750
G1 X595.9964 Y323.9151 Z-19.0000 F2750
G1 X595.9964 Y350.9131 Z-19.0000 F2750
G1 X590.9964 Y350.9131 Z-19.0000 F2750
G1 X590.9964 Y352.9151 Z-19.0000 F2750
G1 X610.9984 Y352.9151 Z-19.0000 F2750
G1 X610.9984 Y350.9131 Z-19.0000 F2750
G1 X605.9984 Y350.9131 Z-19.0000 F2750
G1 X605.9984 Y337.4141 Z-19.0000 F2750
G1 X605.9984 Y337.4141 Z10.0000 F9999
G1 X905.5587 Y442.5774 Z10.0000 F9999
G1 X905.5587 Y442.5774 Z1.0000 F2000
G1 X905.5587 Y473.5777 Z-6.9547 F2000
G1 X905.5607 Y467.5777 Z-8.4943 F2000
G1 X907.5315 Y467.5777 Z-9.0000 F2000
G1 X905.5607 Y467.5777 Z-9.5057 F2000
G1 X905.5587 Y473.5777 Z-11.0453 F2000
G1 X905.5587 Y442.5774 Z-19.0000 F2000
G1 X905.5587 Y473.5777 Z-19.0000 F2750
G1 X905.5607 Y467.5777 Z-19.0000 F2750
G1 X921.5607 Y467.5777 Z-19.0000 F2750
G1 X915.5607 Y467.5757 Z-19.0000 F2750
G1 X915.5607 Y415.5780 Z-19.0000 F2750
G1 X921.5607 Y415.5780 Z-19.0000 F2750
G1 X905.5607 Y415.5760 Z-19.0000 F2750
G1 X905.5607 Y409.5760 Z-19.0000 F2750
G1 X905.5515 Y426.0767 Z-19.0000 F2750
G1 X905.5587 Y442.5774 Z-19.0000 F2750
G1 X905.5587 Y442.5774 Z10.0000 F9999
G1 X1026.5595 Y446.5712 Z10.0000 F9999
G1 X1026.5595 Y446.5712 Z1.0000 F2000
G1 X1042.5585 Y446.5623 Z-3.1053 F2000
G1 X1042.5605 Y452.5556 Z-4.6432 F2000
G1 X1042.5605 Y435.5768 Z-9.0000 F2000
G1 X1042.5605 Y452.5556 Z-13.3568 F2000
G1 X1042.5585 Y446.5623 Z-14.8947 F2000
G1 X1026.5595 Y446.5712 Z-19.0000 F2000
G1 X1042.5585 Y446.5623 Z-19.0000 F2750
G1 X1042.5605 Y452.5556 Z-19.0000 F2750
G1 X1042.5605 Y430.5759 Z-19.0000 F2750
G1 X1042.5585 Y436.5759 Z-19.0000 F2750
G1 X1010.5605 Y436.5759 Z-19.0000 F2750
G1 X1010.5605 Y430.5759 Z-19.0000 F2750
G1 X1010.5585 Y452.5556 Z-19.0000 F2750
G1 X1010.5605 Y446.5802 Z-19.0000 F2750
G1 X1026.5595 Y446.5712 Z-19.0000 F2750
G1 X1026.5595 Y446.5712 Z10.0000 F9999
G1 X1147.5602 Y440.5764 Z10.0000 F9999
G1 X1147.5602 Y440.5764 Z1.0000 F2000
G1 X1147.5602 Y409.5760 Z-6.9547 F2000
G1 X1147.5582 Y415.5760 Z-8.4943 F2000
G1 X1145.5875 Y415.5760 Z-9.0000 F2000
G1 X1147.5582 Y415.5760 Z-9.5057 F2000
G1 X1147.5602 Y409.5760 Z-11.0453 F2000
G1 X1147.5602 Y440.5764 Z-19.0000 F2000
G1 X1147.5602 Y409.5760 Z-19.0000 F2750
G1 X1147.5582 Y415.5760 Z-19.0000 F2750
G1 X1131.5583 Y415.5760 Z-19.0000 F2750
G1 X1137.5583 Y415.5780 Z-19.0000 F2750
G1 X1137.5583 Y467.5757 Z-19.0000 F2750
G1 X1131.5583 Y467.5757 Z-19.0000 F2750
G1 X1147.5582 Y467.5777 Z-19.0000 F2750
G1 X1147.5582 Y473.5777 Z-19.0000 F2750
G1 X1147.5675 Y457.0770 Z-19.0000 F2750
G1 X1147.5602 Y440.5764 Z-19.0000 F2750
G1 X1147.5602 Y440.5764 Z10.0000 F9999
G1 X1147.5602 Y740.5757 Z10.0000 F9999
G1 X1147.5602 Y740.5757 Z1.0000 F2000
G1 X1147.5602 Y709.5754 Z-6.9547 F2000
G1 X1147.5582 Y715.5754 Z-8.4943 F2000
G1 X1145.5875 Y715.5754 Z-9.0000 F2000
G1 X1147.5582 Y715.5754 Z-9.5057 F2000
G1 X1147.5602 Y709.5754 Z-11.0453 F2000
G1 X1147.5602 Y740.5757 Z-19.0000 F2000
G1 X1147.5602 Y709.5754 Z-19.0000 F2750
G1 X1147.5582 Y715.5754 Z-19.0000 F2750
G1 X1131.5583 Y715.5754 Z-19.0000 F2750
G1 X1137.5583 Y715.5774 Z-19.0000 F2750
G1 X1137.5583 Y767.5751 Z-19.0000 F2750
G1 X1131.5583 Y767.5751 Z-19.0000 F2750
G1 X1147.5582 Y767.5771 Z-19.0000 F2750
G1 X1147.5582 Y773.5771 Z-19.0000 F2750
G1 X1147.5675 Y757.0764 Z-19.0000 F2750
G1 X1147.5602 Y740.5757 Z-19.0000 F2750
G1 X1147.5602 Y740.5757 Z10.0000 F9999
G1 X905.5587 Y742.5767 Z10.0000 F9999
G1 X905.5587 Y742.5767 Z1.0000 F2000
G1 X905.5587 Y773.5771 Z-6.9547 F2000
G1 X905.5607 Y767.5771 Z-8.4943 F2000
G1 X907.5315 Y767.5771 Z-9.0000 F2000
G1 X905.5607 Y767.5771 Z-9.5057 F2000
G1 X905.5587 Y773.5771 Z-11.0453 F2000
G1 X905.5587 Y742.5767 Z-19.0000 F2000
G1 X905.5587 Y773.5771 Z-19.0000 F2750
G1 X905.5607 Y767.5771 Z-19.0000 F2750
G1 X921.5607 Y767.5771 Z-19.0000 F2750
G1 X915.5607 Y767.5751 Z-19.0000 F2750
G1 X915.5607 Y715.5774 Z-19.0000 F2750
G1 X921.5607 Y715.5774 Z-19.0000 F2750
G1 X905.5607 Y715.5754 Z-19.0000 F2750
G1 X905.5607 Y709.5754 Z-19.0000 F2750
G1 X905.5515 Y726.0761 Z-19.0000 F2750
G1 X905.5587 Y742.5767 Z-19.0000 F2750
G1 X905.5587 Y742.5767 Z10.0000 F9999
G1 X905.5587 Y1042.5761 Z10.0000 F9999
G1 X905.5587 Y1042.5761 Z1.0000 F2000
G1 X905.5587 Y1073.5765 Z-6.9547 F2000
G1 X905.5607 Y1067.5765 Z-8.4943 F2000
G1 X907.5315 Y1067.5765 Z-9.0000 F2000
G1 X905.5607 Y1067.5765 Z-9.5057 F2000
G1 X905.5587 Y1073.5765 Z-11.0453 F2000
G1 X905.5587 Y1042.5761 Z-19.0000 F2000
G1 X905.5587 Y1073.5765 Z-19.0000 F2750
G1 X905.5607 Y1067.5765 Z-19.0000 F2750
G1 X921.5607 Y1067.5765 Z-19.0000 F2750
G1 X915.5607 Y1067.5745 Z-19.0000 F2750
G1 X915.5607 Y1015.5768 Z-19.0000 F2750
G1 X921.5607 Y1015.5768 Z-19.0000 F2750
G1 X905.5607 Y1015.5748 Z-19.0000 F2750
G1 X905.5607 Y1009.5748 Z-19.0000 F2750
G1 X905.5515 Y1026.0755 Z-19.0000 F2750
G1 X905.5587 Y1042.5761 Z-19.0000 F2750
G1 X905.5587 Y1042.5761 Z10.0000 F9999
G1 X1026.5595 Y1046.5699 Z10.0000 F9999
G1 X1026.5595 Y1046.5699 Z1.0000 F2000
G1 X1042.5585 Y1046.5610 Z-3.1053 F2000
G1 X1042.5605 Y1052.5543 Z-4.6432 F2000
G1 X1042.5605 Y1035.5754 Z-9.0000 F2000
G1 X1042.5605 Y1052.5543 Z-13.3568 F2000
G1 X1042.5585 Y1046.5610 Z-14.8947 F2000
G1 X1026.5595 Y1046.5699 Z-19.0000 F2000
G1 X1042.5585 Y1046.5610 Z-19.0000 F2750
G1 X1042.5605 Y1052.5543 Z-19.0000 F2750
G1 X1042.5605 Y1030.5746 Z-19.0000 F2750
G1 X1042.5585 Y1036.5746 Z-19.0000 F2750
G1 X1010.5605 Y1036.5746 Z-19.0000 F2750
G1 X1010.5605 Y1030.5746 Z-19.0000 F2750
G1 X1010.5585 Y1052.5543 Z-19.0000 F2750
G1 X1010.5605 Y1046.5788 Z-19.0000 F2750
G1 X1026.5595 Y1046.5699 Z-19.0000 F2750
G1 X1026.5595 Y1046.5699 Z10.0000 F9999
G1 X1147.5602 Y1040.5751 Z10.0000 F9999
G1 X1147.5602 Y1040.5751 Z1.0000 F2000
G1 X1147.5602 Y1009.5748 Z-6.9547 F2000
G1 X1147.5582 Y1015.5748 Z-8.4943 F2000
G1 X1145.5875 Y1015.5748 Z-9.0000 F2000
G1 X1147.5582 Y1015.5748 Z-9.5057 F2000
G1 X1147.5602 Y1009.5748 Z-11.0453 F2000
G1 X1147.5602 Y1040.5751 Z-19.0000 F2000
G1 X1147.5602 Y1009.5748 Z-19.0000 F2750
G1 X1147.5582 Y1015.5748 Z-19.0000 F2750
G1 X1131.5583 Y1015.5748 Z-19.0000 F2750
G1 X1137.5583 Y1015.5768 Z-19.0000 F2750
G1 X1137.5583 Y1067.5745 Z-19.0000 F2750
G1 X1131.5583 Y1067.5745 Z-19.0000 F2750
G1 X1147.5582 Y1067.5765 Z-19.0000 F2750
G1 X1147.5582 Y1073.5765 Z-19.0000 F2750
G1 X1147.5675 Y1057.0758 Z-19.0000 F2750
G1 X1147.5602 Y1040.5751 Z-19.0000 F2750
G1 X1147.5602 Y1040.5751 Z10.0000 F9999
G1 X1147.5602 Y1340.5745 Z10.0000 F9999
G1 X1147.5602 Y1340.5745 Z1.0000 F2000
G1 X1147.5602 Y1309.5742 Z-6.9547 F2000
G1 X1147.5582 Y1315.5742 Z-8.4943 F2000
G1 X1145.5875 Y1315.5742 Z-9.0000 F2000
G1 X1147.5582 Y1315.5742 Z-9.5057 F2000
G1 X1147.5602 Y1309.5742 Z-11.0453 F2000
G1 X1147.5602 Y1340.5745 Z-19.0000 F2000
G1 X1147.5602 Y1309.5742 Z-19.0000 F2750
G1 X1147.5582 Y1315.5742 Z-19.0000 F2750
G1 X1131.5583 Y1315.5742 Z-19.0000 F2750
G1 X1137.5583 Y1315.5762 Z-19.0000 F2750
G1 X1137.5583 Y1367.5739 Z-19.0000 F2750
G1 X1131.5583 Y1367.5739 Z-19.0000 F2750
G1 X1147.5582 Y1367.5759 Z-19.0000 F2750
G1 X1147.5582 Y1373.5759 Z-19.0000 F2750
G1 X1147.5675 Y1357.0752 Z-19.0000 F2750
G1 X1147.5602 Y1340.5745 Z-19.0000 F2750
G1 X1147.5602 Y1340.5745 Z10.0000 F9999
G1 X905.5587 Y1342.5755 Z10.0000 F9999
G1 X905.5587 Y1342.5755 Z1.0000 F2000
G1 X905.5587 Y1373.5759 Z-6.9547 F2000
G1 X905.5607 Y1367.5759 Z-8.4943 F2000
G1 X907.5315 Y1367.5759 Z-9.0000 F2000
G1 X905.5607 Y1367.5759 Z-9.5057 F2000
G1 X905.5587 Y1373.5759 Z-11.0453 F2000
G1 X905.5587 Y1342.5755 Z-19.0000 F2000
G1 X905.5587 Y1373.5759 Z-19.0000 F2750
G1 X905.5607 Y1367.5759 Z-19.0000 F2750
G1 X921.5607 Y1367.5759 Z-19.0000 F2750
G1 X915.5607 Y1367.5739 Z-19.0000 F2750
G1 X915.5607 Y1315.5762 Z-19.0000 F2750
G1 X921.5607 Y1315.5762 Z-19.0000 F2750
G1 X905.5607 Y1315.5742 Z-19.0000 F2750
G1 X905.5607 Y1309.5742 Z-19.0000 F2750
G1 X905.5515 Y1326.0748 Z-19.0000 F2750
G1 X905.5587 Y1342.5755 Z-19.0000 F2750
G1 X905.5587 Y1342.5755 Z10.0000 F9999
G1 X905.5592 Y1642.5749 Z10.0000 F9999
G1 X905.5592 Y1642.5749 Z1.0000 F2000
G1 X905.5592 Y1673.5753 Z-6.9547 F2000
G1 X905.5612 Y1667.5753 Z-8.4943 F2000
G1 X907.5320 Y1667.5753 Z-9.0000 F2000
G1 X905.5612 Y1667.5753 Z-9.5057 F2000
G1 X905.5592 Y1673.5753 Z-11.0453 F2000
G1 X905.5592 Y1642.5749 Z-19.0000 F2000
G1 X905.5592 Y1673.5753 Z-19.0000 F2750
G1 X905.5612 Y1667.5753 Z-19.0000 F2750
G1 X921.5612 Y1667.5753 Z-19.0000 F2750
G1 X915.5612 Y1667.5733 Z-19.0000 F2750
G1 X915.5612 Y1615.5755 Z-19.0000 F2750
G1 X921.5612 Y1615.5755 Z-19.0000 F2750
G1 X905.5612 Y1615.5735 Z-19.0000 F2750
G1 X905.5612 Y1609.5735 Z-19.0000 F2750
G1 X905.5520 Y1626.0742 Z-19.0000 F2750
G1 X905.5592 Y1642.5749 Z-19.0000 F2750
G1 X905.5592 Y1642.5749 Z10.0000 F9999
G1 X1147.5607 Y1640.5739 Z10.0000 F9999
G1 X1147.5607 Y1640.5739 Z1.0000 F2000
G1 X1147.5607 Y1609.5735 Z-6.9547 F2000
G1 X1147.5587 Y1615.5735 Z-8.4943 F2000
G1 X1145.5879 Y1615.5735 Z-9.0000 F2000
G1 X1147.5587 Y1615.5735 Z-9.5057 F2000
G1 X1147.5607 Y1609.5735 Z-11.0453 F2000
G1 X1147.5607 Y1640.5739 Z-19.0000 F2000
G1 X1147.5607 Y1609.5735 Z-19.0000 F2750
G1 X1147.5587 Y1615.5735 Z-19.0000 F2750
G1 X1131.5587 Y1615.5735 Z-19.0000 F2750
G1 X1137.5587 Y1615.5755 Z-19.0000 F2750
G1 X1137.5587 Y1667.5733 Z-19.0000 F2750
G1 X1131.5587 Y1667.5733 Z-19.0000 F2750
G1 X1147.5587 Y1667.5753 Z-19.0000 F2750
G1 X1147.5587 Y1673.5753 Z-19.0000 F2750
G1 X1147.5680 Y1657.0746 Z-19.0000 F2750
G1 X1147.5607 Y1640.5739 Z-19.0000 F2750
G1 X1147.5607 Y1640.5739 Z10.0000 F9999
G1 X1031.5608 Y1851.0740 Z10.0000 F9999
G1 X1031.5608 Y1851.0740 Z1.0000 F2000
G1 X1031.5608 Y1812.1028 Z-9.0000 F2000
G1 X1031.5608 Y1851.0740 Z-19.0000 F2000
G1 X1031.5608 Y1787.5751 Z-19.0000 F2750
G1 X1037.5608 Y1787.5731 Z-19.0000 F2750
G1 X1015.5588 Y1787.5751 Z-19.0000 F2750
G1 X1021.5588 Y1787.5751 Z-19.0000 F2750
G1 X1021.5588 Y1914.5728 Z-19.0000 F2750
G1 X1015.5588 Y1914.5728 Z-19.0000 F2750
G1 X1037.5608 Y1914.5748 Z-19.0000 F2750
G1 X1031.5608 Y1914.5728 Z-19.0000 F2750
G1 X1031.5608 Y1851.0740 Z-19.0000 F2750
G1 X1031.5608 Y1851.0740 Z10.0000 F9999
G1 X1026.5598 Y1936.5728 Z10.0000 F9999
G1 X1026.5598 Y1936.5728 Z1.0000 F2000
G1 X996.5608 Y1936.5728 Z-6.6977 F2000
G1 X996.5608 Y1931.5728 Z-7.9807 F2000
G1 X994.5590 Y1931.5728 Z-8.4944 F2000
G1 X994.5590 Y1933.5431 Z-9.0000 F2000
G1 X994.5590 Y1931.5728 Z-9.5056 F2000
G1 X996.5608 Y1931.5728 Z-10.0193 F2000
G1 X996.5608 Y1936.5728 Z-11.3023 F2000
G1 X1026.5598 Y1936.5728 Z-19.0000 F2000
G1 X996.5608 Y1936.5728 Z-19.0000 F2750
G1 X996.5608 Y1931.5728 Z-19.0000 F2750
G1 X994.5590 Y1931.5728 Z-19.0000 F2750
G1 X994.5590 Y1951.5748 Z-19.0000 F2750
G1 X996.5608 Y1951.5748 Z-19.0000 F2750
G1 X996.5608 Y1946.5748 Z-19.0000 F2750
G1 X1056.5588 Y1946.5748 Z-19.0000 F2750
G1 X1056.5588 Y1951.5748 Z-19.0000 F2750
G1 X1058.5608 Y1951.5748 Z-19.0000 F2750
G1 X1058.5608 Y1931.5728 Z-19.0000 F2750
G1 X1056.5588 Y1931.5728 Z-19.0000 F2750
G1 X1056.5588 Y1936.5728 Z-19.0000 F2750
G1 X1026.5598 Y1936.5728 Z-19.0000 F2750
G1 X1026.5598 Y1936.5728 Z10.0000 F9999
G1 X1147.5607 Y1940.5733 Z10.0000 F9999
G1 X1147.5607 Y1940.5733 Z1.0000 F2000
G1 X1147.5607 Y1909.5729 Z-6.9547 F2000
G1 X1147.5587 Y1915.5729 Z-8.4943 F2000
G1 X1145.5879 Y1915.5729 Z-9.0000 F2000
G1 X1147.5587 Y1915.5729 Z-9.5057 F2000
G1 X1147.5607 Y1909.5729 Z-11.0453 F2000
G1 X1147.5607 Y1940.5733 Z-19.0000 F2000
G1 X1147.5607 Y1909.5729 Z-19.0000 F2750
G1 X1147.5587 Y1915.5729 Z-19.0000 F2750
G1 X1131.5587 Y1915.5729 Z-19.0000 F2750
G1 X1137.5587 Y1915.5749 Z-19.0000 F2750
G1 X1137.5587 Y1967.5727 Z-19.0000 F2750
G1 X1131.5587 Y1967.5727 Z-19.0000 F2750
G1 X1147.5587 Y1967.5747 Z-19.0000 F2750
G1 X1147.5587 Y1973.5747 Z-19.0000 F2750
G1 X1147.5680 Y1957.0740 Z-19.0000 F2750
G1 X1147.5607 Y1940.5733 Z-19.0000 F2750
G1 X1147.5607 Y1940.5733 Z10.0000 F9999
G1 X1172.3978 Y2236.6677 Z10.0000 F9999
G1 X1172.3978 Y2236.6677 Z1.0000 F2000
G1 X1185.8967 Y2236.6677 Z-2.4638 F2000
G1 X1185.8967 Y2241.6677 Z-3.7468 F2000
G1 X1187.8987 Y2241.6677 Z-4.2606 F2000
G1 X1187.8987 Y2223.1975 Z-9.0000 F2000
G1 X1187.8987 Y2241.6677 Z-13.7394 F2000
G1 X1185.8967 Y2241.6677 Z-14.2532 F2000
G1 X1185.8967 Y2236.6677 Z-15.5362 F2000
G1 X1172.3978 Y2236.6677 Z-19.0000 F2000
G1 X1185.8967 Y2236.6677 Z-19.0000 F2750
G1 X1185.8967 Y2241.6677 Z-19.0000 F2750
G1 X1187.8987 Y2241.6677 Z-19.0000 F2750
G1 X1187.8987 Y2221.6657 Z-19.0000 F2750
G1 X1185.8967 Y2221.6657 Z-19.0000 F2750
G1 X1185.8967 Y2226.6657 Z-19.0000 F2750
G1 X1158.8988 Y2226.6657 Z-19.0000 F2750
G1 X1158.8988 Y2221.6657 Z-19.0000 F2750
G1 X1156.8968 Y2221.6657 Z-19.0000 F2750
G1 X1156.8968 Y2241.6677 Z-19.0000 F2750
G1 X1158.8988 Y2241.6677 Z-19.0000 F2750
G1 X1158.8988 Y2236.6677 Z-19.0000 F2750
G1 X1172.3978 Y2236.6677 Z-19.0000 F2750
G1 X1172.3978 Y2236.6677 Z10.0000 F9999
G1 X727.5610 Y2062.5745 Z10.0000 F9999
G1 X727.5610 Y2062.5745 Z1.0000 F2000
G1 X758.5614 Y2062.5745 Z-6.9547 F2000
G1 X752.5614 Y2062.5725 Z-8.4943 F2000
G1 X752.5614 Y2060.6018 Z-9.0000 F2000
G1 X752.5614 Y2062.5725 Z-9.5057 F2000
G1 X758.5614 Y2062.5745 Z-11.0453 F2000
G1 X727.5610 Y2062.5745 Z-19.0000 F2000
G1 X758.5614 Y2062.5745 Z-19.0000 F2750
G1 X752.5614 Y2062.5725 Z-19.0000 F2750
G1 X752.5614 Y2046.5726 Z-19.0000 F2750
G1 X752.5594 Y2052.5726 Z-19.0000 F2750
G1 X700.5616 Y2052.5726 Z-19.0000 F2750
G1 X700.5616 Y2046.5726 Z-19.0000 F2750
G1 X700.5596 Y2062.5725 Z-19.0000 F2750
G1 X694.5596 Y2062.5725 Z-19.0000 F2750
G1 X711.0603 Y2062.5818 Z-19.0000 F2750
G1 X727.5610 Y2062.5745 Z-19.0000 F2750
G1 X727.5610 Y2062.5745 Z10.0000 F9999
G1 X721.5596 Y1941.5738 Z10.0000 F9999
G1 X721.5596 Y1941.5738 Z1.0000 F2000
G1 X721.5596 Y1971.5727 Z-6.6977 F2000
G1 X716.5596 Y1971.5727 Z-7.9807 F2000
G1 X716.5596 Y1973.5747 Z-8.4944 F2000
G1 X718.5298 Y1973.5747 Z-9.0000 F2000
G1 X716.5596 Y1973.5747 Z-9.5056 F2000
G1 X716.5596 Y1971.5727 Z-10.0193 F2000
G1 X721.5596 Y1971.5727 Z-11.3023 F2000
G1 X721.5596 Y1941.5738 Z-19.0000 F2000
G1 X721.5596 Y1971.5727 Z-19.0000 F2750
G1 X716.5596 Y1971.5727 Z-19.0000 F2750
G1 X716.5596 Y1973.5747 Z-19.0000 F2750
G1 X736.5614 Y1973.5747 Z-19.0000 F2750
G1 X736.5614 Y1971.5727 Z-19.0000 F2750
G1 X731.5614 Y1971.5727 Z-19.0000 F2750
G1 X731.5614 Y1911.5749 Z-19.0000 F2750
G1 X736.5614 Y1911.5749 Z-19.0000 F2750
G1 X736.5614 Y1909.5729 Z-19.0000 F2750
G1 X716.5596 Y1909.5729 Z-19.0000 F2750
G1 X716.5596 Y1911.5749 Z-19.0000 F2750
G1 X721.5596 Y1911.5749 Z-19.0000 F2750
G1 X721.5596 Y1941.5738 Z-19.0000 F2750
G1 X721.5596 Y1941.5738 Z10.0000 F9999
G1 X725.5600 Y1820.5731 Z10.0000 F9999
G1 X725.5600 Y1820.5731 Z1.0000 F2000
G1 X694.5596 Y1820.5731 Z-6.9547 F2000
G1 X700.5596 Y1820.5751 Z-8.4943 F2000
G1 X700.5596 Y1822.5458 Z-9.0000 F2000
G1 X700.5596 Y1820.5751 Z-9.5057 F2000
G1 X694.5596 Y1820.5731 Z-11.0453 F2000
G1 X725.5600 Y1820.5731 Z-19.0000 F2000
G1 X694.5596 Y1820.5731 Z-19.0000 F2750
G1 X700.5596 Y1820.5751 Z-19.0000 F2750
G1 X700.5596 Y1836.5750 Z-19.0000 F2750
G1 X700.5616 Y1830.5750 Z-19.0000 F2750
G1 X752.5594 Y1830.5750 Z-19.0000 F2750
G1 X752.5594 Y1836.5750 Z-19.0000 F2750
G1 X752.5614 Y1820.5751 Z-19.0000 F2750
G1 X758.5614 Y1820.5751 Z-19.0000 F2750
G1 X742.0607 Y1820.5658 Z-19.0000 F2750
G1 X725.5600 Y1820.5731 Z-19.0000 F2750
G1 X725.5600 Y1820.5731 Z10.0000 F9999
G1 X425.5606 Y1820.5731 Z10.0000 F9999
G1 X425.5606 Y1820.5731 Z1.0000 F2000
G1 X394.5602 Y1820.5731 Z-6.9547 F2000
G1 X400.5602 Y1820.5751 Z-8.4943 F2000
G1 X400.5602 Y1822.5458 Z-9.0000 F2000
G1 X400.5602 Y1820.5751 Z-9.5057 F2000
G1 X394.5602 Y1820.5731 Z-11.0453 F2000
G1 X425.5606 Y1820.5731 Z-19.0000 F2000
G1 X394.5602 Y1820.5731 Z-19.0000 F2750
G1 X400.5602 Y1820.5751 Z-19.0000 F2750
G1 X400.5602 Y1836.5750 Z-19.0000 F2750
G1 X400.5622 Y1830.5750 Z-19.0000 F2750
G1 X452.5599 Y1830.5750 Z-19.0000 F2750
G1 X452.5599 Y1836.5750 Z-19.0000 F2750
G1 X452.5619 Y1820.5751 Z-19.0000 F2750
G1 X458.5619 Y1820.5751 Z-19.0000 F2750
G1 X442.0612 Y1820.5658 Z-19.0000 F2750
G1 X425.5606 Y1820.5731 Z-19.0000 F2750
G1 X425.5606 Y1820.5731 Z10.0000 F9999
G1 X273.9010 Y1651.8961 Z10.0000 F9999
G1 X273.9010 Y1651.8961 Z1.0000 F2000
G1 X273.9010 Y1620.8958 Z-6.9547 F2000
G1 X273.8990 Y1626.8958 Z-8.4943 F2000
G1 X271.9282 Y1626.8958 Z-9.0000 F2000
G1 X273.8990 Y1626.8958 Z-9.5057 F2000
G1 X273.9010 Y1620.8958 Z-11.0453 F2000
G1 X273.9010 Y1651.8961 Z-19.0000 F2000
G1 X273.9010 Y1620.8958 Z-19.0000 F2750
G1 X273.8990 Y1626.8958 Z-19.0000 F2750
G1 X257.8990 Y1626.8958 Z-19.0000 F2750
G1 X263.8990 Y1626.8978 Z-19.0000 F2750
G1 X263.8990 Y1678.8955 Z-19.0000 F2750
G1 X257.8990 Y1678.8955 Z-19.0000 F2750
G1 X273.8990 Y1678.8975 Z-19.0000 F2750
G1 X273.8990 Y1684.8975 Z-19.0000 F2750
G1 X273.9082 Y1668.3968 Z-19.0000 F2750
G1 X273.9010 Y1651.8961 Z-19.0000 F2750
G1 X273.9010 Y1651.8961 Z10.0000 F9999
G1 X152.9002 Y1647.9023 Z10.0000 F9999
G1 X152.9002 Y1647.9023 Z1.0000 F2000
G1 X136.9012 Y1647.9112 Z-3.1053 F2000
G1 X136.8992 Y1641.9179 Z-4.6432 F2000
G1 X136.8992 Y1658.8967 Z-9.0000 F2000
G1 X136.8992 Y1641.9179 Z-13.3568 F2000
G1 X136.9012 Y1647.9112 Z-14.8947 F2000
G1 X152.9002 Y1647.9023 Z-19.0000 F2000
G1 X136.9012 Y1647.9112 Z-19.0000 F2750
G1 X136.8992 Y1641.9179 Z-19.0000 F2750
G1 X136.8992 Y1663.8976 Z-19.0000 F2750
G1 X136.9012 Y1657.8976 Z-19.0000 F2750
G1 X168.8992 Y1657.8976 Z-19.0000 F2750
G1 X168.8992 Y1663.8976 Z-19.0000 F2750
G1 X168.9012 Y1641.9179 Z-19.0000 F2750
G1 X168.8992 Y1647.8934 Z-19.0000 F2750
G1 X152.9002 Y1647.9023 Z-19.0000 F2750
G1 X152.9002 Y1647.9023 Z10.0000 F9999
G1 X31.8995 Y1653.8971 Z10.0000 F9999
G1 X31.8995 Y1653.8971 Z1.0000 F2000
G1 X31.8995 Y1684.8975 Z-6.9547 F2000
G1 X31.9015 Y1678.8975 Z-8.4943 F2000
G1 X33.8723 Y1678.8975 Z-9.0000 F2000
G1 X31.9015 Y1678.8975 Z-9.5057 F2000
G1 X31.8995 Y1684.8975 Z-11.0453 F2000
G1 X31.8995 Y1653.8971 Z-19.0000 F2000
G1 X31.8995 Y1684.8975 Z-19.0000 F2750
G1 X31.9015 Y1678.8975 Z-19.0000 F2750
G1 X47.9015 Y1678.8975 Z-19.0000 F2750
G1 X41.9015 Y1678.8955 Z-19.0000 F2750
G1 X41.9015 Y1626.8978 Z-19.0000 F2750
G1 X47.9015 Y1626.8978 Z-19.0000 F2750
G1 X31.9015 Y1626.8958 Z-19.0000 F2750
G1 X31.9015 Y1620.8958 Z-19.0000 F2750
G1 X31.8922 Y1637.3965 Z-19.0000 F2750
G1 X31.8995 Y1653.8971 Z-19.0000 F2750
G1 X31.8995 Y1653.8971 Z10.0000 F9999
G1 X31.8995 Y1353.8978 Z10.0000 F9999
G1 X31.8995 Y1353.8978 Z1.0000 F2000
G1 X31.8995 Y1384.8981 Z-6.9547 F2000
G1 X31.9015 Y1378.8981 Z-8.4943 F2000
G1 X33.8723 Y1378.8981 Z-9.0000 F2000
G1 X31.9015 Y1378.8981 Z-9.5057 F2000
G1 X31.8995 Y1384.8981 Z-11.0453 F2000
G1 X31.8995 Y1353.8978 Z-19.0000 F2000
G1 X31.8995 Y1384.8981 Z-19.0000 F2750
G1 X31.9015 Y1378.8981 Z-19.0000 F2750
G1 X47.9015 Y1378.8981 Z-19.0000 F2750
G1 X41.9015 Y1378.8961 Z-19.0000 F2750
G1 X41.9015 Y1326.8984 Z-19.0000 F2750
G1 X47.9015 Y1326.8984 Z-19.0000 F2750
G1 X31.9015 Y1326.8964 Z-19.0000 F2750
G1 X31.9015 Y1320.8964 Z-19.0000 F2750
G1 X31.8922 Y1337.3971 Z-19.0000 F2750
G1 X31.8995 Y1353.8978 Z-19.0000 F2750
G1 X31.8995 Y1353.8978 Z10.0000 F9999
G1 X273.9010 Y1351.8968 Z10.0000 F9999
G1 X273.9010 Y1351.8968 Z1.0000 F2000
G1 X273.9010 Y1320.8964 Z-6.9547 F2000
G1 X273.8990 Y1326.8964 Z-8.4943 F2000
G1 X271.9282 Y1326.8964 Z-9.0000 F2000
G1 X273.8990 Y1326.8964 Z-9.5057 F2000
G1 X273.9010 Y1320.8964 Z-11.0453 F2000
G1 X273.9010 Y1351.8968 Z-19.0000 F2000
G1 X273.9010 Y1320.8964 Z-19.0000 F2750
G1 X273.8990 Y1326.8964 Z-19.0000 F2750
G1 X257.8990 Y1326.8964 Z-19.0000 F2750
G1 X263.8990 Y1326.8984 Z-19.0000 F2750
G1 X263.8990 Y1378.8961 Z-19.0000 F2750
G1 X257.8990 Y1378.8961 Z-19.0000 F2750
G1 X273.8990 Y1378.8981 Z-19.0000 F2750
G1 X273.8990 Y1384.8981 Z-19.0000 F2750
G1 X273.9082 Y1368.3974 Z-19.0000 F2750
G1 X273.9010 Y1351.8968 Z-19.0000 F2750
G1 X273.9010 Y1351.8968 Z10.0000 F9999
G1 X273.9010 Y1051.8974 Z10.0000 F9999
G1 X273.9010 Y1051.8974 Z1.0000 F2000
G1 X273.9010 Y1020.8970 Z-6.9547 F2000
G1 X273.8990 Y1026.8970 Z-8.4943 F2000
G1 X271.9282 Y1026.8970 Z-9.0000 F2000
G1 X273.8990 Y1026.8970 Z-9.5057 F2000
G1 X273.9010 Y1020.8970 Z-11.0453 F2000
G1 X273.9010 Y1051.8974 Z-19.0000 F2000
G1 X273.9010 Y1020.8970 Z-19.0000 F2750
G1 X273.8990 Y1026.8970 Z-19.0000 F2750
G1 X257.8990 Y1026.8970 Z-19.0000 F2750
G1 X263.8990 Y1026.8990 Z-19.0000 F2750
G1 X263.8990 Y1078.8967 Z-19.0000 F2750
G1 X257.8990 Y1078.8967 Z-19.0000 F2750
G1 X273.8990 Y1078.8987 Z-19.0000 F2750
G1 X273.8990 Y1084.8987 Z-19.0000 F2750
G1 X273.9082 Y1068.3981 Z-19.0000 F2750
G1 X273.9010 Y1051.8974 Z-19.0000 F2750
G1 X273.9010 Y1051.8974 Z10.0000 F9999
G1 X152.9002 Y1047.9036 Z10.0000 F9999
G1 X152.9002 Y1047.9036 Z1.0000 F2000
G1 X136.9012 Y1047.9125 Z-3.1053 F2000
G1 X136.8992 Y1041.9192 Z-4.6432 F2000
G1 X136.8992 Y1058.8981 Z-9.0000 F2000
G1 X136.8992 Y1041.9192 Z-13.3568 F2000
G1 X136.9012 Y1047.9125 Z-14.8947 F2000
G1 X152.9002 Y1047.9036 Z-19.0000 F2000
G1 X136.9012 Y1047.9125 Z-19.0000 F2750
G1 X136.8992 Y1041.9192 Z-19.0000 F2750
G1 X136.8992 Y1063.8989 Z-19.0000 F2750
G1 X136.9012 Y1057.8989 Z-19.0000 F2750
G1 X168.8992 Y1057.8989 Z-19.0000 F2750
G1 X168.8992 Y1063.8989 Z-19.0000 F2750
G1 X168.9012 Y1041.9192 Z-19.0000 F2750
G1 X168.8992 Y1047.8947 Z-19.0000 F2750
G1 X152.9002 Y1047.9036 Z-19.0000 F2750
G1 X152.9002 Y1047.9036 Z10.0000 F9999
G1 X31.8995 Y1053.8984 Z10.0000 F9999
G1 X31.8995 Y1053.8984 Z1.0000 F2000
G1 X31.8995 Y1084.8987 Z-6.9547 F2000
G1 X31.9015 Y1078.8987 Z-8.4943 F2000
G1 X33.8723 Y1078.8987 Z-9.0000 F2000
G1 X31.9015 Y1078.8987 Z-9.5057 F2000
G1 X31.8995 Y1084.8987 Z-11.0453 F2000
G1 X31.8995 Y1053.8984 Z-19.0000 F2000
G1 X31.8995 Y1084.8987 Z-19.0000 F2750
G1 X31.9015 Y1078.8987 Z-19.0000 F2750
G1 X47.9015 Y1078.8987 Z-19.0000 F2750
G1 X41.9015 Y1078.8967 Z-19.0000 F2750
G1 X41.9015 Y1026.8990 Z-19.0000 F2750
G1 X47.9015 Y1026.8990 Z-19.0000 F2750
G1 X31.9015 Y1026.8970 Z-19.0000 F2750
G1 X31.9015 Y1020.8970 Z-19.0000 F2750
G1 X31.8922 Y1037.3977 Z-19.0000 F2750
G1 X31.8995 Y1053.8984 Z-19.0000 F2750
G1 X31.8995 Y1053.8984 Z10.0000 F9999
G1 X31.8995 Y753.8990 Z10.0000 F9999
G1 X31.8995 Y753.8990 Z1.0000 F2000
G1 X31.8995 Y784.8994 Z-6.9547 F2000
G1 X31.9015 Y778.8994 Z-8.4943 F2000
G1 X33.8723 Y778.8994 Z-9.0000 F2000
G1 X31.9015 Y778.8994 Z-9.5057 F2000
G1 X31.8995 Y784.8994 Z-11.0453 F2000
G1 X31.8995 Y753.8990 Z-19.0000 F2000
G1 X31.8995 Y784.8994 Z-19.0000 F2750
G1 X31.9015 Y778.8994 Z-19.0000 F2750
G1 X47.9015 Y778.8994 Z-19.0000 F2750
G1 X41.9015 Y778.8974 Z-19.0000 F2750
G1 X41.9015 Y726.8996 Z-19.0000 F2750
G1 X47.9015 Y726.8996 Z-19.0000 F2750
G1 X31.9015 Y726.8976 Z-19.0000 F2750
G1 X31.9015 Y720.8976 Z-19.0000 F2750
G1 X31.8922 Y737.3983 Z-19.0000 F2750
G1 X31.8995 Y753.8990 Z-19.0000 F2750
G1 X31.8995 Y753.8990 Z10.0000 F9999
G1 X273.9010 Y751.8980 Z10.0000 F9999
G1 X273.9010 Y751.8980 Z1.0000 F2000
G1 X273.9010 Y720.8976 Z-6.9547 F2000
G1 X273.8990 Y726.8976 Z-8.4943 F2000
G1 X271.9282 Y726.8976 Z-9.0000 F2000
G1 X273.8990 Y726.8976 Z-9.5057 F2000
G1 X273.9010 Y720.8976 Z-11.0453 F2000
G1 X273.9010 Y751.8980 Z-19.0000 F2000
G1 X273.9010 Y720.8976 Z-19.0000 F2750
G1 X273.8990 Y726.8976 Z-19.0000 F2750
G1 X257.8990 Y726.8976 Z-19.0000 F2750
G1 X263.8990 Y726.8996 Z-19.0000 F2750
G1 X263.8990 Y778.8974 Z-19.0000 F2750
G1 X257.8990 Y778.8974 Z-19.0000 F2750
G1 X273.8990 Y778.8994 Z-19.0000 F2750
G1 X273.8990 Y784.8994 Z-19.0000 F2750
G1 X273.9082 Y768.3987 Z-19.0000 F2750
G1 X273.9010 Y751.8980 Z-19.0000 F2750
G1 X273.9010 Y751.8980 Z10.0000 F9999
G1 X595.9964 Y1462.4119 Z10.0000 F9999
G1 X595.9964 Y1462.4119 Z1.0000 F2000
G1 X595.9964 Y1475.9109 Z-2.4638 F2000
G1 X590.9964 Y1475.9109 Z-3.7468 F2000
G1 X590.9964 Y1477.9127 Z-4.2605 F2000
G1 X609.4667 Y1477.9127 Z-9.0000 F2000
G1 X590.9964 Y1477.9127 Z-13.7395 F2000
G1 X590.9964 Y1475.9109 Z-14.2532 F2000
G1 X595.9964 Y1475.9109 Z-15.5362 F2000
G1 X595.9964 Y1462.4119 Z-19.0000 F2000
G1 X595.9964 Y1475.9109 Z-19.0000 F2750
G1 X590.9964 Y1475.9109 Z-19.0000 F2750
G1 X590.9964 Y1477.9127 Z-19.0000 F2750
G1 X610.9984 Y1477.9127 Z-19.0000 F2750
G1 X610.9984 Y1475.9109 Z-19.0000 F2750
G1 X605.9984 Y1475.9109 Z-19.0000 F2750
G1 X605.9984 Y1448.9129 Z-19.0000 F2750
G1 X610.9984 Y1448.9129 Z-19.0000 F2750
G1 X610.9984 Y1446.9109 Z-19.0000 F2750
G1 X590.9964 Y1446.9109 Z-19.0000 F2750
G1 X590.9964 Y1448.9129 Z-19.0000 F2750
G1 X595.9964 Y1448.9129 Z-19.0000 F2750
G1 X595.9964 Y1462.4119 Z-19.0000 F2750
G1 X595.9964 Y1462.4119 Z10.0000 F9999
G1 X427.5616 Y2062.5745 Z10.0000 F9999
G1 X427.5616 Y2062.5745 Z1.0000 F2000
G1 X458.5619 Y2062.5745 Z-6.9547 F2000
G1 X452.5619 Y2062.5725 Z-8.4943 F2000
G1 X452.5619 Y2060.6018 Z-9.0000 F2000
G1 X452.5619 Y2062.5725 Z-9.5057 F2000
G1 X458.5619 Y2062.5745 Z-11.0453 F2000
G1 X427.5616 Y2062.5745 Z-19.0000 F2000
G1 X458.5619 Y2062.5745 Z-19.0000 F2750
G1 X452.5619 Y2062.5725 Z-19.0000 F2750
G1 X452.5619 Y2046.5726 Z-19.0000 F2750
G1 X452.5599 Y2052.5726 Z-19.0000 F2750
G1 X400.5622 Y2052.5726 Z-19.0000 F2750
G1 X400.5622 Y2046.5726 Z-19.0000 F2750
G1 X400.5602 Y2062.5725 Z-19.0000 F2750
G1 X394.5602 Y2062.5725 Z-19.0000 F2750
G1 X411.0609 Y2062.5818 Z-19.0000 F2750
G1 X427.5616 Y2062.5745 Z-19.0000 F2750
G1 X427.5616 Y2062.5745 Z10.0000 F9999
G1 X47.4000 Y2226.6657 Z10.0000 F9999
G1 X47.4000 Y2226.6657 Z1.0000 F2000
G1 X33.9010 Y2226.6657 Z-2.4638 F2000
G1 X33.9010 Y2221.6657 Z-3.7468 F2000
G1 X31.8991 Y2221.6657 Z-4.2605 F2000
G1 X31.8991 Y2240.1360 Z-9.0000 F2000
G1 X31.8991 Y2221.6657 Z-13.7395 F2000
G1 X33.9010 Y2221.6657 Z-14.2532 F2000
G1 X33.9010 Y2226.6657 Z-15.5362 F2000
G1 X47.4000 Y2226.6657 Z-19.0000 F2000
G1 X33.9010 Y2226.6657 Z-19.0000 F2750
G1 X33.9010 Y2221.6657 Z-19.0000 F2750
G1 X31.8991 Y2221.6657 Z-19.0000 F2750
G1 X31.8991 Y2241.6677 Z-19.0000 F2750
G1 X33.9010 Y2241.6677 Z-19.0000 F2750
G1 X33.9010 Y2236.6677 Z-19.0000 F2750
G1 X60.8990 Y2236.6677 Z-19.0000 F2750
G1 X60.8990 Y2241.6677 Z-19.0000 F2750
G1 X62.9010 Y2241.6677 Z-19.0000 F2750
G1 X62.9010 Y2221.6657 Z-19.0000 F2750
G1 X60.8990 Y2221.6657 Z-19.0000 F2750
G1 X60.8990 Y2226.6657 Z-19.0000 F2750
G1 X47.4000 Y2226.6657 Z-19.0000 F2750
G1 X47.4000 Y2226.6657 Z10.0000 F9999
(Tool Number:1) (7.998 mm dia. slot drill)
M3 S19000
G1 X367.6834 Y1518.0386 Z10.0000 F9999
G1 X367.6834 Y1518.0386 Z1.0000 F2000
G1 X341.1677 Y1491.5229 Z-8.6222 F2000
G1 X342.2087 Y1490.4819 Z-9.0000 F2000
G1 X341.1677 Y1491.5229 Z-9.3778 F2000
G1 X367.6834 Y1518.0386 Z-19.0000 F2000
G1 X341.1677 Y1491.5229 Z-19.0000 F2750
G1 X344.7032 Y1487.9874 Z-19.0000 F2750
G1 X343.2876 Y1486.5718 Z-19.0000 F2750
G1 X330.8019 Y1499.0575 Z-19.0000 F2750
G1 X323.2464 Y1499.0574 Z-19.0000 F2750
G1 X312.4186 Y1488.2296 Z-19.0000 F2750
G1 X312.4186 Y1480.6741 Z-19.0000 F2750
G1 X324.9043 Y1468.1884 Z-19.0000 F2750
G1 X323.4887 Y1466.7728 Z-19.0000 F2750
G1 X319.9531 Y1470.3083 Z-19.0000 F2750
G1 X308.6408 Y1458.9960 Z-19.0000 F2750
G1 X313.9621 Y1453.6748 Z-19.0000 F2750
G1 X313.9621 Y1453.6748 Z-13.0000 F9999
G1 X333.7597 Y1433.8772 Z-13.0000 F2750
G1 X333.7597 Y1433.8772 Z-19.0000 F2000
G1 X336.2166 Y1431.4203 Z-19.0000 F2750
G1 X365.2079 Y1460.4117 Z-19.0000 F2750
G1 X366.6235 Y1458.9960 Z-19.0000 F2750
G1 X363.0880 Y1455.4605 Z-19.0000 F2750
G1 X391.3707 Y1427.1777 Z-19.0000 F2750
G1 X394.9063 Y1430.7133 Z-19.0000 F2750
G1 X396.3219 Y1429.2976 Z-19.0000 F2750
G1 X367.3306 Y1400.3063 Z-19.0000 F2750
G1 X394.9063 Y1372.7306 Z-19.0000 F2750
G1 X406.2186 Y1384.0429 Z-19.0000 F2750
G1 X402.6830 Y1387.5784 Z-19.0000 F2750
G1 X404.0986 Y1388.9940 Z-19.0000 F2750
G1 X416.5844 Y1376.5083 Z-19.0000 F2750
G1 X424.1398 Y1376.5084 Z-19.0000 F2750
G1 X434.9676 Y1387.3362 Z-19.0000 F2750
G1 X434.9677 Y1394.8917 Z-19.0000 F2750
G1 X422.4820 Y1407.3774 Z-19.0000 F2750
G1 X423.8976 Y1408.7930 Z-19.0000 F2750
G1 X427.4331 Y1405.2575 Z-19.0000 F2750
G1 X480.4646 Y1458.2890 Z-19.0000 F2750
G1 X476.9291 Y1461.8245 Z-19.0000 F2750
G1 X478.3447 Y1463.2401 Z-19.0000 F2750
G1 X490.8304 Y1450.7544 Z-19.0000 F2750
G1 X498.3859 Y1450.7545 Z-19.0000 F2750
G1 X502.2550 Y1454.6235 Z-19.0000 F2750
G1 X502.2550 Y1454.6235 Z-13.0000 F9999
G1 X522.0526 Y1474.4211 Z-13.0000 F2750
G1 X522.0526 Y1474.4211 Z-19.0000 F2000
G1 X524.7700 Y1477.1386 Z-19.0000 F2750
G1 X524.7701 Y1484.6940 Z-19.0000 F2750
G1 X512.2844 Y1497.1798 Z-19.0000 F2750
G1 X513.7000 Y1498.5954 Z-19.0000 F2750
G1 X517.2355 Y1495.0598 Z-19.0000 F2750
G1 X570.2670 Y1548.0913 Z-19.0000 F2750
G1 X566.7315 Y1551.6269 Z-19.0000 F2750
G1 X568.1471 Y1553.0425 Z-19.0000 F2750
G1 X580.6328 Y1540.5568 Z-19.0000 F2750
G1 X588.1883 Y1540.5568 Z-19.0000 F2750
G1 X599.0161 Y1551.3846 Z-19.0000 F2750
G1 X599.0161 Y1558.9401 Z-19.0000 F2750
G1 X586.5304 Y1571.4258 Z-19.0000 F2750
G1 X587.9460 Y1572.8414 Z-19.0000 F2750
G1 X591.4816 Y1569.3059 Z-19.0000 F2750
G1 X602.7939 Y1580.6182 Z-19.0000 F2750
G1 X598.5921 Y1584.8200 Z-19.0000 F2750
G1 X598.5921 Y1584.8200 Z-13.0000 F9999
G1 X578.7945 Y1604.6175 Z-13.0000 F2750
G1 X578.7945 Y1604.6175 Z-19.0000 F2000
G1 X575.2181 Y1608.1939 Z-19.0000 F2750
G1 X546.2268 Y1579.2026 Z-19.0000 F2750
G1 X544.8112 Y1580.6182 Z-19.0000 F2750
G1 X548.3467 Y1584.1537 Z-19.0000 F2750
G1 X520.0639 Y1612.4365 Z-19.0000 F2750
G1 X516.5284 Y1608.9010 Z-19.0000 F2750
G1 X515.1128 Y1610.3166 Z-19.0000 F2750
G1 X544.1041 Y1639.3079 Z-19.0000 F2750
G1 X516.5284 Y1666.8836 Z-19.0000 F2750
G1 X505.2161 Y1655.5713 Z-19.0000 F2750
G1 X508.7517 Y1652.0358 Z-19.0000 F2750
G1 X507.3360 Y1650.6202 Z-19.0000 F2750
G1 X494.8503 Y1663.1059 Z-19.0000 F2750
G1 X487.2949 Y1663.1058 Z-19.0000 F2750
G1 X476.4671 Y1652.2780 Z-19.0000 F2750
G1 X476.4670 Y1644.7226 Z-19.0000 F2750
G1 X488.9527 Y1632.2368 Z-19.0000 F2750
G1 X487.5371 Y1630.8212 Z-19.0000 F2750
G1 X484.0016 Y1634.3568 Z-19.0000 F2750
G1 X430.9701 Y1581.3253 Z-19.0000 F2750
G1 X434.5056 Y1577.7897 Z-19.0000 F2750
G1 X433.0900 Y1576.3741 Z-19.0000 F2750
G1 X420.6043 Y1588.8598 Z-19.0000 F2750
G1 X413.0488 Y1588.8598 Z-19.0000 F2750
G1 X410.7628 Y1586.5737 Z-19.0000 F2750
G1 X410.7628 Y1586.5737 Z-13.0000 F9999
G1 X390.9652 Y1566.7761 Z-13.0000 F2750
G1 X390.9652 Y1566.7761 Z-19.0000 F2000
G1 X386.6647 Y1562.4757 Z-19.0000 F2750
G1 X386.6646 Y1554.9202 Z-19.0000 F2750
G1 X399.1503 Y1542.4345 Z-19.0000 F2750
G1 X397.7347 Y1541.0189 Z-19.0000 F2750
G1 X394.1992 Y1544.5544 Z-19.0000 F2750
G1 X367.6834 Y1518.0386 Z-19.0000 F2750
G1 X367.6834 Y1518.0386 Z10.0000 F9999
G1 X794.9963 Y1526.5022 Z10.0000 F9999
G1 X794.9963 Y1526.5022 Z1.0000 F2000
G1 X794.9963 Y1564.0011 Z-8.6222 F2000
G1 X793.5241 Y1564.0011 Z-9.0000 F2000
G1 X794.9963 Y1564.0011 Z-9.3778 F2000
G1 X794.9963 Y1526.5022 Z-19.0000 F2000
G1 X794.9963 Y1564.0011 Z-19.0000 F2750
G1 X789.9963 Y1564.0011 Z-19.0000 F2750
G1 X789.9963 Y1566.0031 Z-19.0000 F2750
G1 X807.6538 Y1566.0031 Z-19.0000 F2750
G1 X812.9963 Y1571.3457 Z-19.0000 F2750
G1 X812.9963 Y1577.4366 Z-19.0000 F2750
G1 X812.9963 Y1577.4366 Z-13.0000 F9999
G1 X812.9963 Y1605.4346 Z-13.0000 F2750
G1 X812.9963 Y1605.4346 Z-19.0000 F2000
G1 X812.9963 Y1608.6585 Z-19.0000 F2750
G1 X807.6538 Y1614.0010 Z-19.0000 F2750
G1 X789.9963 Y1614.0010 Z-19.0000 F2750
G1 X789.9963 Y1616.0030 Z-19.0000 F2750
G1 X794.9963 Y1616.0030 Z-19.0000 F2750
G1 X794.9963 Y1691.0009 Z-19.0000 F2750
G1 X789.9963 Y1691.0009 Z-19.0000 F2750
G1 X789.9963 Y1693.0028 Z-19.0000 F2750
G1 X807.6538 Y1693.0028 Z-19.0000 F2750
G1 X812.9963 Y1698.3454 Z-19.0000 F2750
G1 X812.9963 Y1713.6582 Z-19.0000 F2750
G1 X807.6538 Y1719.0008 Z-19.0000 F2750
G1 X789.9963 Y1719.0008 Z-19.0000 F2750
G1 X789.9963 Y1721.0028 Z-19.0000 F2750
G1 X794.9963 Y1721.0028 Z-19.0000 F2750
G1 X794.9963 Y1737.0008 Z-19.0000 F2750
G1 X793.1079 Y1737.0008 Z-19.0000 F2750
G1 X793.1079 Y1737.0008 Z-13.0000 F9999
G1 X765.1099 Y1737.0008 Z-13.0000 F2750
G1 X765.1099 Y1737.0008 Z-19.0000 F2000
G1 X755.9984 Y1737.0008 Z-19.0000 F2750
G1 X755.9984 Y1696.0009 Z-19.0000 F2750
G1 X753.9964 Y1696.0009 Z-19.0000 F2750
G1 X753.9964 Y1701.0008 Z-19.0000 F2750
G1 X713.9985 Y1701.0008 Z-19.0000 F2750
G1 X713.9985 Y1696.0009 Z-19.0000 F2750
G1 X711.9965 Y1696.0009 Z-19.0000 F2750
G1 X711.9965 Y1737.0008 Z-19.0000 F2750
G1 X672.9986 Y1737.0008 Z-19.0000 F2750
G1 X672.9986 Y1721.0028 Z-19.0000 F2750
G1 X677.9986 Y1721.0028 Z-19.0000 F2750
G1 X677.9986 Y1719.0008 Z-19.0000 F2750
G1 X660.3411 Y1719.0008 Z-19.0000 F2750
G1 X654.9986 Y1713.6582 Z-19.0000 F2750
G1 X654.9986 Y1698.3454 Z-19.0000 F2750
G1 X660.3411 Y1693.0028 Z-19.0000 F2750
G1 X677.9986 Y1693.0028 Z-19.0000 F2750
G1 X677.9986 Y1691.0009 Z-19.0000 F2750
G1 X672.9986 Y1691.0009 Z-19.0000 F2750
G1 X672.9986 Y1616.0030 Z-19.0000 F2750
G1 X677.9986 Y1616.0030 Z-19.0000 F2750
G1 X677.9986 Y1614.0010 Z-19.0000 F2750
G1 X660.3411 Y1614.0010 Z-19.0000 F2750
G1 X654.9986 Y1608.6585 Z-19.0000 F2750
G1 X654.9986 Y1603.7090 Z-19.0000 F2750
G1 X654.9986 Y1603.7090 Z-13.0000 F9999
G1 X654.9986 Y1575.7110 Z-13.0000 F2750
G1 X654.9986 Y1575.7110 Z-19.0000 F2000
G1 X654.9986 Y1571.3457 Z-19.0000 F2750
G1 X660.3411 Y1566.0031 Z-19.0000 F2750
G1 X677.9986 Y1566.0031 Z-19.0000 F2750
G1 X677.9986 Y1564.0011 Z-19.0000 F2750
G1 X672.9986 Y1564.0011 Z-19.0000 F2750
G1 X672.9986 Y1489.0033 Z-19.0000 F2750
G1 X677.9986 Y1489.0033 Z-19.0000 F2750
G1 X677.9986 Y1487.0013 Z-19.0000 F2750
G1 X660.3411 Y1487.0013 Z-19.0000 F2750
G1 X654.9986 Y1481.6587 Z-19.0000 F2750
G1 X654.9986 Y1466.3459 Z-19.0000 F2750
G1 X660.3411 Y1461.0033 Z-19.0000 F2750
G1 X677.9986 Y1461.0033 Z-19.0000 F2750
G1 X677.9986 Y1459.0013 Z-19.0000 F2750
G1 X672.9986 Y1459.0013 Z-19.0000 F2750
G1 X672.9986 Y1443.0034 Z-19.0000 F2750
G1 X679.6927 Y1443.0034 Z-19.0000 F2750
G1 X679.6927 Y1443.0034 Z-13.0000 F9999
G1 X707.6907 Y1443.0034 Z-13.0000 F2750
G1 X707.6907 Y1443.0034 Z-19.0000 F2000
G1 X711.9965 Y1443.0034 Z-19.0000 F2750
G1 X711.9965 Y1484.0033 Z-19.0000 F2750
G1 X713.9985 Y1484.0033 Z-19.0000 F2750
G1 X713.9985 Y1479.0033 Z-19.0000 F2750
G1 X753.9964 Y1479.0033 Z-19.0000 F2750
G1 X753.9964 Y1484.0033 Z-19.0000 F2750
G1 X755.9984 Y1484.0033 Z-19.0000 F2750
G1 X755.9984 Y1443.0034 Z-19.0000 F2750
G1 X794.9963 Y1443.0034 Z-19.0000 F2750
G1 X794.9963 Y1459.0013 Z-19.0000 F2750
G1 X789.9963 Y1459.0013 Z-19.0000 F2750
G1 X789.9963 Y1461.0033 Z-19.0000 F2750
G1 X807.6538 Y1461.0033 Z-19.0000 F2750
G1 X812.9963 Y1466.3459 Z-19.0000 F2750
G1 X812.9963 Y1481.6587 Z-19.0000 F2750
G1 X807.6538 Y1487.0013 Z-19.0000 F2750
G1 X789.9963 Y1487.0013 Z-19.0000 F2750
G1 X789.9963 Y1489.0033 Z-19.0000 F2750
G1 X794.9963 Y1489.0033 Z-19.0000 F2750
G1 X794.9963 Y1526.5022 Z-19.0000 F2750
G1 X794.9963 Y1526.5022 Z10.0000 F9999
G1 X471.9986 Y890.4102 Z10.0000 F9999
G1 X471.9986 Y890.4102 Z1.0000 F2000
G1 X471.9986 Y851.4390 Z-9.0000 F2000
G1 X471.9986 Y890.4102 Z-19.0000 F2000
G1 X471.9986 Y481.6369 Z-19.0000 F2750
G1 X471.9986 Y481.6369 Z-13.0000 F9999
G1 X471.9986 Y453.6389 Z-13.0000 F2750
G1 X471.9986 Y453.6389 Z-19.0000 F2000
G1 X471.9986 Y370.9151 Z-19.0000 F2750
G1 X558.9965 Y370.9151 Z-19.0000 F2750
G1 X558.9965 Y375.9150 Z-19.0000 F2750
G1 X560.9985 Y375.9150 Z-19.0000 F2750
G1 X560.9985 Y295.9152 Z-19.0000 F2750
G1 X640.9963 Y295.9152 Z-19.0000 F2750
G1 X640.9963 Y375.9150 Z-19.0000 F2750
G1 X642.9983 Y375.9150 Z-19.0000 F2750
G1 X642.9983 Y370.9151 Z-19.0000 F2750
G1 X747.9960 Y370.9151 Z-19.0000 F2750
G1 X747.9960 Y408.9130 Z-19.0000 F2750
G1 X724.9960 Y408.9130 Z-19.0000 F2750
G1 X724.9960 Y410.9149 Z-19.0000 F2750
G1 X729.9960 Y410.9149 Z-19.0000 F2750
G1 X729.9960 Y477.7973 Z-19.0000 F2750
G1 X729.9960 Y477.7973 Z-13.0000 F9999
G1 X729.9960 Y505.7953 Z-13.0000 F2750
G1 X729.9960 Y505.7953 Z-19.0000 F2000
G1 X729.9960 Y853.9121 Z-19.0000 F2750
G1 X724.9960 Y853.9121 Z-19.0000 F2750
G1 X724.9960 Y855.9140 Z-19.0000 F2750
G1 X747.9960 Y855.9140 Z-19.0000 F2750
G1 X747.9960 Y943.9119 Z-19.0000 F2750
G1 X724.9960 Y943.9119 Z-19.0000 F2750
G1 X724.9960 Y945.9138 Z-19.0000 F2750
G1 X729.9960 Y945.9138 Z-19.0000 F2750
G1 X729.9960 Y1296.5951 Z-19.0000 F2750
G1 X729.9960 Y1296.5951 Z-13.0000 F9999
G1 X729.9960 Y1324.5931 Z-13.0000 F2750
G1 X729.9960 Y1324.5931 Z-19.0000 F2000
G1 X729.9960 Y1388.9110 Z-19.0000 F2750
G1 X724.9960 Y1388.9110 Z-19.0000 F2750
G1 X724.9960 Y1390.9130 Z-19.0000 F2750
G1 X747.9960 Y1390.9130 Z-19.0000 F2750
G1 X747.9960 Y1428.9109 Z-19.0000 F2750
G1 X642.9983 Y1428.9109 Z-19.0000 F2750
G1 X642.9983 Y1423.9109 Z-19.0000 F2750
G1 X640.9963 Y1423.9109 Z-19.0000 F2750
G1 X640.9963 Y1503.9109 Z-19.0000 F2750
G1 X560.9985 Y1503.9109 Z-19.0000 F2750
G1 X560.9985 Y1423.9109 Z-19.0000 F2750
G1 X558.9965 Y1423.9109 Z-19.0000 F2750
G1 X558.9965 Y1428.9109 Z-19.0000 F2750
G1 X471.9986 Y1428.9109 Z-19.0000 F2750
G1 X471.9986 Y1327.1815 Z-19.0000 F2750
G1 X471.9986 Y1327.1815 Z-13.0000 F9999
G1 X471.9986 Y1299.1835 Z-13.0000 F2750
G1 X471.9986 Y1299.1835 Z-19.0000 F2000
G1 X471.9986 Y890.4102 Z-19.0000 F2750
G1 X471.9986 Y890.4102 Z10.0000 F9999
G1 X879.5608 Y1041.5755 Z10.0000 F9999
G1 X879.5608 Y1041.5755 Z1.0000 F2000
G1 X879.5608 Y1002.6044 Z-9.0000 F2000
G1 X879.5608 Y1041.5755 Z-19.0000 F2000
G1 X879.5608 Y947.5767 Z-19.0000 F2750
G1 X902.5608 Y947.5767 Z-19.0000 F2750
G1 X902.5608 Y945.5747 Z-19.0000 F2750
G1 X897.5608 Y945.5747 Z-19.0000 F2750
G1 X897.5608 Y837.5771 Z-19.0000 F2750
G1 X902.5608 Y837.5771 Z-19.0000 F2750
G1 X902.5608 Y835.5751 Z-19.0000 F2750
G1 X879.5608 Y835.5751 Z-19.0000 F2750
G1 X879.5608 Y647.5776 Z-19.0000 F2750
G1 X902.5608 Y647.5776 Z-19.0000 F2750
G1 X902.5608 Y645.5756 Z-19.0000 F2750
G1 X897.5608 Y645.5756 Z-19.0000 F2750
G1 X897.5607 Y537.5777 Z-19.0000 F2750
G1 X902.5608 Y537.5777 Z-19.0000 F2750
G1 X902.5608 Y535.5757 Z-19.0000 F2750
G1 X879.5610 Y535.5757 Z-19.0000 F2750
G1 X879.5610 Y388.0230 Z-19.0000 F2750
G1 X879.5610 Y388.0230 Z-13.0000 F9999
G1 X879.5610 Y360.0250 Z-13.0000 F2750
G1 X879.5610 Y360.0250 Z-19.0000 F2000
G1 X879.5610 Y347.5780 Z-19.0000 F2750
G1 X902.5608 Y347.5780 Z-19.0000 F2750
G1 X902.5608 Y330.2999 Z-19.0000 F2750
G1 X941.4456 Y330.5754 Z-19.0000 F2750
G1 X944.0520 Y330.0782 Z-19.0000 F2750
G1 X946.1698 Y328.6870 Z-19.0000 F2750
G1 X947.5607 Y326.5695 Z-19.0000 F2750
G1 X948.0606 Y323.9489 Z-19.0000 F2750
G1 X948.0606 Y258.9490 Z-19.0000 F2750
G1 X948.9652 Y254.2076 Z-19.0000 F2750
G1 X952.0277 Y249.5452 Z-19.0000 F2750
G1 X956.6901 Y246.4828 Z-19.0000 F2750
G1 X961.4315 Y245.5782 Z-19.0000 F2750
G1 X991.6875 Y245.5782 Z-19.0000 F2750
G1 X996.4291 Y246.4828 Z-19.0000 F2750
G1 X1001.0916 Y249.5452 Z-19.0000 F2750
G1 X1004.1542 Y254.2077 Z-19.0000 F2750
G1 X1005.0585 Y258.9491 Z-19.0000 F2750
G1 X1005.0585 Y323.9489 Z-19.0000 F2750
G1 X1005.5583 Y326.5693 Z-19.0000 F2750
G1 X1006.9495 Y328.6870 Z-19.0000 F2750
G1 X1009.0674 Y330.0782 Z-19.0000 F2750
G1 X1011.6875 Y330.5780 Z-19.0000 F2750
G1 X1041.4314 Y330.5780 Z-19.0000 F2750
G1 X1044.0517 Y330.0782 Z-19.0000 F2750
G1 X1046.1697 Y328.6870 Z-19.0000 F2750
G1 X1047.5606 Y326.5695 Z-19.0000 F2750
G1 X1048.0605 Y323.9489 Z-19.0000 F2750
G1 X1048.0605 Y258.9490 Z-19.0000 F2750
G1 X1048.9651 Y254.2076 Z-19.0000 F2750
G1 X1052.0274 Y249.5453 Z-19.0000 F2750
G1 X1056.6899 Y246.4828 Z-19.0000 F2750
G1 X1061.4314 Y245.5782 Z-19.0000 F2750
G1 X1064.0703 Y245.5782 Z-19.0000 F2750
G1 X1064.0703 Y245.5782 Z-13.0000 F9999
G1 X1091.6875 Y245.5782 Z-13.0000 F2750
G1 X1092.0616 Y245.6495 Z-13.0000 F2750
G1 X1092.0616 Y245.6495 Z-19.0000 F2000
G1 X1096.4291 Y246.4828 Z-19.0000 F2750
G1 X1101.0912 Y249.5453 Z-19.0000 F2750
G1 X1104.1538 Y254.2075 Z-19.0000 F2750
G1 X1105.0585 Y258.9490 Z-19.0000 F2750
G1 X1105.0585 Y323.9489 Z-19.0000 F2750
G1 X1105.5583 Y326.5695 Z-19.0000 F2750
G1 X1106.9493 Y328.6871 Z-19.0000 F2750
G1 X1109.0670 Y330.0782 Z-19.0000 F2750
G1 X1111.6873 Y330.5780 Z-19.0000 F2750
G1 X1155.5585 Y330.5780 Z-19.0000 F2750
G1 X1155.5585 Y345.5760 Z-19.0000 F2750
G1 X1150.5585 Y345.5760 Z-19.0000 F2750
G1 X1150.5585 Y347.5780 Z-19.0000 F2750
G1 X1173.5582 Y347.5780 Z-19.0000 F2750
G1 X1173.5582 Y535.5757 Z-19.0000 F2750
G1 X1150.5585 Y535.5757 Z-19.0000 F2750
G1 X1150.5585 Y537.5777 Z-19.0000 F2750
G1 X1155.5585 Y537.5777 Z-19.0000 F2750
G1 X1155.5582 Y645.5756 Z-19.0000 F2750
G1 X1150.5582 Y645.5756 Z-19.0000 F2750
G1 X1150.5582 Y647.5776 Z-19.0000 F2750
G1 X1173.5582 Y647.5776 Z-19.0000 F2750
G1 X1173.5582 Y835.5751 Z-19.0000 F2750
G1 X1150.5582 Y835.5751 Z-19.0000 F2750
G1 X1150.5582 Y837.5772 Z-19.0000 F2750
G1 X1155.5582 Y837.5772 Z-19.0000 F2750
G1 X1155.5582 Y945.5748 Z-19.0000 F2750
G1 X1150.5582 Y945.5748 Z-19.0000 F2750
G1 X1150.5582 Y947.5768 Z-19.0000 F2750
G1 X1173.5582 Y947.5768 Z-19.0000 F2750
G1 X1173.5582 Y1135.5744 Z-19.0000 F2750
G1 X1150.5582 Y1135.5744 Z-19.0000 F2750
G1 X1150.5582 Y1137.5765 Z-19.0000 F2750
G1 X1155.5582 Y1137.5765 Z-19.0000 F2750
G1 X1155.5582 Y1245.5743 Z-19.0000 F2750
G1 X1150.5582 Y1245.5743 Z-19.0000 F2750
G1 X1150.5582 Y1247.5762 Z-19.0000 F2750
G1 X1173.5582 Y1247.5762 Z-19.0000 F2750
G1 X1173.5582 Y1435.5738 Z-19.0000 F2750
G1 X1150.5582 Y1435.5738 Z-19.0000 F2750
G1 X1150.5582 Y1437.5758 Z-19.0000 F2750
G1 X1155.5582 Y1437.5758 Z-19.0000 F2750
G1 X1155.5587 Y1545.5736 Z-19.0000 F2750
G1 X1150.5587 Y1545.5736 Z-19.0000 F2750
G1 X1150.5587 Y1547.5756 Z-19.0000 F2750
G1 X1173.5587 Y1547.5756 Z-19.0000 F2750
G1 X1173.5587 Y1735.5732 Z-19.0000 F2750
G1 X1150.5587 Y1735.5732 Z-19.0000 F2750
G1 X1150.5587 Y1737.5752 Z-19.0000 F2750
G1 X1155.5587 Y1737.5752 Z-19.0000 F2750
G1 X1155.5587 Y1845.5730 Z-19.0000 F2750
G1 X1150.5587 Y1845.5730 Z-19.0000 F2750
G1 X1150.5587 Y1847.5750 Z-19.0000 F2750
G1 X1173.5587 Y1847.5750 Z-19.0000 F2750
G1 X1173.5587 Y2035.5726 Z-19.0000 F2750
G1 X1150.5587 Y2035.5726 Z-19.0000 F2750
G1 X1150.5587 Y2037.5746 Z-19.0000 F2750
G1 X1155.5587 Y2037.5746 Z-19.0000 F2750
G1 X1155.5587 Y2070.5725 Z-19.0000 F2750
G1 X1103.5607 Y2070.5725 Z-19.0000 F2750
G1 X1103.5607 Y2065.5726 Z-19.0000 F2750
G1 X1101.5588 Y2065.5726 Z-19.0000 F2750
G1 X1101.5588 Y2088.5725 Z-19.0000 F2750
G1 X1063.5608 Y2088.5725 Z-19.0000 F2750
G1 X1063.5608 Y2036.5746 Z-19.0000 F2750
G1 X1068.5607 Y2036.5746 Z-19.0000 F2750
G1 X1068.5607 Y2034.5726 Z-19.0000 F2750
G1 X984.5590 Y2034.5726 Z-19.0000 F2750
G1 X984.5590 Y2036.5746 Z-19.0000 F2750
G1 X989.5590 Y2036.5746 Z-19.0000 F2750
G1 X989.5590 Y2070.5725 Z-19.0000 F2750
G1 X822.5613 Y2070.5725 Z-19.0000 F2750
G1 X822.5613 Y2065.5726 Z-19.0000 F2750
G1 X820.5593 Y2065.5726 Z-19.0000 F2750
G1 X820.5593 Y2088.5725 Z-19.0000 F2750
G1 X816.4035 Y2088.5725 Z-19.0000 F2750
G1 X816.4035 Y2088.5725 Z-13.0000 F9999
G1 X788.4055 Y2088.5725 Z-13.0000 F2750
G1 X788.4055 Y2088.5725 Z-19.0000 F2000
G1 X632.5617 Y2088.5725 Z-19.0000 F2750
G1 X632.5617 Y2065.5726 Z-19.0000 F2750
G1 X630.5597 Y2065.5726 Z-19.0000 F2750
G1 X630.5597 Y2070.5725 Z-19.0000 F2750
G1 X522.5619 Y2070.5725 Z-19.0000 F2750
G1 X522.5619 Y2065.5726 Z-19.0000 F2750
G1 X520.5599 Y2065.5726 Z-19.0000 F2750
G1 X520.5599 Y2088.5725 Z-19.0000 F2750
G1 X377.2380 Y2088.5725 Z-19.0000 F2750
G1 X377.2380 Y2088.5725 Z-13.0000 F9999
G1 X349.2400 Y2088.5725 Z-13.0000 F2750
G1 X349.2400 Y2088.5725 Z-19.0000 F2000
G1 X332.5622 Y2088.5725 Z-19.0000 F2750
G1 X332.5622 Y2065.5726 Z-19.0000 F2750
G1 X330.5603 Y2065.5726 Z-19.0000 F2750
G1 X330.5603 Y2070.5725 Z-19.0000 F2750
G1 X245.5622 Y2070.5725 Z-19.0000 F2750
G1 X245.5622 Y2026.7016 Z-19.0000 F2750
G1 X245.0624 Y2024.0812 Z-19.0000 F2750
G1 X243.6715 Y2021.9635 Z-19.0000 F2750
G1 X241.5535 Y2020.5725 Z-19.0000 F2750
G1 X238.9333 Y2020.0726 Z-19.0000 F2750
G1 X173.9334 Y2020.0726 Z-19.0000 F2750
G1 X169.1919 Y2019.1682 Z-19.0000 F2750
G1 X164.5295 Y2016.1057 Z-19.0000 F2750
G1 X161.4667 Y2011.4432 Z-19.0000 F2750
G1 X160.5624 Y2006.7016 Z-19.0000 F2750
G1 X160.5624 Y2003.1857 Z-19.0000 F2750
G1 X160.5624 Y2003.1857 Z-13.0000 F9999
G1 X160.5624 Y1976.4458 Z-13.0000 F2750
G1 X160.7981 Y1975.2100 Z-13.0000 F2750
G1 X160.7981 Y1975.2100 Z-19.0000 F2000
G1 X161.4667 Y1971.7042 Z-19.0000 F2750
G1 X164.5295 Y1967.0417 Z-19.0000 F2750
G1 X169.1919 Y1963.9792 Z-19.0000 F2750
G1 X173.9334 Y1963.0747 Z-19.0000 F2750
G1 X238.9333 Y1963.0747 Z-19.0000 F2750
G1 X241.5535 Y1962.5749 Z-19.0000 F2750
G1 X243.6715 Y1961.1839 Z-19.0000 F2750
G1 X245.0624 Y1959.0662 Z-19.0000 F2750
G1 X245.5622 Y1956.4458 Z-19.0000 F2750
G1 X245.5622 Y1926.7018 Z-19.0000 F2750
G1 X245.0624 Y1924.0814 Z-19.0000 F2750
G1 X243.6715 Y1921.9637 Z-19.0000 F2750
G1 X241.5535 Y1920.5726 Z-19.0000 F2750
G1 X238.9333 Y1920.0728 Z-19.0000 F2750
G1 X173.9334 Y1920.0728 Z-19.0000 F2750
G1 X169.1919 Y1919.1684 Z-19.0000 F2750
G1 X164.5295 Y1916.1059 Z-19.0000 F2750
G1 X161.4667 Y1911.4434 Z-19.0000 F2750
G1 X160.5624 Y1906.7018 Z-19.0000 F2750
G1 X160.5624 Y1876.4460 Z-19.0000 F2750
G1 X161.4667 Y1871.7044 Z-19.0000 F2750
G1 X164.5294 Y1867.0419 Z-19.0000 F2750
G1 X169.1919 Y1863.9794 Z-19.0000 F2750
G1 X173.9334 Y1863.0749 Z-19.0000 F2750
G1 X238.9333 Y1863.0749 Z-19.0000 F2750
G1 X241.5535 Y1862.5751 Z-19.0000 F2750
G1 X243.6715 Y1861.1840 Z-19.0000 F2750
G1 X245.0624 Y1859.0664 Z-19.0000 F2750
G1 X245.5622 Y1856.4460 Z-19.0000 F2750
G1 X245.5622 Y1812.5751 Z-19.0000 F2750
G1 X330.5603 Y1812.5751 Z-19.0000 F2750
G1 X330.5603 Y1817.5750 Z-19.0000 F2750
G1 X332.5622 Y1817.5750 Z-19.0000 F2750
G1 X332.5622 Y1794.5751 Z-19.0000 F2750
G1 X343.6318 Y1794.5751 Z-19.0000 F2750
G1 X343.6318 Y1794.5751 Z-13.0000 F9999
G1 X371.6298 Y1794.5751 Z-13.0000 F2750
G1 X371.6298 Y1794.5751 Z-19.0000 F2000
G1 X520.5599 Y1794.5751 Z-19.0000 F2750
G1 X520.5599 Y1817.5750 Z-19.0000 F2750
G1 X522.5619 Y1817.5750 Z-19.0000 F2750
G1 X522.5619 Y1812.5751 Z-19.0000 F2750
G1 X630.5597 Y1812.5751 Z-19.0000 F2750
G1 X630.5597 Y1817.5750 Z-19.0000 F2750
G1 X632.5617 Y1817.5750 Z-19.0000 F2750
G1 X632.5617 Y1794.5751 Z-19.0000 F2750
G1 X820.5593 Y1794.5751 Z-19.0000 F2750
G1 X820.5593 Y1817.5750 Z-19.0000 F2750
G1 X822.5613 Y1817.5750 Z-19.0000 F2750
G1 X822.5613 Y1812.5751 Z-19.0000 F2750
G1 X897.5591 Y1812.5751 Z-19.0000 F2750
G1 X897.5611 Y1818.5751 Z-19.0000 F2750
G1 X897.5611 Y1737.5752 Z-19.0000 F2750
G1 X902.5612 Y1737.5752 Z-19.0000 F2750
G1 X902.5612 Y1735.5732 Z-19.0000 F2750
G1 X879.5612 Y1735.5732 Z-19.0000 F2750
G1 X879.5612 Y1547.5756 Z-19.0000 F2750
G1 X902.5612 Y1547.5756 Z-19.0000 F2750
G1 X902.5612 Y1545.5736 Z-19.0000 F2750
G1 X897.5611 Y1545.5736 Z-19.0000 F2750
G1 X897.5608 Y1437.5758 Z-19.0000 F2750
G1 X902.5608 Y1437.5758 Z-19.0000 F2750
G1 X902.5608 Y1435.5738 Z-19.0000 F2750
G1 X879.5608 Y1435.5738 Z-19.0000 F2750
G1 X879.5608 Y1247.5762 Z-19.0000 F2750
G1 X902.5608 Y1247.5762 Z-19.0000 F2750
G1 X902.5608 Y1245.5742 Z-19.0000 F2750
G1 X897.5608 Y1245.5742 Z-19.0000 F2750
G1 X897.5608 Y1137.5763 Z-19.0000 F2750
G1 X902.5608 Y1137.5763 Z-19.0000 F2750
G1 X902.5608 Y1135.5744 Z-19.0000 F2750
G1 X879.5608 Y1135.5744 Z-19.0000 F2750
G1 X879.5608 Y1041.5755 Z-19.0000 F2750
G1 X879.5608 Y1041.5755 Z10.0000 F9999
G1 X609.8989 Y2102.6679 Z10.0000 F9999
G1 X609.8989 Y2102.6679 Z1.0000 F2000
G1 X648.8700 Y2102.6679 Z-9.0000 F2000
G1 X609.8989 Y2102.6679 Z-19.0000 F2000
G1 X1138.8968 Y2102.6679 Z-19.0000 F2750
G1 X1138.8968 Y2189.6658 Z-19.0000 F2750
G1 X1133.8969 Y2189.6658 Z-19.0000 F2750
G1 X1133.8969 Y2191.6678 Z-19.0000 F2750
G1 X1213.8967 Y2191.6678 Z-19.0000 F2750
G1 X1213.8967 Y2271.6656 Z-19.0000 F2750
G1 X1133.8969 Y2271.6656 Z-19.0000 F2750
G1 X1133.8969 Y2273.6676 Z-19.0000 F2750
G1 X1138.8968 Y2273.6676 Z-19.0000 F2750
G1 X1138.8968 Y2378.6653 Z-19.0000 F2750
G1 X1100.8989 Y2378.6653 Z-19.0000 F2750
G1 X1100.8989 Y2355.6653 Z-19.0000 F2750
G1 X1098.8969 Y2355.6653 Z-19.0000 F2750
G1 X1098.8969 Y2360.6653 Z-19.0000 F2750
G1 X655.8998 Y2360.6653 Z-19.0000 F2750
G1 X655.8998 Y2355.6653 Z-19.0000 F2750
G1 X653.8978 Y2355.6653 Z-19.0000 F2750
G1 X653.8978 Y2378.6653 Z-19.0000 F2750
G1 X565.9000 Y2378.6653 Z-19.0000 F2750
G1 X565.9000 Y2355.6653 Z-19.0000 F2750
G1 X563.8980 Y2355.6653 Z-19.0000 F2750
G1 X563.8980 Y2360.6653 Z-19.0000 F2750
G1 X120.9009 Y2360.6653 Z-19.0000 F2750
G1 X120.9009 Y2355.6653 Z-19.0000 F2750
G1 X118.8989 Y2355.6653 Z-19.0000 F2750
G1 X118.8989 Y2378.6653 Z-19.0000 F2750
G1 X80.9010 Y2378.6653 Z-19.0000 F2750
G1 X80.9010 Y2273.6676 Z-19.0000 F2750
G1 X85.9010 Y2273.6676 Z-19.0000 F2750
G1 X85.9010 Y2271.6656 Z-19.0000 F2750
G1 X5.9010 Y2271.6656 Z-19.0000 F2750
G1 X5.9010 Y2191.6678 Z-19.0000 F2750
G1 X85.9010 Y2191.6678 Z-19.0000 F2750
G1 X85.9010 Y2189.6658 Z-19.0000 F2750
G1 X80.9010 Y2189.6658 Z-19.0000 F2750
G1 X80.9010 Y2102.6679 Z-19.0000 F2750
G1 X609.8989 Y2102.6679 Z-19.0000 F2750
G1 X609.8989 Y2102.6679 Z10.0000 F9999
G1 X752.8987 Y5.9010 Z10.0000 F9999
G1 X752.8987 Y5.9010 Z1.0000 F2000
G1 X791.8698 Y5.9010 Z-9.0000 F2000
G1 X752.8987 Y5.9010 Z-19.0000 F2000
G1 X846.8975 Y5.9010 Z-19.0000 F2750
G1 X846.8975 Y28.9010 Z-19.0000 F2750
G1 X848.8994 Y28.9010 Z-19.0000 F2750
G1 X848.8994 Y23.9010 Z-19.0000 F2750
G1 X933.8975 Y23.9010 Z-19.0000 F2750
G1 X933.8975 Y67.7719 Z-19.0000 F2750
G1 X934.3973 Y70.3923 Z-19.0000 F2750
G1 X935.7882 Y72.5100 Z-19.0000 F2750
G1 X937.9062 Y73.9010 Z-19.0000 F2750
G1 X940.5264 Y74.4009 Z-19.0000 F2750
G1 X1005.5263 Y74.4009 Z-19.0000 F2750
G1 X1010.2678 Y75.3053 Z-19.0000 F2750
G1 X1014.9303 Y78.3678 Z-19.0000 F2750
G1 X1017.9930 Y83.0303 Z-19.0000 F2750
G1 X1018.8973 Y87.7719 Z-19.0000 F2750
G1 X1018.8973 Y118.0277 Z-19.0000 F2750
G1 X1017.9930 Y122.7693 Z-19.0000 F2750
G1 X1014.9303 Y127.4318 Z-19.0000 F2750
G1 X1010.2678 Y130.4943 Z-19.0000 F2750
G1 X1005.5263 Y131.3988 Z-19.0000 F2750
G1 X940.5264 Y131.3988 Z-19.0000 F2750
G1 X937.9062 Y131.8986 Z-19.0000 F2750
G1 X935.7882 Y133.2897 Z-19.0000 F2750
G1 X934.3973 Y135.4073 Z-19.0000 F2750
G1 X933.8975 Y138.0277 Z-19.0000 F2750
G1 X933.8975 Y167.7717 Z-19.0000 F2750
G1 X934.3973 Y170.3921 Z-19.0000 F2750
G1 X935.7882 Y172.5098 Z-19.0000 F2750
G1 X937.9062 Y173.9009 Z-19.0000 F2750
G1 X940.5264 Y174.4007 Z-19.0000 F2750
G1 X1005.5263 Y174.4007 Z-19.0000 F2750
G1 X1010.2678 Y175.3051 Z-19.0000 F2750
G1 X1014.9303 Y178.3676 Z-19.0000 F2750
G1 X1017.9930 Y183.0301 Z-19.0000 F2750
G1 X1018.8973 Y187.7717 Z-19.0000 F2750
G1 X1018.8973 Y218.0275 Z-19.0000 F2750
G1 X1017.9930 Y222.7691 Z-19.0000 F2750
G1 X1014.9303 Y227.4316 Z-19.0000 F2750
G1 X1010.2678 Y230.4941 Z-19.0000 F2750
G1 X1005.5263 Y231.3986 Z-19.0000 F2750
G1 X940.5264 Y231.3986 Z-19.0000 F2750
G1 X937.9062 Y231.8984 Z-19.0000 F2750
G1 X935.7882 Y233.2895 Z-19.0000 F2750
G1 X934.3973 Y235.4071 Z-19.0000 F2750
G1 X933.8975 Y238.0275 Z-19.0000 F2750
G1 X933.8975 Y281.8985 Z-19.0000 F2750
G1 X848.8994 Y281.8985 Z-19.0000 F2750
G1 X848.8994 Y276.8985 Z-19.0000 F2750
G1 X846.8975 Y276.8985 Z-19.0000 F2750
G1 X846.8975 Y299.8984 Z-19.0000 F2750
G1 X658.8998 Y299.8984 Z-19.0000 F2750
G1 X658.8998 Y276.8985 Z-19.0000 F2750
G1 X656.8978 Y276.8985 Z-19.0000 F2750
G1 X656.8978 Y281.8985 Z-19.0000 F2750
G1 X548.9000 Y281.8985 Z-19.0000 F2750
G1 X548.9000 Y276.8985 Z-19.0000 F2750
G1 X546.8980 Y276.8985 Z-19.0000 F2750
G1 X546.8980 Y299.8984 Z-19.0000 F2750
G1 X358.9004 Y299.8984 Z-19.0000 F2750
G1 X358.9004 Y276.8985 Z-19.0000 F2750
G1 X356.8984 Y276.8985 Z-19.0000 F2750
G1 X356.8984 Y281.8985 Z-19.0000 F2750
G1 X281.9006 Y281.8985 Z-19.0000 F2750
G1 X281.8986 Y275.8985 Z-19.0000 F2750
G1 X281.8986 Y356.8983 Z-19.0000 F2750
G1 X276.8985 Y356.8983 Z-19.0000 F2750
G1 X276.8985 Y358.9003 Z-19.0000 F2750
G1 X299.8985 Y358.9003 Z-19.0000 F2750
G1 X299.8985 Y546.8979 Z-19.0000 F2750
G1 X276.8985 Y546.8979 Z-19.0000 F2750
G1 X276.8985 Y548.8999 Z-19.0000 F2750
G1 X281.8986 Y548.8999 Z-19.0000 F2750
G1 X281.8989 Y656.8977 Z-19.0000 F2750
G1 X276.8989 Y656.8977 Z-19.0000 F2750
G1 X276.8989 Y658.8997 Z-19.0000 F2750
G1 X299.8989 Y658.8997 Z-19.0000 F2750
G1 X299.8989 Y846.8974 Z-19.0000 F2750
G1 X276.8989 Y846.8974 Z-19.0000 F2750
G1 X276.8989 Y848.8994 Z-19.0000 F2750
G1 X281.8989 Y848.8994 Z-19.0000 F2750
G1 X281.8989 Y956.8972 Z-19.0000 F2750
G1 X276.8989 Y956.8972 Z-19.0000 F2750
G1 X276.8989 Y958.8991 Z-19.0000 F2750
G1 X299.8989 Y958.8991 Z-19.0000 F2750
G1 X299.8989 Y1146.8968 Z-19.0000 F2750
G1 X276.8989 Y1146.8968 Z-19.0000 F2750
G1 X276.8989 Y1148.8988 Z-19.0000 F2750
G1 X281.8989 Y1148.8988 Z-19.0000 F2750
G1 X281.8989 Y1256.8964 Z-19.0000 F2750
G1 X276.8989 Y1256.8964 Z-19.0000 F2750
G1 X276.8989 Y1258.8984 Z-19.0000 F2750
G1 X299.8989 Y1258.8984 Z-19.0000 F2750
G1 X299.8989 Y1446.8960 Z-19.0000 F2750
G1 X276.8989 Y1446.8960 Z-19.0000 F2750
G1 X276.8989 Y1448.8980 Z-19.0000 F2750
G1 X281.8989 Y1448.8980 Z-19.0000 F2750
G1 X281.8990 Y1556.8958 Z-19.0000 F2750
G1 X276.8989 Y1556.8958 Z-19.0000 F2750
G1 X276.8989 Y1558.8978 Z-19.0000 F2750
G1 X299.8988 Y1558.8978 Z-19.0000 F2750
G1 X299.8988 Y1746.8955 Z-19.0000 F2750
G1 X276.8989 Y1746.8955 Z-19.0000 F2750
G1 X276.8989 Y1764.1737 Z-19.0000 F2750
G1 X238.0141 Y1763.8981 Z-19.0000 F2750
G1 X235.4078 Y1764.3953 Z-19.0000 F2750
G1 X233.2899 Y1765.7865 Z-19.0000 F2750
G1 X231.8990 Y1767.9041 Z-19.0000 F2750
G1 X231.3991 Y1770.5246 Z-19.0000 F2750
G1 X231.3991 Y1835.5245 Z-19.0000 F2750
G1 X230.4945 Y1840.2659 Z-19.0000 F2750
G1 X227.4320 Y1844.9283 Z-19.0000 F2750
G1 X222.7696 Y1847.9907 Z-19.0000 F2750
G1 X218.0282 Y1848.8953 Z-19.0000 F2750
G1 X187.7722 Y1848.8953 Z-19.0000 F2750
G1 X183.0306 Y1847.9908 Z-19.0000 F2750
G1 X178.3681 Y1844.9283 Z-19.0000 F2750
G1 X175.3055 Y1840.2658 Z-19.0000 F2750
G1 X174.4012 Y1835.5244 Z-19.0000 F2750
G1 X174.4012 Y1770.5246 Z-19.0000 F2750
G1 X173.9014 Y1767.9042 Z-19.0000 F2750
G1 X172.5102 Y1765.7865 Z-19.0000 F2750
G1 X170.3923 Y1764.3953 Z-19.0000 F2750
G1 X167.7722 Y1763.8955 Z-19.0000 F2750
G1 X138.0283 Y1763.8955 Z-19.0000 F2750
G1 X135.4080 Y1764.3953 Z-19.0000 F2750
G1 X133.2900 Y1765.7865 Z-19.0000 F2750
G1 X131.8991 Y1767.9041 Z-19.0000 F2750
G1 X131.3992 Y1770.5246 Z-19.0000 F2750
G1 X131.3992 Y1835.5245 Z-19.0000 F2750
G1 X130.4946 Y1840.2659 Z-19.0000 F2750
G1 X127.4323 Y1844.9282 Z-19.0000 F2750
G1 X122.7698 Y1847.9907 Z-19.0000 F2750
G1 X118.0283 Y1848.8953 Z-19.0000 F2750
G1 X87.7722 Y1848.8953 Z-19.0000 F2750
G1 X83.0306 Y1847.9907 Z-19.0000 F2750
G1 X78.3685 Y1844.9282 Z-19.0000 F2750
G1 X75.3059 Y1840.2660 Z-19.0000 F2750
G1 X74.4012 Y1835.5245 Z-19.0000 F2750
G1 X74.4012 Y1770.5246 Z-19.0000 F2750
G1 X73.9014 Y1767.9041 Z-19.0000 F2750
G1 X72.5104 Y1765.7864 Z-19.0000 F2750
G1 X70.3927 Y1764.3953 Z-19.0000 F2750
G1 X67.7724 Y1763.8955 Z-19.0000 F2750
G1 X23.9012 Y1763.8955 Z-19.0000 F2750
G1 X23.9012 Y1748.8975 Z-19.0000 F2750
G1 X28.9012 Y1748.8975 Z-19.0000 F2750
G1 X28.9012 Y1746.8955 Z-19.0000 F2750
G1 X5.9015 Y1746.8955 Z-19.0000 F2750
G1 X5.9015 Y1558.8978 Z-19.0000 F2750
G1 X28.9012 Y1558.8978 Z-19.0000 F2750
G1 X28.9012 Y1556.8958 Z-19.0000 F2750
G1 X23.9012 Y1556.8958 Z-19.0000 F2750
G1 X23.9015 Y1448.8980 Z-19.0000 F2750
G1 X28.9015 Y1448.8980 Z-19.0000 F2750
G1 X28.9015 Y1446.8960 Z-19.0000 F2750
G1 X5.9015 Y1446.8960 Z-19.0000 F2750
G1 X5.9015 Y1258.8984 Z-19.0000 F2750
G1 X28.9015 Y1258.8984 Z-19.0000 F2750
G1 X28.9015 Y1256.8963 Z-19.0000 F2750
G1 X23.9015 Y1256.8963 Z-19.0000 F2750
G1 X23.9015 Y1148.8987 Z-19.0000 F2750
G1 X28.9015 Y1148.8987 Z-19.0000 F2750
G1 X28.9015 Y1146.8967 Z-19.0000 F2750
G1 X5.9015 Y1146.8967 Z-19.0000 F2750
G1 X5.9015 Y958.8991 Z-19.0000 F2750
G1 X28.9015 Y958.8991 Z-19.0000 F2750
G1 X28.9015 Y956.8970 Z-19.0000 F2750
G1 X23.9015 Y956.8970 Z-19.0000 F2750
G1 X23.9015 Y848.8992 Z-19.0000 F2750
G1 X28.9015 Y848.8992 Z-19.0000 F2750
G1 X28.9015 Y846.8973 Z-19.0000 F2750
G1 X5.9015 Y846.8973 Z-19.0000 F2750
G1 X5.9015 Y658.8997 Z-19.0000 F2750
G1 X28.9015 Y658.8997 Z-19.0000 F2750
G1 X28.9015 Y656.8977 Z-19.0000 F2750
G1 X23.9015 Y656.8977 Z-19.0000 F2750
G1 X23.9010 Y548.8999 Z-19.0000 F2750
G1 X28.9010 Y548.8999 Z-19.0000 F2750
G1 X28.9010 Y546.8979 Z-19.0000 F2750
G1 X5.9010 Y546.8979 Z-19.0000 F2750
G1 X5.9010 Y358.9003 Z-19.0000 F2750
G1 X28.9010 Y358.9003 Z-19.0000 F2750
G1 X28.9010 Y356.8983 Z-19.0000 F2750
G1 X23.9010 Y356.8983 Z-19.0000 F2750
G1 X23.9010 Y248.9005 Z-19.0000 F2750
G1 X28.9010 Y248.9005 Z-19.0000 F2750
G1 X28.9010 Y246.8985 Z-19.0000 F2750
G1 X5.9010 Y246.8985 Z-19.0000 F2750
G1 X5.9010 Y58.9009 Z-19.0000 F2750
G1 X28.9010 Y58.9009 Z-19.0000 F2750
G1 X28.9010 Y56.8989 Z-19.0000 F2750
G1 X23.9010 Y56.8989 Z-19.0000 F2750
G1 X23.9010 Y23.9010 Z-19.0000 F2750
G1 X75.8990 Y23.9010 Z-19.0000 F2750
G1 X75.8990 Y28.9010 Z-19.0000 F2750
G1 X77.9009 Y28.9010 Z-19.0000 F2750
G1 X77.9009 Y5.9010 Z-19.0000 F2750
G1 X115.8989 Y5.9010 Z-19.0000 F2750
G1 X115.8989 Y57.8989 Z-19.0000 F2750
G1 X110.8990 Y57.8989 Z-19.0000 F2750
G1 X110.8990 Y59.9009 Z-19.0000 F2750
G1 X194.9008 Y59.9009 Z-19.0000 F2750
G1 X194.9008 Y57.8989 Z-19.0000 F2750
G1 X189.9008 Y57.8989 Z-19.0000 F2750
G1 X189.9008 Y23.9010 Z-19.0000 F2750
G1 X356.8984 Y23.9010 Z-19.0000 F2750
G1 X356.8984 Y28.9010 Z-19.0000 F2750
G1 X358.9004 Y28.9010 Z-19.0000 F2750
G1 X358.9004 Y5.9010 Z-19.0000 F2750
G1 X546.8980 Y5.9010 Z-19.0000 F2750
G1 X546.8980 Y28.9010 Z-19.0000 F2750
G1 X548.9000 Y28.9010 Z-19.0000 F2750
G1 X548.9000 Y23.9010 Z-19.0000 F2750
G1 X656.8978 Y23.9010 Z-19.0000 F2750
G1 X656.8978 Y28.9010 Z-19.0000 F2750
G1 X658.8998 Y28.9010 Z-19.0000 F2750
G1 X658.8998 Y5.9010 Z-19.0000 F2750
G1 X752.8987 Y5.9010 Z-19.0000 F2750
G1 X752.8987 Y5.9010 Z10.0000 F9999
G1 X1900.0000 Y2800.0000 Z80.0000 F9999
G1 Z80.0000 F9999
G1 X1900.0000 Y2800.0000 F9999
M5
M30
