(plotsheet 2n3_nested_153 sheets_final v1_0_sheet 88 to 94_S88.1_text_CC8 - stepover 1mm)
(Material Size) (X=1220.000, Y=2440.000, Z=21.000)
(LinuxCNC_NoArcs_MM_TC_medium_50um_G1_verbose.con)
G90 G80 G21 G49
G64 P0.050
M6 T1
(Tool Number:1) (7.998 mm dia. slot drill)
G43 H1 G0Z80.0000
M3 S9000
G04 P10
G1 X136.4792 Y655.0950 Z10.0000 F9999
G1 X136.4792 Y655.0950 Z1.0000 F2500
G1 X154.0939 Y639.3519 Z0.3938 F2500
G1 X156.1121 Y637.6033 Z0.3253 F2500
G1 X158.1857 Y635.9207 Z0.2567 F2500
G1 X159.7454 Y634.9008 Z0.2089 F2500
G1 X161.3416 Y633.9390 Z0.1611 F2500
G1 X163.8003 Y633.0033 Z0.0936 F2500
G1 X167.0847 Y632.5996 Z0.0087 F2500
G1 X167.4189 Y632.6553 Z0.0000 F2500
G1 X167.0847 Y632.5996 Z-0.0087 F2500
G1 X163.8003 Y633.0033 Z-0.0936 F2500
G1 X161.3416 Y633.9390 Z-0.1611 F2500
G1 X159.7454 Y634.9008 Z-0.2089 F2500
G1 X158.1857 Y635.9207 Z-0.2567 F2500
G1 X156.1121 Y637.6033 Z-0.3253 F2500
G1 X154.0939 Y639.3519 Z-0.3938 F2500
G1 X136.4792 Y655.0950 Z-1.0000 F2500
G1 X154.0939 Y639.3519 Z-1.0000 F4000
G1 X156.1121 Y637.6033 Z-1.0000 F4000
G1 X158.1857 Y635.9207 Z-1.0000 F4000
G1 X159.7454 Y634.9008 Z-1.0000 F4000
G1 X161.3416 Y633.9390 Z-1.0000 F4000
G1 X163.8003 Y633.0033 Z-1.0000 F4000
G1 X167.0847 Y632.5996 Z-1.0000 F4000
G1 X170.8279 Y633.2235 Z-1.0000 F4000
G1 X174.2040 Y635.1501 Z-1.0000 F4000
G1 X176.6444 Y638.4895 Z-1.0000 F4000
G1 X177.5802 Y643.4803 Z-1.0000 F4000
G1 X174.9747 Y652.1959 Z-1.0000 F4000
G1 X168.2224 Y654.9849 Z-1.0000 F4000
G1 X174.9747 Y652.1959 Z-1.0000 F4000
G1 X177.5802 Y643.4803 Z-1.0000 F4000
G1 X176.6444 Y638.4895 Z-1.0000 F4000
G1 X174.2040 Y635.1501 Z-1.0000 F4000
G1 X170.8279 Y633.2235 Z-1.0000 F4000
G1 X167.0847 Y632.5996 Z-1.0000 F4000
G1 X163.8003 Y633.0033 Z-1.0000 F4000
G1 X161.3416 Y633.9390 Z-1.0000 F4000
G1 X159.7454 Y634.9008 Z-1.0000 F4000
G1 X158.1857 Y635.9207 Z-1.0000 F4000
G1 X156.1121 Y637.6033 Z-1.0000 F4000
G1 X154.0939 Y639.3519 Z-1.0000 F4000
G1 X136.4792 Y655.0950 Z-1.0000 F4000
G1 X136.4792 Y632.8932 Z-1.0000 F4000
G1 X136.4792 Y632.8932 Z10.0000 F9999
G1 X159.2866 Y680.8381 Z10.0000 F9999
G1 X159.2866 Y680.8381 Z1.0000 F2500
G1 X159.2866 Y666.3978 Z0.6295 F2500
G1 X159.2866 Y680.8381 Z0.2589 F2500
G1 X169.3770 Y680.8381 Z0.0000 F2500
G1 X159.2866 Y680.8381 Z-0.2589 F2500
G1 X159.2866 Y666.3978 Z-0.6295 F2500
G1 X159.2866 Y680.8381 Z-1.0000 F2500
G1 X159.2866 Y666.3978 Z-1.0000 F4000
G1 X159.2866 Y680.8381 Z-1.0000 F4000
G1 X177.5802 Y680.8381 Z-1.0000 F4000
G1 X177.5802 Y665.7189 Z-1.0000 F4000
G1 X177.5802 Y680.8381 Z-1.0000 F4000
G1 X136.4792 Y680.8381 Z-1.0000 F4000
G1 X136.4792 Y680.8381 Z10.0000 F9999
G1 X186.9747 Y696.3427 Z10.0000 F9999
G1 X186.9747 Y696.3427 Z1.0000 F2500
G1 X153.1903 Y715.7687 Z0.0000 F2500
G1 X186.9747 Y696.3427 Z-1.0000 F2500
G1 X134.1306 Y726.7280 Z-1.0000 F4000
G1 X186.9747 Y696.3427 Z-1.0000 F4000
G1 X186.9747 Y696.3427 Z10.0000 F9999
G1 X177.5802 Y754.1592 Z10.0000 F9999
G1 X177.5802 Y754.1592 Z1.0000 F2500
G1 X141.2802 Y739.9796 Z0.0000 F2500
G1 X177.5802 Y754.1592 Z-1.0000 F2500
G1 X136.4792 Y738.1042 Z-1.0000 F4000
G1 X177.5802 Y754.1592 Z-1.0000 F4000
G1 X136.4792 Y770.1776 Z-1.0000 F4000
G1 X136.4792 Y770.1776 Z10.0000 F9999
G1 X161.1398 Y780.8565 Z10.0000 F9999
G1 X161.1398 Y780.8565 Z1.0000 F2500
G1 X161.1398 Y810.1042 Z0.2495 F2500
G1 X161.1398 Y800.3808 Z0.0000 F2500
G1 X161.1398 Y810.1042 Z-0.2495 F2500
G1 X161.1398 Y780.8565 Z-1.0000 F2500
G1 X161.1398 Y810.1042 Z-1.0000 F4000
G1 X161.1398 Y780.8565 Z-1.0000 F4000
G1 X161.1398 Y780.8565 Z10.0000 F9999
G1 X151.1765 Y743.8473 Z10.0000 F9999
G1 X151.1765 Y743.8473 Z1.0000 F2500
G1 X151.1765 Y764.5446 Z0.4689 F2500
G1 X151.1765 Y746.2707 Z0.0000 F2500
G1 X151.1765 Y764.5446 Z-0.4689 F2500
G1 X151.1765 Y743.8473 Z-1.0000 F2500
G1 X151.1765 Y764.5446 Z-1.0000 F4000
G1 X151.1765 Y743.8473 Z-1.0000 F4000
G1 X151.1765 Y743.8473 Z10.0000 F9999
G1 X151.1765 Y827.2235 Z10.0000 F9999
G1 X151.1765 Y827.2235 Z1.0000 F2500
G1 X151.1765 Y847.9207 Z0.4689 F2500
G1 X151.1765 Y829.6468 Z0.0000 F2500
G1 X151.1765 Y847.9207 Z-0.4689 F2500
G1 X151.1765 Y827.2235 Z-1.0000 F2500
G1 X151.1765 Y847.9207 Z-1.0000 F4000
G1 X151.1765 Y827.2235 Z-1.0000 F4000
G1 X151.1765 Y827.2235 Z10.0000 F9999
G1 X177.5802 Y837.5354 Z10.0000 F9999
G1 X177.5802 Y837.5354 Z1.0000 F2500
G1 X141.2802 Y823.3557 Z0.0000 F2500
G1 X177.5802 Y837.5354 Z-1.0000 F2500
G1 X136.4792 Y821.4803 Z-1.0000 F4000
G1 X177.5802 Y837.5354 Z-1.0000 F4000
G1 X136.4792 Y853.5537 Z-1.0000 F4000
G1 X136.4792 Y853.5537 Z10.0000 F9999
G1 X136.4792 Y864.2326 Z10.0000 F9999
G1 X136.4792 Y864.2326 Z1.0000 F2500
G1 X156.6260 Y877.4620 Z0.3815 F2500
G1 X144.1970 Y869.3005 Z0.0000 F2500
G1 X156.6260 Y877.4620 Z-0.3815 F2500
G1 X136.4792 Y864.2326 Z-1.0000 F2500
G1 X156.6260 Y877.4620 Z-1.0000 F4000
G1 X136.4792 Y864.2326 Z-1.0000 F4000
G1 X136.4792 Y864.2326 Z10.0000 F9999
G1 X136.4792 Y881.6455 Z10.0000 F9999
G1 X136.4792 Y881.6455 Z1.0000 F2500
G1 X175.4504 Y881.6455 Z0.0000 F2500
G1 X136.4792 Y881.6455 Z-1.0000 F2500
G1 X177.5802 Y881.6455 Z-1.0000 F4000
G1 X177.5802 Y874.4895 Z-1.0000 F4000
G1 X176.9747 Y870.6179 Z-1.0000 F4000
G1 X175.1581 Y867.4069 Z-1.0000 F4000
G1 X172.0022 Y865.1868 Z-1.0000 F4000
G1 X167.3600 Y864.3427 Z-1.0000 F4000
G1 X162.6811 Y865.4987 Z-1.0000 F4000
G1 X159.3600 Y868.2693 Z-1.0000 F4000
G1 X157.3967 Y871.5904 Z-1.0000 F4000
G1 X156.7361 Y874.4895 Z-1.0000 F4000
G1 X156.7361 Y881.6455 Z-1.0000 F4000
G1 X156.7361 Y874.4895 Z-1.0000 F4000
G1 X157.3967 Y871.5904 Z-1.0000 F4000
G1 X159.3600 Y868.2693 Z-1.0000 F4000
G1 X162.6811 Y865.4987 Z-1.0000 F4000
G1 X167.3600 Y864.3427 Z-1.0000 F4000
G1 X172.0022 Y865.1868 Z-1.0000 F4000
G1 X175.1581 Y867.4069 Z-1.0000 F4000
G1 X176.9747 Y870.6179 Z-1.0000 F4000
G1 X177.5802 Y874.4895 Z-1.0000 F4000
G1 X177.5802 Y881.6455 Z-1.0000 F4000
G1 X177.5802 Y881.6455 Z10.0000 F9999
G1 X159.2866 Y912.1776 Z10.0000 F9999
G1 X159.2866 Y912.1776 Z1.0000 F2500
G1 X159.2866 Y897.7372 Z0.6295 F2500
G1 X159.2866 Y912.1776 Z0.2589 F2500
G1 X169.3770 Y912.1776 Z0.0000 F2500
G1 X159.2866 Y912.1776 Z-0.2589 F2500
G1 X159.2866 Y897.7372 Z-0.6295 F2500
G1 X159.2866 Y912.1776 Z-1.0000 F2500
G1 X159.2866 Y897.7372 Z-1.0000 F4000
G1 X159.2866 Y912.1776 Z-1.0000 F4000
G1 X177.5802 Y912.1776 Z-1.0000 F4000
G1 X177.5802 Y897.0583 Z-1.0000 F4000
G1 X177.5802 Y912.1776 Z-1.0000 F4000
G1 X136.4792 Y912.1776 Z-1.0000 F4000
G1 X136.4792 Y912.1776 Z10.0000 F9999
G1 X569.3232 Y918.0371 Z10.0000 F9999
G1 X569.3232 Y918.0371 Z1.0000 F2500
G1 X601.7766 Y896.4609 Z0.0000 F2500
G1 X569.3232 Y918.0371 Z-1.0000 F2500
G1 X602.7177 Y895.8352 Z-1.0000 F4000
G1 X602.7177 Y924.6426 Z-1.0000 F4000
G1 X602.7177 Y895.8352 Z-1.0000 F4000
G1 X569.3232 Y918.0371 Z-1.0000 F4000
G1 X610.4241 Y918.0371 Z-1.0000 F4000
G1 X610.4241 Y918.0371 Z10.0000 F9999
G1 X610.4241 Y885.0646 Z10.0000 F9999
G1 X610.4241 Y885.0646 Z1.0000 F2500
G1 X610.4241 Y872.4407 Z0.6761 F2500
G1 X584.0768 Y872.4407 Z0.0000 F2500
G1 X610.4241 Y872.4407 Z-0.6761 F2500
G1 X610.4241 Y885.0646 Z-1.0000 F2500
G1 X610.4241 Y872.4407 Z-1.0000 F4000
G1 X569.3232 Y872.4407 Z-1.0000 F4000
G1 X610.4241 Y872.4407 Z-1.0000 F4000
G1 X610.4241 Y872.4407 Z10.0000 F9999
G1 X569.3232 Y951.7068 Z10.0000 F9999
G1 X569.3232 Y951.7068 Z1.0000 F2500
G1 X585.2865 Y940.4040 Z0.4981 F2500
G1 X587.2484 Y939.0174 Z0.4365 F2500
G1 X589.2498 Y937.6885 Z0.3748 F2500
G1 X596.4608 Y935.7618 Z0.1833 F2500
G1 X601.8920 Y936.8628 Z0.0411 F2500
G1 X603.2233 Y937.7521 Z0.0000 F2500
G1 X601.8920 Y936.8628 Z-0.0411 F2500
G1 X596.4608 Y935.7618 Z-0.1833 F2500
G1 X589.2498 Y937.6885 Z-0.3748 F2500
G1 X587.2484 Y939.0174 Z-0.4365 F2500
G1 X585.2865 Y940.4040 Z-0.4981 F2500
G1 X569.3232 Y951.7068 Z-1.0000 F2500
G1 X585.2865 Y940.4040 Z-1.0000 F4000
G1 X587.2484 Y939.0174 Z-1.0000 F4000
G1 X589.2498 Y937.6885 Z-1.0000 F4000
G1 X596.4608 Y935.7618 Z-1.0000 F4000
G1 X601.8920 Y936.8628 Z-1.0000 F4000
G1 X606.3140 Y939.8169 Z-1.0000 F4000
G1 X609.3232 Y944.1839 Z-1.0000 F4000
G1 X610.4241 Y949.5784 Z-1.0000 F4000
G1 X609.3232 Y954.9729 Z-1.0000 F4000
G1 X606.3140 Y959.4132 Z-1.0000 F4000
G1 X601.8920 Y962.4040 Z-1.0000 F4000
G1 X596.4608 Y963.5050 Z-1.0000 F4000
G1 X591.0480 Y962.4040 Z-1.0000 F4000
G1 X586.6260 Y959.4132 Z-1.0000 F4000
G1 X583.6535 Y954.9729 Z-1.0000 F4000
G1 X582.5526 Y949.5784 Z-1.0000 F4000
G1 X584.4058 Y942.6609 Z-1.0000 F4000
G1 X589.2498 Y937.6885 Z-1.0000 F4000
G1 X584.4058 Y942.6609 Z-1.0000 F4000
G1 X582.5526 Y949.5784 Z-1.0000 F4000
G1 X583.6535 Y954.9729 Z-1.0000 F4000
G1 X586.6260 Y959.4132 Z-1.0000 F4000
G1 X591.0480 Y962.4040 Z-1.0000 F4000
G1 X596.4608 Y963.5050 Z-1.0000 F4000
G1 X601.8920 Y962.4040 Z-1.0000 F4000
G1 X606.3140 Y959.4132 Z-1.0000 F4000
G1 X609.3232 Y954.9729 Z-1.0000 F4000
G1 X610.4241 Y949.5784 Z-1.0000 F4000
G1 X609.3232 Y944.1839 Z-1.0000 F4000
G1 X606.3140 Y939.8169 Z-1.0000 F4000
G1 X601.8920 Y936.8628 Z-1.0000 F4000
G1 X596.4608 Y935.7618 Z-1.0000 F4000
G1 X589.2498 Y937.6885 Z-1.0000 F4000
G1 X587.8003 Y938.6426 Z-1.0000 F4000
G1 X578.5159 Y945.1747 Z-1.0000 F4000
G1 X578.5159 Y945.1747 Z10.0000 F9999
G1 X1034.9933 Y1145.9063 Z10.0000 F9999
G1 X1034.9933 Y1145.9063 Z1.0000 F2500
G1 X1034.9933 Y1160.3467 Z0.6295 F2500
G1 X1034.9933 Y1145.9063 Z0.2589 F2500
G1 X1024.9029 Y1145.9063 Z0.0000 F2500
G1 X1034.9933 Y1145.9063 Z-0.2589 F2500
G1 X1034.9933 Y1160.3467 Z-0.6295 F2500
G1 X1034.9933 Y1145.9063 Z-1.0000 F2500
G1 X1034.9933 Y1160.3467 Z-1.0000 F4000
G1 X1034.9933 Y1145.9063 Z-1.0000 F4000
G1 X1016.6997 Y1145.9063 Z-1.0000 F4000
G1 X1016.6997 Y1161.0256 Z-1.0000 F4000
G1 X1016.6997 Y1145.9063 Z-1.0000 F4000
G1 X1057.8006 Y1145.9063 Z-1.0000 F4000
G1 X1057.8006 Y1145.9063 Z10.0000 F9999
G1 X1057.8006 Y1176.4384 Z10.0000 F9999
G1 X1057.8006 Y1176.4384 Z1.0000 F2500
G1 X1018.8295 Y1176.4384 Z0.0000 F2500
G1 X1057.8006 Y1176.4384 Z-1.0000 F2500
G1 X1016.6997 Y1176.4384 Z-1.0000 F4000
G1 X1016.6997 Y1183.5944 Z-1.0000 F4000
G1 X1017.3052 Y1187.4659 Z-1.0000 F4000
G1 X1019.1217 Y1190.6769 Z-1.0000 F4000
G1 X1022.2777 Y1192.8971 Z-1.0000 F4000
G1 X1026.9199 Y1193.7412 Z-1.0000 F4000
G1 X1031.5988 Y1192.5852 Z-1.0000 F4000
G1 X1034.9199 Y1189.8146 Z-1.0000 F4000
G1 X1036.8832 Y1186.4935 Z-1.0000 F4000
G1 X1037.5437 Y1183.5944 Z-1.0000 F4000
G1 X1037.5437 Y1176.4384 Z-1.0000 F4000
G1 X1037.5437 Y1183.5944 Z-1.0000 F4000
G1 X1036.8832 Y1186.4935 Z-1.0000 F4000
G1 X1034.9199 Y1189.8146 Z-1.0000 F4000
G1 X1031.5988 Y1192.5852 Z-1.0000 F4000
G1 X1026.9199 Y1193.7412 Z-1.0000 F4000
G1 X1022.2777 Y1192.8971 Z-1.0000 F4000
G1 X1019.1217 Y1190.6769 Z-1.0000 F4000
G1 X1017.3052 Y1187.4659 Z-1.0000 F4000
G1 X1016.6997 Y1183.5944 Z-1.0000 F4000
G1 X1016.6997 Y1176.4384 Z-1.0000 F4000
G1 X1016.6997 Y1176.4384 Z10.0000 F9999
G1 X1016.6997 Y1220.5485 Z10.0000 F9999
G1 X1016.6997 Y1220.5485 Z1.0000 F2500
G1 X1052.9997 Y1234.7282 Z0.0000 F2500
G1 X1016.6997 Y1220.5485 Z-1.0000 F2500
G1 X1057.8006 Y1236.6036 Z-1.0000 F4000
G1 X1016.6997 Y1220.5485 Z-1.0000 F4000
G1 X1057.8006 Y1204.5302 Z-1.0000 F4000
G1 X1057.8006 Y1204.5302 Z10.0000 F9999
G1 X1057.8006 Y1193.8513 Z10.0000 F9999
G1 X1057.8006 Y1193.8513 Z1.0000 F2500
G1 X1037.6538 Y1180.6219 Z0.3815 F2500
G1 X1050.0828 Y1188.7834 Z0.0000 F2500
G1 X1037.6538 Y1180.6219 Z-0.3815 F2500
G1 X1057.8006 Y1193.8513 Z-1.0000 F2500
G1 X1037.6538 Y1180.6219 Z-1.0000 F4000
G1 X1057.8006 Y1193.8513 Z-1.0000 F4000
G1 X1057.8006 Y1193.8513 Z10.0000 F9999
G1 X1043.1034 Y1230.8604 Z10.0000 F9999
G1 X1043.1034 Y1230.8604 Z1.0000 F2500
G1 X1043.1034 Y1210.1632 Z0.4689 F2500
G1 X1043.1034 Y1228.4371 Z0.0000 F2500
G1 X1043.1034 Y1210.1632 Z-0.4689 F2500
G1 X1043.1034 Y1230.8604 Z-1.0000 F2500
G1 X1043.1034 Y1210.1632 Z-1.0000 F4000
G1 X1043.1034 Y1230.8604 Z-1.0000 F4000
G1 X1043.1034 Y1230.8604 Z10.0000 F9999
G1 X1033.1401 Y1277.2274 Z10.0000 F9999
G1 X1033.1401 Y1277.2274 Z1.0000 F2500
G1 X1033.1401 Y1247.9797 Z0.2495 F2500
G1 X1033.1401 Y1257.7031 Z0.0000 F2500
G1 X1033.1401 Y1247.9797 Z-0.2495 F2500
G1 X1033.1401 Y1277.2274 Z-1.0000 F2500
G1 X1033.1401 Y1247.9797 Z-1.0000 F4000
G1 X1033.1401 Y1277.2274 Z-1.0000 F4000
G1 X1033.1401 Y1277.2274 Z10.0000 F9999
G1 X1016.6997 Y1303.9247 Z10.0000 F9999
G1 X1016.6997 Y1303.9247 Z1.0000 F2500
G1 X1052.9997 Y1318.1043 Z0.0000 F2500
G1 X1016.6997 Y1303.9247 Z-1.0000 F2500
G1 X1057.8006 Y1319.9797 Z-1.0000 F4000
G1 X1016.6997 Y1303.9247 Z-1.0000 F4000
G1 X1057.8006 Y1287.9063 Z-1.0000 F4000
G1 X1057.8006 Y1287.9063 Z10.0000 F9999
G1 X1043.1034 Y1314.2366 Z10.0000 F9999
G1 X1043.1034 Y1314.2366 Z1.0000 F2500
G1 X1043.1034 Y1293.5393 Z0.4689 F2500
G1 X1043.1034 Y1311.8132 Z0.0000 F2500
G1 X1043.1034 Y1293.5393 Z-0.4689 F2500
G1 X1043.1034 Y1314.2366 Z-1.0000 F2500
G1 X1043.1034 Y1293.5393 Z-1.0000 F4000
G1 X1043.1034 Y1314.2366 Z-1.0000 F4000
G1 X1043.1034 Y1314.2366 Z10.0000 F9999
G1 X1007.3052 Y1361.7412 Z10.0000 F9999
G1 X1007.3052 Y1361.7412 Z1.0000 F2500
G1 X1041.0895 Y1342.3152 Z0.0000 F2500
G1 X1007.3052 Y1361.7412 Z-1.0000 F2500
G1 X1060.1493 Y1331.3558 Z-1.0000 F4000
G1 X1007.3052 Y1361.7412 Z-1.0000 F4000
G1 X1007.3052 Y1361.7412 Z10.0000 F9999
G1 X1034.9933 Y1377.2458 Z10.0000 F9999
G1 X1034.9933 Y1377.2458 Z1.0000 F2500
G1 X1034.9933 Y1391.6861 Z0.6295 F2500
G1 X1034.9933 Y1377.2458 Z0.2589 F2500
G1 X1024.9029 Y1377.2458 Z0.0000 F2500
G1 X1034.9933 Y1377.2458 Z-0.2589 F2500
G1 X1034.9933 Y1391.6861 Z-0.6295 F2500
G1 X1034.9933 Y1377.2458 Z-1.0000 F2500
G1 X1034.9933 Y1391.6861 Z-1.0000 F4000
G1 X1034.9933 Y1377.2458 Z-1.0000 F4000
G1 X1016.6997 Y1377.2458 Z-1.0000 F4000
G1 X1016.6997 Y1392.3650 Z-1.0000 F4000
G1 X1016.6997 Y1377.2458 Z-1.0000 F4000
G1 X1057.8006 Y1377.2458 Z-1.0000 F4000
G1 X1057.8006 Y1377.2458 Z10.0000 F9999
G1 X1057.8006 Y1402.9889 Z10.0000 F9999
G1 X1057.8006 Y1402.9889 Z1.0000 F2500
G1 X1040.1859 Y1418.7320 Z0.3938 F2500
G1 X1038.1678 Y1420.4806 Z0.3253 F2500
G1 X1036.0942 Y1422.1632 Z0.2567 F2500
G1 X1034.5345 Y1423.1830 Z0.2089 F2500
G1 X1032.9382 Y1424.1448 Z0.1611 F2500
G1 X1030.4795 Y1425.0806 Z0.0936 F2500
G1 X1027.1951 Y1425.4843 Z0.0087 F2500
G1 X1026.8609 Y1425.4286 Z0.0000 F2500
G1 X1027.1951 Y1425.4843 Z-0.0087 F2500
G1 X1030.4795 Y1425.0806 Z-0.0936 F2500
G1 X1032.9382 Y1424.1448 Z-0.1611 F2500
G1 X1034.5345 Y1423.1830 Z-0.2089 F2500
G1 X1036.0942 Y1422.1632 Z-0.2567 F2500
G1 X1038.1678 Y1420.4806 Z-0.3253 F2500
G1 X1040.1859 Y1418.7320 Z-0.3938 F2500
G1 X1057.8006 Y1402.9889 Z-1.0000 F2500
G1 X1040.1859 Y1418.7320 Z-1.0000 F4000
G1 X1038.1678 Y1420.4806 Z-1.0000 F4000
G1 X1036.0942 Y1422.1632 Z-1.0000 F4000
G1 X1034.5345 Y1423.1830 Z-1.0000 F4000
G1 X1032.9382 Y1424.1448 Z-1.0000 F4000
G1 X1030.4795 Y1425.0806 Z-1.0000 F4000
G1 X1027.1951 Y1425.4843 Z-1.0000 F4000
G1 X1023.4520 Y1424.8604 Z-1.0000 F4000
G1 X1020.0759 Y1422.9338 Z-1.0000 F4000
G1 X1017.6355 Y1419.5944 Z-1.0000 F4000
G1 X1016.6997 Y1414.6036 Z-1.0000 F4000
G1 X1019.3052 Y1405.8880 Z-1.0000 F4000
G1 X1026.0575 Y1403.0990 Z-1.0000 F4000
G1 X1019.3052 Y1405.8880 Z-1.0000 F4000
G1 X1016.6997 Y1414.6036 Z-1.0000 F4000
G1 X1017.6355 Y1419.5944 Z-1.0000 F4000
G1 X1020.0759 Y1422.9338 Z-1.0000 F4000
G1 X1023.4520 Y1424.8604 Z-1.0000 F4000
G1 X1027.1951 Y1425.4843 Z-1.0000 F4000
G1 X1030.4795 Y1425.0806 Z-1.0000 F4000
G1 X1032.9382 Y1424.1448 Z-1.0000 F4000
G1 X1034.5345 Y1423.1830 Z-1.0000 F4000
G1 X1036.0942 Y1422.1632 Z-1.0000 F4000
G1 X1038.1678 Y1420.4806 Z-1.0000 F4000
G1 X1040.1859 Y1418.7320 Z-1.0000 F4000
G1 X1057.8006 Y1402.9889 Z-1.0000 F4000
G1 X1057.8006 Y1425.1907 Z-1.0000 F4000
G1 X1057.8006 Y1425.1907 Z10.0000 F9999
G1 X487.2765 Y1597.7251 Z10.0000 F9999
G1 X487.2765 Y1597.7251 Z1.0000 F2500
G1 X489.2214 Y1594.6792 Z0.9073 F2500
G1 X491.6435 Y1592.6242 Z0.8258 F2500
G1 X494.7627 Y1591.3765 Z0.7396 F2500
G1 X498.8912 Y1590.8994 Z0.6329 F2500
G1 X503.3866 Y1591.3581 Z0.5170 F2500
G1 X507.2031 Y1593.1012 Z0.4093 F2500
G1 X509.8820 Y1596.0921 Z0.3063 F2500
G1 X511.0012 Y1600.2572 Z0.1956 F2500
G1 X510.4691 Y1604.2572 Z0.0921 F2500
G1 X508.9279 Y1606.9361 Z0.0128 F2500
G1 X508.5452 Y1607.2532 Z0.0000 F2500
G1 X508.9279 Y1606.9361 Z-0.0128 F2500
G1 X510.4691 Y1604.2572 Z-0.0921 F2500
G1 X511.0012 Y1600.2572 Z-0.1956 F2500
G1 X509.8820 Y1596.0921 Z-0.3063 F2500
G1 X507.2031 Y1593.1012 Z-0.4093 F2500
G1 X503.3866 Y1591.3581 Z-0.5170 F2500
G1 X498.8912 Y1590.8994 Z-0.6329 F2500
G1 X494.7627 Y1591.3765 Z-0.7396 F2500
G1 X491.6435 Y1592.6242 Z-0.8258 F2500
G1 X489.2214 Y1594.6792 Z-0.9073 F2500
G1 X487.2765 Y1597.7251 Z-1.0000 F2500
G1 X489.2214 Y1594.6792 Z-1.0000 F4000
G1 X491.6435 Y1592.6242 Z-1.0000 F4000
G1 X494.7627 Y1591.3765 Z-1.0000 F4000
G1 X498.8912 Y1590.8994 Z-1.0000 F4000
G1 X503.3866 Y1591.3581 Z-1.0000 F4000
G1 X507.2031 Y1593.1012 Z-1.0000 F4000
G1 X509.8820 Y1596.0921 Z-1.0000 F4000
G1 X511.0012 Y1600.2572 Z-1.0000 F4000
G1 X510.4691 Y1604.2572 Z-1.0000 F4000
G1 X508.9279 Y1606.9361 Z-1.0000 F4000
G1 X506.8912 Y1608.6242 Z-1.0000 F4000
G1 X504.9829 Y1609.7251 Z-1.0000 F4000
G1 X495.7902 Y1614.4590 Z-1.0000 F4000
G1 X493.4233 Y1615.8719 Z-1.0000 F4000
G1 X491.5701 Y1617.5233 Z-1.0000 F4000
G1 X490.3223 Y1619.7068 Z-1.0000 F4000
G1 X489.8086 Y1622.5875 Z-1.0000 F4000
G1 X490.3407 Y1625.8719 Z-1.0000 F4000
G1 X492.1756 Y1628.8994 Z-1.0000 F4000
G1 X495.3132 Y1631.1196 Z-1.0000 F4000
G1 X499.6801 Y1632.0003 Z-1.0000 F4000
G1 X503.9370 Y1631.3214 Z-1.0000 F4000
G1 X506.7811 Y1629.8535 Z-1.0000 F4000
G1 X508.8728 Y1627.7068 Z-1.0000 F4000
G1 X506.7811 Y1629.8535 Z-1.0000 F4000
G1 X503.9370 Y1631.3214 Z-1.0000 F4000
G1 X499.6801 Y1632.0003 Z-1.0000 F4000
G1 X495.3132 Y1631.1196 Z-1.0000 F4000
G1 X492.1756 Y1628.8994 Z-1.0000 F4000
G1 X490.3407 Y1625.8719 Z-1.0000 F4000
G1 X489.8086 Y1622.5875 Z-1.0000 F4000
G1 X490.3223 Y1619.7068 Z-1.0000 F4000
G1 X491.5701 Y1617.5233 Z-1.0000 F4000
G1 X493.4233 Y1615.8719 Z-1.0000 F4000
G1 X495.7902 Y1614.4590 Z-1.0000 F4000
G1 X504.9829 Y1609.7251 Z-1.0000 F4000
G1 X506.8912 Y1608.6242 Z-1.0000 F4000
G1 X508.9279 Y1606.9361 Z-1.0000 F4000
G1 X510.4691 Y1604.2572 Z-1.0000 F4000
G1 X511.0012 Y1600.2572 Z-1.0000 F4000
G1 X509.8820 Y1596.0921 Z-1.0000 F4000
G1 X507.2031 Y1593.1012 Z-1.0000 F4000
G1 X503.3866 Y1591.3581 Z-1.0000 F4000
G1 X498.8912 Y1590.8994 Z-1.0000 F4000
G1 X494.7627 Y1591.3765 Z-1.0000 F4000
G1 X491.6435 Y1592.6242 Z-1.0000 F4000
G1 X489.2214 Y1594.6792 Z-1.0000 F4000
G1 X489.2214 Y1594.6792 Z10.0000 F9999
G1 X476.5609 Y1641.3948 Z10.0000 F9999
G1 X476.5609 Y1641.3948 Z1.0000 F2500
G1 X457.1349 Y1607.6105 Z0.0000 F2500
G1 X476.5609 Y1641.3948 Z-1.0000 F2500
G1 X446.1756 Y1588.5508 Z-1.0000 F4000
G1 X476.5609 Y1641.3948 Z-1.0000 F4000
G1 X476.5609 Y1641.3948 Z10.0000 F9999
G1 X410.9462 Y1597.7251 Z10.0000 F9999
G1 X410.9462 Y1597.7251 Z1.0000 F2500
G1 X412.8912 Y1594.6792 Z0.9073 F2500
G1 X415.3132 Y1592.6242 Z0.8258 F2500
G1 X418.4324 Y1591.3765 Z0.7396 F2500
G1 X422.5609 Y1590.8994 Z0.6329 F2500
G1 X427.0563 Y1591.3581 Z0.5170 F2500
G1 X430.8728 Y1593.1012 Z0.4093 F2500
G1 X433.5517 Y1596.0921 Z0.3063 F2500
G1 X434.6710 Y1600.2572 Z0.1956 F2500
G1 X434.1389 Y1604.2572 Z0.0921 F2500
G1 X432.5976 Y1606.9361 Z0.0128 F2500
G1 X432.2149 Y1607.2532 Z0.0000 F2500
G1 X432.5976 Y1606.9361 Z-0.0128 F2500
G1 X434.1389 Y1604.2572 Z-0.0921 F2500
G1 X434.6710 Y1600.2572 Z-0.1956 F2500
G1 X433.5517 Y1596.0921 Z-0.3063 F2500
G1 X430.8728 Y1593.1012 Z-0.4093 F2500
G1 X427.0563 Y1591.3581 Z-0.5170 F2500
G1 X422.5609 Y1590.8994 Z-0.6329 F2500
G1 X418.4324 Y1591.3765 Z-0.7396 F2500
G1 X415.3132 Y1592.6242 Z-0.8258 F2500
G1 X412.8912 Y1594.6792 Z-0.9073 F2500
G1 X410.9462 Y1597.7251 Z-1.0000 F2500
G1 X412.8912 Y1594.6792 Z-1.0000 F4000
G1 X415.3132 Y1592.6242 Z-1.0000 F4000
G1 X418.4324 Y1591.3765 Z-1.0000 F4000
G1 X422.5609 Y1590.8994 Z-1.0000 F4000
G1 X427.0563 Y1591.3581 Z-1.0000 F4000
G1 X430.8728 Y1593.1012 Z-1.0000 F4000
G1 X433.5517 Y1596.0921 Z-1.0000 F4000
G1 X434.6710 Y1600.2572 Z-1.0000 F4000
G1 X434.1389 Y1604.2572 Z-1.0000 F4000
G1 X432.5976 Y1606.9361 Z-1.0000 F4000
G1 X430.5609 Y1608.6242 Z-1.0000 F4000
G1 X428.6526 Y1609.7251 Z-1.0000 F4000
G1 X419.4600 Y1614.4590 Z-1.0000 F4000
G1 X417.0930 Y1615.8719 Z-1.0000 F4000
G1 X415.2398 Y1617.5233 Z-1.0000 F4000
G1 X413.9921 Y1619.7068 Z-1.0000 F4000
G1 X413.4783 Y1622.5875 Z-1.0000 F4000
G1 X414.0104 Y1625.8719 Z-1.0000 F4000
G1 X415.8453 Y1628.8994 Z-1.0000 F4000
G1 X418.9829 Y1631.1196 Z-1.0000 F4000
G1 X423.3499 Y1632.0003 Z-1.0000 F4000
G1 X427.6068 Y1631.3214 Z-1.0000 F4000
G1 X430.4508 Y1629.8535 Z-1.0000 F4000
G1 X432.5425 Y1627.7068 Z-1.0000 F4000
G1 X430.4508 Y1629.8535 Z-1.0000 F4000
G1 X427.6068 Y1631.3214 Z-1.0000 F4000
G1 X423.3499 Y1632.0003 Z-1.0000 F4000
G1 X418.9829 Y1631.1196 Z-1.0000 F4000
G1 X415.8453 Y1628.8994 Z-1.0000 F4000
G1 X414.0104 Y1625.8719 Z-1.0000 F4000
G1 X413.4783 Y1622.5875 Z-1.0000 F4000
G1 X413.9921 Y1619.7068 Z-1.0000 F4000
G1 X415.2398 Y1617.5233 Z-1.0000 F4000
G1 X417.0930 Y1615.8719 Z-1.0000 F4000
G1 X419.4600 Y1614.4590 Z-1.0000 F4000
G1 X428.6526 Y1609.7251 Z-1.0000 F4000
G1 X430.5609 Y1608.6242 Z-1.0000 F4000
G1 X432.5976 Y1606.9361 Z-1.0000 F4000
G1 X434.1389 Y1604.2572 Z-1.0000 F4000
G1 X434.6710 Y1600.2572 Z-1.0000 F4000
G1 X433.5517 Y1596.0921 Z-1.0000 F4000
G1 X430.8728 Y1593.1012 Z-1.0000 F4000
G1 X427.0563 Y1591.3581 Z-1.0000 F4000
G1 X422.5609 Y1590.8994 Z-1.0000 F4000
G1 X418.4324 Y1591.3765 Z-1.0000 F4000
G1 X415.3132 Y1592.6242 Z-1.0000 F4000
G1 X412.8912 Y1594.6792 Z-1.0000 F4000
G1 X412.8912 Y1594.6792 Z10.0000 F9999
G1 X497.2842 Y2179.6619 Z10.0000 F9999
G1 X497.2842 Y2179.6619 Z1.0000 F2500
G1 X516.7102 Y2213.4463 Z0.0000 F2500
G1 X497.2842 Y2179.6619 Z-1.0000 F2500
G1 X527.6695 Y2232.5060 Z-1.0000 F4000
G1 X497.2842 Y2179.6619 Z-1.0000 F4000
G1 X497.2842 Y2179.6619 Z10.0000 F9999
G1 X481.7796 Y2207.3500 Z10.0000 F9999
G1 X481.7796 Y2207.3500 Z1.0000 F2500
G1 X467.3392 Y2207.3500 Z0.6295 F2500
G1 X481.7796 Y2207.3500 Z0.2589 F2500
G1 X481.7796 Y2197.2596 Z0.0000 F2500
G1 X481.7796 Y2207.3500 Z-0.2589 F2500
G1 X467.3392 Y2207.3500 Z-0.6295 F2500
G1 X481.7796 Y2207.3500 Z-1.0000 F2500
G1 X467.3392 Y2207.3500 Z-1.0000 F4000
G1 X481.7796 Y2207.3500 Z-1.0000 F4000
G1 X481.7796 Y2189.0564 Z-1.0000 F4000
G1 X466.6603 Y2189.0564 Z-1.0000 F4000
G1 X481.7796 Y2189.0564 Z-1.0000 F4000
G1 X481.7796 Y2230.1573 Z-1.0000 F4000
G1 X481.7796 Y2230.1573 Z10.0000 F9999
G1 X538.3484 Y2230.1573 Z10.0000 F9999
G1 X538.3484 Y2230.1573 Z1.0000 F2500
G1 X551.5777 Y2210.0106 Z0.3815 F2500
G1 X543.4163 Y2222.4396 Z0.0000 F2500
G1 X551.5777 Y2210.0106 Z-0.3815 F2500
G1 X538.3484 Y2230.1573 Z-1.0000 F2500
G1 X551.5777 Y2210.0106 Z-1.0000 F4000
G1 X538.3484 Y2230.1573 Z-1.0000 F4000
G1 X538.3484 Y2230.1573 Z10.0000 F9999
G1 X555.7612 Y2230.1573 Z10.0000 F9999
G1 X555.7612 Y2230.1573 Z1.0000 F2500
G1 X555.7612 Y2191.1862 Z0.0000 F2500
G1 X555.7612 Y2230.1573 Z-1.0000 F2500
G1 X555.7612 Y2189.0564 Z-1.0000 F4000
G1 X548.6053 Y2189.0564 Z-1.0000 F4000
G1 X544.7337 Y2189.6619 Z-1.0000 F4000
G1 X541.5227 Y2191.4784 Z-1.0000 F4000
G1 X539.3025 Y2194.6344 Z-1.0000 F4000
G1 X538.4585 Y2199.2766 Z-1.0000 F4000
G1 X539.6144 Y2203.9555 Z-1.0000 F4000
G1 X542.3851 Y2207.2766 Z-1.0000 F4000
G1 X545.7062 Y2209.2399 Z-1.0000 F4000
G1 X548.6053 Y2209.9005 Z-1.0000 F4000
G1 X555.7612 Y2209.9005 Z-1.0000 F4000
G1 X548.6053 Y2209.9005 Z-1.0000 F4000
G1 X545.7062 Y2209.2399 Z-1.0000 F4000
G1 X542.3851 Y2207.2766 Z-1.0000 F4000
G1 X539.6144 Y2203.9555 Z-1.0000 F4000
G1 X538.4585 Y2199.2766 Z-1.0000 F4000
G1 X539.3025 Y2194.6344 Z-1.0000 F4000
G1 X541.5227 Y2191.4784 Z-1.0000 F4000
G1 X544.7337 Y2189.6619 Z-1.0000 F4000
G1 X548.6053 Y2189.0564 Z-1.0000 F4000
G1 X555.7612 Y2189.0564 Z-1.0000 F4000
G1 X555.7612 Y2189.0564 Z10.0000 F9999
G1 X588.6420 Y2230.1573 Z10.0000 F9999
G1 X588.6420 Y2230.1573 Z1.0000 F2500
G1 X588.6420 Y2207.3500 Z0.4148 F2500
G1 X572.4782 Y2207.3500 Z-0.0000 F2500
G1 X588.6420 Y2207.3500 Z-0.4148 F2500
G1 X588.6420 Y2230.1573 Z-1.0000 F2500
G1 X588.6420 Y2207.3500 Z-1.0000 F4000
G1 X572.1832 Y2207.3500 Z-1.0000 F4000
G1 X588.6420 Y2207.3500 Z-1.0000 F4000
G1 X588.6420 Y2189.0564 Z-1.0000 F4000
G1 X570.8805 Y2189.0564 Z-1.0000 F4000
G1 X588.6420 Y2189.0564 Z-1.0000 F4000
G1 X588.6420 Y2230.1573 Z-1.0000 F4000
G1 X570.8805 Y2230.1573 Z-1.0000 F4000
G1 X570.8805 Y2230.1573 Z10.0000 F9999
G1 X604.4952 Y2224.4693 Z10.0000 F9999
G1 X604.4952 Y2224.4693 Z1.0000 F2500
G1 X611.1190 Y2228.6344 Z0.7992 F2500
G1 X619.1007 Y2230.1573 Z0.5907 F2500
G1 X627.3759 Y2228.5243 Z0.3743 F2500
G1 X634.1465 Y2224.1023 Z0.1668 F2500
G1 X637.8717 Y2218.7764 Z0.0000 F2500
G1 X634.1465 Y2224.1023 Z-0.1668 F2500
G1 X627.3759 Y2228.5243 Z-0.3743 F2500
G1 X619.1007 Y2230.1573 Z-0.5907 F2500
G1 X611.1190 Y2228.6344 Z-0.7992 F2500
G1 X604.4952 Y2224.4693 Z-1.0000 F2500
G1 X611.1190 Y2228.6344 Z-1.0000 F4000
G1 X619.1007 Y2230.1573 Z-1.0000 F4000
G1 X627.3759 Y2228.5243 Z-1.0000 F4000
G1 X634.1465 Y2224.1023 Z-1.0000 F4000
G1 X638.7154 Y2217.5702 Z-1.0000 F4000
G1 X640.4034 Y2209.5702 Z-1.0000 F4000
G1 X638.7154 Y2201.6252 Z-1.0000 F4000
G1 X634.1465 Y2195.1115 Z-1.0000 F4000
G1 X627.3759 Y2190.6895 Z-1.0000 F4000
G1 X619.1007 Y2189.0564 Z-1.0000 F4000
G1 X611.3209 Y2190.4693 Z-1.0000 F4000
G1 X604.7704 Y2194.4142 Z-1.0000 F4000
G1 X611.3209 Y2190.4693 Z-1.0000 F4000
G1 X619.1007 Y2189.0564 Z-1.0000 F4000
G1 X627.3759 Y2190.6895 Z-1.0000 F4000
G1 X634.1465 Y2195.1115 Z-1.0000 F4000
G1 X638.7154 Y2201.6252 Z-1.0000 F4000
G1 X640.4034 Y2209.5702 Z-1.0000 F4000
G1 X638.7154 Y2217.5702 Z-1.0000 F4000
G1 X634.1465 Y2224.1023 Z-1.0000 F4000
G1 X627.3759 Y2228.5243 Z-1.0000 F4000
G1 X619.1007 Y2230.1573 Z-1.0000 F4000
G1 X611.1190 Y2228.6344 Z-1.0000 F4000
G1 X611.1190 Y2228.6344 Z10.0000 F9999
G1 X657.5227 Y2215.4601 Z10.0000 F9999
G1 X657.5227 Y2215.4601 Z1.0000 F2500
G1 X678.2199 Y2215.4601 Z0.4689 F2500
G1 X659.9460 Y2215.4601 Z0.0000 F2500
G1 X678.2199 Y2215.4601 Z-0.4689 F2500
G1 X657.5227 Y2215.4601 Z-1.0000 F2500
G1 X678.2199 Y2215.4601 Z-1.0000 F4000
G1 X657.5227 Y2215.4601 Z-1.0000 F4000
G1 X657.5227 Y2215.4601 Z10.0000 F9999
G1 X667.8346 Y2189.0564 Z10.0000 F9999
G1 X667.8346 Y2189.0564 Z1.0000 F2500
G1 X653.6549 Y2225.3564 Z0.0000 F2500
G1 X667.8346 Y2189.0564 Z-1.0000 F2500
G1 X651.7796 Y2230.1573 Z-1.0000 F4000
G1 X667.8346 Y2189.0564 Z-1.0000 F4000
G1 X683.8530 Y2230.1573 Z-1.0000 F4000
G1 X683.8530 Y2230.1573 Z10.0000 F9999
G1 X713.1190 Y2189.0564 Z10.0000 F9999
G1 X713.1190 Y2189.0564 Z1.0000 F2500
G1 X706.6970 Y2189.0564 Z0.8352 F2500
G1 X698.0732 Y2191.6252 Z0.6043 F2500
G1 X695.0823 Y2199.2216 Z0.3948 F2500
G1 X698.1649 Y2207.0931 Z0.1779 F2500
G1 X704.7232 Y2209.3425 Z0.0000 F2500
G1 X698.1649 Y2207.0931 Z-0.1779 F2500
G1 X695.0823 Y2199.2216 Z-0.3948 F2500
G1 X698.0732 Y2191.6252 Z-0.6043 F2500
G1 X706.6970 Y2189.0564 Z-0.8352 F2500
G1 X713.1190 Y2189.0564 Z-1.0000 F2500
G1 X706.6970 Y2189.0564 Z-1.0000 F4000
G1 X698.0732 Y2191.6252 Z-1.0000 F4000
G1 X695.0823 Y2199.2216 Z-1.0000 F4000
G1 X698.1649 Y2207.0931 Z-1.0000 F4000
G1 X706.4034 Y2209.9188 Z-1.0000 F4000
G1 X713.1190 Y2209.9188 Z-1.0000 F4000
G1 X706.4034 Y2209.9188 Z-1.0000 F4000
G1 X698.1649 Y2207.0931 Z-1.0000 F4000
G1 X695.0823 Y2199.2216 Z-1.0000 F4000
G1 X698.0732 Y2191.6252 Z-1.0000 F4000
G1 X706.6970 Y2189.0564 Z-1.0000 F4000
G1 X713.1190 Y2189.0564 Z-1.0000 F4000
G1 X713.1190 Y2230.1573 Z-1.0000 F4000
G1 X713.1190 Y2230.1573 Z10.0000 F9999
G1 X753.1374 Y2223.3317 Z10.0000 F9999
G1 X753.1374 Y2223.3317 Z1.0000 F2500
G1 X751.1924 Y2226.3775 Z0.9073 F2500
G1 X748.7704 Y2228.4326 Z0.8258 F2500
G1 X745.6511 Y2229.6803 Z0.7396 F2500
G1 X741.5227 Y2230.1573 Z0.6329 F2500
G1 X737.0273 Y2229.6986 Z0.5170 F2500
G1 X733.2108 Y2227.9555 Z0.4093 F2500
G1 X730.5319 Y2224.9647 Z0.3063 F2500
G1 X729.4126 Y2220.7995 Z0.1956 F2500
G1 X729.9447 Y2216.7995 Z0.0921 F2500
G1 X731.4860 Y2214.1206 Z0.0128 F2500
G1 X731.8686 Y2213.8035 Z0.0000 F2500
G1 X731.4860 Y2214.1206 Z-0.0128 F2500
G1 X729.9447 Y2216.7995 Z-0.0921 F2500
G1 X729.4126 Y2220.7995 Z-0.1956 F2500
G1 X730.5319 Y2224.9647 Z-0.3063 F2500
G1 X733.2108 Y2227.9555 Z-0.4093 F2500
G1 X737.0273 Y2229.6986 Z-0.5170 F2500
G1 X741.5227 Y2230.1573 Z-0.6329 F2500
G1 X745.6511 Y2229.6803 Z-0.7396 F2500
G1 X748.7704 Y2228.4326 Z-0.8258 F2500
G1 X751.1924 Y2226.3775 Z-0.9073 F2500
G1 X753.1374 Y2223.3317 Z-1.0000 F2500
G1 X751.1924 Y2226.3775 Z-1.0000 F4000
G1 X748.7704 Y2228.4326 Z-1.0000 F4000
G1 X745.6511 Y2229.6803 Z-1.0000 F4000
G1 X741.5227 Y2230.1573 Z-1.0000 F4000
G1 X737.0273 Y2229.6986 Z-1.0000 F4000
G1 X733.2108 Y2227.9555 Z-1.0000 F4000
G1 X730.5319 Y2224.9647 Z-1.0000 F4000
G1 X729.4126 Y2220.7995 Z-1.0000 F4000
G1 X729.9447 Y2216.7995 Z-1.0000 F4000
G1 X731.4860 Y2214.1206 Z-1.0000 F4000
G1 X733.5227 Y2212.4326 Z-1.0000 F4000
G1 X735.4310 Y2211.3317 Z-1.0000 F4000
G1 X744.6236 Y2206.5977 Z-1.0000 F4000
G1 X746.9906 Y2205.1849 Z-1.0000 F4000
G1 X748.8438 Y2203.5335 Z-1.0000 F4000
G1 X750.0915 Y2201.3500 Z-1.0000 F4000
G1 X750.6053 Y2198.4693 Z-1.0000 F4000
G1 X750.0732 Y2195.1849 Z-1.0000 F4000
G1 X748.2383 Y2192.1573 Z-1.0000 F4000
G1 X745.1007 Y2189.9372 Z-1.0000 F4000
G1 X740.7337 Y2189.0564 Z-1.0000 F4000
G1 X736.4768 Y2189.7353 Z-1.0000 F4000
G1 X733.6328 Y2191.2032 Z-1.0000 F4000
G1 X731.5410 Y2193.3500 Z-1.0000 F4000
G1 X733.6328 Y2191.2032 Z-1.0000 F4000
G1 X736.4768 Y2189.7353 Z-1.0000 F4000
G1 X740.7337 Y2189.0564 Z-1.0000 F4000
G1 X745.1007 Y2189.9372 Z-1.0000 F4000
G1 X748.2383 Y2192.1573 Z-1.0000 F4000
G1 X750.0732 Y2195.1849 Z-1.0000 F4000
G1 X750.6053 Y2198.4693 Z-1.0000 F4000
G1 X750.0915 Y2201.3500 Z-1.0000 F4000
G1 X748.8438 Y2203.5335 Z-1.0000 F4000
G1 X746.9906 Y2205.1849 Z-1.0000 F4000
G1 X744.6236 Y2206.5977 Z-1.0000 F4000
G1 X735.4310 Y2211.3317 Z-1.0000 F4000
G1 X733.5227 Y2212.4326 Z-1.0000 F4000
G1 X731.4860 Y2214.1206 Z-1.0000 F4000
G1 X729.9447 Y2216.7995 Z-1.0000 F4000
G1 X729.4126 Y2220.7995 Z-1.0000 F4000
G1 X730.5319 Y2224.9647 Z-1.0000 F4000
G1 X733.2108 Y2227.9555 Z-1.0000 F4000
G1 X737.0273 Y2229.6986 Z-1.0000 F4000
G1 X741.5227 Y2230.1573 Z-1.0000 F4000
G1 X745.6511 Y2229.6803 Z-1.0000 F4000
G1 X748.7704 Y2228.4326 Z-1.0000 F4000
G1 X751.1924 Y2226.3775 Z-1.0000 F4000
G1 X751.1924 Y2226.3775 Z10.0000 F9999
(Tool Number:1) (7.998 mm dia. slot drill)
M3 S9000
G1 X31.9000 Y151.8992 Z10.0000 F9999
G1 X31.9000 Y151.8992 Z1.0000 F2500
G1 X31.8990 Y184.9006 Z-7.4682 F2500
G1 X31.9010 Y178.9308 Z-9.0000 F2500
G1 X31.8990 Y184.9006 Z-10.5318 F2500
G1 X31.9000 Y151.8992 Z-19.0000 F2500
G1 X31.8990 Y184.9006 Z-19.0000 F4000
G1 X31.9010 Y178.9006 Z-19.0000 F4000
G1 X47.9010 Y178.9006 Z-19.0000 F4000
G1 X41.9010 Y178.8986 Z-19.0000 F4000
G1 X41.9010 Y126.9008 Z-19.0000 F4000
G1 X47.9010 Y126.9008 Z-19.0000 F4000
G1 X31.9010 Y126.8988 Z-19.0000 F4000
G1 X31.9010 Y120.8988 Z-19.0000 F4000
G1 X31.9000 Y151.8992 Z-19.0000 F4000
G1 X31.9000 Y151.8992 Z10.0000 F9999
G1 X152.8998 Y147.8987 Z10.0000 F9999
G1 X152.8998 Y147.8987 Z1.0000 F2500
G1 X122.9008 Y147.8987 Z-6.6977 F2500
G1 X122.9008 Y142.8988 Z-7.9807 F2500
G1 X120.8989 Y142.8988 Z-8.4944 F2500
G1 X120.8989 Y144.8690 Z-9.0000 F2500
G1 X120.8989 Y142.8988 Z-9.5056 F2500
G1 X122.9008 Y142.8988 Z-10.0193 F2500
G1 X122.9008 Y147.8987 Z-11.3023 F2500
G1 X152.8998 Y147.8987 Z-19.0000 F2500
G1 X122.9008 Y147.8987 Z-19.0000 F4000
G1 X122.9008 Y142.8988 Z-19.0000 F4000
G1 X120.8989 Y142.8988 Z-19.0000 F4000
G1 X120.8989 Y162.9007 Z-19.0000 F4000
G1 X122.9008 Y162.9007 Z-19.0000 F4000
G1 X122.9008 Y157.9007 Z-19.0000 F4000
G1 X182.8988 Y157.9007 Z-19.0000 F4000
G1 X182.8988 Y162.9007 Z-19.0000 F4000
G1 X184.9008 Y162.9007 Z-19.0000 F4000
G1 X184.9008 Y142.8988 Z-19.0000 F4000
G1 X182.8988 Y142.8988 Z-19.0000 F4000
G1 X182.8988 Y147.8987 Z-19.0000 F4000
G1 X152.8998 Y147.8987 Z-19.0000 F4000
G1 X152.8998 Y147.8987 Z10.0000 F9999
G1 X147.8988 Y243.3995 Z10.0000 F9999
G1 X147.8988 Y243.3995 Z1.0000 F2500
G1 X147.8988 Y282.3707 Z-9.0000 F2500
G1 X147.8988 Y243.3995 Z-19.0000 F2500
G1 X147.8988 Y306.8984 Z-19.0000 F4000
G1 X141.8988 Y306.8984 Z-19.0000 F4000
G1 X141.8988 Y306.9004 Z-19.0000 F4000
G1 X163.9008 Y306.9004 Z-19.0000 F4000
G1 X157.9008 Y306.8984 Z-19.0000 F4000
G1 X157.9008 Y179.9007 Z-19.0000 F4000
G1 X163.9008 Y179.9007 Z-19.0000 F4000
G1 X141.8988 Y179.8987 Z-19.0000 F4000
G1 X147.8988 Y179.9007 Z-19.0000 F4000
G1 X147.8988 Y243.3995 Z-19.0000 F4000
G1 X147.8988 Y243.3995 Z10.0000 F9999
G1 X31.9000 Y451.8986 Z10.0000 F9999
G1 X31.9000 Y451.8986 Z1.0000 F2500
G1 X31.8990 Y484.9000 Z-7.4682 F2500
G1 X31.9010 Y478.9302 Z-9.0000 F2500
G1 X31.8990 Y484.9000 Z-10.5318 F2500
G1 X31.9000 Y451.8986 Z-19.0000 F2500
G1 X31.8990 Y484.9000 Z-19.0000 F4000
G1 X31.9010 Y478.9000 Z-19.0000 F4000
G1 X47.9010 Y478.9000 Z-19.0000 F4000
G1 X41.9010 Y478.8980 Z-19.0000 F4000
G1 X41.9010 Y426.9002 Z-19.0000 F4000
G1 X47.9010 Y426.9002 Z-19.0000 F4000
G1 X31.9010 Y426.8982 Z-19.0000 F4000
G1 X31.9010 Y420.8982 Z-19.0000 F4000
G1 X31.9000 Y451.8986 Z-19.0000 F4000
G1 X31.9000 Y451.8986 Z10.0000 F9999
G1 X273.8995 Y453.8996 Z10.0000 F9999
G1 X273.8995 Y453.8996 Z1.0000 F2500
G1 X273.9005 Y420.8982 Z-7.4682 F2500
G1 X273.8985 Y426.8680 Z-9.0000 F2500
G1 X273.9005 Y420.8982 Z-10.5318 F2500
G1 X273.8995 Y453.8996 Z-19.0000 F2500
G1 X273.9005 Y420.8982 Z-19.0000 F4000
G1 X273.8985 Y426.8982 Z-19.0000 F4000
G1 X257.8985 Y426.8982 Z-19.0000 F4000
G1 X263.8985 Y426.9002 Z-19.0000 F4000
G1 X263.8985 Y478.8980 Z-19.0000 F4000
G1 X257.8985 Y478.8980 Z-19.0000 F4000
G1 X273.8985 Y478.9000 Z-19.0000 F4000
G1 X273.8985 Y484.9000 Z-19.0000 F4000
G1 X273.8995 Y453.8996 Z-19.0000 F4000
G1 X273.8995 Y453.8996 Z10.0000 F9999
G1 X500.2236 Y388.9749 Z10.0000 F9999
G1 X500.2236 Y388.9749 Z1.0000 F2500
G1 X539.1948 Y388.9749 Z-9.0000 F2500
G1 X500.2236 Y388.9749 Z-19.0000 F2500
G1 X584.2225 Y388.9749 Z-19.0000 F4000
G1 X584.2225 Y393.9748 Z-19.0000 F4000
G1 X586.2245 Y393.9748 Z-19.0000 F4000
G1 X586.2245 Y355.9730 Z-19.0000 F4000
G1 X584.2225 Y355.9730 Z-19.0000 F4000
G1 X584.2225 Y360.9730 Z-19.0000 F4000
G1 X416.2248 Y360.9730 Z-19.0000 F4000
G1 X416.2248 Y355.9730 Z-19.0000 F4000
G1 X414.2228 Y355.9730 Z-19.0000 F4000
G1 X414.2228 Y393.9748 Z-19.0000 F4000
G1 X416.2248 Y393.9748 Z-19.0000 F4000
G1 X416.2248 Y388.9749 Z-19.0000 F4000
G1 X500.2236 Y388.9749 Z-19.0000 F4000
G1 X500.2236 Y388.9749 Z10.0000 F9999
G1 X451.8984 Y273.8995 Z10.0000 F9999
G1 X451.8984 Y273.8995 Z1.0000 F2500
G1 X484.8998 Y273.9005 Z-7.4682 F2500
G1 X478.9300 Y273.8985 Z-9.0000 F2500
G1 X484.8998 Y273.9005 Z-10.5318 F2500
G1 X451.8984 Y273.8995 Z-19.0000 F2500
G1 X484.8998 Y273.9005 Z-19.0000 F4000
G1 X478.8998 Y273.8985 Z-19.0000 F4000
G1 X478.8998 Y257.8985 Z-19.0000 F4000
G1 X478.8978 Y263.8985 Z-19.0000 F4000
G1 X426.9000 Y263.8985 Z-19.0000 F4000
G1 X426.9000 Y257.8985 Z-19.0000 F4000
G1 X426.8980 Y273.8985 Z-19.0000 F4000
G1 X420.8980 Y273.8985 Z-19.0000 F4000
G1 X451.8984 Y273.8995 Z-19.0000 F4000
G1 X451.8984 Y273.8995 Z10.0000 F9999
G1 X457.8998 Y152.8997 Z10.0000 F9999
G1 X457.8998 Y152.8997 Z1.0000 F2500
G1 X457.8998 Y122.9008 Z-6.6977 F2500
G1 X462.8999 Y122.9008 Z-7.9808 F2500
G1 X462.8999 Y120.8988 Z-8.4945 F2500
G1 X460.9298 Y120.8988 Z-9.0000 F2500
G1 X462.8999 Y120.8988 Z-9.5055 F2500
G1 X462.8999 Y122.9008 Z-10.0192 F2500
G1 X457.8998 Y122.9008 Z-11.3023 F2500
G1 X457.8998 Y152.8997 Z-19.0000 F2500
G1 X457.8998 Y122.9008 Z-19.0000 F4000
G1 X462.8999 Y122.9008 Z-19.0000 F4000
G1 X462.8999 Y120.8988 Z-19.0000 F4000
G1 X442.8979 Y120.8988 Z-19.0000 F4000
G1 X442.8979 Y122.9008 Z-19.0000 F4000
G1 X447.8979 Y122.9008 Z-19.0000 F4000
G1 X447.8979 Y182.8987 Z-19.0000 F4000
G1 X442.8979 Y182.8987 Z-19.0000 F4000
G1 X442.8979 Y184.9006 Z-19.0000 F4000
G1 X462.8999 Y184.9006 Z-19.0000 F4000
G1 X462.8999 Y182.8987 Z-19.0000 F4000
G1 X457.8998 Y182.8987 Z-19.0000 F4000
G1 X457.8998 Y152.8997 Z-19.0000 F4000
G1 X457.8998 Y152.8997 Z10.0000 F9999
G1 X453.8994 Y31.9000 Z10.0000 F9999
G1 X453.8994 Y31.9000 Z1.0000 F2500
G1 X420.8980 Y31.8990 Z-7.4682 F2500
G1 X426.8678 Y31.9010 Z-9.0000 F2500
G1 X420.8980 Y31.8990 Z-10.5318 F2500
G1 X453.8994 Y31.9000 Z-19.0000 F2500
G1 X420.8980 Y31.8990 Z-19.0000 F4000
G1 X426.8980 Y31.9010 Z-19.0000 F4000
G1 X426.8980 Y47.9009 Z-19.0000 F4000
G1 X426.9000 Y41.9009 Z-19.0000 F4000
G1 X478.8978 Y41.9009 Z-19.0000 F4000
G1 X478.8978 Y47.9009 Z-19.0000 F4000
G1 X478.8998 Y31.9010 Z-19.0000 F4000
G1 X484.8998 Y31.9010 Z-19.0000 F4000
G1 X453.8994 Y31.9000 Z-19.0000 F4000
G1 X453.8994 Y31.9000 Z10.0000 F9999
G1 X753.8987 Y31.9000 Z10.0000 F9999
G1 X753.8987 Y31.9000 Z1.0000 F2500
G1 X720.8974 Y31.8990 Z-7.4682 F2500
G1 X726.8671 Y31.9010 Z-9.0000 F2500
G1 X720.8974 Y31.8990 Z-10.5318 F2500
G1 X753.8987 Y31.9000 Z-19.0000 F2500
G1 X720.8974 Y31.8990 Z-19.0000 F4000
G1 X726.8974 Y31.9010 Z-19.0000 F4000
G1 X726.8974 Y47.9009 Z-19.0000 F4000
G1 X726.8994 Y41.9009 Z-19.0000 F4000
G1 X778.8971 Y41.9009 Z-19.0000 F4000
G1 X778.8971 Y47.9009 Z-19.0000 F4000
G1 X778.8991 Y31.9010 Z-19.0000 F4000
G1 X784.8991 Y31.9010 Z-19.0000 F4000
G1 X753.8987 Y31.9000 Z-19.0000 F4000
G1 X753.8987 Y31.9000 Z10.0000 F9999
G1 X751.8977 Y273.8995 Z10.0000 F9999
G1 X751.8977 Y273.8995 Z1.0000 F2500
G1 X784.8991 Y273.9005 Z-7.4682 F2500
G1 X778.9293 Y273.8985 Z-9.0000 F2500
G1 X784.8991 Y273.9005 Z-10.5318 F2500
G1 X751.8977 Y273.8995 Z-19.0000 F2500
G1 X784.8991 Y273.9005 Z-19.0000 F4000
G1 X778.8991 Y273.8985 Z-19.0000 F4000
G1 X778.8991 Y257.8985 Z-19.0000 F4000
G1 X778.8971 Y263.8985 Z-19.0000 F4000
G1 X726.8994 Y263.8985 Z-19.0000 F4000
G1 X726.8994 Y257.8985 Z-19.0000 F4000
G1 X726.8974 Y273.8985 Z-19.0000 F4000
G1 X720.8974 Y273.8985 Z-19.0000 F4000
G1 X751.8977 Y273.8995 Z-19.0000 F4000
G1 X751.8977 Y273.8995 Z10.0000 F9999
G1 X921.2291 Y405.9937 Z10.0000 F9999
G1 X921.2291 Y405.9937 Z1.0000 F2500
G1 X921.2281 Y438.9951 Z-7.4682 F2500
G1 X921.2301 Y433.0254 Z-9.0000 F2500
G1 X921.2281 Y438.9951 Z-10.5318 F2500
G1 X921.2291 Y405.9937 Z-19.0000 F2500
G1 X921.2281 Y438.9951 Z-19.0000 F4000
G1 X921.2301 Y432.9951 Z-19.0000 F4000
G1 X937.2301 Y432.9951 Z-19.0000 F4000
G1 X931.2301 Y432.9931 Z-19.0000 F4000
G1 X931.2301 Y380.9954 Z-19.0000 F4000
G1 X937.2301 Y380.9954 Z-19.0000 F4000
G1 X921.2301 Y380.9934 Z-19.0000 F4000
G1 X921.2301 Y374.9934 Z-19.0000 F4000
G1 X921.2291 Y405.9937 Z-19.0000 F4000
G1 X921.2291 Y405.9937 Z10.0000 F9999
G1 X1042.2291 Y411.9885 Z10.0000 F9999
G1 X1042.2291 Y411.9885 Z1.0000 F2500
G1 X1058.2281 Y411.9974 Z-3.1053 F2500
G1 X1058.2281 Y417.9729 Z-4.6386 F2500
G1 X1058.2297 Y400.9762 Z-9.0000 F2500
G1 X1058.2281 Y417.9729 Z-13.3614 F2500
G1 X1058.2281 Y411.9974 Z-14.8947 F2500
G1 X1042.2291 Y411.9885 Z-19.0000 F2500
G1 X1058.2281 Y411.9974 Z-19.0000 F4000
G1 X1058.2281 Y417.9729 Z-19.0000 F4000
G1 X1058.2301 Y395.9932 Z-19.0000 F4000
G1 X1058.2281 Y401.9932 Z-19.0000 F4000
G1 X1026.2301 Y401.9932 Z-19.0000 F4000
G1 X1026.2301 Y395.9932 Z-19.0000 F4000
G1 X1026.2281 Y417.9729 Z-19.0000 F4000
G1 X1026.2301 Y417.9729 Z-19.0000 F4000
G1 X1026.2301 Y411.9796 Z-19.0000 F4000
G1 X1042.2291 Y411.9885 Z-19.0000 F4000
G1 X1042.2291 Y411.9885 Z10.0000 F9999
G1 X1163.2287 Y407.9947 Z10.0000 F9999
G1 X1163.2287 Y407.9947 Z1.0000 F2500
G1 X1163.2297 Y374.9934 Z-7.4682 F2500
G1 X1163.2277 Y380.9631 Z-9.0000 F2500
G1 X1163.2297 Y374.9934 Z-10.5318 F2500
G1 X1163.2287 Y407.9947 Z-19.0000 F2500
G1 X1163.2297 Y374.9934 Z-19.0000 F4000
G1 X1163.2277 Y380.9934 Z-19.0000 F4000
G1 X1147.2277 Y380.9934 Z-19.0000 F4000
G1 X1153.2277 Y380.9954 Z-19.0000 F4000
G1 X1153.2277 Y432.9931 Z-19.0000 F4000
G1 X1147.2277 Y432.9931 Z-19.0000 F4000
G1 X1163.2277 Y432.9951 Z-19.0000 F4000
G1 X1163.2277 Y438.9951 Z-19.0000 F4000
G1 X1163.2287 Y407.9947 Z-19.0000 F4000
G1 X1163.2287 Y407.9947 Z10.0000 F9999
G1 X1163.2287 Y707.9941 Z10.0000 F9999
G1 X1163.2287 Y707.9941 Z1.0000 F2500
G1 X1163.2297 Y674.9927 Z-7.4682 F2500
G1 X1163.2277 Y680.9625 Z-9.0000 F2500
G1 X1163.2297 Y674.9927 Z-10.5318 F2500
G1 X1163.2287 Y707.9941 Z-19.0000 F2500
G1 X1163.2297 Y674.9927 Z-19.0000 F4000
G1 X1163.2277 Y680.9927 Z-19.0000 F4000
G1 X1147.2277 Y680.9927 Z-19.0000 F4000
G1 X1153.2277 Y680.9947 Z-19.0000 F4000
G1 X1153.2277 Y732.9925 Z-19.0000 F4000
G1 X1147.2277 Y732.9925 Z-19.0000 F4000
G1 X1163.2277 Y732.9945 Z-19.0000 F4000
G1 X1163.2277 Y738.9945 Z-19.0000 F4000
G1 X1163.2287 Y707.9941 Z-19.0000 F4000
G1 X1163.2287 Y707.9941 Z10.0000 F9999
G1 X921.2291 Y705.9931 Z10.0000 F9999
G1 X921.2291 Y705.9931 Z1.0000 F2500
G1 X921.2281 Y738.9945 Z-7.4682 F2500
G1 X921.2301 Y733.0247 Z-9.0000 F2500
G1 X921.2281 Y738.9945 Z-10.5318 F2500
G1 X921.2291 Y705.9931 Z-19.0000 F2500
G1 X921.2281 Y738.9945 Z-19.0000 F4000
G1 X921.2301 Y732.9945 Z-19.0000 F4000
G1 X937.2301 Y732.9945 Z-19.0000 F4000
G1 X931.2301 Y732.9925 Z-19.0000 F4000
G1 X931.2301 Y680.9947 Z-19.0000 F4000
G1 X937.2301 Y680.9947 Z-19.0000 F4000
G1 X921.2301 Y680.9927 Z-19.0000 F4000
G1 X921.2301 Y674.9927 Z-19.0000 F4000
G1 X921.2291 Y705.9931 Z-19.0000 F4000
G1 X921.2291 Y705.9931 Z10.0000 F9999
G1 X734.6740 Y917.9728 Z10.0000 F9999
G1 X734.6740 Y917.9728 Z1.0000 F2500
G1 X734.6740 Y879.0017 Z-9.0000 F2500
G1 X734.6740 Y917.9728 Z-19.0000 F2500
G1 X734.6740 Y876.9719 Z-19.0000 F4000
G1 X732.6720 Y876.9719 Z-19.0000 F4000
G1 X732.6720 Y881.9719 Z-19.0000 F4000
G1 X719.6720 Y881.9719 Z-19.0000 F4000
G1 X719.6720 Y883.9739 Z-19.0000 F4000
G1 X724.6720 Y883.9739 Z-19.0000 F4000
G1 X724.6720 Y951.9717 Z-19.0000 F4000
G1 X719.6720 Y951.9717 Z-19.0000 F4000
G1 X719.6720 Y953.9737 Z-19.0000 F4000
G1 X732.6720 Y953.9737 Z-19.0000 F4000
G1 X732.6720 Y958.9737 Z-19.0000 F4000
G1 X734.6740 Y958.9737 Z-19.0000 F4000
G1 X734.6740 Y917.9728 Z-19.0000 F4000
G1 X734.6740 Y917.9728 Z10.0000 F9999
G1 X921.2291 Y1005.9925 Z10.0000 F9999
G1 X921.2291 Y1005.9925 Z1.0000 F2500
G1 X921.2281 Y1038.9938 Z-7.4682 F2500
G1 X921.2301 Y1033.0241 Z-9.0000 F2500
G1 X921.2281 Y1038.9938 Z-10.5318 F2500
G1 X921.2291 Y1005.9925 Z-19.0000 F2500
G1 X921.2281 Y1038.9938 Z-19.0000 F4000
G1 X921.2301 Y1032.9938 Z-19.0000 F4000
G1 X937.2301 Y1032.9938 Z-19.0000 F4000
G1 X931.2301 Y1032.9918 Z-19.0000 F4000
G1 X931.2301 Y980.9941 Z-19.0000 F4000
G1 X937.2301 Y980.9941 Z-19.0000 F4000
G1 X921.2301 Y980.9921 Z-19.0000 F4000
G1 X921.2301 Y974.9921 Z-19.0000 F4000
G1 X921.2291 Y1005.9925 Z-19.0000 F4000
G1 X921.2291 Y1005.9925 Z10.0000 F9999
G1 X1042.2289 Y1011.9872 Z10.0000 F9999
G1 X1042.2289 Y1011.9872 Z1.0000 F2500
G1 X1058.2279 Y1011.9961 Z-3.1053 F2500
G1 X1058.2279 Y1017.9716 Z-4.6386 F2500
G1 X1058.2295 Y1000.9749 Z-9.0000 F2500
G1 X1058.2279 Y1017.9716 Z-13.3614 F2500
G1 X1058.2279 Y1011.9961 Z-14.8947 F2500
G1 X1042.2289 Y1011.9872 Z-19.0000 F2500
G1 X1058.2279 Y1011.9961 Z-19.0000 F4000
G1 X1058.2279 Y1017.9716 Z-19.0000 F4000
G1 X1058.2299 Y995.9919 Z-19.0000 F4000
G1 X1058.2279 Y1001.9919 Z-19.0000 F4000
G1 X1026.2299 Y1001.9919 Z-19.0000 F4000
G1 X1026.2299 Y995.9919 Z-19.0000 F4000
G1 X1026.2279 Y1017.9716 Z-19.0000 F4000
G1 X1026.2299 Y1017.9716 Z-19.0000 F4000
G1 X1026.2299 Y1011.9783 Z-19.0000 F4000
G1 X1042.2289 Y1011.9872 Z-19.0000 F4000
G1 X1042.2289 Y1011.9872 Z10.0000 F9999
G1 X1163.2287 Y1007.9935 Z10.0000 F9999
G1 X1163.2287 Y1007.9935 Z1.0000 F2500
G1 X1163.2297 Y974.9921 Z-7.4682 F2500
G1 X1163.2277 Y980.9618 Z-9.0000 F2500
G1 X1163.2297 Y974.9921 Z-10.5318 F2500
G1 X1163.2287 Y1007.9935 Z-19.0000 F2500
G1 X1163.2297 Y974.9921 Z-19.0000 F4000
G1 X1163.2277 Y980.9921 Z-19.0000 F4000
G1 X1147.2277 Y980.9921 Z-19.0000 F4000
G1 X1153.2277 Y980.9941 Z-19.0000 F4000
G1 X1153.2277 Y1032.9918 Z-19.0000 F4000
G1 X1147.2277 Y1032.9918 Z-19.0000 F4000
G1 X1163.2277 Y1032.9938 Z-19.0000 F4000
G1 X1163.2277 Y1038.9938 Z-19.0000 F4000
G1 X1163.2287 Y1007.9935 Z-19.0000 F4000
G1 X1163.2287 Y1007.9935 Z10.0000 F9999
G1 X1163.2287 Y1307.9928 Z10.0000 F9999
G1 X1163.2287 Y1307.9928 Z1.0000 F2500
G1 X1163.2297 Y1274.9914 Z-7.4682 F2500
G1 X1163.2277 Y1280.9612 Z-9.0000 F2500
G1 X1163.2297 Y1274.9914 Z-10.5318 F2500
G1 X1163.2287 Y1307.9928 Z-19.0000 F2500
G1 X1163.2297 Y1274.9914 Z-19.0000 F4000
G1 X1163.2277 Y1280.9914 Z-19.0000 F4000
G1 X1147.2277 Y1280.9914 Z-19.0000 F4000
G1 X1153.2277 Y1280.9934 Z-19.0000 F4000
G1 X1153.2277 Y1332.9912 Z-19.0000 F4000
G1 X1147.2277 Y1332.9912 Z-19.0000 F4000
G1 X1163.2277 Y1332.9932 Z-19.0000 F4000
G1 X1163.2277 Y1338.9932 Z-19.0000 F4000
G1 X1163.2287 Y1307.9928 Z-19.0000 F4000
G1 X1163.2287 Y1307.9928 Z10.0000 F9999
G1 X921.2291 Y1305.9918 Z10.0000 F9999
G1 X921.2291 Y1305.9918 Z1.0000 F2500
G1 X921.2281 Y1338.9932 Z-7.4682 F2500
G1 X921.2301 Y1333.0234 Z-9.0000 F2500
G1 X921.2281 Y1338.9932 Z-10.5318 F2500
G1 X921.2291 Y1305.9918 Z-19.0000 F2500
G1 X921.2281 Y1338.9932 Z-19.0000 F4000
G1 X921.2301 Y1332.9932 Z-19.0000 F4000
G1 X937.2301 Y1332.9932 Z-19.0000 F4000
G1 X931.2301 Y1332.9912 Z-19.0000 F4000
G1 X931.2301 Y1280.9934 Z-19.0000 F4000
G1 X937.2301 Y1280.9934 Z-19.0000 F4000
G1 X921.2301 Y1280.9914 Z-19.0000 F4000
G1 X921.2301 Y1274.9914 Z-19.0000 F4000
G1 X921.2291 Y1305.9918 Z-19.0000 F4000
G1 X921.2291 Y1305.9918 Z10.0000 F9999
G1 X921.2294 Y1605.9912 Z10.0000 F9999
G1 X921.2294 Y1605.9912 Z1.0000 F2500
G1 X921.2284 Y1638.9926 Z-7.4682 F2500
G1 X921.2304 Y1633.0229 Z-9.0000 F2500
G1 X921.2284 Y1638.9926 Z-10.5318 F2500
G1 X921.2294 Y1605.9912 Z-19.0000 F2500
G1 X921.2284 Y1638.9926 Z-19.0000 F4000
G1 X921.2304 Y1632.9926 Z-19.0000 F4000
G1 X937.2304 Y1632.9926 Z-19.0000 F4000
G1 X931.2304 Y1632.9906 Z-19.0000 F4000
G1 X931.2304 Y1580.9929 Z-19.0000 F4000
G1 X937.2304 Y1580.9929 Z-19.0000 F4000
G1 X921.2304 Y1580.9909 Z-19.0000 F4000
G1 X921.2304 Y1574.9909 Z-19.0000 F4000
G1 X921.2294 Y1605.9912 Z-19.0000 F4000
G1 X921.2294 Y1605.9912 Z10.0000 F9999
G1 X1163.2289 Y1607.9922 Z10.0000 F9999
G1 X1163.2289 Y1607.9922 Z1.0000 F2500
G1 X1163.2299 Y1574.9909 Z-7.4682 F2500
G1 X1163.2279 Y1580.9606 Z-9.0000 F2500
G1 X1163.2299 Y1574.9909 Z-10.5318 F2500
G1 X1163.2289 Y1607.9922 Z-19.0000 F2500
G1 X1163.2299 Y1574.9909 Z-19.0000 F4000
G1 X1163.2279 Y1580.9909 Z-19.0000 F4000
G1 X1147.2279 Y1580.9909 Z-19.0000 F4000
G1 X1153.2279 Y1580.9929 Z-19.0000 F4000
G1 X1153.2279 Y1632.9906 Z-19.0000 F4000
G1 X1147.2279 Y1632.9906 Z-19.0000 F4000
G1 X1163.2279 Y1632.9926 Z-19.0000 F4000
G1 X1163.2279 Y1638.9926 Z-19.0000 F4000
G1 X1163.2289 Y1607.9922 Z-19.0000 F4000
G1 X1163.2289 Y1607.9922 Z10.0000 F9999
G1 X1047.2301 Y1816.4913 Z10.0000 F9999
G1 X1047.2301 Y1816.4913 Z1.0000 F2500
G1 X1047.2301 Y1777.5201 Z-9.0000 F2500
G1 X1047.2301 Y1816.4913 Z-19.0000 F2500
G1 X1047.2301 Y1752.9924 Z-19.0000 F4000
G1 X1053.2301 Y1752.9924 Z-19.0000 F4000
G1 X1053.2301 Y1752.9904 Z-19.0000 F4000
G1 X1031.2281 Y1752.9904 Z-19.0000 F4000
G1 X1037.2281 Y1752.9924 Z-19.0000 F4000
G1 X1037.2281 Y1879.9901 Z-19.0000 F4000
G1 X1031.2281 Y1879.9901 Z-19.0000 F4000
G1 X1053.2301 Y1879.9921 Z-19.0000 F4000
G1 X1047.2301 Y1879.9901 Z-19.0000 F4000
G1 X1047.2301 Y1816.4913 Z-19.0000 F4000
G1 X1047.2301 Y1816.4913 Z10.0000 F9999
G1 X1042.2291 Y1911.9921 Z10.0000 F9999
G1 X1042.2291 Y1911.9921 Z1.0000 F2500
G1 X1072.2281 Y1911.9921 Z-6.6977 F2500
G1 X1072.2281 Y1916.9921 Z-7.9807 F2500
G1 X1074.2300 Y1916.9921 Z-8.4944 F2500
G1 X1074.2300 Y1915.0218 Z-9.0000 F2500
G1 X1074.2300 Y1916.9921 Z-9.5056 F2500
G1 X1072.2281 Y1916.9921 Z-10.0193 F2500
G1 X1072.2281 Y1911.9921 Z-11.3023 F2500
G1 X1042.2291 Y1911.9921 Z-19.0000 F2500
G1 X1072.2281 Y1911.9921 Z-19.0000 F4000
G1 X1072.2281 Y1916.9921 Z-19.0000 F4000
G1 X1074.2300 Y1916.9921 Z-19.0000 F4000
G1 X1074.2300 Y1896.9901 Z-19.0000 F4000
G1 X1072.2281 Y1896.9901 Z-19.0000 F4000
G1 X1072.2281 Y1901.9901 Z-19.0000 F4000
G1 X1012.2301 Y1901.9901 Z-19.0000 F4000
G1 X1012.2301 Y1896.9901 Z-19.0000 F4000
G1 X1010.2281 Y1896.9901 Z-19.0000 F4000
G1 X1010.2281 Y1916.9921 Z-19.0000 F4000
G1 X1012.2301 Y1916.9921 Z-19.0000 F4000
G1 X1012.2301 Y1911.9921 Z-19.0000 F4000
G1 X1042.2291 Y1911.9921 Z-19.0000 F4000
G1 X1042.2291 Y1911.9921 Z10.0000 F9999
G1 X1163.2289 Y1907.9916 Z10.0000 F9999
G1 X1163.2289 Y1907.9916 Z1.0000 F2500
G1 X1163.2299 Y1874.9902 Z-7.4682 F2500
G1 X1163.2279 Y1880.9600 Z-9.0000 F2500
G1 X1163.2299 Y1874.9902 Z-10.5318 F2500
G1 X1163.2289 Y1907.9916 Z-19.0000 F2500
G1 X1163.2299 Y1874.9902 Z-19.0000 F4000
G1 X1163.2279 Y1880.9902 Z-19.0000 F4000
G1 X1147.2279 Y1880.9902 Z-19.0000 F4000
G1 X1153.2279 Y1880.9922 Z-19.0000 F4000
G1 X1153.2279 Y1932.9900 Z-19.0000 F4000
G1 X1147.2279 Y1932.9900 Z-19.0000 F4000
G1 X1163.2279 Y1932.9920 Z-19.0000 F4000
G1 X1163.2279 Y1938.9920 Z-19.0000 F4000
G1 X1163.2289 Y1907.9916 Z-19.0000 F4000
G1 X1163.2289 Y1907.9916 Z10.0000 F9999
G1 X1172.3978 Y2202.0850 Z10.0000 F9999
G1 X1172.3978 Y2202.0850 Z1.0000 F2500
G1 X1185.8967 Y2202.0850 Z-2.4638 F2500
G1 X1185.8967 Y2207.0850 Z-3.7468 F2500
G1 X1187.8987 Y2207.0850 Z-4.2606 F2500
G1 X1187.8987 Y2188.6148 Z-9.0000 F2500
G1 X1187.8987 Y2207.0850 Z-13.7394 F2500
G1 X1185.8967 Y2207.0850 Z-14.2532 F2500
G1 X1185.8967 Y2202.0850 Z-15.5362 F2500
G1 X1172.3978 Y2202.0850 Z-19.0000 F2500
G1 X1185.8967 Y2202.0850 Z-19.0000 F4000
G1 X1185.8967 Y2207.0850 Z-19.0000 F4000
G1 X1187.8987 Y2207.0850 Z-19.0000 F4000
G1 X1187.8987 Y2187.0830 Z-19.0000 F4000
G1 X1185.8967 Y2187.0830 Z-19.0000 F4000
G1 X1185.8967 Y2192.0830 Z-19.0000 F4000
G1 X1158.8988 Y2192.0830 Z-19.0000 F4000
G1 X1158.8988 Y2187.0830 Z-19.0000 F4000
G1 X1156.8968 Y2187.0830 Z-19.0000 F4000
G1 X1156.8968 Y2207.0850 Z-19.0000 F4000
G1 X1158.8988 Y2207.0850 Z-19.0000 F4000
G1 X1158.8988 Y2202.0850 Z-19.0000 F4000
G1 X1172.3978 Y2202.0850 Z-19.0000 F4000
G1 X1172.3978 Y2202.0850 Z10.0000 F9999
G1 X741.2295 Y2027.9908 Z10.0000 F9999
G1 X741.2295 Y2027.9908 Z1.0000 F2500
G1 X774.2309 Y2027.9918 Z-7.4682 F2500
G1 X768.2611 Y2027.9899 Z-9.0000 F2500
G1 X774.2309 Y2027.9918 Z-10.5318 F2500
G1 X741.2295 Y2027.9908 Z-19.0000 F2500
G1 X774.2309 Y2027.9918 Z-19.0000 F4000
G1 X768.2309 Y2027.9898 Z-19.0000 F4000
G1 X768.2309 Y2011.9899 Z-19.0000 F4000
G1 X768.2289 Y2017.9899 Z-19.0000 F4000
G1 X716.2311 Y2017.9899 Z-19.0000 F4000
G1 X716.2311 Y2011.9899 Z-19.0000 F4000
G1 X716.2291 Y2027.9898 Z-19.0000 F4000
G1 X710.2291 Y2027.9898 Z-19.0000 F4000
G1 X741.2295 Y2027.9908 Z-19.0000 F4000
G1 X741.2295 Y2027.9908 Z10.0000 F9999
G1 X737.2291 Y1906.9911 Z10.0000 F9999
G1 X737.2291 Y1906.9911 Z1.0000 F2500
G1 X737.2291 Y1936.9901 Z-6.6977 F2500
G1 X732.2290 Y1936.9901 Z-7.9808 F2500
G1 X732.2290 Y1938.9920 Z-8.4945 F2500
G1 X734.1991 Y1938.9920 Z-9.0000 F2500
G1 X732.2290 Y1938.9920 Z-9.5055 F2500
G1 X732.2290 Y1936.9901 Z-10.0192 F2500
G1 X737.2291 Y1936.9901 Z-11.3023 F2500
G1 X737.2291 Y1906.9911 Z-19.0000 F2500
G1 X737.2291 Y1936.9901 Z-19.0000 F4000
G1 X732.2290 Y1936.9901 Z-19.0000 F4000
G1 X732.2290 Y1938.9920 Z-19.0000 F4000
G1 X752.2310 Y1938.9920 Z-19.0000 F4000
G1 X752.2310 Y1936.9901 Z-19.0000 F4000
G1 X747.2310 Y1936.9901 Z-19.0000 F4000
G1 X747.2310 Y1876.9922 Z-19.0000 F4000
G1 X752.2310 Y1876.9922 Z-19.0000 F4000
G1 X752.2310 Y1874.9902 Z-19.0000 F4000
G1 X732.2290 Y1874.9902 Z-19.0000 F4000
G1 X732.2290 Y1876.9922 Z-19.0000 F4000
G1 X737.2291 Y1876.9922 Z-19.0000 F4000
G1 X737.2291 Y1906.9911 Z-19.0000 F4000
G1 X737.2291 Y1906.9911 Z10.0000 F9999
G1 X743.2305 Y1785.9913 Z10.0000 F9999
G1 X743.2305 Y1785.9913 Z1.0000 F2500
G1 X710.2291 Y1785.9903 Z-7.4682 F2500
G1 X716.1989 Y1785.9923 Z-9.0000 F2500
G1 X710.2291 Y1785.9903 Z-10.5318 F2500
G1 X743.2305 Y1785.9913 Z-19.0000 F2500
G1 X710.2291 Y1785.9903 Z-19.0000 F4000
G1 X716.2291 Y1785.9923 Z-19.0000 F4000
G1 X716.2291 Y1801.9923 Z-19.0000 F4000
G1 X716.2311 Y1795.9923 Z-19.0000 F4000
G1 X768.2289 Y1795.9923 Z-19.0000 F4000
G1 X768.2289 Y1801.9923 Z-19.0000 F4000
G1 X768.2309 Y1785.9923 Z-19.0000 F4000
G1 X774.2309 Y1785.9923 Z-19.0000 F4000
G1 X743.2305 Y1785.9913 Z-19.0000 F4000
G1 X743.2305 Y1785.9913 Z10.0000 F9999
G1 X443.2312 Y1785.9914 Z10.0000 F9999
G1 X443.2312 Y1785.9914 Z1.0000 F2500
G1 X410.2298 Y1785.9904 Z-7.4682 F2500
G1 X416.1996 Y1785.9924 Z-9.0000 F2500
G1 X410.2298 Y1785.9904 Z-10.5318 F2500
G1 X443.2312 Y1785.9914 Z-19.0000 F2500
G1 X410.2298 Y1785.9904 Z-19.0000 F4000
G1 X416.2298 Y1785.9924 Z-19.0000 F4000
G1 X416.2298 Y1801.9923 Z-19.0000 F4000
G1 X416.2318 Y1795.9923 Z-19.0000 F4000
G1 X468.2296 Y1795.9923 Z-19.0000 F4000
G1 X468.2296 Y1801.9923 Z-19.0000 F4000
G1 X468.2316 Y1785.9924 Z-19.0000 F4000
G1 X474.2316 Y1785.9924 Z-19.0000 F4000
G1 X443.2312 Y1785.9914 Z-19.0000 F4000
G1 X443.2312 Y1785.9914 Z10.0000 F9999
G1 X273.8998 Y1653.8971 Z10.0000 F9999
G1 X273.8998 Y1653.8971 Z1.0000 F2500
G1 X273.9008 Y1620.8957 Z-7.4682 F2500
G1 X273.8988 Y1626.8655 Z-9.0000 F2500
G1 X273.9008 Y1620.8957 Z-10.5318 F2500
G1 X273.8998 Y1653.8971 Z-19.0000 F2500
G1 X273.9008 Y1620.8957 Z-19.0000 F4000
G1 X273.8988 Y1626.8957 Z-19.0000 F4000
G1 X257.8988 Y1626.8957 Z-19.0000 F4000
G1 X263.8988 Y1626.8977 Z-19.0000 F4000
G1 X263.8988 Y1678.8955 Z-19.0000 F4000
G1 X257.8988 Y1678.8955 Z-19.0000 F4000
G1 X273.8988 Y1678.8975 Z-19.0000 F4000
G1 X273.8988 Y1684.8975 Z-19.0000 F4000
G1 X273.8998 Y1653.8971 Z-19.0000 F4000
G1 X273.8998 Y1653.8971 Z10.0000 F9999
G1 X152.8998 Y1647.9023 Z10.0000 F9999
G1 X152.8998 Y1647.9023 Z1.0000 F2500
G1 X136.9008 Y1647.8934 Z-3.1053 F2500
G1 X136.9008 Y1641.9180 Z-4.6386 F2500
G1 X136.8992 Y1658.9146 Z-9.0000 F2500
G1 X136.9008 Y1641.9180 Z-13.3614 F2500
G1 X136.9008 Y1647.8934 Z-14.8947 F2500
G1 X152.8998 Y1647.9023 Z-19.0000 F2500
G1 X136.9008 Y1647.8934 Z-19.0000 F4000
G1 X136.9008 Y1641.9180 Z-19.0000 F4000
G1 X136.8988 Y1663.8976 Z-19.0000 F4000
G1 X136.9008 Y1657.8976 Z-19.0000 F4000
G1 X168.8988 Y1657.8976 Z-19.0000 F4000
G1 X168.8988 Y1663.8976 Z-19.0000 F4000
G1 X168.9008 Y1641.9180 Z-19.0000 F4000
G1 X168.8988 Y1641.9180 Z-19.0000 F4000
G1 X168.8988 Y1647.9113 Z-19.0000 F4000
G1 X152.8998 Y1647.9023 Z-19.0000 F4000
G1 X152.8998 Y1647.9023 Z10.0000 F9999
G1 X31.9003 Y1651.8961 Z10.0000 F9999
G1 X31.9003 Y1651.8961 Z1.0000 F2500
G1 X31.8993 Y1684.8975 Z-7.4682 F2500
G1 X31.9012 Y1678.9277 Z-9.0000 F2500
G1 X31.8993 Y1684.8975 Z-10.5318 F2500
G1 X31.9003 Y1651.8961 Z-19.0000 F2500
G1 X31.8993 Y1684.8975 Z-19.0000 F4000
G1 X31.9013 Y1678.8975 Z-19.0000 F4000
G1 X47.9012 Y1678.8975 Z-19.0000 F4000
G1 X41.9012 Y1678.8955 Z-19.0000 F4000
G1 X41.9012 Y1626.8977 Z-19.0000 F4000
G1 X47.9012 Y1626.8977 Z-19.0000 F4000
G1 X31.9013 Y1626.8957 Z-19.0000 F4000
G1 X31.9013 Y1620.8957 Z-19.0000 F4000
G1 X31.9003 Y1651.8961 Z-19.0000 F4000
G1 X31.9003 Y1651.8961 Z10.0000 F9999
G1 X31.9003 Y1351.8968 Z10.0000 F9999
G1 X31.9003 Y1351.8968 Z1.0000 F2500
G1 X31.8993 Y1384.8981 Z-7.4682 F2500
G1 X31.9012 Y1378.9284 Z-9.0000 F2500
G1 X31.8993 Y1384.8981 Z-10.5318 F2500
G1 X31.9003 Y1351.8968 Z-19.0000 F2500
G1 X31.8993 Y1384.8981 Z-19.0000 F4000
G1 X31.9013 Y1378.8981 Z-19.0000 F4000
G1 X47.9012 Y1378.8981 Z-19.0000 F4000
G1 X41.9012 Y1378.8961 Z-19.0000 F4000
G1 X41.9012 Y1326.8984 Z-19.0000 F4000
G1 X47.9012 Y1326.8984 Z-19.0000 F4000
G1 X31.9013 Y1326.8964 Z-19.0000 F4000
G1 X31.9013 Y1320.8964 Z-19.0000 F4000
G1 X31.9003 Y1351.8968 Z-19.0000 F4000
G1 X31.9003 Y1351.8968 Z10.0000 F9999
G1 X273.8998 Y1353.8978 Z10.0000 F9999
G1 X273.8998 Y1353.8978 Z1.0000 F2500
G1 X273.9008 Y1320.8964 Z-7.4682 F2500
G1 X273.8988 Y1326.8661 Z-9.0000 F2500
G1 X273.9008 Y1320.8964 Z-10.5318 F2500
G1 X273.8998 Y1353.8978 Z-19.0000 F2500
G1 X273.9008 Y1320.8964 Z-19.0000 F4000
G1 X273.8988 Y1326.8964 Z-19.0000 F4000
G1 X257.8988 Y1326.8964 Z-19.0000 F4000
G1 X263.8988 Y1326.8984 Z-19.0000 F4000
G1 X263.8988 Y1378.8961 Z-19.0000 F4000
G1 X257.8988 Y1378.8961 Z-19.0000 F4000
G1 X273.8988 Y1378.8981 Z-19.0000 F4000
G1 X273.8988 Y1384.8981 Z-19.0000 F4000
G1 X273.8998 Y1353.8978 Z-19.0000 F4000
G1 X273.8998 Y1353.8978 Z10.0000 F9999
G1 X500.2236 Y1474.9727 Z10.0000 F9999
G1 X500.2236 Y1474.9727 Z1.0000 F2500
G1 X539.1948 Y1474.9727 Z-9.0000 F2500
G1 X500.2236 Y1474.9727 Z-19.0000 F2500
G1 X584.2225 Y1474.9727 Z-19.0000 F4000
G1 X584.2225 Y1479.9726 Z-19.0000 F4000
G1 X586.2245 Y1479.9726 Z-19.0000 F4000
G1 X586.2245 Y1441.9707 Z-19.0000 F4000
G1 X584.2225 Y1441.9707 Z-19.0000 F4000
G1 X584.2225 Y1446.9707 Z-19.0000 F4000
G1 X416.2248 Y1446.9707 Z-19.0000 F4000
G1 X416.2248 Y1441.9707 Z-19.0000 F4000
G1 X414.2228 Y1441.9707 Z-19.0000 F4000
G1 X414.2228 Y1479.9726 Z-19.0000 F4000
G1 X416.2248 Y1479.9726 Z-19.0000 F4000
G1 X416.2248 Y1474.9727 Z-19.0000 F4000
G1 X500.2236 Y1474.9727 Z-19.0000 F4000
G1 X500.2236 Y1474.9727 Z10.0000 F9999
G1 X273.8998 Y1053.8984 Z10.0000 F9999
G1 X273.8998 Y1053.8984 Z1.0000 F2500
G1 X273.9008 Y1020.8970 Z-7.4682 F2500
G1 X273.8988 Y1026.8668 Z-9.0000 F2500
G1 X273.9008 Y1020.8970 Z-10.5318 F2500
G1 X273.8998 Y1053.8984 Z-19.0000 F2500
G1 X273.9008 Y1020.8970 Z-19.0000 F4000
G1 X273.8988 Y1026.8970 Z-19.0000 F4000
G1 X257.8988 Y1026.8970 Z-19.0000 F4000
G1 X263.8988 Y1026.8990 Z-19.0000 F4000
G1 X263.8988 Y1078.8967 Z-19.0000 F4000
G1 X257.8988 Y1078.8967 Z-19.0000 F4000
G1 X273.8988 Y1078.8987 Z-19.0000 F4000
G1 X273.8988 Y1084.8987 Z-19.0000 F4000
G1 X273.8998 Y1053.8984 Z-19.0000 F4000
G1 X273.8998 Y1053.8984 Z10.0000 F9999
G1 X152.9000 Y1047.9036 Z10.0000 F9999
G1 X152.9000 Y1047.9036 Z1.0000 F2500
G1 X136.9010 Y1047.8947 Z-3.1053 F2500
G1 X136.9010 Y1041.9192 Z-4.6386 F2500
G1 X136.8995 Y1058.9159 Z-9.0000 F2500
G1 X136.9010 Y1041.9192 Z-13.3614 F2500
G1 X136.9010 Y1047.8947 Z-14.8947 F2500
G1 X152.9000 Y1047.9036 Z-19.0000 F2500
G1 X136.9010 Y1047.8947 Z-19.0000 F4000
G1 X136.9010 Y1041.9192 Z-19.0000 F4000
G1 X136.8990 Y1063.8989 Z-19.0000 F4000
G1 X136.9010 Y1057.8989 Z-19.0000 F4000
G1 X168.8990 Y1057.8989 Z-19.0000 F4000
G1 X168.8990 Y1063.8989 Z-19.0000 F4000
G1 X168.9010 Y1041.9192 Z-19.0000 F4000
G1 X168.8990 Y1041.9192 Z-19.0000 F4000
G1 X168.8990 Y1047.9125 Z-19.0000 F4000
G1 X152.9000 Y1047.9036 Z-19.0000 F4000
G1 X152.9000 Y1047.9036 Z10.0000 F9999
G1 X31.9003 Y1051.8974 Z10.0000 F9999
G1 X31.9003 Y1051.8974 Z1.0000 F2500
G1 X31.8993 Y1084.8987 Z-7.4682 F2500
G1 X31.9012 Y1078.9290 Z-9.0000 F2500
G1 X31.8993 Y1084.8987 Z-10.5318 F2500
G1 X31.9003 Y1051.8974 Z-19.0000 F2500
G1 X31.8993 Y1084.8987 Z-19.0000 F4000
G1 X31.9013 Y1078.8987 Z-19.0000 F4000
G1 X47.9012 Y1078.8987 Z-19.0000 F4000
G1 X41.9012 Y1078.8967 Z-19.0000 F4000
G1 X41.9012 Y1026.8990 Z-19.0000 F4000
G1 X47.9012 Y1026.8990 Z-19.0000 F4000
G1 X31.9013 Y1026.8970 Z-19.0000 F4000
G1 X31.9013 Y1020.8970 Z-19.0000 F4000
G1 X31.9003 Y1051.8974 Z-19.0000 F4000
G1 X31.9003 Y1051.8974 Z10.0000 F9999
G1 X31.9003 Y751.8980 Z10.0000 F9999
G1 X31.9003 Y751.8980 Z1.0000 F2500
G1 X31.8993 Y784.8994 Z-7.4682 F2500
G1 X31.9012 Y778.9296 Z-9.0000 F2500
G1 X31.8993 Y784.8994 Z-10.5318 F2500
G1 X31.9003 Y751.8980 Z-19.0000 F2500
G1 X31.8993 Y784.8994 Z-19.0000 F4000
G1 X31.9013 Y778.8994 Z-19.0000 F4000
G1 X47.9012 Y778.8994 Z-19.0000 F4000
G1 X41.9012 Y778.8974 Z-19.0000 F4000
G1 X41.9012 Y726.8997 Z-19.0000 F4000
G1 X47.9012 Y726.8997 Z-19.0000 F4000
G1 X31.9013 Y726.8977 Z-19.0000 F4000
G1 X31.9013 Y720.8977 Z-19.0000 F4000
G1 X31.9003 Y751.8980 Z-19.0000 F4000
G1 X31.9003 Y751.8980 Z10.0000 F9999
G1 X273.8998 Y753.8990 Z10.0000 F9999
G1 X273.8998 Y753.8990 Z1.0000 F2500
G1 X273.9008 Y720.8977 Z-7.4682 F2500
G1 X273.8988 Y726.8674 Z-9.0000 F2500
G1 X273.9008 Y720.8977 Z-10.5318 F2500
G1 X273.8998 Y753.8990 Z-19.0000 F2500
G1 X273.9008 Y720.8977 Z-19.0000 F4000
G1 X273.8988 Y726.8977 Z-19.0000 F4000
G1 X257.8988 Y726.8977 Z-19.0000 F4000
G1 X263.8988 Y726.8997 Z-19.0000 F4000
G1 X263.8988 Y778.8974 Z-19.0000 F4000
G1 X257.8988 Y778.8974 Z-19.0000 F4000
G1 X273.8988 Y778.8994 Z-19.0000 F4000
G1 X273.8988 Y784.8994 Z-19.0000 F4000
G1 X273.8998 Y753.8990 Z-19.0000 F4000
G1 X273.8998 Y753.8990 Z10.0000 F9999
G1 X441.2302 Y2027.9909 Z10.0000 F9999
G1 X441.2302 Y2027.9909 Z1.0000 F2500
G1 X474.2316 Y2027.9919 Z-7.4682 F2500
G1 X468.2618 Y2027.9899 Z-9.0000 F2500
G1 X474.2316 Y2027.9919 Z-10.5318 F2500
G1 X441.2302 Y2027.9909 Z-19.0000 F2500
G1 X474.2316 Y2027.9919 Z-19.0000 F4000
G1 X468.2316 Y2027.9899 Z-19.0000 F4000
G1 X468.2316 Y2011.9899 Z-19.0000 F4000
G1 X468.2296 Y2017.9899 Z-19.0000 F4000
G1 X416.2318 Y2017.9899 Z-19.0000 F4000
G1 X416.2318 Y2011.9899 Z-19.0000 F4000
G1 X416.2298 Y2027.9899 Z-19.0000 F4000
G1 X410.2298 Y2027.9899 Z-19.0000 F4000
G1 X441.2302 Y2027.9909 Z-19.0000 F4000
G1 X441.2302 Y2027.9909 Z10.0000 F9999
G1 X47.4000 Y2192.0830 Z10.0000 F9999
G1 X47.4000 Y2192.0830 Z1.0000 F2500
G1 X33.9010 Y2192.0830 Z-2.4638 F2500
G1 X33.9010 Y2187.0830 Z-3.7468 F2500
G1 X31.8991 Y2187.0830 Z-4.2605 F2500
G1 X31.8991 Y2205.5533 Z-9.0000 F2500
G1 X31.8991 Y2187.0830 Z-13.7395 F2500
G1 X33.9010 Y2187.0830 Z-14.2532 F2500
G1 X33.9010 Y2192.0830 Z-15.5362 F2500
G1 X47.4000 Y2192.0830 Z-19.0000 F2500
G1 X33.9010 Y2192.0830 Z-19.0000 F4000
G1 X33.9010 Y2187.0830 Z-19.0000 F4000
G1 X31.8991 Y2187.0830 Z-19.0000 F4000
G1 X31.8991 Y2207.0850 Z-19.0000 F4000
G1 X33.9010 Y2207.0850 Z-19.0000 F4000
G1 X33.9010 Y2202.0850 Z-19.0000 F4000
G1 X60.8990 Y2202.0850 Z-19.0000 F4000
G1 X60.8990 Y2207.0850 Z-19.0000 F4000
G1 X62.9010 Y2207.0850 Z-19.0000 F4000
G1 X62.9010 Y2187.0830 Z-19.0000 F4000
G1 X60.8990 Y2187.0830 Z-19.0000 F4000
G1 X60.8990 Y2192.0830 Z-19.0000 F4000
G1 X47.4000 Y2192.0830 Z-19.0000 F4000
G1 X47.4000 Y2192.0830 Z10.0000 F9999
(Tool Number:1) (7.998 mm dia. slot drill)
M3 S9000
G1 X865.7723 Y936.3586 Z10.0000 F9999
G1 X865.7723 Y936.3586 Z1.0000 F2500
G1 X865.7723 Y975.3298 Z-9.0000 F2500
G1 X865.7723 Y936.3586 Z-19.0000 F2500
G1 X865.7723 Y1521.9707 Z-19.0000 F4000
G1 X845.7783 Y1521.9707 Z-19.0000 F4000
G1 X845.7783 Y1521.9707 Z-9.0000 F9999
G1 X829.7803 Y1521.9707 Z-9.0000 F4000
G1 X829.7803 Y1521.9707 Z-19.0000 F2500
G1 X471.3229 Y1521.9707 Z-19.0000 F4000
G1 X471.3229 Y1521.9707 Z-9.0000 F9999
G1 X455.3249 Y1521.9707 Z-9.0000 F4000
G1 X455.3249 Y1521.9707 Z-19.0000 F2500
G1 X378.9748 Y1521.9707 Z-19.0000 F4000
G1 X378.9748 Y1465.2108 Z-19.0000 F4000
G1 X378.7410 Y1464.2283 Z-19.0000 F4000
G1 X378.4008 Y1463.8252 Z-19.0000 F4000
G1 X377.9152 Y1463.6185 Z-19.0000 F4000
G1 X376.9072 Y1463.6840 Z-19.0000 F4000
G1 X324.8480 Y1479.7021 Z-19.0000 F4000
G1 X321.2349 Y1479.9364 Z-19.0000 F4000
G1 X317.4598 Y1478.3294 Z-19.0000 F4000
G1 X314.8134 Y1475.1935 Z-19.0000 F4000
G1 X313.9750 Y1471.6714 Z-19.0000 F4000
G1 X313.9750 Y1364.2726 Z-19.0000 F4000
G1 X314.8133 Y1360.7500 Z-19.0000 F4000
G1 X317.4598 Y1357.6142 Z-19.0000 F4000
G1 X321.2350 Y1356.0069 Z-19.0000 F4000
G1 X324.8483 Y1356.2416 Z-19.0000 F4000
G1 X376.9072 Y1372.2598 Z-19.0000 F4000
G1 X377.9152 Y1372.3252 Z-19.0000 F4000
G1 X378.4007 Y1372.1186 Z-19.0000 F4000
G1 X378.7410 Y1371.7154 Z-19.0000 F4000
G1 X378.9748 Y1370.7331 Z-19.0000 F4000
G1 X378.9748 Y1265.2111 Z-19.0000 F4000
G1 X378.7410 Y1264.2288 Z-19.0000 F4000
G1 X378.4006 Y1263.8256 Z-19.0000 F4000
G1 X377.9149 Y1263.6187 Z-19.0000 F4000
G1 X376.9073 Y1263.6841 Z-19.0000 F4000
G1 X324.8482 Y1279.7024 Z-19.0000 F4000
G1 X321.2349 Y1279.9370 Z-19.0000 F4000
G1 X317.4598 Y1278.3297 Z-19.0000 F4000
G1 X314.8134 Y1275.1940 Z-19.0000 F4000
G1 X313.9750 Y1271.6718 Z-19.0000 F4000
G1 X313.9750 Y1164.2729 Z-19.0000 F4000
G1 X314.8133 Y1160.7504 Z-19.0000 F4000
G1 X317.4598 Y1157.6146 Z-19.0000 F4000
G1 X321.2349 Y1156.0075 Z-19.0000 F4000
G1 X324.8482 Y1156.2420 Z-19.0000 F4000
G1 X376.9072 Y1172.2603 Z-19.0000 F4000
G1 X377.9149 Y1172.3256 Z-19.0000 F4000
G1 X378.4006 Y1172.1188 Z-19.0000 F4000
G1 X378.7410 Y1171.7156 Z-19.0000 F4000
G1 X378.9748 Y1170.7333 Z-19.0000 F4000
G1 X378.9748 Y1065.2116 Z-19.0000 F4000
G1 X378.7410 Y1064.2291 Z-19.0000 F4000
G1 X378.4007 Y1063.8260 Z-19.0000 F4000
G1 X377.9149 Y1063.6191 Z-19.0000 F4000
G1 X376.9073 Y1063.6845 Z-19.0000 F4000
G1 X324.8482 Y1079.7028 Z-19.0000 F4000
G1 X321.2349 Y1079.9374 Z-19.0000 F4000
G1 X317.4598 Y1078.3301 Z-19.0000 F4000
G1 X314.8133 Y1075.1944 Z-19.0000 F4000
G1 X313.9750 Y1071.6719 Z-19.0000 F4000
G1 X313.9750 Y964.2733 Z-19.0000 F4000
G1 X314.8133 Y960.7508 Z-19.0000 F4000
G1 X317.4598 Y957.6151 Z-19.0000 F4000
G1 X321.2349 Y956.0078 Z-19.0000 F4000
G1 X324.8482 Y956.2424 Z-19.0000 F4000
G1 X376.9073 Y972.2606 Z-19.0000 F4000
G1 X377.9150 Y972.3261 Z-19.0000 F4000
G1 X378.4007 Y972.1192 Z-19.0000 F4000
G1 X378.7410 Y971.7161 Z-19.0000 F4000
G1 X378.9748 Y970.7336 Z-19.0000 F4000
G1 X378.9748 Y865.2119 Z-19.0000 F4000
G1 X378.7410 Y864.2296 Z-19.0000 F4000
G1 X378.4006 Y863.8264 Z-19.0000 F4000
G1 X377.9151 Y863.6196 Z-19.0000 F4000
G1 X376.9074 Y863.6851 Z-19.0000 F4000
G1 X324.8482 Y879.7032 Z-19.0000 F4000
G1 X321.2349 Y879.9378 Z-19.0000 F4000
G1 X317.4598 Y878.3305 Z-19.0000 F4000
G1 X314.8133 Y875.1948 Z-19.0000 F4000
G1 X313.9750 Y871.6723 Z-19.0000 F4000
G1 X313.9750 Y764.2737 Z-19.0000 F4000
G1 X314.8133 Y760.7512 Z-19.0000 F4000
G1 X317.4598 Y757.6155 Z-19.0000 F4000
G1 X321.2349 Y756.0082 Z-19.0000 F4000
G1 X324.8482 Y756.2428 Z-19.0000 F4000
G1 X376.9073 Y772.2610 Z-19.0000 F4000
G1 X377.9151 Y772.3265 Z-19.0000 F4000
G1 X378.4007 Y772.1198 Z-19.0000 F4000
G1 X378.7410 Y771.7166 Z-19.0000 F4000
G1 X378.9748 Y770.7341 Z-19.0000 F4000
G1 X378.9748 Y665.2124 Z-19.0000 F4000
G1 X378.7410 Y664.2300 Z-19.0000 F4000
G1 X378.4006 Y663.8268 Z-19.0000 F4000
G1 X377.9149 Y663.6199 Z-19.0000 F4000
G1 X376.9073 Y663.6854 Z-19.0000 F4000
G1 X324.8482 Y679.7036 Z-19.0000 F4000
G1 X321.2349 Y679.9382 Z-19.0000 F4000
G1 X317.4598 Y678.3309 Z-19.0000 F4000
G1 X314.8133 Y675.1952 Z-19.0000 F4000
G1 X313.9750 Y671.6727 Z-19.0000 F4000
G1 X313.9750 Y564.2740 Z-19.0000 F4000
G1 X314.8133 Y560.7517 Z-19.0000 F4000
G1 X317.4598 Y557.6159 Z-19.0000 F4000
G1 X321.2349 Y556.0086 Z-19.0000 F4000
G1 X324.8482 Y556.2432 Z-19.0000 F4000
G1 X376.9073 Y572.2614 Z-19.0000 F4000
G1 X377.9149 Y572.3268 Z-19.0000 F4000
G1 X378.4007 Y572.1200 Z-19.0000 F4000
G1 X378.7410 Y571.7168 Z-19.0000 F4000
G1 X378.9748 Y570.7345 Z-19.0000 F4000
G1 X378.9748 Y465.2127 Z-19.0000 F4000
G1 X378.7410 Y464.2304 Z-19.0000 F4000
G1 X378.4007 Y463.8271 Z-19.0000 F4000
G1 X377.9151 Y463.6204 Z-19.0000 F4000
G1 X376.9073 Y463.6859 Z-19.0000 F4000
G1 X324.8482 Y479.7040 Z-19.0000 F4000
G1 X321.2349 Y479.9386 Z-19.0000 F4000
G1 X317.4598 Y478.3313 Z-19.0000 F4000
G1 X314.8133 Y475.1956 Z-19.0000 F4000
G1 X313.9750 Y471.6732 Z-19.0000 F4000
G1 X313.9750 Y364.2744 Z-19.0000 F4000
G1 X314.8133 Y360.7520 Z-19.0000 F4000
G1 X317.4598 Y357.6163 Z-19.0000 F4000
G1 X321.2349 Y356.0090 Z-19.0000 F4000
G1 X324.8482 Y356.2436 Z-19.0000 F4000
G1 X376.9073 Y372.2618 Z-19.0000 F4000
G1 X377.9151 Y372.3272 Z-19.0000 F4000
G1 X378.4007 Y372.1205 Z-19.0000 F4000
G1 X378.7410 Y371.7173 Z-19.0000 F4000
G1 X378.9748 Y370.7349 Z-19.0000 F4000
G1 X378.9748 Y313.9750 Z-19.0000 F4000
G1 X413.9105 Y313.9750 Z-19.0000 F4000
G1 X413.9105 Y313.9750 Z-9.0000 F9999
G1 X429.9085 Y313.9750 Z-9.0000 F4000
G1 X429.9085 Y313.9750 Z-19.0000 F2500
G1 X804.7591 Y313.9750 Z-19.0000 F4000
G1 X804.7591 Y313.9750 Z-9.0000 F9999
G1 X820.7571 Y313.9750 Z-9.0000 F4000
G1 X820.7571 Y313.9750 Z-19.0000 F2500
G1 X865.7723 Y313.9750 Z-19.0000 F4000
G1 X865.7723 Y334.7485 Z-19.0000 F4000
G1 X865.7723 Y334.7485 Z-9.0000 F9999
G1 X865.7723 Y350.7465 Z-9.0000 F4000
G1 X865.7723 Y350.7465 Z-19.0000 F2500
G1 X865.7723 Y936.3586 Z-19.0000 F4000
G1 X865.7723 Y936.3586 Z10.0000 F9999
G1 X397.4739 Y1553.9923 Z10.0000 F9999
G1 X397.4739 Y1553.9923 Z1.0000 F2500
G1 X434.9728 Y1553.9923 Z-8.6222 F2500
G1 X434.9728 Y1555.4645 Z-9.0000 F2500
G1 X434.9728 Y1553.9923 Z-9.3778 F2500
G1 X397.4739 Y1553.9923 Z-19.0000 F2500
G1 X434.9728 Y1553.9923 Z-19.0000 F4000
G1 X434.9728 Y1558.9923 Z-19.0000 F4000
G1 X436.9748 Y1558.9923 Z-19.0000 F4000
G1 X436.9748 Y1541.3348 Z-19.0000 F4000
G1 X442.3173 Y1535.9923 Z-19.0000 F4000
G1 X453.5993 Y1535.9923 Z-19.0000 F4000
G1 X453.5993 Y1535.9923 Z-9.0000 F9999
G1 X469.5973 Y1535.9923 Z-9.0000 F4000
G1 X469.5973 Y1535.9923 Z-19.0000 F2500
G1 X479.6301 Y1535.9923 Z-19.0000 F4000
G1 X484.9727 Y1541.3348 Z-19.0000 F4000
G1 X484.9727 Y1558.9923 Z-19.0000 F4000
G1 X486.9747 Y1558.9923 Z-19.0000 F4000
G1 X486.9747 Y1553.9923 Z-19.0000 F4000
G1 X561.9725 Y1553.9923 Z-19.0000 F4000
G1 X561.9725 Y1558.9923 Z-19.0000 F4000
G1 X563.9745 Y1558.9923 Z-19.0000 F4000
G1 X563.9745 Y1541.3348 Z-19.0000 F4000
G1 X569.3171 Y1535.9923 Z-19.0000 F4000
G1 X584.6299 Y1535.9923 Z-19.0000 F4000
G1 X589.9725 Y1541.3348 Z-19.0000 F4000
G1 X589.9725 Y1558.9923 Z-19.0000 F4000
G1 X591.9745 Y1558.9923 Z-19.0000 F4000
G1 X591.9745 Y1553.9923 Z-19.0000 F4000
G1 X607.9724 Y1553.9923 Z-19.0000 F4000
G1 X607.9724 Y1592.9902 Z-19.0000 F4000
G1 X566.9725 Y1592.9902 Z-19.0000 F4000
G1 X566.9725 Y1594.9922 Z-19.0000 F4000
G1 X571.9725 Y1594.9922 Z-19.0000 F4000
G1 X571.9725 Y1634.9901 Z-19.0000 F4000
G1 X566.9725 Y1634.9901 Z-19.0000 F4000
G1 X566.9725 Y1636.9921 Z-19.0000 F4000
G1 X607.9724 Y1636.9921 Z-19.0000 F4000
G1 X607.9724 Y1648.5781 Z-19.0000 F4000
G1 X607.9724 Y1648.5781 Z-9.0000 F9999
G1 X607.9724 Y1664.5761 Z-9.0000 F4000
G1 X607.9724 Y1664.5761 Z-19.0000 F2500
G1 X607.9724 Y1675.9900 Z-19.0000 F4000
G1 X591.9745 Y1675.9900 Z-19.0000 F4000
G1 X591.9745 Y1670.9900 Z-19.0000 F4000
G1 X589.9725 Y1670.9900 Z-19.0000 F4000
G1 X589.9725 Y1688.6475 Z-19.0000 F4000
G1 X584.6299 Y1693.9900 Z-19.0000 F4000
G1 X569.3171 Y1693.9900 Z-19.0000 F4000
G1 X563.9745 Y1688.6475 Z-19.0000 F4000
G1 X563.9745 Y1670.9900 Z-19.0000 F4000
G1 X561.9725 Y1670.9900 Z-19.0000 F4000
G1 X561.9725 Y1675.9900 Z-19.0000 F4000
G1 X486.9747 Y1675.9900 Z-19.0000 F4000
G1 X486.9747 Y1670.9900 Z-19.0000 F4000
G1 X484.9727 Y1670.9900 Z-19.0000 F4000
G1 X484.9727 Y1688.6475 Z-19.0000 F4000
G1 X479.6301 Y1693.9900 Z-19.0000 F4000
G1 X467.0089 Y1693.9900 Z-19.0000 F4000
G1 X467.0089 Y1693.9900 Z-9.0000 F9999
G1 X451.0109 Y1693.9900 Z-9.0000 F4000
G1 X451.0109 Y1693.9900 Z-19.0000 F2500
G1 X442.3173 Y1693.9900 Z-19.0000 F4000
G1 X436.9748 Y1688.6475 Z-19.0000 F4000
G1 X436.9748 Y1670.9900 Z-19.0000 F4000
G1 X434.9728 Y1670.9900 Z-19.0000 F4000
G1 X434.9728 Y1675.9900 Z-19.0000 F4000
G1 X359.9749 Y1675.9900 Z-19.0000 F4000
G1 X359.9749 Y1670.9900 Z-19.0000 F4000
G1 X357.9729 Y1670.9900 Z-19.0000 F4000
G1 X357.9729 Y1688.6475 Z-19.0000 F4000
G1 X352.6304 Y1693.9900 Z-19.0000 F4000
G1 X337.3176 Y1693.9900 Z-19.0000 F4000
G1 X331.9750 Y1688.6475 Z-19.0000 F4000
G1 X331.9750 Y1670.9900 Z-19.0000 F4000
G1 X329.9730 Y1670.9900 Z-19.0000 F4000
G1 X329.9730 Y1675.9900 Z-19.0000 F4000
G1 X313.9750 Y1675.9900 Z-19.0000 F4000
G1 X313.9750 Y1636.9921 Z-19.0000 F4000
G1 X354.9749 Y1636.9921 Z-19.0000 F4000
G1 X354.9749 Y1634.9901 Z-19.0000 F4000
G1 X349.9749 Y1634.9901 Z-19.0000 F4000
G1 X349.9749 Y1594.9922 Z-19.0000 F4000
G1 X354.9749 Y1594.9922 Z-19.0000 F4000
G1 X354.9749 Y1592.9902 Z-19.0000 F4000
G1 X313.9750 Y1592.9902 Z-19.0000 F4000
G1 X313.9750 Y1580.8844 Z-19.0000 F4000
G1 X313.9750 Y1580.8844 Z-9.0000 F9999
G1 X313.9750 Y1564.8864 Z-9.0000 F4000
G1 X313.9750 Y1564.8864 Z-19.0000 F2500
G1 X313.9750 Y1553.9923 Z-19.0000 F4000
G1 X329.9730 Y1553.9923 Z-19.0000 F4000
G1 X329.9730 Y1558.9923 Z-19.0000 F4000
G1 X331.9750 Y1558.9923 Z-19.0000 F4000
G1 X331.9750 Y1541.3348 Z-19.0000 F4000
G1 X337.3176 Y1535.9923 Z-19.0000 F4000
G1 X352.6304 Y1535.9923 Z-19.0000 F4000
G1 X357.9729 Y1541.3348 Z-19.0000 F4000
G1 X357.9729 Y1558.9923 Z-19.0000 F4000
G1 X359.9749 Y1558.9923 Z-19.0000 F4000
G1 X359.9749 Y1553.9923 Z-19.0000 F4000
G1 X397.4739 Y1553.9923 Z-19.0000 F4000
G1 X397.4739 Y1553.9923 Z10.0000 F9999
G1 X895.2301 Y1006.9929 Z10.0000 F9999
G1 X895.2301 Y1006.9929 Z1.0000 F2500
G1 X895.2301 Y968.0217 Z-9.0000 F2500
G1 X895.2301 Y1006.9929 Z-19.0000 F2500
G1 X895.2301 Y912.9940 Z-19.0000 F4000
G1 X918.2301 Y912.9940 Z-19.0000 F4000
G1 X918.2301 Y910.9920 Z-19.0000 F4000
G1 X913.2301 Y910.9920 Z-19.0000 F4000
G1 X913.2301 Y802.9944 Z-19.0000 F4000
G1 X918.2301 Y802.9944 Z-19.0000 F4000
G1 X918.2301 Y800.9924 Z-19.0000 F4000
G1 X895.2301 Y800.9924 Z-19.0000 F4000
G1 X895.2301 Y612.9949 Z-19.0000 F4000
G1 X918.2301 Y612.9949 Z-19.0000 F4000
G1 X918.2301 Y610.9929 Z-19.0000 F4000
G1 X913.2301 Y610.9929 Z-19.0000 F4000
G1 X913.2303 Y502.9950 Z-19.0000 F4000
G1 X918.2304 Y502.9950 Z-19.0000 F4000
G1 X918.2304 Y500.9930 Z-19.0000 F4000
G1 X895.2304 Y500.9930 Z-19.0000 F4000
G1 X895.2304 Y350.5308 Z-19.0000 F4000
G1 X895.2304 Y350.5308 Z-9.0000 F9999
G1 X895.2304 Y334.5328 Z-9.0000 F4000
G1 X895.2304 Y334.5328 Z-19.0000 F2500
G1 X895.2304 Y312.9954 Z-19.0000 F4000
G1 X918.2304 Y312.9954 Z-19.0000 F4000
G1 X918.2304 Y310.9934 Z-19.0000 F4000
G1 X913.2303 Y310.9934 Z-19.0000 F4000
G1 X913.2303 Y295.9954 Z-19.0000 F4000
G1 X957.1011 Y295.9954 Z-19.0000 F4000
G1 X959.7214 Y295.4955 Z-19.0000 F4000
G1 X961.8393 Y294.1043 Z-19.0000 F4000
G1 X963.2303 Y291.9867 Z-19.0000 F4000
G1 X963.7301 Y289.3663 Z-19.0000 F4000
G1 X963.7301 Y224.3664 Z-19.0000 F4000
G1 X964.6346 Y219.6249 Z-19.0000 F4000
G1 X967.6972 Y214.9626 Z-19.0000 F4000
G1 X972.3596 Y211.9001 Z-19.0000 F4000
G1 X977.1011 Y210.9955 Z-19.0000 F4000
G1 X1007.3571 Y210.9955 Z-19.0000 F4000
G1 X1012.0987 Y211.9001 Z-19.0000 F4000
G1 X1016.7611 Y214.9626 Z-19.0000 F4000
G1 X1019.8237 Y219.6250 Z-19.0000 F4000
G1 X1020.7280 Y224.3664 Z-19.0000 F4000
G1 X1020.7280 Y289.3663 Z-19.0000 F4000
G1 X1021.2279 Y291.9867 Z-19.0000 F4000
G1 X1022.6190 Y294.1043 Z-19.0000 F4000
G1 X1024.7369 Y295.4955 Z-19.0000 F4000
G1 X1027.3569 Y295.9954 Z-19.0000 F4000
G1 X1057.1011 Y295.9954 Z-19.0000 F4000
G1 X1059.7212 Y295.4955 Z-19.0000 F4000
G1 X1061.8392 Y294.1043 Z-19.0000 F4000
G1 X1063.2302 Y291.9868 Z-19.0000 F4000
G1 X1063.7300 Y289.3663 Z-19.0000 F4000
G1 X1063.7300 Y224.3663 Z-19.0000 F4000
G1 X1064.6346 Y219.6250 Z-19.0000 F4000
G1 X1067.6968 Y214.9626 Z-19.0000 F4000
G1 X1072.3594 Y211.9001 Z-19.0000 F4000
G1 X1077.1010 Y210.9955 Z-19.0000 F4000
G1 X1084.7379 Y210.9955 Z-19.0000 F4000
G1 X1084.7379 Y210.9955 Z-9.0000 F9999
G1 X1100.7359 Y210.9955 Z-9.0000 F4000
G1 X1100.7359 Y210.9955 Z-19.0000 F2500
G1 X1107.3570 Y210.9955 Z-19.0000 F4000
G1 X1112.0986 Y211.9001 Z-19.0000 F4000
G1 X1116.7608 Y214.9626 Z-19.0000 F4000
G1 X1119.8234 Y219.6249 Z-19.0000 F4000
G1 X1120.7279 Y224.3664 Z-19.0000 F4000
G1 X1120.7279 Y289.3663 Z-19.0000 F4000
G1 X1121.2278 Y291.9867 Z-19.0000 F4000
G1 X1122.6188 Y294.1044 Z-19.0000 F4000
G1 X1124.7366 Y295.4955 Z-19.0000 F4000
G1 X1127.3569 Y295.9954 Z-19.0000 F4000
G1 X1171.2279 Y295.9954 Z-19.0000 F4000
G1 X1171.2279 Y310.9934 Z-19.0000 F4000
G1 X1166.2279 Y310.9934 Z-19.0000 F4000
G1 X1166.2279 Y312.9954 Z-19.0000 F4000
G1 X1189.2279 Y312.9954 Z-19.0000 F4000
G1 X1189.2279 Y500.9930 Z-19.0000 F4000
G1 X1166.2279 Y500.9930 Z-19.0000 F4000
G1 X1166.2279 Y502.9950 Z-19.0000 F4000
G1 X1171.2279 Y502.9950 Z-19.0000 F4000
G1 X1171.2277 Y610.9929 Z-19.0000 F4000
G1 X1166.2277 Y610.9929 Z-19.0000 F4000
G1 X1166.2277 Y612.9949 Z-19.0000 F4000
G1 X1189.2277 Y612.9949 Z-19.0000 F4000
G1 X1189.2277 Y800.9924 Z-19.0000 F4000
G1 X1166.2277 Y800.9924 Z-19.0000 F4000
G1 X1166.2277 Y802.9945 Z-19.0000 F4000
G1 X1171.2277 Y802.9945 Z-19.0000 F4000
G1 X1171.2277 Y910.9921 Z-19.0000 F4000
G1 X1166.2277 Y910.9921 Z-19.0000 F4000
G1 X1166.2277 Y912.9941 Z-19.0000 F4000
G1 X1189.2277 Y912.9941 Z-19.0000 F4000
G1 X1189.2277 Y1100.9917 Z-19.0000 F4000
G1 X1166.2277 Y1100.9917 Z-19.0000 F4000
G1 X1166.2277 Y1102.9938 Z-19.0000 F4000
G1 X1171.2277 Y1102.9938 Z-19.0000 F4000
G1 X1171.2277 Y1210.9916 Z-19.0000 F4000
G1 X1166.2277 Y1210.9916 Z-19.0000 F4000
G1 X1166.2277 Y1212.9935 Z-19.0000 F4000
G1 X1189.2277 Y1212.9935 Z-19.0000 F4000
G1 X1189.2277 Y1400.9912 Z-19.0000 F4000
G1 X1166.2277 Y1400.9912 Z-19.0000 F4000
G1 X1166.2277 Y1402.9932 Z-19.0000 F4000
G1 X1171.2277 Y1402.9932 Z-19.0000 F4000
G1 X1171.2279 Y1510.9909 Z-19.0000 F4000
G1 X1166.2279 Y1510.9909 Z-19.0000 F4000
G1 X1166.2279 Y1512.9929 Z-19.0000 F4000
G1 X1189.2279 Y1512.9929 Z-19.0000 F4000
G1 X1189.2279 Y1700.9906 Z-19.0000 F4000
G1 X1166.2279 Y1700.9906 Z-19.0000 F4000
G1 X1166.2279 Y1702.9925 Z-19.0000 F4000
G1 X1171.2279 Y1702.9925 Z-19.0000 F4000
G1 X1171.2279 Y1810.9903 Z-19.0000 F4000
G1 X1166.2279 Y1810.9903 Z-19.0000 F4000
G1 X1166.2279 Y1812.9923 Z-19.0000 F4000
G1 X1189.2279 Y1812.9923 Z-19.0000 F4000
G1 X1189.2279 Y2000.9899 Z-19.0000 F4000
G1 X1166.2279 Y2000.9899 Z-19.0000 F4000
G1 X1166.2279 Y2002.9919 Z-19.0000 F4000
G1 X1171.2279 Y2002.9919 Z-19.0000 F4000
G1 X1171.2279 Y2035.9898 Z-19.0000 F4000
G1 X1119.2300 Y2035.9898 Z-19.0000 F4000
G1 X1119.2300 Y2030.9899 Z-19.0000 F4000
G1 X1117.2280 Y2030.9899 Z-19.0000 F4000
G1 X1117.2280 Y2053.9898 Z-19.0000 F4000
G1 X1079.2301 Y2053.9898 Z-19.0000 F4000
G1 X1079.2301 Y2001.9919 Z-19.0000 F4000
G1 X1084.2300 Y2001.9919 Z-19.0000 F4000
G1 X1084.2300 Y1999.9899 Z-19.0000 F4000
G1 X1000.2283 Y1999.9899 Z-19.0000 F4000
G1 X1000.2283 Y2001.9919 Z-19.0000 F4000
G1 X1005.2284 Y2001.9919 Z-19.0000 F4000
G1 X1005.2284 Y2035.9898 Z-19.0000 F4000
G1 X838.2309 Y2035.9898 Z-19.0000 F4000
G1 X838.2309 Y2030.9899 Z-19.0000 F4000
G1 X836.2289 Y2030.9899 Z-19.0000 F4000
G1 X836.2289 Y2053.9898 Z-19.0000 F4000
G1 X648.2312 Y2053.9898 Z-19.0000 F4000
G1 X648.2312 Y2030.9899 Z-19.0000 F4000
G1 X646.2292 Y2030.9899 Z-19.0000 F4000
G1 X646.2292 Y2035.9898 Z-19.0000 F4000
G1 X538.2316 Y2035.9899 Z-19.0000 F4000
G1 X538.2316 Y2030.9899 Z-19.0000 F4000
G1 X536.2296 Y2030.9899 Z-19.0000 F4000
G1 X536.2296 Y2053.9898 Z-19.0000 F4000
G1 X348.2320 Y2053.9898 Z-19.0000 F4000
G1 X348.2320 Y2030.9899 Z-19.0000 F4000
G1 X346.2300 Y2030.9899 Z-19.0000 F4000
G1 X346.2300 Y2035.9899 Z-19.0000 F4000
G1 X245.4821 Y2035.9899 Z-19.0000 F4000
G1 X245.4821 Y1991.3629 Z-19.0000 F4000
G1 X246.4041 Y1986.5294 Z-19.0000 F4000
G1 X249.5223 Y1981.7822 Z-19.0000 F4000
G1 X254.2696 Y1978.6639 Z-19.0000 F4000
G1 X259.1031 Y1977.7420 Z-19.0000 F4000
G1 X324.1030 Y1977.7420 Z-19.0000 F4000
G1 X326.6312 Y1977.2597 Z-19.0000 F4000
G1 X328.6642 Y1975.9243 Z-19.0000 F4000
G1 X329.9996 Y1973.8912 Z-19.0000 F4000
G1 X330.4820 Y1971.3629 Z-19.0000 F4000
G1 X330.4820 Y1942.6191 Z-19.0000 F4000
G1 X329.9996 Y1940.0908 Z-19.0000 F4000
G1 X328.6642 Y1938.0577 Z-19.0000 F4000
G1 X326.6312 Y1936.7223 Z-19.0000 F4000
G1 X324.1030 Y1936.2401 Z-19.0000 F4000
G1 X259.1031 Y1936.2401 Z-19.0000 F4000
G1 X254.2695 Y1935.3181 Z-19.0000 F4000
G1 X249.5223 Y1932.1998 Z-19.0000 F4000
G1 X246.4041 Y1927.4527 Z-19.0000 F4000
G1 X245.4821 Y1922.6191 Z-19.0000 F4000
G1 X245.4821 Y1891.3631 Z-19.0000 F4000
G1 X246.4041 Y1886.5296 Z-19.0000 F4000
G1 X249.5223 Y1881.7824 Z-19.0000 F4000
G1 X254.2695 Y1878.6642 Z-19.0000 F4000
G1 X259.1031 Y1877.7421 Z-19.0000 F4000
G1 X324.1030 Y1877.7421 Z-19.0000 F4000
G1 X326.6312 Y1877.2599 Z-19.0000 F4000
G1 X328.6642 Y1875.9245 Z-19.0000 F4000
G1 X329.9996 Y1873.8914 Z-19.0000 F4000
G1 X330.4820 Y1871.3631 Z-19.0000 F4000
G1 X330.4820 Y1842.6193 Z-19.0000 F4000
G1 X329.9996 Y1840.0910 Z-19.0000 F4000
G1 X328.6642 Y1838.0579 Z-19.0000 F4000
G1 X326.6312 Y1836.7225 Z-19.0000 F4000
G1 X324.1030 Y1836.2403 Z-19.0000 F4000
G1 X259.1031 Y1836.2403 Z-19.0000 F4000
G1 X254.2696 Y1835.3183 Z-19.0000 F4000
G1 X249.5223 Y1832.2001 Z-19.0000 F4000
G1 X246.4041 Y1827.4529 Z-19.0000 F4000
G1 X245.4821 Y1822.6193 Z-19.0000 F4000
G1 X245.4821 Y1777.9924 Z-19.0000 F4000
G1 X346.2300 Y1777.9924 Z-19.0000 F4000
G1 X346.2300 Y1782.9923 Z-19.0000 F4000
G1 X348.2320 Y1782.9923 Z-19.0000 F4000
G1 X348.2320 Y1759.9924 Z-19.0000 F4000
G1 X536.2296 Y1759.9924 Z-19.0000 F4000
G1 X536.2296 Y1782.9923 Z-19.0000 F4000
G1 X538.2316 Y1782.9923 Z-19.0000 F4000
G1 X538.2316 Y1777.9924 Z-19.0000 F4000
G1 X646.2292 Y1777.9923 Z-19.0000 F4000
G1 X646.2292 Y1782.9923 Z-19.0000 F4000
G1 X648.2312 Y1782.9923 Z-19.0000 F4000
G1 X648.2312 Y1759.9924 Z-19.0000 F4000
G1 X836.2289 Y1759.9924 Z-19.0000 F4000
G1 X836.2289 Y1782.9923 Z-19.0000 F4000
G1 X838.2309 Y1782.9923 Z-19.0000 F4000
G1 X838.2309 Y1777.9923 Z-19.0000 F4000
G1 X913.2284 Y1777.9923 Z-19.0000 F4000
G1 X913.2304 Y1783.9923 Z-19.0000 F4000
G1 X913.2304 Y1702.9925 Z-19.0000 F4000
G1 X918.2305 Y1702.9925 Z-19.0000 F4000
G1 X918.2305 Y1700.9906 Z-19.0000 F4000
G1 X895.2306 Y1700.9906 Z-19.0000 F4000
G1 X895.2306 Y1675.7925 Z-19.0000 F4000
G1 X895.2306 Y1675.7925 Z-9.0000 F9999
G1 X895.2306 Y1659.7945 Z-9.0000 F4000
G1 X895.2306 Y1659.7945 Z-19.0000 F2500
G1 X895.2306 Y1512.9929 Z-19.0000 F4000
G1 X918.2305 Y1512.9929 Z-19.0000 F4000
G1 X918.2305 Y1510.9909 Z-19.0000 F4000
G1 X913.2304 Y1510.9909 Z-19.0000 F4000
G1 X913.2301 Y1402.9932 Z-19.0000 F4000
G1 X918.2301 Y1402.9932 Z-19.0000 F4000
G1 X918.2301 Y1400.9911 Z-19.0000 F4000
G1 X895.2301 Y1400.9911 Z-19.0000 F4000
G1 X895.2301 Y1212.9935 Z-19.0000 F4000
G1 X918.2301 Y1212.9935 Z-19.0000 F4000
G1 X918.2301 Y1210.9915 Z-19.0000 F4000
G1 X913.2301 Y1210.9915 Z-19.0000 F4000
G1 X913.2301 Y1102.9937 Z-19.0000 F4000
G1 X918.2301 Y1102.9937 Z-19.0000 F4000
G1 X918.2301 Y1100.9917 Z-19.0000 F4000
G1 X895.2301 Y1100.9917 Z-19.0000 F4000
G1 X895.2301 Y1006.9929 Z-19.0000 F4000
G1 X895.2301 Y1006.9929 Z10.0000 F9999
G1 X299.8988 Y1052.8980 Z10.0000 F9999
G1 X299.8988 Y1052.8980 Z1.0000 F2500
G1 X299.8988 Y1091.8691 Z-9.0000 F2500
G1 X299.8988 Y1052.8980 Z-19.0000 F2500
G1 X299.8988 Y1146.8968 Z-19.0000 F4000
G1 X276.8988 Y1146.8968 Z-19.0000 F4000
G1 X276.8988 Y1148.8988 Z-19.0000 F4000
G1 X281.8988 Y1148.8988 Z-19.0000 F4000
G1 X281.8988 Y1256.8964 Z-19.0000 F4000
G1 X276.8988 Y1256.8964 Z-19.0000 F4000
G1 X276.8988 Y1258.8984 Z-19.0000 F4000
G1 X299.8988 Y1258.8984 Z-19.0000 F4000
G1 X299.8988 Y1446.8959 Z-19.0000 F4000
G1 X276.8988 Y1446.8959 Z-19.0000 F4000
G1 X276.8988 Y1448.8979 Z-19.0000 F4000
G1 X281.8988 Y1448.8979 Z-19.0000 F4000
G1 X281.8986 Y1556.8958 Z-19.0000 F4000
G1 X276.8985 Y1556.8958 Z-19.0000 F4000
G1 X276.8985 Y1558.8978 Z-19.0000 F4000
G1 X299.8985 Y1558.8978 Z-19.0000 F4000
G1 X299.8985 Y1746.8955 Z-19.0000 F4000
G1 X276.8985 Y1746.8955 Z-19.0000 F4000
G1 X276.8985 Y1748.8975 Z-19.0000 F4000
G1 X281.8986 Y1748.8975 Z-19.0000 F4000
G1 X281.8986 Y1763.8955 Z-19.0000 F4000
G1 X238.0278 Y1763.8955 Z-19.0000 F4000
G1 X235.4075 Y1764.3953 Z-19.0000 F4000
G1 X233.2897 Y1765.7865 Z-19.0000 F4000
G1 X231.8986 Y1767.9041 Z-19.0000 F4000
G1 X231.3988 Y1770.5246 Z-19.0000 F4000
G1 X231.3988 Y1835.5245 Z-19.0000 F4000
G1 X230.4943 Y1840.2659 Z-19.0000 F4000
G1 X227.4317 Y1844.9283 Z-19.0000 F4000
G1 X222.7693 Y1847.9907 Z-19.0000 F4000
G1 X218.0278 Y1848.8953 Z-19.0000 F4000
G1 X187.7718 Y1848.8953 Z-19.0000 F4000
G1 X183.0302 Y1847.9908 Z-19.0000 F4000
G1 X178.3678 Y1844.9283 Z-19.0000 F4000
G1 X175.3052 Y1840.2658 Z-19.0000 F4000
G1 X174.4009 Y1835.5244 Z-19.0000 F4000
G1 X174.4009 Y1770.5246 Z-19.0000 F4000
G1 X173.9010 Y1767.9041 Z-19.0000 F4000
G1 X172.5099 Y1765.7865 Z-19.0000 F4000
G1 X170.3920 Y1764.3953 Z-19.0000 F4000
G1 X167.7720 Y1763.8955 Z-19.0000 F4000
G1 X138.0278 Y1763.8955 Z-19.0000 F4000
G1 X135.4077 Y1764.3953 Z-19.0000 F4000
G1 X133.2897 Y1765.7865 Z-19.0000 F4000
G1 X131.8987 Y1767.9040 Z-19.0000 F4000
G1 X131.3989 Y1770.5246 Z-19.0000 F4000
G1 X131.3989 Y1835.5245 Z-19.0000 F4000
G1 X130.4943 Y1840.2658 Z-19.0000 F4000
G1 X127.4321 Y1844.9282 Z-19.0000 F4000
G1 X122.7695 Y1847.9908 Z-19.0000 F4000
G1 X118.0279 Y1848.8953 Z-19.0000 F4000
G1 X87.7720 Y1848.8953 Z-19.0000 F4000
G1 X83.0303 Y1847.9907 Z-19.0000 F4000
G1 X78.3681 Y1844.9282 Z-19.0000 F4000
G1 X75.3055 Y1840.2659 Z-19.0000 F4000
G1 X74.4010 Y1835.5245 Z-19.0000 F4000
G1 X74.4010 Y1770.5246 Z-19.0000 F4000
G1 X73.9012 Y1767.9041 Z-19.0000 F4000
G1 X72.5101 Y1765.7865 Z-19.0000 F4000
G1 X70.3923 Y1764.3953 Z-19.0000 F4000
G1 X67.7720 Y1763.8955 Z-19.0000 F4000
G1 X23.9010 Y1763.8955 Z-19.0000 F4000
G1 X23.9010 Y1748.8975 Z-19.0000 F4000
G1 X28.9010 Y1748.8975 Z-19.0000 F4000
G1 X28.9010 Y1746.8955 Z-19.0000 F4000
G1 X5.9010 Y1746.8955 Z-19.0000 F4000
G1 X5.9010 Y1558.8978 Z-19.0000 F4000
G1 X28.9010 Y1558.8978 Z-19.0000 F4000
G1 X28.9010 Y1556.8958 Z-19.0000 F4000
G1 X23.9010 Y1556.8958 Z-19.0000 F4000
G1 X23.9012 Y1448.8979 Z-19.0000 F4000
G1 X28.9012 Y1448.8979 Z-19.0000 F4000
G1 X28.9012 Y1446.8959 Z-19.0000 F4000
G1 X5.9012 Y1446.8959 Z-19.0000 F4000
G1 X5.9012 Y1258.8984 Z-19.0000 F4000
G1 X28.9012 Y1258.8984 Z-19.0000 F4000
G1 X28.9012 Y1256.8963 Z-19.0000 F4000
G1 X23.9012 Y1256.8963 Z-19.0000 F4000
G1 X23.9012 Y1148.8987 Z-19.0000 F4000
G1 X28.9012 Y1148.8987 Z-19.0000 F4000
G1 X28.9012 Y1146.8967 Z-19.0000 F4000
G1 X5.9012 Y1146.8967 Z-19.0000 F4000
G1 X5.9012 Y958.8991 Z-19.0000 F4000
G1 X28.9012 Y958.8991 Z-19.0000 F4000
G1 X28.9012 Y956.8970 Z-19.0000 F4000
G1 X23.9012 Y956.8970 Z-19.0000 F4000
G1 X23.9012 Y848.8992 Z-19.0000 F4000
G1 X28.9012 Y848.8992 Z-19.0000 F4000
G1 X28.9012 Y846.8973 Z-19.0000 F4000
G1 X5.9012 Y846.8973 Z-19.0000 F4000
G1 X5.9012 Y658.8997 Z-19.0000 F4000
G1 X28.9012 Y658.8997 Z-19.0000 F4000
G1 X28.9012 Y656.8977 Z-19.0000 F4000
G1 X23.9012 Y656.8977 Z-19.0000 F4000
G1 X23.9010 Y548.8999 Z-19.0000 F4000
G1 X28.9010 Y548.8999 Z-19.0000 F4000
G1 X28.9010 Y546.8979 Z-19.0000 F4000
G1 X5.9010 Y546.8979 Z-19.0000 F4000
G1 X5.9010 Y358.9003 Z-19.0000 F4000
G1 X28.9010 Y358.9003 Z-19.0000 F4000
G1 X28.9010 Y356.8983 Z-19.0000 F4000
G1 X23.9010 Y356.8983 Z-19.0000 F4000
G1 X23.9010 Y248.9005 Z-19.0000 F4000
G1 X28.9010 Y248.9005 Z-19.0000 F4000
G1 X28.9010 Y246.8985 Z-19.0000 F4000
G1 X5.9010 Y246.8985 Z-19.0000 F4000
G1 X5.9010 Y58.9009 Z-19.0000 F4000
G1 X28.9010 Y58.9009 Z-19.0000 F4000
G1 X28.9010 Y56.8989 Z-19.0000 F4000
G1 X23.9010 Y56.8989 Z-19.0000 F4000
G1 X23.9010 Y23.9010 Z-19.0000 F4000
G1 X75.8989 Y23.9010 Z-19.0000 F4000
G1 X75.8989 Y28.9010 Z-19.0000 F4000
G1 X77.9009 Y28.9010 Z-19.0000 F4000
G1 X77.9009 Y5.9010 Z-19.0000 F4000
G1 X115.8988 Y5.9010 Z-19.0000 F4000
G1 X115.8988 Y57.8989 Z-19.0000 F4000
G1 X110.8989 Y57.8989 Z-19.0000 F4000
G1 X110.8989 Y59.9009 Z-19.0000 F4000
G1 X194.9006 Y59.9009 Z-19.0000 F4000
G1 X194.9006 Y57.8989 Z-19.0000 F4000
G1 X189.9005 Y57.8989 Z-19.0000 F4000
G1 X189.9005 Y23.9010 Z-19.0000 F4000
G1 X356.8980 Y23.9010 Z-19.0000 F4000
G1 X356.8980 Y28.9010 Z-19.0000 F4000
G1 X358.9000 Y28.9010 Z-19.0000 F4000
G1 X358.9000 Y5.9010 Z-19.0000 F4000
G1 X546.8977 Y5.9010 Z-19.0000 F4000
G1 X546.8977 Y28.9010 Z-19.0000 F4000
G1 X548.8997 Y28.9010 Z-19.0000 F4000
G1 X548.8997 Y23.9010 Z-19.0000 F4000
G1 X656.8973 Y23.9010 Z-19.0000 F4000
G1 X656.8973 Y28.9010 Z-19.0000 F4000
G1 X658.8993 Y28.9010 Z-19.0000 F4000
G1 X658.8993 Y5.9010 Z-19.0000 F4000
G1 X846.8969 Y5.9010 Z-19.0000 F4000
G1 X846.8969 Y28.9010 Z-19.0000 F4000
G1 X848.8989 Y28.9010 Z-19.0000 F4000
G1 X848.8989 Y23.9010 Z-19.0000 F4000
G1 X949.6468 Y23.9010 Z-19.0000 F4000
G1 X949.6468 Y68.5279 Z-19.0000 F4000
G1 X948.7248 Y73.3615 Z-19.0000 F4000
G1 X945.6066 Y78.1087 Z-19.0000 F4000
G1 X940.8593 Y81.2269 Z-19.0000 F4000
G1 X936.0258 Y82.1488 Z-19.0000 F4000
G1 X871.0259 Y82.1488 Z-19.0000 F4000
G1 X868.4977 Y82.6311 Z-19.0000 F4000
G1 X866.4647 Y83.9665 Z-19.0000 F4000
G1 X865.1293 Y85.9996 Z-19.0000 F4000
G1 X864.6469 Y88.5279 Z-19.0000 F4000
G1 X864.6469 Y117.2717 Z-19.0000 F4000
G1 X865.1293 Y119.8000 Z-19.0000 F4000
G1 X866.4647 Y121.8331 Z-19.0000 F4000
G1 X868.4977 Y123.1685 Z-19.0000 F4000
G1 X871.0259 Y123.6507 Z-19.0000 F4000
G1 X936.0258 Y123.6507 Z-19.0000 F4000
G1 X940.8594 Y124.5727 Z-19.0000 F4000
G1 X945.6066 Y127.6910 Z-19.0000 F4000
G1 X948.7248 Y132.4382 Z-19.0000 F4000
G1 X949.6468 Y137.2717 Z-19.0000 F4000
G1 X949.6468 Y168.5277 Z-19.0000 F4000
G1 X948.7248 Y173.3613 Z-19.0000 F4000
G1 X945.6066 Y178.1085 Z-19.0000 F4000
G1 X940.8594 Y181.2267 Z-19.0000 F4000
G1 X936.0258 Y182.1487 Z-19.0000 F4000
G1 X871.0259 Y182.1487 Z-19.0000 F4000
G1 X868.4977 Y182.6309 Z-19.0000 F4000
G1 X866.4647 Y183.9663 Z-19.0000 F4000
G1 X865.1293 Y185.9994 Z-19.0000 F4000
G1 X864.6469 Y188.5277 Z-19.0000 F4000
G1 X864.6469 Y217.2715 Z-19.0000 F4000
G1 X865.1293 Y219.7998 Z-19.0000 F4000
G1 X866.4647 Y221.8329 Z-19.0000 F4000
G1 X868.4977 Y223.1683 Z-19.0000 F4000
G1 X871.0259 Y223.6506 Z-19.0000 F4000
G1 X936.0258 Y223.6506 Z-19.0000 F4000
G1 X940.8593 Y224.5725 Z-19.0000 F4000
G1 X945.6066 Y227.6908 Z-19.0000 F4000
G1 X948.7248 Y232.4380 Z-19.0000 F4000
G1 X949.6468 Y237.2715 Z-19.0000 F4000
G1 X949.6468 Y281.8985 Z-19.0000 F4000
G1 X848.8989 Y281.8985 Z-19.0000 F4000
G1 X848.8989 Y276.8985 Z-19.0000 F4000
G1 X846.8969 Y276.8985 Z-19.0000 F4000
G1 X846.8969 Y299.8984 Z-19.0000 F4000
G1 X658.8993 Y299.8984 Z-19.0000 F4000
G1 X658.8993 Y276.8985 Z-19.0000 F4000
G1 X656.8973 Y276.8985 Z-19.0000 F4000
G1 X656.8973 Y281.8984 Z-19.0000 F4000
G1 X548.8997 Y281.8985 Z-19.0000 F4000
G1 X548.8997 Y276.8985 Z-19.0000 F4000
G1 X546.8977 Y276.8985 Z-19.0000 F4000
G1 X546.8977 Y299.8985 Z-19.0000 F4000
G1 X358.9000 Y299.8985 Z-19.0000 F4000
G1 X358.9000 Y276.8985 Z-19.0000 F4000
G1 X356.8980 Y276.8985 Z-19.0000 F4000
G1 X356.8980 Y281.8985 Z-19.0000 F4000
G1 X281.9005 Y281.8985 Z-19.0000 F4000
G1 X281.8985 Y275.8985 Z-19.0000 F4000
G1 X281.8985 Y356.8983 Z-19.0000 F4000
G1 X276.8984 Y356.8983 Z-19.0000 F4000
G1 X276.8984 Y358.9003 Z-19.0000 F4000
G1 X299.8983 Y358.9003 Z-19.0000 F4000
G1 X299.8983 Y546.8979 Z-19.0000 F4000
G1 X276.8984 Y546.8979 Z-19.0000 F4000
G1 X276.8984 Y548.8999 Z-19.0000 F4000
G1 X281.8985 Y548.8999 Z-19.0000 F4000
G1 X281.8988 Y656.8977 Z-19.0000 F4000
G1 X276.8988 Y656.8977 Z-19.0000 F4000
G1 X276.8988 Y658.8997 Z-19.0000 F4000
G1 X299.8988 Y658.8997 Z-19.0000 F4000
G1 X299.8988 Y846.8974 Z-19.0000 F4000
G1 X276.8988 Y846.8974 Z-19.0000 F4000
G1 X276.8988 Y848.8994 Z-19.0000 F4000
G1 X281.8988 Y848.8994 Z-19.0000 F4000
G1 X281.8988 Y956.8972 Z-19.0000 F4000
G1 X276.8988 Y956.8972 Z-19.0000 F4000
G1 X276.8988 Y958.8991 Z-19.0000 F4000
G1 X299.8988 Y958.8991 Z-19.0000 F4000
G1 X299.8988 Y1052.8980 Z-19.0000 F4000
G1 X299.8988 Y1052.8980 Z10.0000 F9999
G1 X609.8989 Y2068.0853 Z10.0000 F9999
G1 X609.8989 Y2068.0853 Z1.0000 F2500
G1 X648.8700 Y2068.0853 Z-9.0000 F2500
G1 X609.8989 Y2068.0853 Z-19.0000 F2500
G1 X1138.8968 Y2068.0853 Z-19.0000 F4000
G1 X1138.8968 Y2155.0831 Z-19.0000 F4000
G1 X1133.8969 Y2155.0831 Z-19.0000 F4000
G1 X1133.8969 Y2157.0851 Z-19.0000 F4000
G1 X1213.8967 Y2157.0851 Z-19.0000 F4000
G1 X1213.8967 Y2237.0829 Z-19.0000 F4000
G1 X1133.8969 Y2237.0829 Z-19.0000 F4000
G1 X1133.8969 Y2239.0849 Z-19.0000 F4000
G1 X1138.8968 Y2239.0849 Z-19.0000 F4000
G1 X1138.8968 Y2344.0826 Z-19.0000 F4000
G1 X1100.8989 Y2344.0826 Z-19.0000 F4000
G1 X1100.8989 Y2321.0826 Z-19.0000 F4000
G1 X1098.8969 Y2321.0826 Z-19.0000 F4000
G1 X1098.8969 Y2326.0826 Z-19.0000 F4000
G1 X655.8998 Y2326.0826 Z-19.0000 F4000
G1 X655.8998 Y2321.0826 Z-19.0000 F4000
G1 X653.8978 Y2321.0826 Z-19.0000 F4000
G1 X653.8978 Y2344.0826 Z-19.0000 F4000
G1 X565.9000 Y2344.0826 Z-19.0000 F4000
G1 X565.9000 Y2321.0826 Z-19.0000 F4000
G1 X563.8980 Y2321.0826 Z-19.0000 F4000
G1 X563.8980 Y2326.0826 Z-19.0000 F4000
G1 X120.9009 Y2326.0826 Z-19.0000 F4000
G1 X120.9009 Y2321.0826 Z-19.0000 F4000
G1 X118.8989 Y2321.0826 Z-19.0000 F4000
G1 X118.8989 Y2344.0826 Z-19.0000 F4000
G1 X80.9010 Y2344.0826 Z-19.0000 F4000
G1 X80.9010 Y2239.0849 Z-19.0000 F4000
G1 X85.9010 Y2239.0849 Z-19.0000 F4000
G1 X85.9010 Y2237.0829 Z-19.0000 F4000
G1 X5.9010 Y2237.0829 Z-19.0000 F4000
G1 X5.9010 Y2157.0851 Z-19.0000 F4000
G1 X85.9010 Y2157.0851 Z-19.0000 F4000
G1 X85.9010 Y2155.0831 Z-19.0000 F4000
G1 X80.9010 Y2155.0831 Z-19.0000 F4000
G1 X80.9010 Y2068.0853 Z-19.0000 F4000
G1 X609.8989 Y2068.0853 Z-19.0000 F4000
G1 X609.8989 Y2068.0853 Z10.0000 F9999
G1 X1900.0000 Y2800.0000 Z80.0000 F9999
G1 Z80.0000 F9999
G1 X1900.0000 Y2800.0000 F9999
M5
M30
