(plotsheet 2n3_nested_153 sheets_final v1_0_sheet 148a_S148.1_text_CC8 - stepover 1mm)
(Material Size) (X=1220.000, Y=2440.000, Z=20.000)
(LinuxCNC_NoArcs_MM_TC_medium_50um_G1_verbose.con)
G90 G80 G21 G49
G64 P0.050
M6 T1
(Tool Number:1) (7.998 mm dia. slot drill)
G43 H1 G0Z80.0000
M3 S18000
G04 P10
G1 X83.3919 Y458.5374 Z10.0000 F9999
G1 X83.3919 Y458.5374 Z-1.0000 F2500
G1 X83.3919 Y472.9778 Z-1.0000 F5000
G1 X83.3919 Y458.5374 Z-1.0000 F5000
G1 X65.0983 Y458.5374 Z-1.0000 F5000
G1 X65.0983 Y473.6567 Z-1.0000 F5000
G1 X65.0983 Y458.5374 Z-1.0000 F5000
G1 X106.1992 Y458.5374 Z-1.0000 F5000
G1 X106.1992 Y458.5374 Z10.0000 F9999
G1 X106.1992 Y489.0695 Z10.0000 F9999
G1 X106.1992 Y489.0695 Z-1.0000 F2500
G1 X65.0983 Y489.0695 Z-1.0000 F5000
G1 X65.0983 Y496.2255 Z-1.0000 F5000
G1 X65.7038 Y500.0971 Z-1.0000 F5000
G1 X67.5203 Y503.3081 Z-1.0000 F5000
G1 X70.6763 Y505.5283 Z-1.0000 F5000
G1 X75.3185 Y506.3723 Z-1.0000 F5000
G1 X79.9974 Y505.2163 Z-1.0000 F5000
G1 X83.3185 Y502.4457 Z-1.0000 F5000
G1 X85.2818 Y499.1246 Z-1.0000 F5000
G1 X85.9424 Y496.2255 Z-1.0000 F5000
G1 X85.9424 Y489.0695 Z-1.0000 F5000
G1 X85.9424 Y496.2255 Z-1.0000 F5000
G1 X85.2818 Y499.1246 Z-1.0000 F5000
G1 X83.3185 Y502.4457 Z-1.0000 F5000
G1 X79.9974 Y505.2163 Z-1.0000 F5000
G1 X75.3185 Y506.3723 Z-1.0000 F5000
G1 X70.6763 Y505.5283 Z-1.0000 F5000
G1 X67.5203 Y503.3081 Z-1.0000 F5000
G1 X65.7038 Y500.0971 Z-1.0000 F5000
G1 X65.0983 Y496.2255 Z-1.0000 F5000
G1 X65.0983 Y489.0695 Z-1.0000 F5000
G1 X65.0983 Y489.0695 Z10.0000 F9999
G1 X65.0983 Y533.1796 Z10.0000 F9999
G1 X65.0983 Y533.1796 Z-1.0000 F2500
G1 X106.1992 Y549.2347 Z-1.0000 F5000
G1 X65.0983 Y533.1796 Z-1.0000 F5000
G1 X106.1992 Y517.1613 Z-1.0000 F5000
G1 X106.1992 Y517.1613 Z10.0000 F9999
G1 X106.1992 Y506.4824 Z10.0000 F9999
G1 X106.1992 Y506.4824 Z-1.0000 F2500
G1 X86.0524 Y493.2530 Z-1.0000 F5000
G1 X106.1992 Y506.4824 Z-1.0000 F5000
G1 X106.1992 Y506.4824 Z10.0000 F9999
G1 X91.5020 Y543.4916 Z10.0000 F9999
G1 X91.5020 Y543.4916 Z-1.0000 F2500
G1 X91.5020 Y522.7943 Z-1.0000 F5000
G1 X91.5020 Y543.4916 Z-1.0000 F5000
G1 X91.5020 Y543.4916 Z10.0000 F9999
G1 X81.5387 Y589.8585 Z10.0000 F9999
G1 X81.5387 Y589.8585 Z-1.0000 F2500
G1 X81.5387 Y560.6108 Z-1.0000 F5000
G1 X81.5387 Y589.8585 Z-1.0000 F5000
G1 X81.5387 Y589.8585 Z10.0000 F9999
G1 X65.0983 Y616.5558 Z10.0000 F9999
G1 X65.0983 Y616.5558 Z-1.0000 F2500
G1 X106.1992 Y632.6108 Z-1.0000 F5000
G1 X65.0983 Y616.5558 Z-1.0000 F5000
G1 X106.1992 Y600.5374 Z-1.0000 F5000
G1 X106.1992 Y600.5374 Z10.0000 F9999
G1 X91.5020 Y626.8677 Z10.0000 F9999
G1 X91.5020 Y626.8677 Z-1.0000 F2500
G1 X91.5020 Y606.1705 Z-1.0000 F5000
G1 X91.5020 Y626.8677 Z-1.0000 F5000
G1 X91.5020 Y626.8677 Z10.0000 F9999
G1 X99.3735 Y685.0879 Z10.0000 F9999
G1 X99.3735 Y685.0879 Z-1.0000 F2500
G1 X102.4194 Y687.0328 Z-1.0000 F5000
G1 X104.4745 Y689.4549 Z-1.0000 F5000
G1 X105.7222 Y692.5741 Z-1.0000 F5000
G1 X106.1992 Y696.7026 Z-1.0000 F5000
G1 X105.7405 Y701.1980 Z-1.0000 F5000
G1 X103.9974 Y705.0145 Z-1.0000 F5000
G1 X101.0066 Y707.6934 Z-1.0000 F5000
G1 X96.8414 Y708.8127 Z-1.0000 F5000
G1 X92.8414 Y708.2805 Z-1.0000 F5000
G1 X90.1625 Y706.7393 Z-1.0000 F5000
G1 X88.4745 Y704.7026 Z-1.0000 F5000
G1 X87.3735 Y702.7943 Z-1.0000 F5000
G1 X82.6396 Y693.6017 Z-1.0000 F5000
G1 X81.2268 Y691.2347 Z-1.0000 F5000
G1 X79.5754 Y689.3815 Z-1.0000 F5000
G1 X77.3919 Y688.1338 Z-1.0000 F5000
G1 X74.5112 Y687.6200 Z-1.0000 F5000
G1 X71.2268 Y688.1521 Z-1.0000 F5000
G1 X68.1992 Y689.9870 Z-1.0000 F5000
G1 X65.9791 Y693.1246 Z-1.0000 F5000
G1 X65.0983 Y697.4916 Z-1.0000 F5000
G1 X65.7772 Y701.7484 Z-1.0000 F5000
G1 X67.2451 Y704.5925 Z-1.0000 F5000
G1 X69.3919 Y706.6842 Z-1.0000 F5000
G1 X67.2451 Y704.5925 Z-1.0000 F5000
G1 X65.7772 Y701.7484 Z-1.0000 F5000
G1 X65.0983 Y697.4916 Z-1.0000 F5000
G1 X65.9791 Y693.1246 Z-1.0000 F5000
G1 X68.1992 Y689.9870 Z-1.0000 F5000
G1 X71.2268 Y688.1521 Z-1.0000 F5000
G1 X74.5112 Y687.6200 Z-1.0000 F5000
G1 X77.3919 Y688.1338 Z-1.0000 F5000
G1 X79.5754 Y689.3815 Z-1.0000 F5000
G1 X81.2268 Y691.2347 Z-1.0000 F5000
G1 X82.6396 Y693.6017 Z-1.0000 F5000
G1 X87.3735 Y702.7943 Z-1.0000 F5000
G1 X88.4745 Y704.7026 Z-1.0000 F5000
G1 X90.1625 Y706.7393 Z-1.0000 F5000
G1 X92.8414 Y708.2805 Z-1.0000 F5000
G1 X96.8414 Y708.8127 Z-1.0000 F5000
G1 X101.0066 Y707.6934 Z-1.0000 F5000
G1 X103.9974 Y705.0145 Z-1.0000 F5000
G1 X105.7405 Y701.1980 Z-1.0000 F5000
G1 X106.1992 Y696.7026 Z-1.0000 F5000
G1 X105.7222 Y692.5741 Z-1.0000 F5000
G1 X104.4745 Y689.4549 Z-1.0000 F5000
G1 X102.4194 Y687.0328 Z-1.0000 F5000
G1 X102.4194 Y687.0328 Z10.0000 F9999
G1 X100.6763 Y720.3172 Z10.0000 F9999
G1 X100.6763 Y720.3172 Z-1.0000 F2500
G1 X101.9424 Y721.5650 Z-1.0000 F5000
G1 X103.7589 Y723.8952 Z-1.0000 F5000
G1 X105.4102 Y727.3631 Z-1.0000 F5000
G1 X106.1992 Y732.0971 Z-1.0000 F5000
G1 X105.0066 Y737.2530 Z-1.0000 F5000
G1 X101.6855 Y741.6200 Z-1.0000 F5000
G1 X96.7680 Y744.6659 Z-1.0000 F5000
G1 X90.8231 Y745.8035 Z-1.0000 F5000
G1 X85.2818 Y744.4640 Z-1.0000 F5000
G1 X81.2451 Y741.2163 Z-1.0000 F5000
G1 X78.8231 Y737.1613 Z-1.0000 F5000
G1 X78.0157 Y733.3998 Z-1.0000 F5000
G1 X78.0157 Y731.2530 Z-1.0000 F5000
G1 X78.4194 Y728.9961 Z-1.0000 F5000
G1 X79.3185 Y726.3539 Z-1.0000 F5000
G1 X63.9240 Y731.9870 Z-1.0000 F5000
G1 X63.9240 Y746.1888 Z-1.0000 F5000
G1 X63.9240 Y731.9870 Z-1.0000 F5000
G1 X79.3185 Y726.3539 Z-1.0000 F5000
G1 X78.4194 Y728.9961 Z-1.0000 F5000
G1 X78.0157 Y731.2530 Z-1.0000 F5000
G1 X78.0157 Y733.3998 Z-1.0000 F5000
G1 X78.8231 Y737.1613 Z-1.0000 F5000
G1 X81.2451 Y741.2163 Z-1.0000 F5000
G1 X85.2818 Y744.4640 Z-1.0000 F5000
G1 X90.8231 Y745.8035 Z-1.0000 F5000
G1 X96.7680 Y744.6659 Z-1.0000 F5000
G1 X101.6855 Y741.6200 Z-1.0000 F5000
G1 X105.0066 Y737.2530 Z-1.0000 F5000
G1 X106.1992 Y732.0971 Z-1.0000 F5000
G1 X105.4102 Y727.3631 Z-1.0000 F5000
G1 X103.7589 Y723.8952 Z-1.0000 F5000
G1 X101.9424 Y721.5650 Z-1.0000 F5000
G1 X101.9424 Y721.5650 Z10.0000 F9999
G1 X55.7038 Y674.3723 Z10.0000 F9999
G1 X55.7038 Y674.3723 Z-1.0000 F2500
G1 X108.5479 Y643.9870 Z-1.0000 F5000
G1 X55.7038 Y674.3723 Z-1.0000 F5000
G1 X55.7038 Y674.3723 Z10.0000 F9999
G1 X55.7038 Y787.1062 Z10.0000 F9999
G1 X55.7038 Y787.1062 Z-1.0000 F2500
G1 X108.5479 Y756.7209 Z-1.0000 F5000
G1 X55.7038 Y787.1062 Z-1.0000 F5000
G1 X55.7038 Y787.1062 Z10.0000 F9999
G1 X106.1992 Y802.6108 Z10.0000 F9999
G1 X106.1992 Y802.6108 Z-1.0000 F2500
G1 X83.3919 Y802.6108 Z-1.0000 F5000
G1 X83.3919 Y819.0695 Z-1.0000 F5000
G1 X83.3919 Y802.6108 Z-1.0000 F5000
G1 X65.0983 Y802.6108 Z-1.0000 F5000
G1 X65.0983 Y820.3723 Z-1.0000 F5000
G1 X65.0983 Y802.6108 Z-1.0000 F5000
G1 X106.1992 Y802.6108 Z-1.0000 F5000
G1 X106.1992 Y820.3723 Z-1.0000 F5000
G1 X106.1992 Y820.3723 Z10.0000 F9999
G1 X84.9882 Y842.7760 Z10.0000 F9999
G1 X84.9882 Y842.7760 Z-1.0000 F2500
G1 X106.1992 Y854.7209 Z-1.0000 F5000
G1 X84.9882 Y842.7760 Z-1.0000 F5000
G1 X65.0983 Y854.7209 Z-1.0000 F5000
G1 X84.9882 Y842.7760 Z-1.0000 F5000
G1 X65.0983 Y830.7026 Z-1.0000 F5000
G1 X84.9882 Y842.7760 Z-1.0000 F5000
G1 X106.1992 Y830.7026 Z-1.0000 F5000
G1 X106.1992 Y830.7026 Z10.0000 F9999
G1 X230.5266 Y787.1062 Z10.0000 F9999
G1 X230.5266 Y787.1062 Z-1.0000 F2500
G1 X283.3707 Y756.7209 Z-1.0000 F5000
G1 X230.5266 Y787.1062 Z-1.0000 F5000
G1 X230.5266 Y787.1062 Z10.0000 F9999
G1 X281.0220 Y802.6108 Z10.0000 F9999
G1 X281.0220 Y802.6108 Z-1.0000 F2500
G1 X258.2147 Y802.6108 Z-1.0000 F5000
G1 X258.2147 Y819.0695 Z-1.0000 F5000
G1 X258.2147 Y802.6108 Z-1.0000 F5000
G1 X239.9211 Y802.6108 Z-1.0000 F5000
G1 X239.9211 Y820.3723 Z-1.0000 F5000
G1 X239.9211 Y802.6108 Z-1.0000 F5000
G1 X281.0220 Y802.6108 Z-1.0000 F5000
G1 X281.0220 Y820.3723 Z-1.0000 F5000
G1 X281.0220 Y820.3723 Z10.0000 F9999
G1 X259.8110 Y842.7760 Z10.0000 F9999
G1 X259.8110 Y842.7760 Z-1.0000 F2500
G1 X281.0220 Y854.7209 Z-1.0000 F5000
G1 X259.8110 Y842.7760 Z-1.0000 F5000
G1 X239.9211 Y854.7209 Z-1.0000 F5000
G1 X259.8110 Y842.7760 Z-1.0000 F5000
G1 X239.9211 Y830.7026 Z-1.0000 F5000
G1 X259.8110 Y842.7760 Z-1.0000 F5000
G1 X281.0220 Y830.7026 Z-1.0000 F5000
G1 X281.0220 Y830.7026 Z10.0000 F9999
G1 X275.4991 Y720.3172 Z10.0000 F9999
G1 X275.4991 Y720.3172 Z-1.0000 F2500
G1 X276.7651 Y721.5650 Z-1.0000 F5000
G1 X278.5817 Y723.8952 Z-1.0000 F5000
G1 X280.2330 Y727.3631 Z-1.0000 F5000
G1 X281.0220 Y732.0971 Z-1.0000 F5000
G1 X279.8294 Y737.2530 Z-1.0000 F5000
G1 X276.5083 Y741.6200 Z-1.0000 F5000
G1 X271.5908 Y744.6659 Z-1.0000 F5000
G1 X265.6459 Y745.8035 Z-1.0000 F5000
G1 X260.1046 Y744.4640 Z-1.0000 F5000
G1 X256.0679 Y741.2163 Z-1.0000 F5000
G1 X253.6459 Y737.1613 Z-1.0000 F5000
G1 X252.8385 Y733.3998 Z-1.0000 F5000
G1 X252.8385 Y731.2530 Z-1.0000 F5000
G1 X253.2422 Y728.9961 Z-1.0000 F5000
G1 X254.1413 Y726.3539 Z-1.0000 F5000
G1 X238.7468 Y731.9870 Z-1.0000 F5000
G1 X238.7468 Y746.1888 Z-1.0000 F5000
G1 X238.7468 Y731.9870 Z-1.0000 F5000
G1 X254.1413 Y726.3539 Z-1.0000 F5000
G1 X253.2422 Y728.9961 Z-1.0000 F5000
G1 X252.8385 Y731.2530 Z-1.0000 F5000
G1 X252.8385 Y733.3998 Z-1.0000 F5000
G1 X253.6459 Y737.1613 Z-1.0000 F5000
G1 X256.0679 Y741.2163 Z-1.0000 F5000
G1 X260.1046 Y744.4640 Z-1.0000 F5000
G1 X265.6459 Y745.8035 Z-1.0000 F5000
G1 X271.5908 Y744.6659 Z-1.0000 F5000
G1 X276.5083 Y741.6200 Z-1.0000 F5000
G1 X279.8294 Y737.2530 Z-1.0000 F5000
G1 X281.0220 Y732.0971 Z-1.0000 F5000
G1 X280.2330 Y727.3631 Z-1.0000 F5000
G1 X278.5817 Y723.8952 Z-1.0000 F5000
G1 X276.7651 Y721.5650 Z-1.0000 F5000
G1 X276.7651 Y721.5650 Z10.0000 F9999
G1 X274.1963 Y685.0879 Z10.0000 F9999
G1 X274.1963 Y685.0879 Z-1.0000 F2500
G1 X277.2422 Y687.0328 Z-1.0000 F5000
G1 X279.2973 Y689.4549 Z-1.0000 F5000
G1 X280.5450 Y692.5741 Z-1.0000 F5000
G1 X281.0220 Y696.7026 Z-1.0000 F5000
G1 X280.5633 Y701.1980 Z-1.0000 F5000
G1 X278.8202 Y705.0145 Z-1.0000 F5000
G1 X275.8294 Y707.6934 Z-1.0000 F5000
G1 X271.6642 Y708.8127 Z-1.0000 F5000
G1 X267.6642 Y708.2805 Z-1.0000 F5000
G1 X264.9853 Y706.7393 Z-1.0000 F5000
G1 X263.2973 Y704.7026 Z-1.0000 F5000
G1 X262.1963 Y702.7943 Z-1.0000 F5000
G1 X257.4624 Y693.6017 Z-1.0000 F5000
G1 X256.0496 Y691.2347 Z-1.0000 F5000
G1 X254.3982 Y689.3815 Z-1.0000 F5000
G1 X252.2147 Y688.1338 Z-1.0000 F5000
G1 X249.3340 Y687.6200 Z-1.0000 F5000
G1 X246.0496 Y688.1521 Z-1.0000 F5000
G1 X243.0220 Y689.9870 Z-1.0000 F5000
G1 X240.8018 Y693.1246 Z-1.0000 F5000
G1 X239.9211 Y697.4916 Z-1.0000 F5000
G1 X240.6000 Y701.7484 Z-1.0000 F5000
G1 X242.0679 Y704.5925 Z-1.0000 F5000
G1 X244.2147 Y706.6842 Z-1.0000 F5000
G1 X242.0679 Y704.5925 Z-1.0000 F5000
G1 X240.6000 Y701.7484 Z-1.0000 F5000
G1 X239.9211 Y697.4916 Z-1.0000 F5000
G1 X240.8018 Y693.1246 Z-1.0000 F5000
G1 X243.0220 Y689.9870 Z-1.0000 F5000
G1 X246.0496 Y688.1521 Z-1.0000 F5000
G1 X249.3340 Y687.6200 Z-1.0000 F5000
G1 X252.2147 Y688.1338 Z-1.0000 F5000
G1 X254.3982 Y689.3815 Z-1.0000 F5000
G1 X256.0496 Y691.2347 Z-1.0000 F5000
G1 X257.4624 Y693.6017 Z-1.0000 F5000
G1 X262.1963 Y702.7943 Z-1.0000 F5000
G1 X263.2973 Y704.7026 Z-1.0000 F5000
G1 X264.9853 Y706.7393 Z-1.0000 F5000
G1 X267.6642 Y708.2805 Z-1.0000 F5000
G1 X271.6642 Y708.8127 Z-1.0000 F5000
G1 X275.8294 Y707.6934 Z-1.0000 F5000
G1 X278.8202 Y705.0145 Z-1.0000 F5000
G1 X280.5633 Y701.1980 Z-1.0000 F5000
G1 X281.0220 Y696.7026 Z-1.0000 F5000
G1 X280.5450 Y692.5741 Z-1.0000 F5000
G1 X279.2973 Y689.4549 Z-1.0000 F5000
G1 X277.2422 Y687.0328 Z-1.0000 F5000
G1 X277.2422 Y687.0328 Z10.0000 F9999
G1 X230.5266 Y674.3723 Z10.0000 F9999
G1 X230.5266 Y674.3723 Z-1.0000 F2500
G1 X283.3707 Y643.9870 Z-1.0000 F5000
G1 X230.5266 Y674.3723 Z-1.0000 F5000
G1 X230.5266 Y674.3723 Z10.0000 F9999
G1 X239.9211 Y616.5558 Z10.0000 F9999
G1 X239.9211 Y616.5558 Z-1.0000 F2500
G1 X281.0220 Y632.6108 Z-1.0000 F5000
G1 X239.9211 Y616.5558 Z-1.0000 F5000
G1 X281.0220 Y600.5374 Z-1.0000 F5000
G1 X281.0220 Y600.5374 Z10.0000 F9999
G1 X256.3615 Y589.8585 Z10.0000 F9999
G1 X256.3615 Y589.8585 Z-1.0000 F2500
G1 X256.3615 Y560.6108 Z-1.0000 F5000
G1 X256.3615 Y589.8585 Z-1.0000 F5000
G1 X256.3615 Y589.8585 Z10.0000 F9999
G1 X266.3248 Y626.8677 Z10.0000 F9999
G1 X266.3248 Y626.8677 Z-1.0000 F2500
G1 X266.3248 Y606.1705 Z-1.0000 F5000
G1 X266.3248 Y626.8677 Z-1.0000 F5000
G1 X266.3248 Y626.8677 Z10.0000 F9999
G1 X266.3248 Y543.4916 Z10.0000 F9999
G1 X266.3248 Y543.4916 Z-1.0000 F2500
G1 X266.3248 Y522.7943 Z-1.0000 F5000
G1 X266.3248 Y543.4916 Z-1.0000 F5000
G1 X266.3248 Y543.4916 Z10.0000 F9999
G1 X239.9211 Y533.1796 Z10.0000 F9999
G1 X239.9211 Y533.1796 Z-1.0000 F2500
G1 X281.0220 Y549.2347 Z-1.0000 F5000
G1 X239.9211 Y533.1796 Z-1.0000 F5000
G1 X281.0220 Y517.1613 Z-1.0000 F5000
G1 X281.0220 Y517.1613 Z10.0000 F9999
G1 X281.0220 Y506.4824 Z10.0000 F9999
G1 X281.0220 Y506.4824 Z-1.0000 F2500
G1 X260.8752 Y493.2530 Z-1.0000 F5000
G1 X281.0220 Y506.4824 Z-1.0000 F5000
G1 X281.0220 Y506.4824 Z10.0000 F9999
G1 X281.0220 Y489.0695 Z10.0000 F9999
G1 X281.0220 Y489.0695 Z-1.0000 F2500
G1 X239.9211 Y489.0695 Z-1.0000 F5000
G1 X239.9211 Y496.2255 Z-1.0000 F5000
G1 X240.5266 Y500.0971 Z-1.0000 F5000
G1 X242.3431 Y503.3081 Z-1.0000 F5000
G1 X245.4991 Y505.5283 Z-1.0000 F5000
G1 X250.1413 Y506.3723 Z-1.0000 F5000
G1 X254.8202 Y505.2163 Z-1.0000 F5000
G1 X258.1413 Y502.4457 Z-1.0000 F5000
G1 X260.1046 Y499.1246 Z-1.0000 F5000
G1 X260.7651 Y496.2255 Z-1.0000 F5000
G1 X260.7651 Y489.0695 Z-1.0000 F5000
G1 X260.7651 Y496.2255 Z-1.0000 F5000
G1 X260.1046 Y499.1246 Z-1.0000 F5000
G1 X258.1413 Y502.4457 Z-1.0000 F5000
G1 X254.8202 Y505.2163 Z-1.0000 F5000
G1 X250.1413 Y506.3723 Z-1.0000 F5000
G1 X245.4991 Y505.5283 Z-1.0000 F5000
G1 X242.3431 Y503.3081 Z-1.0000 F5000
G1 X240.5266 Y500.0971 Z-1.0000 F5000
G1 X239.9211 Y496.2255 Z-1.0000 F5000
G1 X239.9211 Y489.0695 Z-1.0000 F5000
G1 X239.9211 Y489.0695 Z10.0000 F9999
G1 X258.2147 Y458.5374 Z10.0000 F9999
G1 X258.2147 Y458.5374 Z-1.0000 F2500
G1 X258.2147 Y472.9778 Z-1.0000 F5000
G1 X258.2147 Y458.5374 Z-1.0000 F5000
G1 X239.9211 Y458.5374 Z-1.0000 F5000
G1 X239.9211 Y473.6567 Z-1.0000 F5000
G1 X239.9211 Y458.5374 Z-1.0000 F5000
G1 X281.0220 Y458.5374 Z-1.0000 F5000
G1 X281.0220 Y458.5374 Z10.0000 F9999
G1 X427.4895 Y458.5374 Z10.0000 F9999
G1 X427.4895 Y458.5374 Z-1.0000 F2500
G1 X427.4895 Y472.9778 Z-1.0000 F5000
G1 X427.4895 Y458.5374 Z-1.0000 F5000
G1 X409.1960 Y458.5374 Z-1.0000 F5000
G1 X409.1960 Y473.6567 Z-1.0000 F5000
G1 X409.1960 Y458.5374 Z-1.0000 F5000
G1 X450.2969 Y458.5374 Z-1.0000 F5000
G1 X450.2969 Y458.5374 Z10.0000 F9999
G1 X450.2969 Y489.0695 Z10.0000 F9999
G1 X450.2969 Y489.0695 Z-1.0000 F2500
G1 X409.1960 Y489.0695 Z-1.0000 F5000
G1 X409.1960 Y496.2255 Z-1.0000 F5000
G1 X409.8015 Y500.0971 Z-1.0000 F5000
G1 X411.6180 Y503.3081 Z-1.0000 F5000
G1 X414.7739 Y505.5283 Z-1.0000 F5000
G1 X419.4161 Y506.3723 Z-1.0000 F5000
G1 X424.0950 Y505.2163 Z-1.0000 F5000
G1 X427.4161 Y502.4457 Z-1.0000 F5000
G1 X429.3794 Y499.1246 Z-1.0000 F5000
G1 X430.0400 Y496.2255 Z-1.0000 F5000
G1 X430.0400 Y489.0695 Z-1.0000 F5000
G1 X430.0400 Y496.2255 Z-1.0000 F5000
G1 X429.3794 Y499.1246 Z-1.0000 F5000
G1 X427.4161 Y502.4457 Z-1.0000 F5000
G1 X424.0950 Y505.2163 Z-1.0000 F5000
G1 X419.4161 Y506.3723 Z-1.0000 F5000
G1 X414.7739 Y505.5283 Z-1.0000 F5000
G1 X411.6180 Y503.3081 Z-1.0000 F5000
G1 X409.8015 Y500.0971 Z-1.0000 F5000
G1 X409.1960 Y496.2255 Z-1.0000 F5000
G1 X409.1960 Y489.0695 Z-1.0000 F5000
G1 X409.1960 Y489.0695 Z10.0000 F9999
G1 X409.1960 Y533.1796 Z10.0000 F9999
G1 X409.1960 Y533.1796 Z-1.0000 F2500
G1 X450.2969 Y549.2347 Z-1.0000 F5000
G1 X409.1960 Y533.1796 Z-1.0000 F5000
G1 X450.2969 Y517.1613 Z-1.0000 F5000
G1 X450.2969 Y517.1613 Z10.0000 F9999
G1 X450.2969 Y506.4824 Z10.0000 F9999
G1 X450.2969 Y506.4824 Z-1.0000 F2500
G1 X430.1501 Y493.2530 Z-1.0000 F5000
G1 X450.2969 Y506.4824 Z-1.0000 F5000
G1 X450.2969 Y506.4824 Z10.0000 F9999
G1 X435.5996 Y543.4916 Z10.0000 F9999
G1 X435.5996 Y543.4916 Z-1.0000 F2500
G1 X435.5996 Y522.7943 Z-1.0000 F5000
G1 X435.5996 Y543.4916 Z-1.0000 F5000
G1 X435.5996 Y543.4916 Z10.0000 F9999
G1 X425.6363 Y589.8585 Z10.0000 F9999
G1 X425.6363 Y589.8585 Z-1.0000 F2500
G1 X425.6363 Y560.6108 Z-1.0000 F5000
G1 X425.6363 Y589.8585 Z-1.0000 F5000
G1 X425.6363 Y589.8585 Z10.0000 F9999
G1 X409.1960 Y616.5558 Z10.0000 F9999
G1 X409.1960 Y616.5558 Z-1.0000 F2500
G1 X450.2969 Y632.6108 Z-1.0000 F5000
G1 X409.1960 Y616.5558 Z-1.0000 F5000
G1 X450.2969 Y600.5374 Z-1.0000 F5000
G1 X450.2969 Y600.5374 Z10.0000 F9999
G1 X435.5996 Y626.8677 Z10.0000 F9999
G1 X435.5996 Y626.8677 Z-1.0000 F2500
G1 X435.5996 Y606.1705 Z-1.0000 F5000
G1 X435.5996 Y626.8677 Z-1.0000 F5000
G1 X435.5996 Y626.8677 Z10.0000 F9999
G1 X443.4712 Y685.0879 Z10.0000 F9999
G1 X443.4712 Y685.0879 Z-1.0000 F2500
G1 X446.5171 Y687.0328 Z-1.0000 F5000
G1 X448.5721 Y689.4549 Z-1.0000 F5000
G1 X449.8198 Y692.5741 Z-1.0000 F5000
G1 X450.2969 Y696.7026 Z-1.0000 F5000
G1 X449.8382 Y701.1980 Z-1.0000 F5000
G1 X448.0950 Y705.0145 Z-1.0000 F5000
G1 X445.1042 Y707.6934 Z-1.0000 F5000
G1 X440.9391 Y708.8127 Z-1.0000 F5000
G1 X436.9391 Y708.2805 Z-1.0000 F5000
G1 X434.2602 Y706.7393 Z-1.0000 F5000
G1 X432.5721 Y704.7026 Z-1.0000 F5000
G1 X431.4712 Y702.7943 Z-1.0000 F5000
G1 X426.7372 Y693.6017 Z-1.0000 F5000
G1 X425.3244 Y691.2347 Z-1.0000 F5000
G1 X423.6730 Y689.3815 Z-1.0000 F5000
G1 X421.4895 Y688.1338 Z-1.0000 F5000
G1 X418.6088 Y687.6200 Z-1.0000 F5000
G1 X415.3244 Y688.1521 Z-1.0000 F5000
G1 X412.2969 Y689.9870 Z-1.0000 F5000
G1 X410.0767 Y693.1246 Z-1.0000 F5000
G1 X409.1960 Y697.4916 Z-1.0000 F5000
G1 X409.8749 Y701.7484 Z-1.0000 F5000
G1 X411.3427 Y704.5925 Z-1.0000 F5000
G1 X413.4895 Y706.6842 Z-1.0000 F5000
G1 X411.3427 Y704.5925 Z-1.0000 F5000
G1 X409.8749 Y701.7484 Z-1.0000 F5000
G1 X409.1960 Y697.4916 Z-1.0000 F5000
G1 X410.0767 Y693.1246 Z-1.0000 F5000
G1 X412.2969 Y689.9870 Z-1.0000 F5000
G1 X415.3244 Y688.1521 Z-1.0000 F5000
G1 X418.6088 Y687.6200 Z-1.0000 F5000
G1 X421.4895 Y688.1338 Z-1.0000 F5000
G1 X423.6730 Y689.3815 Z-1.0000 F5000
G1 X425.3244 Y691.2347 Z-1.0000 F5000
G1 X426.7372 Y693.6017 Z-1.0000 F5000
G1 X431.4712 Y702.7943 Z-1.0000 F5000
G1 X432.5721 Y704.7026 Z-1.0000 F5000
G1 X434.2602 Y706.7393 Z-1.0000 F5000
G1 X436.9391 Y708.2805 Z-1.0000 F5000
G1 X440.9391 Y708.8127 Z-1.0000 F5000
G1 X445.1042 Y707.6934 Z-1.0000 F5000
G1 X448.0950 Y705.0145 Z-1.0000 F5000
G1 X449.8382 Y701.1980 Z-1.0000 F5000
G1 X450.2969 Y696.7026 Z-1.0000 F5000
G1 X449.8198 Y692.5741 Z-1.0000 F5000
G1 X448.5721 Y689.4549 Z-1.0000 F5000
G1 X446.5171 Y687.0328 Z-1.0000 F5000
G1 X446.5171 Y687.0328 Z10.0000 F9999
G1 X444.7739 Y720.3172 Z10.0000 F9999
G1 X444.7739 Y720.3172 Z-1.0000 F2500
G1 X446.0400 Y721.5650 Z-1.0000 F5000
G1 X447.8565 Y723.8952 Z-1.0000 F5000
G1 X449.5079 Y727.3631 Z-1.0000 F5000
G1 X450.2969 Y732.0971 Z-1.0000 F5000
G1 X449.1042 Y737.2530 Z-1.0000 F5000
G1 X445.7831 Y741.6200 Z-1.0000 F5000
G1 X440.8657 Y744.6659 Z-1.0000 F5000
G1 X434.9207 Y745.8035 Z-1.0000 F5000
G1 X429.3794 Y744.4640 Z-1.0000 F5000
G1 X425.3427 Y741.2163 Z-1.0000 F5000
G1 X422.9207 Y737.1613 Z-1.0000 F5000
G1 X422.1134 Y733.3998 Z-1.0000 F5000
G1 X422.1134 Y731.2530 Z-1.0000 F5000
G1 X422.5171 Y728.9961 Z-1.0000 F5000
G1 X423.4161 Y726.3539 Z-1.0000 F5000
G1 X408.0216 Y731.9870 Z-1.0000 F5000
G1 X408.0216 Y746.1888 Z-1.0000 F5000
G1 X408.0216 Y731.9870 Z-1.0000 F5000
G1 X423.4161 Y726.3539 Z-1.0000 F5000
G1 X422.5171 Y728.9961 Z-1.0000 F5000
G1 X422.1134 Y731.2530 Z-1.0000 F5000
G1 X422.1134 Y733.3998 Z-1.0000 F5000
G1 X422.9207 Y737.1613 Z-1.0000 F5000
G1 X425.3427 Y741.2163 Z-1.0000 F5000
G1 X429.3794 Y744.4640 Z-1.0000 F5000
G1 X434.9207 Y745.8035 Z-1.0000 F5000
G1 X440.8657 Y744.6659 Z-1.0000 F5000
G1 X445.7831 Y741.6200 Z-1.0000 F5000
G1 X449.1042 Y737.2530 Z-1.0000 F5000
G1 X450.2969 Y732.0971 Z-1.0000 F5000
G1 X449.5079 Y727.3631 Z-1.0000 F5000
G1 X447.8565 Y723.8952 Z-1.0000 F5000
G1 X446.0400 Y721.5650 Z-1.0000 F5000
G1 X446.0400 Y721.5650 Z10.0000 F9999
G1 X399.8015 Y674.3723 Z10.0000 F9999
G1 X399.8015 Y674.3723 Z-1.0000 F2500
G1 X452.6455 Y643.9870 Z-1.0000 F5000
G1 X399.8015 Y674.3723 Z-1.0000 F5000
G1 X399.8015 Y674.3723 Z10.0000 F9999
G1 X399.8015 Y787.1062 Z10.0000 F9999
G1 X399.8015 Y787.1062 Z-1.0000 F2500
G1 X452.6455 Y756.7209 Z-1.0000 F5000
G1 X399.8015 Y787.1062 Z-1.0000 F5000
G1 X399.8015 Y787.1062 Z10.0000 F9999
G1 X450.2969 Y802.6108 Z10.0000 F9999
G1 X450.2969 Y802.6108 Z-1.0000 F2500
G1 X427.4895 Y802.6108 Z-1.0000 F5000
G1 X427.4895 Y819.0695 Z-1.0000 F5000
G1 X427.4895 Y802.6108 Z-1.0000 F5000
G1 X409.1960 Y802.6108 Z-1.0000 F5000
G1 X409.1960 Y820.3723 Z-1.0000 F5000
G1 X409.1960 Y802.6108 Z-1.0000 F5000
G1 X450.2969 Y802.6108 Z-1.0000 F5000
G1 X450.2969 Y820.3723 Z-1.0000 F5000
G1 X450.2969 Y820.3723 Z10.0000 F9999
G1 X429.0859 Y842.7760 Z10.0000 F9999
G1 X429.0859 Y842.7760 Z-1.0000 F2500
G1 X450.2969 Y854.7209 Z-1.0000 F5000
G1 X429.0859 Y842.7760 Z-1.0000 F5000
G1 X409.1960 Y854.7209 Z-1.0000 F5000
G1 X429.0859 Y842.7760 Z-1.0000 F5000
G1 X409.1960 Y830.7026 Z-1.0000 F5000
G1 X429.0859 Y842.7760 Z-1.0000 F5000
G1 X450.2969 Y830.7026 Z-1.0000 F5000
G1 X450.2969 Y830.7026 Z10.0000 F9999
G1 X574.6243 Y787.1062 Z10.0000 F9999
G1 X574.6243 Y787.1062 Z-1.0000 F2500
G1 X627.4683 Y756.7209 Z-1.0000 F5000
G1 X574.6243 Y787.1062 Z-1.0000 F5000
G1 X574.6243 Y787.1062 Z10.0000 F9999
G1 X625.1197 Y802.6108 Z10.0000 F9999
G1 X625.1197 Y802.6108 Z-1.0000 F2500
G1 X602.3123 Y802.6108 Z-1.0000 F5000
G1 X602.3123 Y819.0695 Z-1.0000 F5000
G1 X602.3123 Y802.6108 Z-1.0000 F5000
G1 X584.0188 Y802.6108 Z-1.0000 F5000
G1 X584.0188 Y820.3723 Z-1.0000 F5000
G1 X584.0188 Y802.6108 Z-1.0000 F5000
G1 X625.1197 Y802.6108 Z-1.0000 F5000
G1 X625.1197 Y820.3723 Z-1.0000 F5000
G1 X625.1197 Y820.3723 Z10.0000 F9999
G1 X603.9087 Y842.7760 Z10.0000 F9999
G1 X603.9087 Y842.7760 Z-1.0000 F2500
G1 X625.1197 Y854.7209 Z-1.0000 F5000
G1 X603.9087 Y842.7760 Z-1.0000 F5000
G1 X584.0188 Y854.7209 Z-1.0000 F5000
G1 X603.9087 Y842.7760 Z-1.0000 F5000
G1 X584.0188 Y830.7026 Z-1.0000 F5000
G1 X603.9087 Y842.7760 Z-1.0000 F5000
G1 X625.1197 Y830.7026 Z-1.0000 F5000
G1 X625.1197 Y830.7026 Z10.0000 F9999
G1 X619.5967 Y720.3172 Z10.0000 F9999
G1 X619.5967 Y720.3172 Z-1.0000 F2500
G1 X620.8628 Y721.5650 Z-1.0000 F5000
G1 X622.6793 Y723.8952 Z-1.0000 F5000
G1 X624.3307 Y727.3631 Z-1.0000 F5000
G1 X625.1197 Y732.0971 Z-1.0000 F5000
G1 X623.9270 Y737.2530 Z-1.0000 F5000
G1 X620.6059 Y741.6200 Z-1.0000 F5000
G1 X615.6885 Y744.6659 Z-1.0000 F5000
G1 X609.7435 Y745.8035 Z-1.0000 F5000
G1 X604.2022 Y744.4640 Z-1.0000 F5000
G1 X600.1655 Y741.2163 Z-1.0000 F5000
G1 X597.7435 Y737.1613 Z-1.0000 F5000
G1 X596.9362 Y733.3998 Z-1.0000 F5000
G1 X596.9362 Y731.2530 Z-1.0000 F5000
G1 X597.3399 Y728.9961 Z-1.0000 F5000
G1 X598.2389 Y726.3539 Z-1.0000 F5000
G1 X582.8444 Y731.9870 Z-1.0000 F5000
G1 X582.8444 Y746.1888 Z-1.0000 F5000
G1 X582.8444 Y731.9870 Z-1.0000 F5000
G1 X598.2389 Y726.3539 Z-1.0000 F5000
G1 X597.3399 Y728.9961 Z-1.0000 F5000
G1 X596.9362 Y731.2530 Z-1.0000 F5000
G1 X596.9362 Y733.3998 Z-1.0000 F5000
G1 X597.7435 Y737.1613 Z-1.0000 F5000
G1 X600.1655 Y741.2163 Z-1.0000 F5000
G1 X604.2022 Y744.4640 Z-1.0000 F5000
G1 X609.7435 Y745.8035 Z-1.0000 F5000
G1 X615.6885 Y744.6659 Z-1.0000 F5000
G1 X620.6059 Y741.6200 Z-1.0000 F5000
G1 X623.9270 Y737.2530 Z-1.0000 F5000
G1 X625.1197 Y732.0971 Z-1.0000 F5000
G1 X624.3307 Y727.3631 Z-1.0000 F5000
G1 X622.6793 Y723.8952 Z-1.0000 F5000
G1 X620.8628 Y721.5650 Z-1.0000 F5000
G1 X620.8628 Y721.5650 Z10.0000 F9999
G1 X618.2940 Y685.0879 Z10.0000 F9999
G1 X618.2940 Y685.0879 Z-1.0000 F2500
G1 X621.3399 Y687.0328 Z-1.0000 F5000
G1 X623.3949 Y689.4549 Z-1.0000 F5000
G1 X624.6426 Y692.5741 Z-1.0000 F5000
G1 X625.1197 Y696.7026 Z-1.0000 F5000
G1 X624.6610 Y701.1980 Z-1.0000 F5000
G1 X622.9178 Y705.0145 Z-1.0000 F5000
G1 X619.9270 Y707.6934 Z-1.0000 F5000
G1 X615.7619 Y708.8127 Z-1.0000 F5000
G1 X611.7619 Y708.2805 Z-1.0000 F5000
G1 X609.0830 Y706.7393 Z-1.0000 F5000
G1 X607.3949 Y704.7026 Z-1.0000 F5000
G1 X606.2940 Y702.7943 Z-1.0000 F5000
G1 X601.5600 Y693.6017 Z-1.0000 F5000
G1 X600.1472 Y691.2347 Z-1.0000 F5000
G1 X598.4958 Y689.3815 Z-1.0000 F5000
G1 X596.3123 Y688.1338 Z-1.0000 F5000
G1 X593.4316 Y687.6200 Z-1.0000 F5000
G1 X590.1472 Y688.1521 Z-1.0000 F5000
G1 X587.1197 Y689.9870 Z-1.0000 F5000
G1 X584.8995 Y693.1246 Z-1.0000 F5000
G1 X584.0188 Y697.4916 Z-1.0000 F5000
G1 X584.6976 Y701.7484 Z-1.0000 F5000
G1 X586.1655 Y704.5925 Z-1.0000 F5000
G1 X588.3123 Y706.6842 Z-1.0000 F5000
G1 X586.1655 Y704.5925 Z-1.0000 F5000
G1 X584.6976 Y701.7484 Z-1.0000 F5000
G1 X584.0188 Y697.4916 Z-1.0000 F5000
G1 X584.8995 Y693.1246 Z-1.0000 F5000
G1 X587.1197 Y689.9870 Z-1.0000 F5000
G1 X590.1472 Y688.1521 Z-1.0000 F5000
G1 X593.4316 Y687.6200 Z-1.0000 F5000
G1 X596.3123 Y688.1338 Z-1.0000 F5000
G1 X598.4958 Y689.3815 Z-1.0000 F5000
G1 X600.1472 Y691.2347 Z-1.0000 F5000
G1 X601.5600 Y693.6017 Z-1.0000 F5000
G1 X606.2940 Y702.7943 Z-1.0000 F5000
G1 X607.3949 Y704.7026 Z-1.0000 F5000
G1 X609.0830 Y706.7393 Z-1.0000 F5000
G1 X611.7619 Y708.2805 Z-1.0000 F5000
G1 X615.7619 Y708.8127 Z-1.0000 F5000
G1 X619.9270 Y707.6934 Z-1.0000 F5000
G1 X622.9178 Y705.0145 Z-1.0000 F5000
G1 X624.6610 Y701.1980 Z-1.0000 F5000
G1 X625.1197 Y696.7026 Z-1.0000 F5000
G1 X624.6426 Y692.5741 Z-1.0000 F5000
G1 X623.3949 Y689.4549 Z-1.0000 F5000
G1 X621.3399 Y687.0328 Z-1.0000 F5000
G1 X621.3399 Y687.0328 Z10.0000 F9999
G1 X574.6243 Y674.3723 Z10.0000 F9999
G1 X574.6243 Y674.3723 Z-1.0000 F2500
G1 X627.4683 Y643.9870 Z-1.0000 F5000
G1 X574.6243 Y674.3723 Z-1.0000 F5000
G1 X574.6243 Y674.3723 Z10.0000 F9999
G1 X584.0188 Y616.5558 Z10.0000 F9999
G1 X584.0188 Y616.5558 Z-1.0000 F2500
G1 X625.1197 Y632.6108 Z-1.0000 F5000
G1 X584.0188 Y616.5558 Z-1.0000 F5000
G1 X625.1197 Y600.5374 Z-1.0000 F5000
G1 X625.1197 Y600.5374 Z10.0000 F9999
G1 X600.4591 Y589.8585 Z10.0000 F9999
G1 X600.4591 Y589.8585 Z-1.0000 F2500
G1 X600.4591 Y560.6108 Z-1.0000 F5000
G1 X600.4591 Y589.8585 Z-1.0000 F5000
G1 X600.4591 Y589.8585 Z10.0000 F9999
G1 X610.4224 Y626.8677 Z10.0000 F9999
G1 X610.4224 Y626.8677 Z-1.0000 F2500
G1 X610.4224 Y606.1705 Z-1.0000 F5000
G1 X610.4224 Y626.8677 Z-1.0000 F5000
G1 X610.4224 Y626.8677 Z10.0000 F9999
G1 X610.4224 Y543.4916 Z10.0000 F9999
G1 X610.4224 Y543.4916 Z-1.0000 F2500
G1 X610.4224 Y522.7943 Z-1.0000 F5000
G1 X610.4224 Y543.4916 Z-1.0000 F5000
G1 X610.4224 Y543.4916 Z10.0000 F9999
G1 X584.0188 Y533.1796 Z10.0000 F9999
G1 X584.0188 Y533.1796 Z-1.0000 F2500
G1 X625.1197 Y549.2347 Z-1.0000 F5000
G1 X584.0188 Y533.1796 Z-1.0000 F5000
G1 X625.1197 Y517.1613 Z-1.0000 F5000
G1 X625.1197 Y517.1613 Z10.0000 F9999
G1 X625.1197 Y506.4824 Z10.0000 F9999
G1 X625.1197 Y506.4824 Z-1.0000 F2500
G1 X604.9729 Y493.2530 Z-1.0000 F5000
G1 X625.1197 Y506.4824 Z-1.0000 F5000
G1 X625.1197 Y506.4824 Z10.0000 F9999
G1 X625.1197 Y489.0695 Z10.0000 F9999
G1 X625.1197 Y489.0695 Z-1.0000 F2500
G1 X584.0188 Y489.0695 Z-1.0000 F5000
G1 X584.0188 Y496.2255 Z-1.0000 F5000
G1 X584.6243 Y500.0971 Z-1.0000 F5000
G1 X586.4408 Y503.3081 Z-1.0000 F5000
G1 X589.5967 Y505.5283 Z-1.0000 F5000
G1 X594.2389 Y506.3723 Z-1.0000 F5000
G1 X598.9178 Y505.2163 Z-1.0000 F5000
G1 X602.2389 Y502.4457 Z-1.0000 F5000
G1 X604.2022 Y499.1246 Z-1.0000 F5000
G1 X604.8628 Y496.2255 Z-1.0000 F5000
G1 X604.8628 Y489.0695 Z-1.0000 F5000
G1 X604.8628 Y496.2255 Z-1.0000 F5000
G1 X604.2022 Y499.1246 Z-1.0000 F5000
G1 X602.2389 Y502.4457 Z-1.0000 F5000
G1 X598.9178 Y505.2163 Z-1.0000 F5000
G1 X594.2389 Y506.3723 Z-1.0000 F5000
G1 X589.5967 Y505.5283 Z-1.0000 F5000
G1 X586.4408 Y503.3081 Z-1.0000 F5000
G1 X584.6243 Y500.0971 Z-1.0000 F5000
G1 X584.0188 Y496.2255 Z-1.0000 F5000
G1 X584.0188 Y489.0695 Z-1.0000 F5000
G1 X584.0188 Y489.0695 Z10.0000 F9999
G1 X602.3123 Y458.5374 Z10.0000 F9999
G1 X602.3123 Y458.5374 Z-1.0000 F2500
G1 X602.3123 Y472.9778 Z-1.0000 F5000
G1 X602.3123 Y458.5374 Z-1.0000 F5000
G1 X584.0188 Y458.5374 Z-1.0000 F5000
G1 X584.0188 Y473.6567 Z-1.0000 F5000
G1 X584.0188 Y458.5374 Z-1.0000 F5000
G1 X625.1197 Y458.5374 Z-1.0000 F5000
G1 X625.1197 Y458.5374 Z10.0000 F9999
G1 X775.5230 Y458.5374 Z10.0000 F9999
G1 X775.5230 Y458.5374 Z-1.0000 F2500
G1 X775.5230 Y472.9778 Z-1.0000 F5000
G1 X775.5230 Y458.5374 Z-1.0000 F5000
G1 X757.2294 Y458.5374 Z-1.0000 F5000
G1 X757.2294 Y473.6567 Z-1.0000 F5000
G1 X757.2294 Y458.5374 Z-1.0000 F5000
G1 X798.3303 Y458.5374 Z-1.0000 F5000
G1 X798.3303 Y458.5374 Z10.0000 F9999
G1 X798.3303 Y489.0695 Z10.0000 F9999
G1 X798.3303 Y489.0695 Z-1.0000 F2500
G1 X757.2294 Y489.0695 Z-1.0000 F5000
G1 X757.2294 Y496.2255 Z-1.0000 F5000
G1 X757.8349 Y500.0971 Z-1.0000 F5000
G1 X759.6514 Y503.3081 Z-1.0000 F5000
G1 X762.8074 Y505.5283 Z-1.0000 F5000
G1 X767.4496 Y506.3723 Z-1.0000 F5000
G1 X772.1285 Y505.2163 Z-1.0000 F5000
G1 X775.4496 Y502.4457 Z-1.0000 F5000
G1 X777.4129 Y499.1246 Z-1.0000 F5000
G1 X778.0734 Y496.2255 Z-1.0000 F5000
G1 X778.0734 Y489.0695 Z-1.0000 F5000
G1 X778.0734 Y496.2255 Z-1.0000 F5000
G1 X777.4129 Y499.1246 Z-1.0000 F5000
G1 X775.4496 Y502.4457 Z-1.0000 F5000
G1 X772.1285 Y505.2163 Z-1.0000 F5000
G1 X767.4496 Y506.3723 Z-1.0000 F5000
G1 X762.8074 Y505.5283 Z-1.0000 F5000
G1 X759.6514 Y503.3081 Z-1.0000 F5000
G1 X757.8349 Y500.0971 Z-1.0000 F5000
G1 X757.2294 Y496.2255 Z-1.0000 F5000
G1 X757.2294 Y489.0695 Z-1.0000 F5000
G1 X757.2294 Y489.0695 Z10.0000 F9999
G1 X757.2294 Y533.1796 Z10.0000 F9999
G1 X757.2294 Y533.1796 Z-1.0000 F2500
G1 X798.3303 Y549.2347 Z-1.0000 F5000
G1 X757.2294 Y533.1796 Z-1.0000 F5000
G1 X798.3303 Y517.1613 Z-1.0000 F5000
G1 X798.3303 Y517.1613 Z10.0000 F9999
G1 X798.3303 Y506.4824 Z10.0000 F9999
G1 X798.3303 Y506.4824 Z-1.0000 F2500
G1 X778.1835 Y493.2530 Z-1.0000 F5000
G1 X798.3303 Y506.4824 Z-1.0000 F5000
G1 X798.3303 Y506.4824 Z10.0000 F9999
G1 X783.6331 Y543.4916 Z10.0000 F9999
G1 X783.6331 Y543.4916 Z-1.0000 F2500
G1 X783.6331 Y522.7943 Z-1.0000 F5000
G1 X783.6331 Y543.4916 Z-1.0000 F5000
G1 X783.6331 Y543.4916 Z10.0000 F9999
G1 X773.6698 Y589.8585 Z10.0000 F9999
G1 X773.6698 Y589.8585 Z-1.0000 F2500
G1 X773.6698 Y560.6108 Z-1.0000 F5000
G1 X773.6698 Y589.8585 Z-1.0000 F5000
G1 X773.6698 Y589.8585 Z10.0000 F9999
G1 X757.2294 Y616.5558 Z10.0000 F9999
G1 X757.2294 Y616.5558 Z-1.0000 F2500
G1 X798.3303 Y632.6108 Z-1.0000 F5000
G1 X757.2294 Y616.5558 Z-1.0000 F5000
G1 X798.3303 Y600.5374 Z-1.0000 F5000
G1 X798.3303 Y600.5374 Z10.0000 F9999
G1 X783.6331 Y626.8677 Z10.0000 F9999
G1 X783.6331 Y626.8677 Z-1.0000 F2500
G1 X783.6331 Y606.1705 Z-1.0000 F5000
G1 X783.6331 Y626.8677 Z-1.0000 F5000
G1 X783.6331 Y626.8677 Z10.0000 F9999
G1 X791.5046 Y685.0879 Z10.0000 F9999
G1 X791.5046 Y685.0879 Z-1.0000 F2500
G1 X794.5505 Y687.0328 Z-1.0000 F5000
G1 X796.6055 Y689.4549 Z-1.0000 F5000
G1 X797.8532 Y692.5741 Z-1.0000 F5000
G1 X798.3303 Y696.7026 Z-1.0000 F5000
G1 X797.8716 Y701.1980 Z-1.0000 F5000
G1 X796.1285 Y705.0145 Z-1.0000 F5000
G1 X793.1376 Y707.6934 Z-1.0000 F5000
G1 X788.9725 Y708.8127 Z-1.0000 F5000
G1 X784.9725 Y708.2805 Z-1.0000 F5000
G1 X782.2936 Y706.7393 Z-1.0000 F5000
G1 X780.6055 Y704.7026 Z-1.0000 F5000
G1 X779.5046 Y702.7943 Z-1.0000 F5000
G1 X774.7707 Y693.6017 Z-1.0000 F5000
G1 X773.3578 Y691.2347 Z-1.0000 F5000
G1 X771.7064 Y689.3815 Z-1.0000 F5000
G1 X769.5230 Y688.1338 Z-1.0000 F5000
G1 X766.6422 Y687.6200 Z-1.0000 F5000
G1 X763.3578 Y688.1521 Z-1.0000 F5000
G1 X760.3303 Y689.9870 Z-1.0000 F5000
G1 X758.1101 Y693.1246 Z-1.0000 F5000
G1 X757.2294 Y697.4916 Z-1.0000 F5000
G1 X757.9083 Y701.7484 Z-1.0000 F5000
G1 X759.3762 Y704.5925 Z-1.0000 F5000
G1 X761.5230 Y706.6842 Z-1.0000 F5000
G1 X759.3762 Y704.5925 Z-1.0000 F5000
G1 X757.9083 Y701.7484 Z-1.0000 F5000
G1 X757.2294 Y697.4916 Z-1.0000 F5000
G1 X758.1101 Y693.1246 Z-1.0000 F5000
G1 X760.3303 Y689.9870 Z-1.0000 F5000
G1 X763.3578 Y688.1521 Z-1.0000 F5000
G1 X766.6422 Y687.6200 Z-1.0000 F5000
G1 X769.5230 Y688.1338 Z-1.0000 F5000
G1 X771.7064 Y689.3815 Z-1.0000 F5000
G1 X773.3578 Y691.2347 Z-1.0000 F5000
G1 X774.7707 Y693.6017 Z-1.0000 F5000
G1 X779.5046 Y702.7943 Z-1.0000 F5000
G1 X780.6055 Y704.7026 Z-1.0000 F5000
G1 X782.2936 Y706.7393 Z-1.0000 F5000
G1 X784.9725 Y708.2805 Z-1.0000 F5000
G1 X788.9725 Y708.8127 Z-1.0000 F5000
G1 X793.1376 Y707.6934 Z-1.0000 F5000
G1 X796.1285 Y705.0145 Z-1.0000 F5000
G1 X797.8716 Y701.1980 Z-1.0000 F5000
G1 X798.3303 Y696.7026 Z-1.0000 F5000
G1 X797.8532 Y692.5741 Z-1.0000 F5000
G1 X796.6055 Y689.4549 Z-1.0000 F5000
G1 X794.5505 Y687.0328 Z-1.0000 F5000
G1 X794.5505 Y687.0328 Z10.0000 F9999
G1 X792.8074 Y720.3172 Z10.0000 F9999
G1 X792.8074 Y720.3172 Z-1.0000 F2500
G1 X794.0734 Y721.5650 Z-1.0000 F5000
G1 X795.8899 Y723.8952 Z-1.0000 F5000
G1 X797.5413 Y727.3631 Z-1.0000 F5000
G1 X798.3303 Y732.0971 Z-1.0000 F5000
G1 X797.1376 Y737.2530 Z-1.0000 F5000
G1 X793.8165 Y741.6200 Z-1.0000 F5000
G1 X788.8991 Y744.6659 Z-1.0000 F5000
G1 X782.9542 Y745.8035 Z-1.0000 F5000
G1 X777.4129 Y744.4640 Z-1.0000 F5000
G1 X773.3762 Y741.2163 Z-1.0000 F5000
G1 X770.9542 Y737.1613 Z-1.0000 F5000
G1 X770.1468 Y733.3998 Z-1.0000 F5000
G1 X770.1468 Y731.2530 Z-1.0000 F5000
G1 X770.5505 Y728.9961 Z-1.0000 F5000
G1 X771.4496 Y726.3539 Z-1.0000 F5000
G1 X756.0551 Y731.9870 Z-1.0000 F5000
G1 X756.0551 Y746.1888 Z-1.0000 F5000
G1 X756.0551 Y731.9870 Z-1.0000 F5000
G1 X771.4496 Y726.3539 Z-1.0000 F5000
G1 X770.5505 Y728.9961 Z-1.0000 F5000
G1 X770.1468 Y731.2530 Z-1.0000 F5000
G1 X770.1468 Y733.3998 Z-1.0000 F5000
G1 X770.9542 Y737.1613 Z-1.0000 F5000
G1 X773.3762 Y741.2163 Z-1.0000 F5000
G1 X777.4129 Y744.4640 Z-1.0000 F5000
G1 X782.9542 Y745.8035 Z-1.0000 F5000
G1 X788.8991 Y744.6659 Z-1.0000 F5000
G1 X793.8165 Y741.6200 Z-1.0000 F5000
G1 X797.1376 Y737.2530 Z-1.0000 F5000
G1 X798.3303 Y732.0971 Z-1.0000 F5000
G1 X797.5413 Y727.3631 Z-1.0000 F5000
G1 X795.8899 Y723.8952 Z-1.0000 F5000
G1 X794.0734 Y721.5650 Z-1.0000 F5000
G1 X794.0734 Y721.5650 Z10.0000 F9999
G1 X747.8349 Y674.3723 Z10.0000 F9999
G1 X747.8349 Y674.3723 Z-1.0000 F2500
G1 X800.6789 Y643.9870 Z-1.0000 F5000
G1 X747.8349 Y674.3723 Z-1.0000 F5000
G1 X747.8349 Y674.3723 Z10.0000 F9999
G1 X747.8349 Y787.1062 Z10.0000 F9999
G1 X747.8349 Y787.1062 Z-1.0000 F2500
G1 X800.6789 Y756.7209 Z-1.0000 F5000
G1 X747.8349 Y787.1062 Z-1.0000 F5000
G1 X747.8349 Y787.1062 Z10.0000 F9999
G1 X798.3303 Y802.6108 Z10.0000 F9999
G1 X798.3303 Y802.6108 Z-1.0000 F2500
G1 X775.5230 Y802.6108 Z-1.0000 F5000
G1 X775.5230 Y819.0695 Z-1.0000 F5000
G1 X775.5230 Y802.6108 Z-1.0000 F5000
G1 X757.2294 Y802.6108 Z-1.0000 F5000
G1 X757.2294 Y820.3723 Z-1.0000 F5000
G1 X757.2294 Y802.6108 Z-1.0000 F5000
G1 X798.3303 Y802.6108 Z-1.0000 F5000
G1 X798.3303 Y820.3723 Z-1.0000 F5000
G1 X798.3303 Y820.3723 Z10.0000 F9999
G1 X777.1193 Y842.7760 Z10.0000 F9999
G1 X777.1193 Y842.7760 Z-1.0000 F2500
G1 X798.3303 Y854.7209 Z-1.0000 F5000
G1 X777.1193 Y842.7760 Z-1.0000 F5000
G1 X757.2294 Y854.7209 Z-1.0000 F5000
G1 X777.1193 Y842.7760 Z-1.0000 F5000
G1 X757.2294 Y830.7026 Z-1.0000 F5000
G1 X777.1193 Y842.7760 Z-1.0000 F5000
G1 X798.3303 Y830.7026 Z-1.0000 F5000
G1 X798.3303 Y830.7026 Z10.0000 F9999
G1 X918.7219 Y787.1062 Z10.0000 F9999
G1 X918.7219 Y787.1062 Z-1.0000 F2500
G1 X971.5659 Y756.7209 Z-1.0000 F5000
G1 X918.7219 Y787.1062 Z-1.0000 F5000
G1 X918.7219 Y787.1062 Z10.0000 F9999
G1 X969.2173 Y802.6108 Z10.0000 F9999
G1 X969.2173 Y802.6108 Z-1.0000 F2500
G1 X946.4100 Y802.6108 Z-1.0000 F5000
G1 X946.4100 Y819.0695 Z-1.0000 F5000
G1 X946.4100 Y802.6108 Z-1.0000 F5000
G1 X928.1164 Y802.6108 Z-1.0000 F5000
G1 X928.1164 Y820.3723 Z-1.0000 F5000
G1 X928.1164 Y802.6108 Z-1.0000 F5000
G1 X969.2173 Y802.6108 Z-1.0000 F5000
G1 X969.2173 Y820.3723 Z-1.0000 F5000
G1 X969.2173 Y820.3723 Z10.0000 F9999
G1 X948.0063 Y842.7760 Z10.0000 F9999
G1 X948.0063 Y842.7760 Z-1.0000 F2500
G1 X969.2173 Y854.7209 Z-1.0000 F5000
G1 X948.0063 Y842.7760 Z-1.0000 F5000
G1 X928.1164 Y854.7209 Z-1.0000 F5000
G1 X948.0063 Y842.7760 Z-1.0000 F5000
G1 X928.1164 Y830.7026 Z-1.0000 F5000
G1 X948.0063 Y842.7760 Z-1.0000 F5000
G1 X969.2173 Y830.7026 Z-1.0000 F5000
G1 X969.2173 Y830.7026 Z10.0000 F9999
G1 X963.6944 Y720.3172 Z10.0000 F9999
G1 X963.6944 Y720.3172 Z-1.0000 F2500
G1 X964.9604 Y721.5650 Z-1.0000 F5000
G1 X966.7769 Y723.8952 Z-1.0000 F5000
G1 X968.4283 Y727.3631 Z-1.0000 F5000
G1 X969.2173 Y732.0971 Z-1.0000 F5000
G1 X968.0246 Y737.2530 Z-1.0000 F5000
G1 X964.7035 Y741.6200 Z-1.0000 F5000
G1 X959.7861 Y744.6659 Z-1.0000 F5000
G1 X953.8412 Y745.8035 Z-1.0000 F5000
G1 X948.2999 Y744.4640 Z-1.0000 F5000
G1 X944.2632 Y741.2163 Z-1.0000 F5000
G1 X941.8412 Y737.1613 Z-1.0000 F5000
G1 X941.0338 Y733.3998 Z-1.0000 F5000
G1 X941.0338 Y731.2530 Z-1.0000 F5000
G1 X941.4375 Y728.9961 Z-1.0000 F5000
G1 X942.3366 Y726.3539 Z-1.0000 F5000
G1 X926.9421 Y731.9870 Z-1.0000 F5000
G1 X926.9421 Y746.1888 Z-1.0000 F5000
G1 X926.9421 Y731.9870 Z-1.0000 F5000
G1 X942.3366 Y726.3539 Z-1.0000 F5000
G1 X941.4375 Y728.9961 Z-1.0000 F5000
G1 X941.0338 Y731.2530 Z-1.0000 F5000
G1 X941.0338 Y733.3998 Z-1.0000 F5000
G1 X941.8412 Y737.1613 Z-1.0000 F5000
G1 X944.2632 Y741.2163 Z-1.0000 F5000
G1 X948.2999 Y744.4640 Z-1.0000 F5000
G1 X953.8412 Y745.8035 Z-1.0000 F5000
G1 X959.7861 Y744.6659 Z-1.0000 F5000
G1 X964.7035 Y741.6200 Z-1.0000 F5000
G1 X968.0246 Y737.2530 Z-1.0000 F5000
G1 X969.2173 Y732.0971 Z-1.0000 F5000
G1 X968.4283 Y727.3631 Z-1.0000 F5000
G1 X966.7769 Y723.8952 Z-1.0000 F5000
G1 X964.9604 Y721.5650 Z-1.0000 F5000
G1 X964.9604 Y721.5650 Z10.0000 F9999
G1 X962.3916 Y685.0879 Z10.0000 F9999
G1 X962.3916 Y685.0879 Z-1.0000 F2500
G1 X965.4375 Y687.0328 Z-1.0000 F5000
G1 X967.4925 Y689.4549 Z-1.0000 F5000
G1 X968.7402 Y692.5741 Z-1.0000 F5000
G1 X969.2173 Y696.7026 Z-1.0000 F5000
G1 X968.7586 Y701.1980 Z-1.0000 F5000
G1 X967.0155 Y705.0145 Z-1.0000 F5000
G1 X964.0246 Y707.6934 Z-1.0000 F5000
G1 X959.8595 Y708.8127 Z-1.0000 F5000
G1 X955.8595 Y708.2805 Z-1.0000 F5000
G1 X953.1806 Y706.7393 Z-1.0000 F5000
G1 X951.4925 Y704.7026 Z-1.0000 F5000
G1 X950.3916 Y702.7943 Z-1.0000 F5000
G1 X945.6577 Y693.6017 Z-1.0000 F5000
G1 X944.2448 Y691.2347 Z-1.0000 F5000
G1 X942.5935 Y689.3815 Z-1.0000 F5000
G1 X940.4100 Y688.1338 Z-1.0000 F5000
G1 X937.5292 Y687.6200 Z-1.0000 F5000
G1 X934.2448 Y688.1521 Z-1.0000 F5000
G1 X931.2173 Y689.9870 Z-1.0000 F5000
G1 X928.9971 Y693.1246 Z-1.0000 F5000
G1 X928.1164 Y697.4916 Z-1.0000 F5000
G1 X928.7953 Y701.7484 Z-1.0000 F5000
G1 X930.2632 Y704.5925 Z-1.0000 F5000
G1 X932.4100 Y706.6842 Z-1.0000 F5000
G1 X930.2632 Y704.5925 Z-1.0000 F5000
G1 X928.7953 Y701.7484 Z-1.0000 F5000
G1 X928.1164 Y697.4916 Z-1.0000 F5000
G1 X928.9971 Y693.1246 Z-1.0000 F5000
G1 X931.2173 Y689.9870 Z-1.0000 F5000
G1 X934.2448 Y688.1521 Z-1.0000 F5000
G1 X937.5292 Y687.6200 Z-1.0000 F5000
G1 X940.4100 Y688.1338 Z-1.0000 F5000
G1 X942.5935 Y689.3815 Z-1.0000 F5000
G1 X944.2448 Y691.2347 Z-1.0000 F5000
G1 X945.6577 Y693.6017 Z-1.0000 F5000
G1 X950.3916 Y702.7943 Z-1.0000 F5000
G1 X951.4925 Y704.7026 Z-1.0000 F5000
G1 X953.1806 Y706.7393 Z-1.0000 F5000
G1 X955.8595 Y708.2805 Z-1.0000 F5000
G1 X959.8595 Y708.8127 Z-1.0000 F5000
G1 X964.0246 Y707.6934 Z-1.0000 F5000
G1 X967.0155 Y705.0145 Z-1.0000 F5000
G1 X968.7586 Y701.1980 Z-1.0000 F5000
G1 X969.2173 Y696.7026 Z-1.0000 F5000
G1 X968.7402 Y692.5741 Z-1.0000 F5000
G1 X967.4925 Y689.4549 Z-1.0000 F5000
G1 X965.4375 Y687.0328 Z-1.0000 F5000
G1 X965.4375 Y687.0328 Z10.0000 F9999
G1 X918.7219 Y674.3723 Z10.0000 F9999
G1 X918.7219 Y674.3723 Z-1.0000 F2500
G1 X971.5659 Y643.9870 Z-1.0000 F5000
G1 X918.7219 Y674.3723 Z-1.0000 F5000
G1 X918.7219 Y674.3723 Z10.0000 F9999
G1 X928.1164 Y616.5558 Z10.0000 F9999
G1 X928.1164 Y616.5558 Z-1.0000 F2500
G1 X969.2173 Y632.6108 Z-1.0000 F5000
G1 X928.1164 Y616.5558 Z-1.0000 F5000
G1 X969.2173 Y600.5374 Z-1.0000 F5000
G1 X969.2173 Y600.5374 Z10.0000 F9999
G1 X944.5568 Y589.8585 Z10.0000 F9999
G1 X944.5568 Y589.8585 Z-1.0000 F2500
G1 X944.5568 Y560.6108 Z-1.0000 F5000
G1 X944.5568 Y589.8585 Z-1.0000 F5000
G1 X944.5568 Y589.8585 Z10.0000 F9999
G1 X954.5201 Y626.8677 Z10.0000 F9999
G1 X954.5201 Y626.8677 Z-1.0000 F2500
G1 X954.5201 Y606.1705 Z-1.0000 F5000
G1 X954.5201 Y626.8677 Z-1.0000 F5000
G1 X954.5201 Y626.8677 Z10.0000 F9999
G1 X954.5201 Y543.4916 Z10.0000 F9999
G1 X954.5201 Y543.4916 Z-1.0000 F2500
G1 X954.5201 Y522.7943 Z-1.0000 F5000
G1 X954.5201 Y543.4916 Z-1.0000 F5000
G1 X954.5201 Y543.4916 Z10.0000 F9999
G1 X928.1164 Y533.1796 Z10.0000 F9999
G1 X928.1164 Y533.1796 Z-1.0000 F2500
G1 X969.2173 Y549.2347 Z-1.0000 F5000
G1 X928.1164 Y533.1796 Z-1.0000 F5000
G1 X969.2173 Y517.1613 Z-1.0000 F5000
G1 X969.2173 Y517.1613 Z10.0000 F9999
G1 X969.2173 Y506.4824 Z10.0000 F9999
G1 X969.2173 Y506.4824 Z-1.0000 F2500
G1 X949.0705 Y493.2530 Z-1.0000 F5000
G1 X969.2173 Y506.4824 Z-1.0000 F5000
G1 X969.2173 Y506.4824 Z10.0000 F9999
G1 X969.2173 Y489.0695 Z10.0000 F9999
G1 X969.2173 Y489.0695 Z-1.0000 F2500
G1 X928.1164 Y489.0695 Z-1.0000 F5000
G1 X928.1164 Y496.2255 Z-1.0000 F5000
G1 X928.7219 Y500.0971 Z-1.0000 F5000
G1 X930.5384 Y503.3081 Z-1.0000 F5000
G1 X933.6944 Y505.5283 Z-1.0000 F5000
G1 X938.3366 Y506.3723 Z-1.0000 F5000
G1 X943.0155 Y505.2163 Z-1.0000 F5000
G1 X946.3366 Y502.4457 Z-1.0000 F5000
G1 X948.2999 Y499.1246 Z-1.0000 F5000
G1 X948.9604 Y496.2255 Z-1.0000 F5000
G1 X948.9604 Y489.0695 Z-1.0000 F5000
G1 X948.9604 Y496.2255 Z-1.0000 F5000
G1 X948.2999 Y499.1246 Z-1.0000 F5000
G1 X946.3366 Y502.4457 Z-1.0000 F5000
G1 X943.0155 Y505.2163 Z-1.0000 F5000
G1 X938.3366 Y506.3723 Z-1.0000 F5000
G1 X933.6944 Y505.5283 Z-1.0000 F5000
G1 X930.5384 Y503.3081 Z-1.0000 F5000
G1 X928.7219 Y500.0971 Z-1.0000 F5000
G1 X928.1164 Y496.2255 Z-1.0000 F5000
G1 X928.1164 Y489.0695 Z-1.0000 F5000
G1 X928.1164 Y489.0695 Z10.0000 F9999
G1 X946.4100 Y458.5374 Z10.0000 F9999
G1 X946.4100 Y458.5374 Z-1.0000 F2500
G1 X946.4100 Y472.9778 Z-1.0000 F5000
G1 X946.4100 Y458.5374 Z-1.0000 F5000
G1 X928.1164 Y458.5374 Z-1.0000 F5000
G1 X928.1164 Y473.6567 Z-1.0000 F5000
G1 X928.1164 Y458.5374 Z-1.0000 F5000
G1 X969.2173 Y458.5374 Z-1.0000 F5000
G1 X969.2173 Y458.5374 Z10.0000 F9999
G1 X1119.6206 Y458.5374 Z10.0000 F9999
G1 X1119.6206 Y458.5374 Z-1.0000 F2500
G1 X1119.6206 Y472.9778 Z-1.0000 F5000
G1 X1119.6206 Y458.5374 Z-1.0000 F5000
G1 X1101.3270 Y458.5374 Z-1.0000 F5000
G1 X1101.3270 Y473.6567 Z-1.0000 F5000
G1 X1101.3270 Y458.5374 Z-1.0000 F5000
G1 X1142.4279 Y458.5374 Z-1.0000 F5000
G1 X1142.4279 Y458.5374 Z10.0000 F9999
G1 X1142.4279 Y489.0695 Z10.0000 F9999
G1 X1142.4279 Y489.0695 Z-1.0000 F2500
G1 X1101.3270 Y489.0695 Z-1.0000 F5000
G1 X1101.3270 Y496.2255 Z-1.0000 F5000
G1 X1101.9325 Y500.0971 Z-1.0000 F5000
G1 X1103.7490 Y503.3081 Z-1.0000 F5000
G1 X1106.9050 Y505.5283 Z-1.0000 F5000
G1 X1111.5472 Y506.3723 Z-1.0000 F5000
G1 X1116.2261 Y505.2163 Z-1.0000 F5000
G1 X1119.5472 Y502.4457 Z-1.0000 F5000
G1 X1121.5105 Y499.1246 Z-1.0000 F5000
G1 X1122.1711 Y496.2255 Z-1.0000 F5000
G1 X1122.1711 Y489.0695 Z-1.0000 F5000
G1 X1122.1711 Y496.2255 Z-1.0000 F5000
G1 X1121.5105 Y499.1246 Z-1.0000 F5000
G1 X1119.5472 Y502.4457 Z-1.0000 F5000
G1 X1116.2261 Y505.2163 Z-1.0000 F5000
G1 X1111.5472 Y506.3723 Z-1.0000 F5000
G1 X1106.9050 Y505.5283 Z-1.0000 F5000
G1 X1103.7490 Y503.3081 Z-1.0000 F5000
G1 X1101.9325 Y500.0971 Z-1.0000 F5000
G1 X1101.3270 Y496.2255 Z-1.0000 F5000
G1 X1101.3270 Y489.0695 Z-1.0000 F5000
G1 X1101.3270 Y489.0695 Z10.0000 F9999
G1 X1101.3270 Y533.1796 Z10.0000 F9999
G1 X1101.3270 Y533.1796 Z-1.0000 F2500
G1 X1142.4279 Y549.2347 Z-1.0000 F5000
G1 X1101.3270 Y533.1796 Z-1.0000 F5000
G1 X1142.4279 Y517.1613 Z-1.0000 F5000
G1 X1142.4279 Y517.1613 Z10.0000 F9999
G1 X1142.4279 Y506.4824 Z10.0000 F9999
G1 X1142.4279 Y506.4824 Z-1.0000 F2500
G1 X1122.2811 Y493.2530 Z-1.0000 F5000
G1 X1142.4279 Y506.4824 Z-1.0000 F5000
G1 X1142.4279 Y506.4824 Z10.0000 F9999
G1 X1127.7307 Y543.4916 Z10.0000 F9999
G1 X1127.7307 Y543.4916 Z-1.0000 F2500
G1 X1127.7307 Y522.7943 Z-1.0000 F5000
G1 X1127.7307 Y543.4916 Z-1.0000 F5000
G1 X1127.7307 Y543.4916 Z10.0000 F9999
G1 X1117.7674 Y589.8585 Z10.0000 F9999
G1 X1117.7674 Y589.8585 Z-1.0000 F2500
G1 X1117.7674 Y560.6108 Z-1.0000 F5000
G1 X1117.7674 Y589.8585 Z-1.0000 F5000
G1 X1117.7674 Y589.8585 Z10.0000 F9999
G1 X1101.3270 Y616.5558 Z10.0000 F9999
G1 X1101.3270 Y616.5558 Z-1.0000 F2500
G1 X1142.4279 Y632.6108 Z-1.0000 F5000
G1 X1101.3270 Y616.5558 Z-1.0000 F5000
G1 X1142.4279 Y600.5374 Z-1.0000 F5000
G1 X1142.4279 Y600.5374 Z10.0000 F9999
G1 X1127.7307 Y626.8677 Z10.0000 F9999
G1 X1127.7307 Y626.8677 Z-1.0000 F2500
G1 X1127.7307 Y606.1705 Z-1.0000 F5000
G1 X1127.7307 Y626.8677 Z-1.0000 F5000
G1 X1127.7307 Y626.8677 Z10.0000 F9999
G1 X1135.6023 Y685.0879 Z10.0000 F9999
G1 X1135.6023 Y685.0879 Z-1.0000 F2500
G1 X1138.6481 Y687.0328 Z-1.0000 F5000
G1 X1140.7032 Y689.4549 Z-1.0000 F5000
G1 X1141.9509 Y692.5741 Z-1.0000 F5000
G1 X1142.4279 Y696.7026 Z-1.0000 F5000
G1 X1141.9692 Y701.1980 Z-1.0000 F5000
G1 X1140.2261 Y705.0145 Z-1.0000 F5000
G1 X1137.2353 Y707.6934 Z-1.0000 F5000
G1 X1133.0701 Y708.8127 Z-1.0000 F5000
G1 X1129.0701 Y708.2805 Z-1.0000 F5000
G1 X1126.3912 Y706.7393 Z-1.0000 F5000
G1 X1124.7032 Y704.7026 Z-1.0000 F5000
G1 X1123.6023 Y702.7943 Z-1.0000 F5000
G1 X1118.8683 Y693.6017 Z-1.0000 F5000
G1 X1117.4555 Y691.2347 Z-1.0000 F5000
G1 X1115.8041 Y689.3815 Z-1.0000 F5000
G1 X1113.6206 Y688.1338 Z-1.0000 F5000
G1 X1110.7399 Y687.6200 Z-1.0000 F5000
G1 X1107.4555 Y688.1521 Z-1.0000 F5000
G1 X1104.4279 Y689.9870 Z-1.0000 F5000
G1 X1102.2078 Y693.1246 Z-1.0000 F5000
G1 X1101.3270 Y697.4916 Z-1.0000 F5000
G1 X1102.0059 Y701.7484 Z-1.0000 F5000
G1 X1103.4738 Y704.5925 Z-1.0000 F5000
G1 X1105.6206 Y706.6842 Z-1.0000 F5000
G1 X1103.4738 Y704.5925 Z-1.0000 F5000
G1 X1102.0059 Y701.7484 Z-1.0000 F5000
G1 X1101.3270 Y697.4916 Z-1.0000 F5000
G1 X1102.2078 Y693.1246 Z-1.0000 F5000
G1 X1104.4279 Y689.9870 Z-1.0000 F5000
G1 X1107.4555 Y688.1521 Z-1.0000 F5000
G1 X1110.7399 Y687.6200 Z-1.0000 F5000
G1 X1113.6206 Y688.1338 Z-1.0000 F5000
G1 X1115.8041 Y689.3815 Z-1.0000 F5000
G1 X1117.4555 Y691.2347 Z-1.0000 F5000
G1 X1118.8683 Y693.6017 Z-1.0000 F5000
G1 X1123.6023 Y702.7943 Z-1.0000 F5000
G1 X1124.7032 Y704.7026 Z-1.0000 F5000
G1 X1126.3912 Y706.7393 Z-1.0000 F5000
G1 X1129.0701 Y708.2805 Z-1.0000 F5000
G1 X1133.0701 Y708.8127 Z-1.0000 F5000
G1 X1137.2353 Y707.6934 Z-1.0000 F5000
G1 X1140.2261 Y705.0145 Z-1.0000 F5000
G1 X1141.9692 Y701.1980 Z-1.0000 F5000
G1 X1142.4279 Y696.7026 Z-1.0000 F5000
G1 X1141.9509 Y692.5741 Z-1.0000 F5000
G1 X1140.7032 Y689.4549 Z-1.0000 F5000
G1 X1138.6481 Y687.0328 Z-1.0000 F5000
G1 X1138.6481 Y687.0328 Z10.0000 F9999
G1 X1136.9050 Y720.3172 Z10.0000 F9999
G1 X1136.9050 Y720.3172 Z-1.0000 F2500
G1 X1138.1711 Y721.5650 Z-1.0000 F5000
G1 X1139.9876 Y723.8952 Z-1.0000 F5000
G1 X1141.6389 Y727.3631 Z-1.0000 F5000
G1 X1142.4279 Y732.0971 Z-1.0000 F5000
G1 X1141.2353 Y737.2530 Z-1.0000 F5000
G1 X1137.9142 Y741.6200 Z-1.0000 F5000
G1 X1132.9967 Y744.6659 Z-1.0000 F5000
G1 X1127.0518 Y745.8035 Z-1.0000 F5000
G1 X1121.5105 Y744.4640 Z-1.0000 F5000
G1 X1117.4738 Y741.2163 Z-1.0000 F5000
G1 X1115.0518 Y737.1613 Z-1.0000 F5000
G1 X1114.2445 Y733.3998 Z-1.0000 F5000
G1 X1114.2445 Y731.2530 Z-1.0000 F5000
G1 X1114.6481 Y728.9961 Z-1.0000 F5000
G1 X1115.5472 Y726.3539 Z-1.0000 F5000
G1 X1100.1527 Y731.9870 Z-1.0000 F5000
G1 X1100.1527 Y746.1888 Z-1.0000 F5000
G1 X1100.1527 Y731.9870 Z-1.0000 F5000
G1 X1115.5472 Y726.3539 Z-1.0000 F5000
G1 X1114.6481 Y728.9961 Z-1.0000 F5000
G1 X1114.2445 Y731.2530 Z-1.0000 F5000
G1 X1114.2445 Y733.3998 Z-1.0000 F5000
G1 X1115.0518 Y737.1613 Z-1.0000 F5000
G1 X1117.4738 Y741.2163 Z-1.0000 F5000
G1 X1121.5105 Y744.4640 Z-1.0000 F5000
G1 X1127.0518 Y745.8035 Z-1.0000 F5000
G1 X1132.9967 Y744.6659 Z-1.0000 F5000
G1 X1137.9142 Y741.6200 Z-1.0000 F5000
G1 X1141.2353 Y737.2530 Z-1.0000 F5000
G1 X1142.4279 Y732.0971 Z-1.0000 F5000
G1 X1141.6389 Y727.3631 Z-1.0000 F5000
G1 X1139.9876 Y723.8952 Z-1.0000 F5000
G1 X1138.1711 Y721.5650 Z-1.0000 F5000
G1 X1138.1711 Y721.5650 Z10.0000 F9999
G1 X1091.9325 Y674.3723 Z10.0000 F9999
G1 X1091.9325 Y674.3723 Z-1.0000 F2500
G1 X1144.7766 Y643.9870 Z-1.0000 F5000
G1 X1091.9325 Y674.3723 Z-1.0000 F5000
G1 X1091.9325 Y674.3723 Z10.0000 F9999
G1 X1091.9325 Y787.1062 Z10.0000 F9999
G1 X1091.9325 Y787.1062 Z-1.0000 F2500
G1 X1144.7766 Y756.7209 Z-1.0000 F5000
G1 X1091.9325 Y787.1062 Z-1.0000 F5000
G1 X1091.9325 Y787.1062 Z10.0000 F9999
G1 X1142.4279 Y802.6108 Z10.0000 F9999
G1 X1142.4279 Y802.6108 Z-1.0000 F2500
G1 X1119.6206 Y802.6108 Z-1.0000 F5000
G1 X1119.6206 Y819.0695 Z-1.0000 F5000
G1 X1119.6206 Y802.6108 Z-1.0000 F5000
G1 X1101.3270 Y802.6108 Z-1.0000 F5000
G1 X1101.3270 Y820.3723 Z-1.0000 F5000
G1 X1101.3270 Y802.6108 Z-1.0000 F5000
G1 X1142.4279 Y802.6108 Z-1.0000 F5000
G1 X1142.4279 Y820.3723 Z-1.0000 F5000
G1 X1142.4279 Y820.3723 Z10.0000 F9999
G1 X1121.2169 Y842.7760 Z10.0000 F9999
G1 X1121.2169 Y842.7760 Z-1.0000 F2500
G1 X1142.4279 Y854.7209 Z-1.0000 F5000
G1 X1121.2169 Y842.7760 Z-1.0000 F5000
G1 X1101.3270 Y854.7209 Z-1.0000 F5000
G1 X1121.2169 Y842.7760 Z-1.0000 F5000
G1 X1101.3270 Y830.7026 Z-1.0000 F5000
G1 X1121.2169 Y842.7760 Z-1.0000 F5000
G1 X1142.4279 Y830.7026 Z-1.0000 F5000
G1 X1142.4279 Y830.7026 Z10.0000 F9999
(Tool Number:1) (7.998 mm dia. slot drill)
M3 S9000
G1 X0.0000 Y1955.9689 Z10.0000 F9999
G1 X0.0000 Y1955.9689 Z1.0000 F2500
G1 X38.9711 Y1955.9689 Z-9.5000 F2500
G1 X0.0000 Y1955.9689 Z-20.0000 F2500
G1 X1220.0000 Y1955.9689 Z-20.0000 F5000
G1 X1220.0000 Y1955.9689 Z10.0000 F9999
(Tool Number:1) (7.998 mm dia. slot drill)
M3 S9000
G1 X299.9476 Y1779.6390 Z10.0000 F9999
G1 X299.9476 Y1779.6390 Z1.0000 F2500
G1 X299.9476 Y1818.6102 Z-9.5000 F2500
G1 X299.9476 Y1779.6390 Z-20.0000 F2500
G1 X299.9476 Y1933.1967 Z-20.0000 F5000
G1 X213.9497 Y1933.1967 Z-20.0000 F5000
G1 X213.9497 Y1626.0813 Z-20.0000 F5000
G1 X218.9497 Y1626.0813 Z-20.0000 F5000
G1 X218.9497 Y1624.0784 Z-20.0000 F5000
G1 X183.2924 Y1624.0784 Z-20.0000 F5000
G1 X177.9498 Y1618.7362 Z-20.0000 F5000
G1 X177.9498 Y1596.4148 Z-20.0000 F5000
G1 X177.9498 Y1596.4148 Z-10.0000 F9999
G1 X177.9498 Y1580.4168 Z-10.0000 F5000
G1 X177.9498 Y1580.4168 Z-20.0000 F2500
G1 X177.9498 Y1561.4238 Z-20.0000 F5000
G1 X183.2923 Y1556.0812 Z-20.0000 F5000
G1 X218.9497 Y1556.0812 Z-20.0000 F5000
G1 X218.9497 Y1554.0786 Z-20.0000 F5000
G1 X213.9497 Y1554.0786 Z-20.0000 F5000
G1 X213.9497 Y1326.0816 Z-20.0000 F5000
G1 X218.9497 Y1326.0816 Z-20.0000 F5000
G1 X218.9497 Y1324.0786 Z-20.0000 F5000
G1 X183.2925 Y1324.0786 Z-20.0000 F5000
G1 X177.9498 Y1318.7367 Z-20.0000 F5000
G1 X177.9498 Y1261.4242 Z-20.0000 F5000
G1 X183.2923 Y1256.0818 Z-20.0000 F5000
G1 X218.9497 Y1256.0818 Z-20.0000 F5000
G1 X218.9497 Y1254.0789 Z-20.0000 F5000
G1 X213.9497 Y1254.0789 Z-20.0000 F5000
G1 X213.9497 Y1146.0831 Z-20.0000 F5000
G1 X218.9497 Y1146.0831 Z-20.0000 F5000
G1 X218.9497 Y1144.0803 Z-20.0000 F5000
G1 X195.9498 Y1144.0803 Z-20.0000 F5000
G1 X195.9498 Y1026.0823 Z-20.0000 F5000
G1 X200.9498 Y1026.0823 Z-20.0000 F5000
G1 X200.9498 Y1024.0809 Z-20.0000 F5000
G1 X183.2918 Y1024.0809 Z-20.0000 F5000
G1 X177.9498 Y1018.7366 Z-20.0000 F5000
G1 X177.9498 Y995.0828 Z-20.0000 F5000
G1 X224.9477 Y995.0828 Z-20.0000 F5000
G1 X224.9477 Y1000.0825 Z-20.0000 F5000
G1 X226.9497 Y1000.0825 Z-20.0000 F5000
G1 X226.9497 Y980.0809 Z-20.0000 F5000
G1 X224.9477 Y980.0809 Z-20.0000 F5000
G1 X224.9477 Y985.0806 Z-20.0000 F5000
G1 X177.9498 Y985.0806 Z-20.0000 F5000
G1 X177.9498 Y961.4245 Z-20.0000 F5000
G1 X183.2924 Y956.0821 Z-20.0000 F5000
G1 X200.9498 Y956.0821 Z-20.0000 F5000
G1 X200.9498 Y954.0794 Z-20.0000 F5000
G1 X195.9498 Y954.0794 Z-20.0000 F5000
G1 X195.9498 Y695.9917 Z-20.0000 F5000
G1 X200.9498 Y695.9917 Z-20.0000 F5000
G1 X200.9498 Y693.9887 Z-20.0000 F5000
G1 X183.2924 Y693.9887 Z-20.0000 F5000
G1 X177.9498 Y688.6464 Z-20.0000 F5000
G1 X177.9498 Y631.3342 Z-20.0000 F5000
G1 X183.2923 Y625.9918 Z-20.0000 F5000
G1 X200.9498 Y625.9918 Z-20.0000 F5000
G1 X200.9498 Y623.9890 Z-20.0000 F5000
G1 X195.9498 Y623.9890 Z-20.0000 F5000
G1 X195.9498 Y365.9011 Z-20.0000 F5000
G1 X200.9498 Y365.9011 Z-20.0000 F5000
G1 X200.9498 Y363.8980 Z-20.0000 F5000
G1 X183.2925 Y363.8980 Z-20.0000 F5000
G1 X177.9498 Y358.5562 Z-20.0000 F5000
G1 X177.9498 Y334.9002 Z-20.0000 F5000
G1 X224.9477 Y334.9002 Z-20.0000 F5000
G1 X224.9477 Y339.9000 Z-20.0000 F5000
G1 X226.9497 Y339.9000 Z-20.0000 F5000
G1 X226.9497 Y319.8983 Z-20.0000 F5000
G1 X224.9477 Y319.8983 Z-20.0000 F5000
G1 X224.9477 Y324.8978 Z-20.0000 F5000
G1 X177.9498 Y324.8978 Z-20.0000 F5000
G1 X177.9498 Y301.2440 Z-20.0000 F5000
G1 X183.2923 Y295.9013 Z-20.0000 F5000
G1 X200.9498 Y295.9013 Z-20.0000 F5000
G1 X200.9498 Y293.8985 Z-20.0000 F5000
G1 X195.9498 Y293.8985 Z-20.0000 F5000
G1 X195.9498 Y228.5975 Z-20.0000 F5000
G1 X195.9498 Y228.5975 Z-10.0000 F9999
G1 X195.9498 Y212.5995 Z-10.0000 F5000
G1 X195.9498 Y212.5995 Z-20.0000 F2500
G1 X195.9498 Y175.9004 Z-20.0000 F5000
G1 X218.9497 Y175.9004 Z-20.0000 F5000
G1 X218.9497 Y173.8975 Z-20.0000 F5000
G1 X213.9497 Y173.8975 Z-20.0000 F5000
G1 X213.9497 Y65.9018 Z-20.0000 F5000
G1 X218.9497 Y65.9018 Z-20.0000 F5000
G1 X218.9497 Y63.8988 Z-20.0000 F5000
G1 X183.2924 Y63.8988 Z-20.0000 F5000
G1 X177.9498 Y58.5567 Z-20.0000 F5000
G1 X177.9498 Y25.9011 Z-20.0000 F5000
G1 X239.5884 Y25.9011 Z-20.0000 F5000
G1 X240.1374 Y25.8213 Z-20.0000 F5000
G1 X240.3968 Y25.7036 Z-20.0000 F5000
G1 X240.6145 Y25.5098 Z-20.0000 F5000
G1 X240.7613 Y25.2656 Z-20.0000 F5000
G1 X240.8299 Y24.9891 Z-20.0000 F5000
G1 X240.8128 Y24.6982 Z-20.0000 F5000
G1 X240.7124 Y24.4316 Z-20.0000 F5000
G1 X240.3814 Y23.9884 Z-20.0000 F5000
G1 X237.4526 Y21.0598 Z-20.0000 F5000
G1 X236.0663 Y19.2032 Z-20.0000 F5000
G1 X235.1488 Y16.6638 Z-20.0000 F5000
G1 X235.0252 Y13.9683 Z-20.0000 F5000
G1 X235.6671 Y11.4407 Z-20.0000 F5000
G1 X237.0003 Y9.1995 Z-20.0000 F5000
G1 X238.9942 Y7.3797 Z-20.0000 F5000
G1 X241.4390 Y6.2328 Z-20.0000 F5000
G1 X243.7319 Y5.9010 Z-20.0000 F5000
G1 X270.1653 Y5.9010 Z-20.0000 F5000
G1 X272.4583 Y6.2328 Z-20.0000 F5000
G1 X274.9031 Y7.3797 Z-20.0000 F5000
G1 X276.8970 Y9.1995 Z-20.0000 F5000
G1 X278.2302 Y11.4407 Z-20.0000 F5000
G1 X278.8721 Y13.9683 Z-20.0000 F5000
G1 X278.7485 Y16.6638 Z-20.0000 F5000
G1 X277.8310 Y19.2032 Z-20.0000 F5000
G1 X276.4447 Y21.0598 Z-20.0000 F5000
G1 X273.5158 Y23.9884 Z-20.0000 F5000
G1 X273.1849 Y24.4316 Z-20.0000 F5000
G1 X273.0845 Y24.6982 Z-20.0000 F5000
G1 X273.0674 Y24.9891 Z-20.0000 F5000
G1 X273.1360 Y25.2656 Z-20.0000 F5000
G1 X273.2828 Y25.5098 Z-20.0000 F5000
G1 X273.5004 Y25.7036 Z-20.0000 F5000
G1 X273.7599 Y25.8213 Z-20.0000 F5000
G1 X274.3089 Y25.9011 Z-20.0000 F5000
G1 X335.9475 Y25.9011 Z-20.0000 F5000
G1 X335.9475 Y58.5567 Z-20.0000 F5000
G1 X330.6049 Y63.8988 Z-20.0000 F5000
G1 X294.9476 Y63.8988 Z-20.0000 F5000
G1 X294.9476 Y65.9018 Z-20.0000 F5000
G1 X299.9475 Y65.9018 Z-20.0000 F5000
G1 X299.9500 Y173.8975 Z-20.0000 F5000
G1 X294.9499 Y173.8975 Z-20.0000 F5000
G1 X294.9499 Y175.9004 Z-20.0000 F5000
G1 X317.9475 Y175.9004 Z-20.0000 F5000
G1 X317.9475 Y212.1307 Z-20.0000 F5000
G1 X317.9475 Y212.1307 Z-10.0000 F9999
G1 X317.9475 Y228.1287 Z-10.0000 F5000
G1 X317.9475 Y228.1287 Z-20.0000 F2500
G1 X317.9475 Y293.8985 Z-20.0000 F5000
G1 X312.9475 Y293.8985 Z-20.0000 F5000
G1 X312.9475 Y295.9013 Z-20.0000 F5000
G1 X330.6050 Y295.9013 Z-20.0000 F5000
G1 X335.9475 Y301.2440 Z-20.0000 F5000
G1 X335.9475 Y324.8978 Z-20.0000 F5000
G1 X288.9496 Y324.8978 Z-20.0000 F5000
G1 X288.9496 Y319.8983 Z-20.0000 F5000
G1 X286.9476 Y319.8983 Z-20.0000 F5000
G1 X286.9476 Y339.9000 Z-20.0000 F5000
G1 X288.9496 Y339.9000 Z-20.0000 F5000
G1 X288.9496 Y334.9002 Z-20.0000 F5000
G1 X335.9475 Y334.9002 Z-20.0000 F5000
G1 X335.9475 Y358.5562 Z-20.0000 F5000
G1 X330.6047 Y363.8980 Z-20.0000 F5000
G1 X312.9475 Y363.8980 Z-20.0000 F5000
G1 X312.9475 Y365.9011 Z-20.0000 F5000
G1 X317.9475 Y365.9011 Z-20.0000 F5000
G1 X317.9475 Y623.9890 Z-20.0000 F5000
G1 X312.9475 Y623.9890 Z-20.0000 F5000
G1 X312.9475 Y625.9918 Z-20.0000 F5000
G1 X330.6049 Y625.9918 Z-20.0000 F5000
G1 X335.9475 Y631.3342 Z-20.0000 F5000
G1 X335.9475 Y688.6464 Z-20.0000 F5000
G1 X330.6049 Y693.9887 Z-20.0000 F5000
G1 X312.9475 Y693.9887 Z-20.0000 F5000
G1 X312.9475 Y695.9917 Z-20.0000 F5000
G1 X317.9475 Y695.9917 Z-20.0000 F5000
G1 X317.9475 Y954.0794 Z-20.0000 F5000
G1 X312.9475 Y954.0794 Z-20.0000 F5000
G1 X312.9475 Y956.0821 Z-20.0000 F5000
G1 X330.6049 Y956.0821 Z-20.0000 F5000
G1 X335.9475 Y961.4245 Z-20.0000 F5000
G1 X335.9475 Y985.0806 Z-20.0000 F5000
G1 X288.9496 Y985.0806 Z-20.0000 F5000
G1 X288.9496 Y980.0809 Z-20.0000 F5000
G1 X286.9476 Y980.0809 Z-20.0000 F5000
G1 X286.9476 Y1000.0825 Z-20.0000 F5000
G1 X288.9496 Y1000.0825 Z-20.0000 F5000
G1 X288.9496 Y995.0828 Z-20.0000 F5000
G1 X335.9475 Y995.0828 Z-20.0000 F5000
G1 X335.9475 Y1018.7366 Z-20.0000 F5000
G1 X330.6055 Y1024.0809 Z-20.0000 F5000
G1 X312.9475 Y1024.0809 Z-20.0000 F5000
G1 X312.9475 Y1026.0823 Z-20.0000 F5000
G1 X317.9475 Y1026.0823 Z-20.0000 F5000
G1 X317.9475 Y1144.0803 Z-20.0000 F5000
G1 X294.9499 Y1144.0803 Z-20.0000 F5000
G1 X294.9499 Y1146.0831 Z-20.0000 F5000
G1 X299.9500 Y1146.0831 Z-20.0000 F5000
G1 X299.9475 Y1254.0789 Z-20.0000 F5000
G1 X294.9476 Y1254.0789 Z-20.0000 F5000
G1 X294.9476 Y1256.0818 Z-20.0000 F5000
G1 X330.6049 Y1256.0818 Z-20.0000 F5000
G1 X335.9475 Y1261.4242 Z-20.0000 F5000
G1 X335.9475 Y1318.7367 Z-20.0000 F5000
G1 X330.6048 Y1324.0786 Z-20.0000 F5000
G1 X294.9476 Y1324.0786 Z-20.0000 F5000
G1 X294.9476 Y1326.0816 Z-20.0000 F5000
G1 X299.9476 Y1326.0816 Z-20.0000 F5000
G1 X299.9476 Y1554.0786 Z-20.0000 F5000
G1 X294.9476 Y1554.0786 Z-20.0000 F5000
G1 X294.9476 Y1556.0812 Z-20.0000 F5000
G1 X330.6050 Y1556.0812 Z-20.0000 F5000
G1 X335.9475 Y1561.4238 Z-20.0000 F5000
G1 X335.9475 Y1581.1717 Z-20.0000 F5000
G1 X335.9475 Y1581.1717 Z-10.0000 F9999
G1 X335.9475 Y1597.1697 Z-10.0000 F5000
G1 X335.9475 Y1597.1697 Z-20.0000 F2500
G1 X335.9475 Y1618.7362 Z-20.0000 F5000
G1 X330.6049 Y1624.0784 Z-20.0000 F5000
G1 X294.9476 Y1624.0784 Z-20.0000 F5000
G1 X294.9476 Y1626.0813 Z-20.0000 F5000
G1 X299.9476 Y1626.0813 Z-20.0000 F5000
G1 X299.9476 Y1779.6390 Z-20.0000 F5000
G1 X299.9476 Y1779.6390 Z10.0000 F9999
G1 X644.0452 Y1779.6390 Z10.0000 F9999
G1 X644.0452 Y1779.6390 Z1.0000 F2500
G1 X644.0452 Y1818.6102 Z-9.5000 F2500
G1 X644.0452 Y1779.6390 Z-20.0000 F2500
G1 X644.0452 Y1933.1967 Z-20.0000 F5000
G1 X558.0473 Y1933.1967 Z-20.0000 F5000
G1 X558.0473 Y1626.0813 Z-20.0000 F5000
G1 X563.0473 Y1626.0813 Z-20.0000 F5000
G1 X563.0473 Y1624.0784 Z-20.0000 F5000
G1 X527.3900 Y1624.0784 Z-20.0000 F5000
G1 X522.0475 Y1618.7362 Z-20.0000 F5000
G1 X522.0475 Y1596.5780 Z-20.0000 F5000
G1 X522.0475 Y1596.5780 Z-10.0000 F9999
G1 X522.0475 Y1580.5800 Z-10.0000 F5000
G1 X522.0475 Y1580.5800 Z-20.0000 F2500
G1 X522.0475 Y1561.4238 Z-20.0000 F5000
G1 X527.3899 Y1556.0812 Z-20.0000 F5000
G1 X563.0473 Y1556.0812 Z-20.0000 F5000
G1 X563.0473 Y1554.0786 Z-20.0000 F5000
G1 X558.0473 Y1554.0786 Z-20.0000 F5000
G1 X558.0473 Y1326.0816 Z-20.0000 F5000
G1 X563.0473 Y1326.0816 Z-20.0000 F5000
G1 X563.0473 Y1324.0786 Z-20.0000 F5000
G1 X527.3901 Y1324.0786 Z-20.0000 F5000
G1 X522.0475 Y1318.7367 Z-20.0000 F5000
G1 X522.0475 Y1261.4242 Z-20.0000 F5000
G1 X527.3900 Y1256.0818 Z-20.0000 F5000
G1 X563.0473 Y1256.0818 Z-20.0000 F5000
G1 X563.0473 Y1254.0789 Z-20.0000 F5000
G1 X558.0473 Y1254.0789 Z-20.0000 F5000
G1 X558.0473 Y1146.0831 Z-20.0000 F5000
G1 X563.0473 Y1146.0831 Z-20.0000 F5000
G1 X563.0473 Y1144.0803 Z-20.0000 F5000
G1 X540.0474 Y1144.0803 Z-20.0000 F5000
G1 X540.0474 Y1026.0823 Z-20.0000 F5000
G1 X545.0474 Y1026.0823 Z-20.0000 F5000
G1 X545.0474 Y1024.0809 Z-20.0000 F5000
G1 X527.3895 Y1024.0809 Z-20.0000 F5000
G1 X522.0475 Y1018.7366 Z-20.0000 F5000
G1 X522.0475 Y995.0828 Z-20.0000 F5000
G1 X569.0453 Y995.0828 Z-20.0000 F5000
G1 X569.0453 Y1000.0825 Z-20.0000 F5000
G1 X571.0473 Y1000.0825 Z-20.0000 F5000
G1 X571.0473 Y980.0809 Z-20.0000 F5000
G1 X569.0453 Y980.0809 Z-20.0000 F5000
G1 X569.0453 Y985.0806 Z-20.0000 F5000
G1 X522.0475 Y985.0806 Z-20.0000 F5000
G1 X522.0475 Y961.4245 Z-20.0000 F5000
G1 X527.3900 Y956.0821 Z-20.0000 F5000
G1 X545.0474 Y956.0821 Z-20.0000 F5000
G1 X545.0474 Y954.0794 Z-20.0000 F5000
G1 X540.0474 Y954.0794 Z-20.0000 F5000
G1 X540.0474 Y695.9917 Z-20.0000 F5000
G1 X545.0474 Y695.9917 Z-20.0000 F5000
G1 X545.0474 Y693.9887 Z-20.0000 F5000
G1 X527.3900 Y693.9887 Z-20.0000 F5000
G1 X522.0475 Y688.6464 Z-20.0000 F5000
G1 X522.0475 Y631.3342 Z-20.0000 F5000
G1 X527.3900 Y625.9918 Z-20.0000 F5000
G1 X545.0474 Y625.9918 Z-20.0000 F5000
G1 X545.0474 Y623.9890 Z-20.0000 F5000
G1 X540.0474 Y623.9890 Z-20.0000 F5000
G1 X540.0474 Y365.9011 Z-20.0000 F5000
G1 X545.0474 Y365.9011 Z-20.0000 F5000
G1 X545.0474 Y363.8980 Z-20.0000 F5000
G1 X527.3902 Y363.8980 Z-20.0000 F5000
G1 X522.0475 Y358.5562 Z-20.0000 F5000
G1 X522.0475 Y334.9002 Z-20.0000 F5000
G1 X569.0453 Y334.9002 Z-20.0000 F5000
G1 X569.0453 Y339.9000 Z-20.0000 F5000
G1 X571.0473 Y339.9000 Z-20.0000 F5000
G1 X571.0473 Y319.8983 Z-20.0000 F5000
G1 X569.0453 Y319.8983 Z-20.0000 F5000
G1 X569.0453 Y324.8978 Z-20.0000 F5000
G1 X522.0475 Y324.8978 Z-20.0000 F5000
G1 X522.0475 Y301.2440 Z-20.0000 F5000
G1 X527.3899 Y295.9013 Z-20.0000 F5000
G1 X545.0474 Y295.9013 Z-20.0000 F5000
G1 X545.0474 Y293.8985 Z-20.0000 F5000
G1 X540.0474 Y293.8985 Z-20.0000 F5000
G1 X540.0474 Y231.4105 Z-20.0000 F5000
G1 X540.0474 Y231.4105 Z-10.0000 F9999
G1 X540.0474 Y215.4125 Z-10.0000 F5000
G1 X540.0474 Y215.4125 Z-20.0000 F2500
G1 X540.0474 Y175.9004 Z-20.0000 F5000
G1 X563.0473 Y175.9004 Z-20.0000 F5000
G1 X563.0473 Y173.8975 Z-20.0000 F5000
G1 X558.0473 Y173.8975 Z-20.0000 F5000
G1 X558.0473 Y65.9018 Z-20.0000 F5000
G1 X563.0473 Y65.9018 Z-20.0000 F5000
G1 X563.0473 Y63.8988 Z-20.0000 F5000
G1 X527.3901 Y63.8988 Z-20.0000 F5000
G1 X522.0475 Y58.5567 Z-20.0000 F5000
G1 X522.0475 Y25.9011 Z-20.0000 F5000
G1 X583.6860 Y25.9011 Z-20.0000 F5000
G1 X584.2350 Y25.8213 Z-20.0000 F5000
G1 X584.4945 Y25.7036 Z-20.0000 F5000
G1 X584.7121 Y25.5098 Z-20.0000 F5000
G1 X584.8589 Y25.2656 Z-20.0000 F5000
G1 X584.9275 Y24.9891 Z-20.0000 F5000
G1 X584.9104 Y24.6982 Z-20.0000 F5000
G1 X584.8100 Y24.4316 Z-20.0000 F5000
G1 X584.4791 Y23.9884 Z-20.0000 F5000
G1 X581.5502 Y21.0598 Z-20.0000 F5000
G1 X580.1639 Y19.2032 Z-20.0000 F5000
G1 X579.2464 Y16.6638 Z-20.0000 F5000
G1 X579.1228 Y13.9683 Z-20.0000 F5000
G1 X579.7647 Y11.4407 Z-20.0000 F5000
G1 X581.0979 Y9.1995 Z-20.0000 F5000
G1 X583.0919 Y7.3797 Z-20.0000 F5000
G1 X585.5366 Y6.2328 Z-20.0000 F5000
G1 X587.8296 Y5.9010 Z-20.0000 F5000
G1 X614.2630 Y5.9010 Z-20.0000 F5000
G1 X616.5559 Y6.2328 Z-20.0000 F5000
G1 X619.0007 Y7.3797 Z-20.0000 F5000
G1 X620.9946 Y9.1995 Z-20.0000 F5000
G1 X622.3278 Y11.4407 Z-20.0000 F5000
G1 X622.9697 Y13.9683 Z-20.0000 F5000
G1 X622.8461 Y16.6638 Z-20.0000 F5000
G1 X621.9286 Y19.2032 Z-20.0000 F5000
G1 X620.5423 Y21.0598 Z-20.0000 F5000
G1 X617.6135 Y23.9884 Z-20.0000 F5000
G1 X617.2826 Y24.4316 Z-20.0000 F5000
G1 X617.1821 Y24.6982 Z-20.0000 F5000
G1 X617.1650 Y24.9891 Z-20.0000 F5000
G1 X617.2336 Y25.2656 Z-20.0000 F5000
G1 X617.3804 Y25.5098 Z-20.0000 F5000
G1 X617.5981 Y25.7036 Z-20.0000 F5000
G1 X617.8575 Y25.8213 Z-20.0000 F5000
G1 X618.4065 Y25.9011 Z-20.0000 F5000
G1 X680.0451 Y25.9011 Z-20.0000 F5000
G1 X680.0451 Y58.5567 Z-20.0000 F5000
G1 X674.7025 Y63.8988 Z-20.0000 F5000
G1 X639.0452 Y63.8988 Z-20.0000 F5000
G1 X639.0452 Y65.9018 Z-20.0000 F5000
G1 X644.0451 Y65.9018 Z-20.0000 F5000
G1 X644.0476 Y173.8975 Z-20.0000 F5000
G1 X639.0475 Y173.8975 Z-20.0000 F5000
G1 X639.0475 Y175.9004 Z-20.0000 F5000
G1 X662.0452 Y175.9004 Z-20.0000 F5000
G1 X662.0452 Y215.4125 Z-20.0000 F5000
G1 X662.0452 Y215.4125 Z-10.0000 F9999
G1 X662.0452 Y231.4105 Z-10.0000 F5000
G1 X662.0452 Y231.4105 Z-20.0000 F2500
G1 X662.0452 Y293.8985 Z-20.0000 F5000
G1 X657.0452 Y293.8985 Z-20.0000 F5000
G1 X657.0452 Y295.9013 Z-20.0000 F5000
G1 X674.7026 Y295.9013 Z-20.0000 F5000
G1 X680.0451 Y301.2440 Z-20.0000 F5000
G1 X680.0451 Y324.8978 Z-20.0000 F5000
G1 X633.0472 Y324.8978 Z-20.0000 F5000
G1 X633.0472 Y319.8983 Z-20.0000 F5000
G1 X631.0452 Y319.8983 Z-20.0000 F5000
G1 X631.0452 Y339.9000 Z-20.0000 F5000
G1 X633.0472 Y339.9000 Z-20.0000 F5000
G1 X633.0472 Y334.9002 Z-20.0000 F5000
G1 X680.0451 Y334.9002 Z-20.0000 F5000
G1 X680.0451 Y358.5562 Z-20.0000 F5000
G1 X674.7024 Y363.8980 Z-20.0000 F5000
G1 X657.0452 Y363.8980 Z-20.0000 F5000
G1 X657.0452 Y365.9011 Z-20.0000 F5000
G1 X662.0452 Y365.9011 Z-20.0000 F5000
G1 X662.0452 Y623.9890 Z-20.0000 F5000
G1 X657.0452 Y623.9890 Z-20.0000 F5000
G1 X657.0452 Y625.9918 Z-20.0000 F5000
G1 X674.7026 Y625.9918 Z-20.0000 F5000
G1 X680.0451 Y631.3342 Z-20.0000 F5000
G1 X680.0451 Y688.6464 Z-20.0000 F5000
G1 X674.7025 Y693.9887 Z-20.0000 F5000
G1 X657.0452 Y693.9887 Z-20.0000 F5000
G1 X657.0452 Y695.9917 Z-20.0000 F5000
G1 X662.0452 Y695.9917 Z-20.0000 F5000
G1 X662.0452 Y954.0794 Z-20.0000 F5000
G1 X657.0452 Y954.0794 Z-20.0000 F5000
G1 X657.0452 Y956.0821 Z-20.0000 F5000
G1 X674.7026 Y956.0821 Z-20.0000 F5000
G1 X680.0451 Y961.4245 Z-20.0000 F5000
G1 X680.0451 Y985.0806 Z-20.0000 F5000
G1 X633.0472 Y985.0806 Z-20.0000 F5000
G1 X633.0472 Y980.0809 Z-20.0000 F5000
G1 X631.0452 Y980.0809 Z-20.0000 F5000
G1 X631.0452 Y1000.0825 Z-20.0000 F5000
G1 X633.0472 Y1000.0825 Z-20.0000 F5000
G1 X633.0472 Y995.0828 Z-20.0000 F5000
G1 X680.0451 Y995.0828 Z-20.0000 F5000
G1 X680.0451 Y1018.7366 Z-20.0000 F5000
G1 X674.7031 Y1024.0809 Z-20.0000 F5000
G1 X657.0452 Y1024.0809 Z-20.0000 F5000
G1 X657.0452 Y1026.0823 Z-20.0000 F5000
G1 X662.0452 Y1026.0823 Z-20.0000 F5000
G1 X662.0452 Y1144.0803 Z-20.0000 F5000
G1 X639.0475 Y1144.0803 Z-20.0000 F5000
G1 X639.0475 Y1146.0831 Z-20.0000 F5000
G1 X644.0476 Y1146.0831 Z-20.0000 F5000
G1 X644.0451 Y1254.0789 Z-20.0000 F5000
G1 X639.0452 Y1254.0789 Z-20.0000 F5000
G1 X639.0452 Y1256.0818 Z-20.0000 F5000
G1 X674.7026 Y1256.0818 Z-20.0000 F5000
G1 X680.0451 Y1261.4242 Z-20.0000 F5000
G1 X680.0451 Y1318.7367 Z-20.0000 F5000
G1 X674.7024 Y1324.0786 Z-20.0000 F5000
G1 X639.0452 Y1324.0786 Z-20.0000 F5000
G1 X639.0452 Y1326.0816 Z-20.0000 F5000
G1 X644.0452 Y1326.0816 Z-20.0000 F5000
G1 X644.0452 Y1554.0786 Z-20.0000 F5000
G1 X639.0452 Y1554.0786 Z-20.0000 F5000
G1 X639.0452 Y1556.0812 Z-20.0000 F5000
G1 X674.7026 Y1556.0812 Z-20.0000 F5000
G1 X680.0451 Y1561.4238 Z-20.0000 F5000
G1 X680.0451 Y1581.1717 Z-20.0000 F5000
G1 X680.0451 Y1581.1717 Z-10.0000 F9999
G1 X680.0451 Y1597.1697 Z-10.0000 F5000
G1 X680.0451 Y1597.1697 Z-20.0000 F2500
G1 X680.0451 Y1618.7362 Z-20.0000 F5000
G1 X674.7025 Y1624.0784 Z-20.0000 F5000
G1 X639.0452 Y1624.0784 Z-20.0000 F5000
G1 X639.0452 Y1626.0813 Z-20.0000 F5000
G1 X644.0452 Y1626.0813 Z-20.0000 F5000
G1 X644.0452 Y1779.6390 Z-20.0000 F5000
G1 X644.0452 Y1779.6390 Z10.0000 F9999
G1 X988.1429 Y1779.6390 Z10.0000 F9999
G1 X988.1429 Y1779.6390 Z1.0000 F2500
G1 X988.1429 Y1818.6102 Z-9.5000 F2500
G1 X988.1429 Y1779.6390 Z-20.0000 F2500
G1 X988.1429 Y1933.1967 Z-20.0000 F5000
G1 X902.1450 Y1933.1967 Z-20.0000 F5000
G1 X902.1450 Y1626.0813 Z-20.0000 F5000
G1 X907.1450 Y1626.0813 Z-20.0000 F5000
G1 X907.1450 Y1624.0784 Z-20.0000 F5000
G1 X871.4877 Y1624.0784 Z-20.0000 F5000
G1 X866.1451 Y1618.7362 Z-20.0000 F5000
G1 X866.1451 Y1596.6661 Z-20.0000 F5000
G1 X866.1451 Y1596.6661 Z-10.0000 F9999
G1 X866.1451 Y1580.6681 Z-10.0000 F5000
G1 X866.1451 Y1580.6681 Z-20.0000 F2500
G1 X866.1451 Y1561.4238 Z-20.0000 F5000
G1 X871.4876 Y1556.0812 Z-20.0000 F5000
G1 X907.1450 Y1556.0812 Z-20.0000 F5000
G1 X907.1450 Y1554.0786 Z-20.0000 F5000
G1 X902.1450 Y1554.0786 Z-20.0000 F5000
G1 X902.1450 Y1326.0816 Z-20.0000 F5000
G1 X907.1450 Y1326.0816 Z-20.0000 F5000
G1 X907.1450 Y1324.0786 Z-20.0000 F5000
G1 X871.4878 Y1324.0786 Z-20.0000 F5000
G1 X866.1451 Y1318.7367 Z-20.0000 F5000
G1 X866.1451 Y1261.4242 Z-20.0000 F5000
G1 X871.4876 Y1256.0818 Z-20.0000 F5000
G1 X907.1450 Y1256.0818 Z-20.0000 F5000
G1 X907.1450 Y1254.0789 Z-20.0000 F5000
G1 X902.1450 Y1254.0789 Z-20.0000 F5000
G1 X902.1450 Y1146.0831 Z-20.0000 F5000
G1 X907.1450 Y1146.0831 Z-20.0000 F5000
G1 X907.1450 Y1144.0803 Z-20.0000 F5000
G1 X884.1450 Y1144.0803 Z-20.0000 F5000
G1 X884.1450 Y1026.0823 Z-20.0000 F5000
G1 X889.1450 Y1026.0823 Z-20.0000 F5000
G1 X889.1450 Y1024.0809 Z-20.0000 F5000
G1 X871.4871 Y1024.0809 Z-20.0000 F5000
G1 X866.1451 Y1018.7366 Z-20.0000 F5000
G1 X866.1451 Y995.0828 Z-20.0000 F5000
G1 X913.1430 Y995.0828 Z-20.0000 F5000
G1 X913.1430 Y1000.0825 Z-20.0000 F5000
G1 X915.1450 Y1000.0825 Z-20.0000 F5000
G1 X915.1450 Y980.0809 Z-20.0000 F5000
G1 X913.1430 Y980.0809 Z-20.0000 F5000
G1 X913.1430 Y985.0806 Z-20.0000 F5000
G1 X866.1451 Y985.0806 Z-20.0000 F5000
G1 X866.1451 Y961.4245 Z-20.0000 F5000
G1 X871.4876 Y956.0821 Z-20.0000 F5000
G1 X889.1450 Y956.0821 Z-20.0000 F5000
G1 X889.1450 Y954.0794 Z-20.0000 F5000
G1 X884.1450 Y954.0794 Z-20.0000 F5000
G1 X884.1450 Y695.9917 Z-20.0000 F5000
G1 X889.1450 Y695.9917 Z-20.0000 F5000
G1 X889.1450 Y693.9887 Z-20.0000 F5000
G1 X871.4877 Y693.9887 Z-20.0000 F5000
G1 X866.1451 Y688.6464 Z-20.0000 F5000
G1 X866.1451 Y631.3342 Z-20.0000 F5000
G1 X871.4876 Y625.9918 Z-20.0000 F5000
G1 X889.1450 Y625.9918 Z-20.0000 F5000
G1 X889.1450 Y623.9890 Z-20.0000 F5000
G1 X884.1450 Y623.9890 Z-20.0000 F5000
G1 X884.1450 Y365.9011 Z-20.0000 F5000
G1 X889.1450 Y365.9011 Z-20.0000 F5000
G1 X889.1450 Y363.8980 Z-20.0000 F5000
G1 X871.4878 Y363.8980 Z-20.0000 F5000
G1 X866.1451 Y358.5562 Z-20.0000 F5000
G1 X866.1451 Y334.9002 Z-20.0000 F5000
G1 X913.1430 Y334.9002 Z-20.0000 F5000
G1 X913.1430 Y339.9000 Z-20.0000 F5000
G1 X915.1450 Y339.9000 Z-20.0000 F5000
G1 X915.1450 Y319.8983 Z-20.0000 F5000
G1 X913.1430 Y319.8983 Z-20.0000 F5000
G1 X913.1430 Y324.8978 Z-20.0000 F5000
G1 X866.1451 Y324.8978 Z-20.0000 F5000
G1 X866.1451 Y301.2440 Z-20.0000 F5000
G1 X871.4875 Y295.9013 Z-20.0000 F5000
G1 X889.1450 Y295.9013 Z-20.0000 F5000
G1 X889.1450 Y293.8985 Z-20.0000 F5000
G1 X884.1450 Y293.8985 Z-20.0000 F5000
G1 X884.1450 Y229.8841 Z-20.0000 F5000
G1 X884.1450 Y229.8841 Z-10.0000 F9999
G1 X884.1450 Y213.8861 Z-10.0000 F5000
G1 X884.1450 Y213.8861 Z-20.0000 F2500
G1 X884.1450 Y175.9004 Z-20.0000 F5000
G1 X907.1450 Y175.9004 Z-20.0000 F5000
G1 X907.1450 Y173.8975 Z-20.0000 F5000
G1 X902.1450 Y173.8975 Z-20.0000 F5000
G1 X902.1450 Y65.9018 Z-20.0000 F5000
G1 X907.1450 Y65.9018 Z-20.0000 F5000
G1 X907.1450 Y63.8988 Z-20.0000 F5000
G1 X871.4877 Y63.8988 Z-20.0000 F5000
G1 X866.1451 Y58.5567 Z-20.0000 F5000
G1 X866.1451 Y25.9011 Z-20.0000 F5000
G1 X927.7837 Y25.9011 Z-20.0000 F5000
G1 X928.3327 Y25.8213 Z-20.0000 F5000
G1 X928.5921 Y25.7036 Z-20.0000 F5000
G1 X928.8098 Y25.5098 Z-20.0000 F5000
G1 X928.9566 Y25.2656 Z-20.0000 F5000
G1 X929.0252 Y24.9891 Z-20.0000 F5000
G1 X929.0081 Y24.6982 Z-20.0000 F5000
G1 X928.9076 Y24.4316 Z-20.0000 F5000
G1 X928.5767 Y23.9884 Z-20.0000 F5000
G1 X925.6478 Y21.0598 Z-20.0000 F5000
G1 X924.2615 Y19.2032 Z-20.0000 F5000
G1 X923.3441 Y16.6638 Z-20.0000 F5000
G1 X923.2204 Y13.9683 Z-20.0000 F5000
G1 X923.8624 Y11.4407 Z-20.0000 F5000
G1 X925.1956 Y9.1995 Z-20.0000 F5000
G1 X927.1895 Y7.3797 Z-20.0000 F5000
G1 X929.6343 Y6.2328 Z-20.0000 F5000
G1 X931.9272 Y5.9010 Z-20.0000 F5000
G1 X958.3606 Y5.9010 Z-20.0000 F5000
G1 X960.6536 Y6.2328 Z-20.0000 F5000
G1 X963.0983 Y7.3797 Z-20.0000 F5000
G1 X965.0923 Y9.1995 Z-20.0000 F5000
G1 X966.4255 Y11.4407 Z-20.0000 F5000
G1 X967.0674 Y13.9683 Z-20.0000 F5000
G1 X966.9438 Y16.6638 Z-20.0000 F5000
G1 X966.0263 Y19.2032 Z-20.0000 F5000
G1 X964.6400 Y21.0598 Z-20.0000 F5000
G1 X961.7111 Y23.9884 Z-20.0000 F5000
G1 X961.3802 Y24.4316 Z-20.0000 F5000
G1 X961.2797 Y24.6982 Z-20.0000 F5000
G1 X961.2627 Y24.9891 Z-20.0000 F5000
G1 X961.3313 Y25.2656 Z-20.0000 F5000
G1 X961.4781 Y25.5098 Z-20.0000 F5000
G1 X961.6957 Y25.7036 Z-20.0000 F5000
G1 X961.9551 Y25.8213 Z-20.0000 F5000
G1 X962.5041 Y25.9011 Z-20.0000 F5000
G1 X1024.1427 Y25.9011 Z-20.0000 F5000
G1 X1024.1427 Y58.5567 Z-20.0000 F5000
G1 X1018.8001 Y63.8988 Z-20.0000 F5000
G1 X983.1429 Y63.8988 Z-20.0000 F5000
G1 X983.1429 Y65.9018 Z-20.0000 F5000
G1 X988.1428 Y65.9018 Z-20.0000 F5000
G1 X988.1453 Y173.8975 Z-20.0000 F5000
G1 X983.1452 Y173.8975 Z-20.0000 F5000
G1 X983.1452 Y175.9004 Z-20.0000 F5000
G1 X1006.1428 Y175.9004 Z-20.0000 F5000
G1 X1006.1428 Y212.7056 Z-20.0000 F5000
G1 X1006.1428 Y212.7056 Z-10.0000 F9999
G1 X1006.1428 Y228.7036 Z-10.0000 F5000
G1 X1006.1428 Y228.7036 Z-20.0000 F2500
G1 X1006.1428 Y293.8985 Z-20.0000 F5000
G1 X1001.1428 Y293.8985 Z-20.0000 F5000
G1 X1001.1428 Y295.9013 Z-20.0000 F5000
G1 X1018.8003 Y295.9013 Z-20.0000 F5000
G1 X1024.1427 Y301.2440 Z-20.0000 F5000
G1 X1024.1427 Y324.8978 Z-20.0000 F5000
G1 X977.1449 Y324.8978 Z-20.0000 F5000
G1 X977.1449 Y319.8983 Z-20.0000 F5000
G1 X975.1429 Y319.8983 Z-20.0000 F5000
G1 X975.1429 Y339.9000 Z-20.0000 F5000
G1 X977.1449 Y339.9000 Z-20.0000 F5000
G1 X977.1449 Y334.9002 Z-20.0000 F5000
G1 X1024.1427 Y334.9002 Z-20.0000 F5000
G1 X1024.1427 Y358.5562 Z-20.0000 F5000
G1 X1018.8000 Y363.8980 Z-20.0000 F5000
G1 X1001.1428 Y363.8980 Z-20.0000 F5000
G1 X1001.1428 Y365.9011 Z-20.0000 F5000
G1 X1006.1428 Y365.9011 Z-20.0000 F5000
G1 X1006.1428 Y623.9890 Z-20.0000 F5000
G1 X1001.1428 Y623.9890 Z-20.0000 F5000
G1 X1001.1428 Y625.9918 Z-20.0000 F5000
G1 X1018.8002 Y625.9918 Z-20.0000 F5000
G1 X1024.1427 Y631.3342 Z-20.0000 F5000
G1 X1024.1427 Y688.6464 Z-20.0000 F5000
G1 X1018.8002 Y693.9887 Z-20.0000 F5000
G1 X1001.1428 Y693.9887 Z-20.0000 F5000
G1 X1001.1428 Y695.9917 Z-20.0000 F5000
G1 X1006.1428 Y695.9917 Z-20.0000 F5000
G1 X1006.1428 Y954.0794 Z-20.0000 F5000
G1 X1001.1428 Y954.0794 Z-20.0000 F5000
G1 X1001.1428 Y956.0821 Z-20.0000 F5000
G1 X1018.8002 Y956.0821 Z-20.0000 F5000
G1 X1024.1427 Y961.4245 Z-20.0000 F5000
G1 X1024.1427 Y985.0806 Z-20.0000 F5000
G1 X977.1449 Y985.0806 Z-20.0000 F5000
G1 X977.1449 Y980.0809 Z-20.0000 F5000
G1 X975.1429 Y980.0809 Z-20.0000 F5000
G1 X975.1429 Y1000.0825 Z-20.0000 F5000
G1 X977.1449 Y1000.0825 Z-20.0000 F5000
G1 X977.1449 Y995.0828 Z-20.0000 F5000
G1 X1024.1427 Y995.0828 Z-20.0000 F5000
G1 X1024.1427 Y1018.7366 Z-20.0000 F5000
G1 X1018.8007 Y1024.0809 Z-20.0000 F5000
G1 X1001.1428 Y1024.0809 Z-20.0000 F5000
G1 X1001.1428 Y1026.0823 Z-20.0000 F5000
G1 X1006.1428 Y1026.0823 Z-20.0000 F5000
G1 X1006.1428 Y1144.0803 Z-20.0000 F5000
G1 X983.1452 Y1144.0803 Z-20.0000 F5000
G1 X983.1452 Y1146.0831 Z-20.0000 F5000
G1 X988.1453 Y1146.0831 Z-20.0000 F5000
G1 X988.1428 Y1254.0789 Z-20.0000 F5000
G1 X983.1429 Y1254.0789 Z-20.0000 F5000
G1 X983.1429 Y1256.0818 Z-20.0000 F5000
G1 X1018.8002 Y1256.0818 Z-20.0000 F5000
G1 X1024.1427 Y1261.4242 Z-20.0000 F5000
G1 X1024.1427 Y1318.7367 Z-20.0000 F5000
G1 X1018.8001 Y1324.0786 Z-20.0000 F5000
G1 X983.1429 Y1324.0786 Z-20.0000 F5000
G1 X983.1429 Y1326.0816 Z-20.0000 F5000
G1 X988.1429 Y1326.0816 Z-20.0000 F5000
G1 X988.1429 Y1554.0786 Z-20.0000 F5000
G1 X983.1429 Y1554.0786 Z-20.0000 F5000
G1 X983.1429 Y1556.0812 Z-20.0000 F5000
G1 X1018.8002 Y1556.0812 Z-20.0000 F5000
G1 X1024.1427 Y1561.4238 Z-20.0000 F5000
G1 X1024.1427 Y1579.7304 Z-20.0000 F5000
G1 X1024.1427 Y1579.7304 Z-10.0000 F9999
G1 X1024.1427 Y1595.7284 Z-10.0000 F5000
G1 X1024.1427 Y1595.7284 Z-20.0000 F2500
G1 X1024.1427 Y1618.7362 Z-20.0000 F5000
G1 X1018.8001 Y1624.0784 Z-20.0000 F5000
G1 X983.1429 Y1624.0784 Z-20.0000 F5000
G1 X983.1429 Y1626.0813 Z-20.0000 F5000
G1 X988.1429 Y1626.0813 Z-20.0000 F5000
G1 X988.1429 Y1779.6390 Z-20.0000 F5000
G1 X988.1429 Y1779.6390 Z10.0000 F9999
G1 X1160.1917 Y1779.6390 Z10.0000 F9999
G1 X1160.1917 Y1779.6390 Z1.0000 F2500
G1 X1160.1917 Y1818.6102 Z-9.5000 F2500
G1 X1160.1917 Y1779.6390 Z-20.0000 F2500
G1 X1160.1917 Y1933.1967 Z-20.0000 F5000
G1 X1074.1938 Y1933.1967 Z-20.0000 F5000
G1 X1074.1938 Y1626.0813 Z-20.0000 F5000
G1 X1079.1938 Y1626.0813 Z-20.0000 F5000
G1 X1079.1938 Y1624.0784 Z-20.0000 F5000
G1 X1043.5365 Y1624.0784 Z-20.0000 F5000
G1 X1038.1939 Y1618.7362 Z-20.0000 F5000
G1 X1038.1939 Y1561.4238 Z-20.0000 F5000
G1 X1043.5364 Y1556.0812 Z-20.0000 F5000
G1 X1079.1938 Y1556.0812 Z-20.0000 F5000
G1 X1079.1938 Y1554.0786 Z-20.0000 F5000
G1 X1074.1938 Y1554.0786 Z-20.0000 F5000
G1 X1074.1938 Y1326.0816 Z-20.0000 F5000
G1 X1079.1938 Y1326.0816 Z-20.0000 F5000
G1 X1079.1938 Y1324.0786 Z-20.0000 F5000
G1 X1043.5366 Y1324.0786 Z-20.0000 F5000
G1 X1038.1939 Y1318.7367 Z-20.0000 F5000
G1 X1038.1939 Y1261.4242 Z-20.0000 F5000
G1 X1043.5364 Y1256.0818 Z-20.0000 F5000
G1 X1079.1938 Y1256.0818 Z-20.0000 F5000
G1 X1079.1938 Y1254.0789 Z-20.0000 F5000
G1 X1074.1938 Y1254.0789 Z-20.0000 F5000
G1 X1074.1938 Y1146.0831 Z-20.0000 F5000
G1 X1079.1938 Y1146.0831 Z-20.0000 F5000
G1 X1079.1938 Y1144.0803 Z-20.0000 F5000
G1 X1056.1939 Y1144.0803 Z-20.0000 F5000
G1 X1056.1939 Y1026.0823 Z-20.0000 F5000
G1 X1061.1939 Y1026.0823 Z-20.0000 F5000
G1 X1061.1939 Y1024.0809 Z-20.0000 F5000
G1 X1043.5359 Y1024.0809 Z-20.0000 F5000
G1 X1038.1939 Y1018.7366 Z-20.0000 F5000
G1 X1038.1939 Y995.0828 Z-20.0000 F5000
G1 X1085.1918 Y995.0828 Z-20.0000 F5000
G1 X1085.1918 Y1000.0825 Z-20.0000 F5000
G1 X1087.1938 Y1000.0825 Z-20.0000 F5000
G1 X1087.1938 Y980.0809 Z-20.0000 F5000
G1 X1085.1918 Y980.0809 Z-20.0000 F5000
G1 X1085.1918 Y985.0806 Z-20.0000 F5000
G1 X1038.1939 Y985.0806 Z-20.0000 F5000
G1 X1038.1939 Y961.4245 Z-20.0000 F5000
G1 X1043.5365 Y956.0821 Z-20.0000 F5000
G1 X1061.1939 Y956.0821 Z-20.0000 F5000
G1 X1061.1939 Y954.0794 Z-20.0000 F5000
G1 X1056.1939 Y954.0794 Z-20.0000 F5000
G1 X1056.1939 Y695.9917 Z-20.0000 F5000
G1 X1061.1939 Y695.9917 Z-20.0000 F5000
G1 X1061.1939 Y693.9887 Z-20.0000 F5000
G1 X1043.5365 Y693.9887 Z-20.0000 F5000
G1 X1038.1939 Y688.6464 Z-20.0000 F5000
G1 X1038.1939 Y631.3342 Z-20.0000 F5000
G1 X1043.5364 Y625.9918 Z-20.0000 F5000
G1 X1061.1939 Y625.9918 Z-20.0000 F5000
G1 X1061.1939 Y623.9890 Z-20.0000 F5000
G1 X1056.1939 Y623.9890 Z-20.0000 F5000
G1 X1056.1939 Y365.9011 Z-20.0000 F5000
G1 X1061.1939 Y365.9011 Z-20.0000 F5000
G1 X1061.1939 Y363.8980 Z-20.0000 F5000
G1 X1043.5366 Y363.8980 Z-20.0000 F5000
G1 X1038.1939 Y358.5562 Z-20.0000 F5000
G1 X1038.1939 Y334.9002 Z-20.0000 F5000
G1 X1085.1918 Y334.9002 Z-20.0000 F5000
G1 X1085.1918 Y339.9000 Z-20.0000 F5000
G1 X1087.1938 Y339.9000 Z-20.0000 F5000
G1 X1087.1938 Y319.8983 Z-20.0000 F5000
G1 X1085.1918 Y319.8983 Z-20.0000 F5000
G1 X1085.1918 Y324.8978 Z-20.0000 F5000
G1 X1038.1939 Y324.8978 Z-20.0000 F5000
G1 X1038.1939 Y301.2440 Z-20.0000 F5000
G1 X1043.5364 Y295.9013 Z-20.0000 F5000
G1 X1061.1939 Y295.9013 Z-20.0000 F5000
G1 X1061.1939 Y293.8985 Z-20.0000 F5000
G1 X1056.1939 Y293.8985 Z-20.0000 F5000
G1 X1056.1939 Y175.9004 Z-20.0000 F5000
G1 X1079.1938 Y175.9004 Z-20.0000 F5000
G1 X1079.1938 Y173.8975 Z-20.0000 F5000
G1 X1074.1938 Y173.8975 Z-20.0000 F5000
G1 X1074.1938 Y65.9018 Z-20.0000 F5000
G1 X1079.1938 Y65.9018 Z-20.0000 F5000
G1 X1079.1938 Y63.8988 Z-20.0000 F5000
G1 X1043.5365 Y63.8988 Z-20.0000 F5000
G1 X1038.1939 Y58.5567 Z-20.0000 F5000
G1 X1038.1939 Y25.9011 Z-20.0000 F5000
G1 X1099.8325 Y25.9011 Z-20.0000 F5000
G1 X1100.3815 Y25.8213 Z-20.0000 F5000
G1 X1100.6409 Y25.7036 Z-20.0000 F5000
G1 X1100.8586 Y25.5098 Z-20.0000 F5000
G1 X1101.0054 Y25.2656 Z-20.0000 F5000
G1 X1101.0740 Y24.9891 Z-20.0000 F5000
G1 X1101.0569 Y24.6982 Z-20.0000 F5000
G1 X1100.9565 Y24.4316 Z-20.0000 F5000
G1 X1100.6255 Y23.9884 Z-20.0000 F5000
G1 X1097.6967 Y21.0598 Z-20.0000 F5000
G1 X1096.3104 Y19.2032 Z-20.0000 F5000
G1 X1095.3929 Y16.6638 Z-20.0000 F5000
G1 X1095.2693 Y13.9683 Z-20.0000 F5000
G1 X1095.9112 Y11.4407 Z-20.0000 F5000
G1 X1097.2444 Y9.1995 Z-20.0000 F5000
G1 X1099.2383 Y7.3797 Z-20.0000 F5000
G1 X1101.6831 Y6.2328 Z-20.0000 F5000
G1 X1103.9760 Y5.9010 Z-20.0000 F5000
G1 X1130.4094 Y5.9010 Z-20.0000 F5000
G1 X1132.7024 Y6.2328 Z-20.0000 F5000
G1 X1135.1472 Y7.3797 Z-20.0000 F5000
G1 X1137.1411 Y9.1995 Z-20.0000 F5000
G1 X1138.4743 Y11.4407 Z-20.0000 F5000
G1 X1139.1162 Y13.9683 Z-20.0000 F5000
G1 X1138.9926 Y16.6638 Z-20.0000 F5000
G1 X1138.0751 Y19.2032 Z-20.0000 F5000
G1 X1136.6888 Y21.0598 Z-20.0000 F5000
G1 X1133.7599 Y23.9884 Z-20.0000 F5000
G1 X1133.4290 Y24.4316 Z-20.0000 F5000
G1 X1133.3286 Y24.6982 Z-20.0000 F5000
G1 X1133.3115 Y24.9891 Z-20.0000 F5000
G1 X1133.3801 Y25.2656 Z-20.0000 F5000
G1 X1133.5269 Y25.5098 Z-20.0000 F5000
G1 X1133.7445 Y25.7036 Z-20.0000 F5000
G1 X1134.0040 Y25.8213 Z-20.0000 F5000
G1 X1134.5530 Y25.9011 Z-20.0000 F5000
G1 X1196.1915 Y25.9011 Z-20.0000 F5000
G1 X1196.1915 Y58.5567 Z-20.0000 F5000
G1 X1190.8489 Y63.8988 Z-20.0000 F5000
G1 X1155.1917 Y63.8988 Z-20.0000 F5000
G1 X1155.1917 Y65.9018 Z-20.0000 F5000
G1 X1160.1916 Y65.9018 Z-20.0000 F5000
G1 X1160.1941 Y173.8975 Z-20.0000 F5000
G1 X1155.1940 Y173.8975 Z-20.0000 F5000
G1 X1155.1940 Y175.9004 Z-20.0000 F5000
G1 X1178.1916 Y175.9004 Z-20.0000 F5000
G1 X1178.1916 Y293.8985 Z-20.0000 F5000
G1 X1173.1916 Y293.8985 Z-20.0000 F5000
G1 X1173.1916 Y295.9013 Z-20.0000 F5000
G1 X1190.8491 Y295.9013 Z-20.0000 F5000
G1 X1196.1915 Y301.2440 Z-20.0000 F5000
G1 X1196.1915 Y324.8978 Z-20.0000 F5000
G1 X1149.1937 Y324.8978 Z-20.0000 F5000
G1 X1149.1937 Y319.8983 Z-20.0000 F5000
G1 X1147.1917 Y319.8983 Z-20.0000 F5000
G1 X1147.1917 Y339.9000 Z-20.0000 F5000
G1 X1149.1937 Y339.9000 Z-20.0000 F5000
G1 X1149.1937 Y334.9002 Z-20.0000 F5000
G1 X1196.1915 Y334.9002 Z-20.0000 F5000
G1 X1196.1915 Y358.5562 Z-20.0000 F5000
G1 X1190.8488 Y363.8980 Z-20.0000 F5000
G1 X1173.1916 Y363.8980 Z-20.0000 F5000
G1 X1173.1916 Y365.9011 Z-20.0000 F5000
G1 X1178.1916 Y365.9011 Z-20.0000 F5000
G1 X1178.1916 Y623.9890 Z-20.0000 F5000
G1 X1173.1916 Y623.9890 Z-20.0000 F5000
G1 X1173.1916 Y625.9918 Z-20.0000 F5000
G1 X1190.8490 Y625.9918 Z-20.0000 F5000
G1 X1196.1915 Y631.3342 Z-20.0000 F5000
G1 X1196.1915 Y688.6464 Z-20.0000 F5000
G1 X1190.8490 Y693.9887 Z-20.0000 F5000
G1 X1173.1916 Y693.9887 Z-20.0000 F5000
G1 X1173.1916 Y695.9917 Z-20.0000 F5000
G1 X1178.1916 Y695.9917 Z-20.0000 F5000
G1 X1178.1916 Y954.0794 Z-20.0000 F5000
G1 X1173.1916 Y954.0794 Z-20.0000 F5000
G1 X1173.1916 Y956.0821 Z-20.0000 F5000
G1 X1190.8490 Y956.0821 Z-20.0000 F5000
G1 X1196.1915 Y961.4245 Z-20.0000 F5000
G1 X1196.1915 Y985.0806 Z-20.0000 F5000
G1 X1149.1937 Y985.0806 Z-20.0000 F5000
G1 X1149.1937 Y980.0809 Z-20.0000 F5000
G1 X1147.1917 Y980.0809 Z-20.0000 F5000
G1 X1147.1917 Y1000.0825 Z-20.0000 F5000
G1 X1149.1937 Y1000.0825 Z-20.0000 F5000
G1 X1149.1937 Y995.0828 Z-20.0000 F5000
G1 X1196.1915 Y995.0828 Z-20.0000 F5000
G1 X1196.1915 Y1018.7366 Z-20.0000 F5000
G1 X1190.8496 Y1024.0809 Z-20.0000 F5000
G1 X1173.1916 Y1024.0809 Z-20.0000 F5000
G1 X1173.1916 Y1026.0823 Z-20.0000 F5000
G1 X1178.1916 Y1026.0823 Z-20.0000 F5000
G1 X1178.1916 Y1144.0803 Z-20.0000 F5000
G1 X1155.1940 Y1144.0803 Z-20.0000 F5000
G1 X1155.1940 Y1146.0831 Z-20.0000 F5000
G1 X1160.1941 Y1146.0831 Z-20.0000 F5000
G1 X1160.1916 Y1254.0789 Z-20.0000 F5000
G1 X1155.1917 Y1254.0789 Z-20.0000 F5000
G1 X1155.1917 Y1256.0818 Z-20.0000 F5000
G1 X1190.8490 Y1256.0818 Z-20.0000 F5000
G1 X1196.1915 Y1261.4242 Z-20.0000 F5000
G1 X1196.1915 Y1318.7367 Z-20.0000 F5000
G1 X1190.8489 Y1324.0786 Z-20.0000 F5000
G1 X1155.1917 Y1324.0786 Z-20.0000 F5000
G1 X1155.1917 Y1326.0816 Z-20.0000 F5000
G1 X1160.1917 Y1326.0816 Z-20.0000 F5000
G1 X1160.1917 Y1554.0786 Z-20.0000 F5000
G1 X1155.1917 Y1554.0786 Z-20.0000 F5000
G1 X1155.1917 Y1556.0812 Z-20.0000 F5000
G1 X1190.8491 Y1556.0812 Z-20.0000 F5000
G1 X1196.1915 Y1561.4238 Z-20.0000 F5000
G1 X1196.1915 Y1618.7362 Z-20.0000 F5000
G1 X1190.8490 Y1624.0784 Z-20.0000 F5000
G1 X1155.1917 Y1624.0784 Z-20.0000 F5000
G1 X1155.1917 Y1626.0813 Z-20.0000 F5000
G1 X1160.1917 Y1626.0813 Z-20.0000 F5000
G1 X1160.1917 Y1779.6390 Z-20.0000 F5000
G1 X1160.1917 Y1779.6390 Z10.0000 F9999
G1 X127.8988 Y1779.6390 Z10.0000 F9999
G1 X127.8988 Y1779.6390 Z1.0000 F2500
G1 X127.8988 Y1818.6102 Z-9.5000 F2500
G1 X127.8988 Y1779.6390 Z-20.0000 F2500
G1 X127.8988 Y1933.1967 Z-20.0000 F5000
G1 X41.9009 Y1933.1967 Z-20.0000 F5000
G1 X41.9009 Y1626.0813 Z-20.0000 F5000
G1 X46.9009 Y1626.0813 Z-20.0000 F5000
G1 X46.9009 Y1624.0784 Z-20.0000 F5000
G1 X11.2436 Y1624.0784 Z-20.0000 F5000
G1 X5.9010 Y1618.7362 Z-20.0000 F5000
G1 X5.9010 Y1561.4238 Z-20.0000 F5000
G1 X11.2435 Y1556.0812 Z-20.0000 F5000
G1 X46.9009 Y1556.0812 Z-20.0000 F5000
G1 X46.9009 Y1554.0786 Z-20.0000 F5000
G1 X41.9009 Y1554.0786 Z-20.0000 F5000
G1 X41.9009 Y1326.0816 Z-20.0000 F5000
G1 X46.9009 Y1326.0816 Z-20.0000 F5000
G1 X46.9009 Y1324.0786 Z-20.0000 F5000
G1 X11.2437 Y1324.0786 Z-20.0000 F5000
G1 X5.9010 Y1318.7367 Z-20.0000 F5000
G1 X5.9010 Y1261.4242 Z-20.0000 F5000
G1 X11.2435 Y1256.0818 Z-20.0000 F5000
G1 X46.9009 Y1256.0818 Z-20.0000 F5000
G1 X46.9009 Y1254.0789 Z-20.0000 F5000
G1 X41.9009 Y1254.0789 Z-20.0000 F5000
G1 X41.9009 Y1146.0831 Z-20.0000 F5000
G1 X46.9009 Y1146.0831 Z-20.0000 F5000
G1 X46.9009 Y1144.0803 Z-20.0000 F5000
G1 X23.9009 Y1144.0803 Z-20.0000 F5000
G1 X23.9009 Y1026.0823 Z-20.0000 F5000
G1 X28.9009 Y1026.0823 Z-20.0000 F5000
G1 X28.9009 Y1024.0809 Z-20.0000 F5000
G1 X11.2430 Y1024.0809 Z-20.0000 F5000
G1 X5.9010 Y1018.7366 Z-20.0000 F5000
G1 X5.9010 Y995.0828 Z-20.0000 F5000
G1 X52.8989 Y995.0828 Z-20.0000 F5000
G1 X52.8989 Y1000.0825 Z-20.0000 F5000
G1 X54.9009 Y1000.0825 Z-20.0000 F5000
G1 X54.9009 Y980.0809 Z-20.0000 F5000
G1 X52.8989 Y980.0809 Z-20.0000 F5000
G1 X52.8989 Y985.0806 Z-20.0000 F5000
G1 X5.9010 Y985.0806 Z-20.0000 F5000
G1 X5.9010 Y961.4245 Z-20.0000 F5000
G1 X11.2435 Y956.0821 Z-20.0000 F5000
G1 X28.9009 Y956.0821 Z-20.0000 F5000
G1 X28.9009 Y954.0794 Z-20.0000 F5000
G1 X23.9009 Y954.0794 Z-20.0000 F5000
G1 X23.9009 Y695.9917 Z-20.0000 F5000
G1 X28.9009 Y695.9917 Z-20.0000 F5000
G1 X28.9009 Y693.9887 Z-20.0000 F5000
G1 X11.2436 Y693.9887 Z-20.0000 F5000
G1 X5.9010 Y688.6464 Z-20.0000 F5000
G1 X5.9010 Y631.3342 Z-20.0000 F5000
G1 X11.2435 Y625.9918 Z-20.0000 F5000
G1 X28.9009 Y625.9918 Z-20.0000 F5000
G1 X28.9009 Y623.9890 Z-20.0000 F5000
G1 X23.9009 Y623.9890 Z-20.0000 F5000
G1 X23.9009 Y365.9011 Z-20.0000 F5000
G1 X28.9009 Y365.9011 Z-20.0000 F5000
G1 X28.9009 Y363.8980 Z-20.0000 F5000
G1 X11.2437 Y363.8980 Z-20.0000 F5000
G1 X5.9010 Y358.5562 Z-20.0000 F5000
G1 X5.9010 Y334.9002 Z-20.0000 F5000
G1 X52.8989 Y334.9002 Z-20.0000 F5000
G1 X52.8989 Y339.9000 Z-20.0000 F5000
G1 X54.9009 Y339.9000 Z-20.0000 F5000
G1 X54.9009 Y319.8983 Z-20.0000 F5000
G1 X52.8989 Y319.8983 Z-20.0000 F5000
G1 X52.8989 Y324.8978 Z-20.0000 F5000
G1 X5.9010 Y324.8978 Z-20.0000 F5000
G1 X5.9010 Y301.2440 Z-20.0000 F5000
G1 X11.2434 Y295.9013 Z-20.0000 F5000
G1 X28.9009 Y295.9013 Z-20.0000 F5000
G1 X28.9009 Y293.8985 Z-20.0000 F5000
G1 X23.9009 Y293.8985 Z-20.0000 F5000
G1 X23.9009 Y175.9004 Z-20.0000 F5000
G1 X46.9009 Y175.9004 Z-20.0000 F5000
G1 X46.9009 Y173.8975 Z-20.0000 F5000
G1 X41.9009 Y173.8975 Z-20.0000 F5000
G1 X41.9009 Y65.9018 Z-20.0000 F5000
G1 X46.9009 Y65.9018 Z-20.0000 F5000
G1 X46.9009 Y63.8988 Z-20.0000 F5000
G1 X11.2436 Y63.8988 Z-20.0000 F5000
G1 X5.9010 Y58.5567 Z-20.0000 F5000
G1 X5.9010 Y25.9011 Z-20.0000 F5000
G1 X67.5396 Y25.9011 Z-20.0000 F5000
G1 X68.0886 Y25.8213 Z-20.0000 F5000
G1 X68.3480 Y25.7036 Z-20.0000 F5000
G1 X68.5657 Y25.5098 Z-20.0000 F5000
G1 X68.7125 Y25.2656 Z-20.0000 F5000
G1 X68.7811 Y24.9891 Z-20.0000 F5000
G1 X68.7640 Y24.6982 Z-20.0000 F5000
G1 X68.6635 Y24.4316 Z-20.0000 F5000
G1 X68.3326 Y23.9884 Z-20.0000 F5000
G1 X65.4038 Y21.0598 Z-20.0000 F5000
G1 X64.0175 Y19.2032 Z-20.0000 F5000
G1 X63.1000 Y16.6638 Z-20.0000 F5000
G1 X62.9764 Y13.9683 Z-20.0000 F5000
G1 X63.6183 Y11.4407 Z-20.0000 F5000
G1 X64.9515 Y9.1995 Z-20.0000 F5000
G1 X66.9454 Y7.3797 Z-20.0000 F5000
G1 X69.3902 Y6.2328 Z-20.0000 F5000
G1 X71.6831 Y5.9010 Z-20.0000 F5000
G1 X98.1165 Y5.9010 Z-20.0000 F5000
G1 X100.4095 Y6.2328 Z-20.0000 F5000
G1 X102.8542 Y7.3797 Z-20.0000 F5000
G1 X104.8482 Y9.1995 Z-20.0000 F5000
G1 X106.1814 Y11.4407 Z-20.0000 F5000
G1 X106.8233 Y13.9683 Z-20.0000 F5000
G1 X106.6997 Y16.6638 Z-20.0000 F5000
G1 X105.7822 Y19.2032 Z-20.0000 F5000
G1 X104.3959 Y21.0598 Z-20.0000 F5000
G1 X101.4670 Y23.9884 Z-20.0000 F5000
G1 X101.1361 Y24.4316 Z-20.0000 F5000
G1 X101.0356 Y24.6982 Z-20.0000 F5000
G1 X101.0186 Y24.9891 Z-20.0000 F5000
G1 X101.0872 Y25.2656 Z-20.0000 F5000
G1 X101.2340 Y25.5098 Z-20.0000 F5000
G1 X101.4516 Y25.7036 Z-20.0000 F5000
G1 X101.7110 Y25.8213 Z-20.0000 F5000
G1 X102.2600 Y25.9011 Z-20.0000 F5000
G1 X163.8986 Y25.9011 Z-20.0000 F5000
G1 X163.8986 Y58.5567 Z-20.0000 F5000
G1 X158.5560 Y63.8988 Z-20.0000 F5000
G1 X122.8988 Y63.8988 Z-20.0000 F5000
G1 X122.8988 Y65.9018 Z-20.0000 F5000
G1 X127.8987 Y65.9018 Z-20.0000 F5000
G1 X127.9012 Y173.8975 Z-20.0000 F5000
G1 X122.9011 Y173.8975 Z-20.0000 F5000
G1 X122.9011 Y175.9004 Z-20.0000 F5000
G1 X145.8987 Y175.9004 Z-20.0000 F5000
G1 X145.8987 Y293.8985 Z-20.0000 F5000
G1 X140.8987 Y293.8985 Z-20.0000 F5000
G1 X140.8987 Y295.9013 Z-20.0000 F5000
G1 X158.5562 Y295.9013 Z-20.0000 F5000
G1 X163.8986 Y301.2440 Z-20.0000 F5000
G1 X163.8986 Y324.8978 Z-20.0000 F5000
G1 X116.9008 Y324.8978 Z-20.0000 F5000
G1 X116.9008 Y319.8983 Z-20.0000 F5000
G1 X114.8988 Y319.8983 Z-20.0000 F5000
G1 X114.8988 Y339.9000 Z-20.0000 F5000
G1 X116.9008 Y339.9000 Z-20.0000 F5000
G1 X116.9008 Y334.9002 Z-20.0000 F5000
G1 X163.8986 Y334.9002 Z-20.0000 F5000
G1 X163.8986 Y358.5562 Z-20.0000 F5000
G1 X158.5559 Y363.8980 Z-20.0000 F5000
G1 X140.8987 Y363.8980 Z-20.0000 F5000
G1 X140.8987 Y365.9011 Z-20.0000 F5000
G1 X145.8987 Y365.9011 Z-20.0000 F5000
G1 X145.8987 Y623.9890 Z-20.0000 F5000
G1 X140.8987 Y623.9890 Z-20.0000 F5000
G1 X140.8987 Y625.9918 Z-20.0000 F5000
G1 X158.5561 Y625.9918 Z-20.0000 F5000
G1 X163.8986 Y631.3342 Z-20.0000 F5000
G1 X163.8986 Y688.6464 Z-20.0000 F5000
G1 X158.5561 Y693.9887 Z-20.0000 F5000
G1 X140.8987 Y693.9887 Z-20.0000 F5000
G1 X140.8987 Y695.9917 Z-20.0000 F5000
G1 X145.8987 Y695.9917 Z-20.0000 F5000
G1 X145.8987 Y954.0794 Z-20.0000 F5000
G1 X140.8987 Y954.0794 Z-20.0000 F5000
G1 X140.8987 Y956.0821 Z-20.0000 F5000
G1 X158.5561 Y956.0821 Z-20.0000 F5000
G1 X163.8986 Y961.4245 Z-20.0000 F5000
G1 X163.8986 Y985.0806 Z-20.0000 F5000
G1 X116.9008 Y985.0806 Z-20.0000 F5000
G1 X116.9008 Y980.0809 Z-20.0000 F5000
G1 X114.8988 Y980.0809 Z-20.0000 F5000
G1 X114.8988 Y1000.0825 Z-20.0000 F5000
G1 X116.9008 Y1000.0825 Z-20.0000 F5000
G1 X116.9008 Y995.0828 Z-20.0000 F5000
G1 X163.8986 Y995.0828 Z-20.0000 F5000
G1 X163.8986 Y1018.7366 Z-20.0000 F5000
G1 X158.5566 Y1024.0809 Z-20.0000 F5000
G1 X140.8987 Y1024.0809 Z-20.0000 F5000
G1 X140.8987 Y1026.0823 Z-20.0000 F5000
G1 X145.8987 Y1026.0823 Z-20.0000 F5000
G1 X145.8987 Y1144.0803 Z-20.0000 F5000
G1 X122.9011 Y1144.0803 Z-20.0000 F5000
G1 X122.9011 Y1146.0831 Z-20.0000 F5000
G1 X127.9012 Y1146.0831 Z-20.0000 F5000
G1 X127.8987 Y1254.0789 Z-20.0000 F5000
G1 X122.8988 Y1254.0789 Z-20.0000 F5000
G1 X122.8988 Y1256.0818 Z-20.0000 F5000
G1 X158.5561 Y1256.0818 Z-20.0000 F5000
G1 X163.8986 Y1261.4242 Z-20.0000 F5000
G1 X163.8986 Y1318.7367 Z-20.0000 F5000
G1 X158.5560 Y1324.0786 Z-20.0000 F5000
G1 X122.8988 Y1324.0786 Z-20.0000 F5000
G1 X122.8988 Y1326.0816 Z-20.0000 F5000
G1 X127.8988 Y1326.0816 Z-20.0000 F5000
G1 X127.8988 Y1554.0786 Z-20.0000 F5000
G1 X122.8988 Y1554.0786 Z-20.0000 F5000
G1 X122.8988 Y1556.0812 Z-20.0000 F5000
G1 X158.5561 Y1556.0812 Z-20.0000 F5000
G1 X163.8986 Y1561.4238 Z-20.0000 F5000
G1 X163.8986 Y1618.7362 Z-20.0000 F5000
G1 X158.5561 Y1624.0784 Z-20.0000 F5000
G1 X122.8988 Y1624.0784 Z-20.0000 F5000
G1 X122.8988 Y1626.0813 Z-20.0000 F5000
G1 X127.8988 Y1626.0813 Z-20.0000 F5000
G1 X127.8988 Y1779.6390 Z-20.0000 F5000
G1 X127.8988 Y1779.6390 Z10.0000 F9999
G1 X471.9964 Y1779.6390 Z10.0000 F9999
G1 X471.9964 Y1779.6390 Z1.0000 F2500
G1 X471.9964 Y1818.6102 Z-9.5000 F2500
G1 X471.9964 Y1779.6390 Z-20.0000 F2500
G1 X471.9964 Y1933.1967 Z-20.0000 F5000
G1 X385.9985 Y1933.1967 Z-20.0000 F5000
G1 X385.9985 Y1626.0813 Z-20.0000 F5000
G1 X390.9985 Y1626.0813 Z-20.0000 F5000
G1 X390.9985 Y1624.0784 Z-20.0000 F5000
G1 X355.3412 Y1624.0784 Z-20.0000 F5000
G1 X349.9986 Y1618.7362 Z-20.0000 F5000
G1 X349.9986 Y1561.4238 Z-20.0000 F5000
G1 X355.3411 Y1556.0812 Z-20.0000 F5000
G1 X390.9985 Y1556.0812 Z-20.0000 F5000
G1 X390.9985 Y1554.0786 Z-20.0000 F5000
G1 X385.9985 Y1554.0786 Z-20.0000 F5000
G1 X385.9985 Y1326.0816 Z-20.0000 F5000
G1 X390.9985 Y1326.0816 Z-20.0000 F5000
G1 X390.9985 Y1324.0786 Z-20.0000 F5000
G1 X355.3413 Y1324.0786 Z-20.0000 F5000
G1 X349.9986 Y1318.7367 Z-20.0000 F5000
G1 X349.9986 Y1261.4242 Z-20.0000 F5000
G1 X355.3412 Y1256.0818 Z-20.0000 F5000
G1 X390.9985 Y1256.0818 Z-20.0000 F5000
G1 X390.9985 Y1254.0789 Z-20.0000 F5000
G1 X385.9985 Y1254.0789 Z-20.0000 F5000
G1 X385.9985 Y1146.0831 Z-20.0000 F5000
G1 X390.9985 Y1146.0831 Z-20.0000 F5000
G1 X390.9985 Y1144.0803 Z-20.0000 F5000
G1 X367.9986 Y1144.0803 Z-20.0000 F5000
G1 X367.9986 Y1026.0823 Z-20.0000 F5000
G1 X372.9986 Y1026.0823 Z-20.0000 F5000
G1 X372.9986 Y1024.0809 Z-20.0000 F5000
G1 X355.3406 Y1024.0809 Z-20.0000 F5000
G1 X349.9986 Y1018.7366 Z-20.0000 F5000
G1 X349.9986 Y995.0828 Z-20.0000 F5000
G1 X396.9965 Y995.0828 Z-20.0000 F5000
G1 X396.9965 Y1000.0825 Z-20.0000 F5000
G1 X398.9985 Y1000.0825 Z-20.0000 F5000
G1 X398.9985 Y980.0809 Z-20.0000 F5000
G1 X396.9965 Y980.0809 Z-20.0000 F5000
G1 X396.9965 Y985.0806 Z-20.0000 F5000
G1 X349.9986 Y985.0806 Z-20.0000 F5000
G1 X349.9986 Y961.4245 Z-20.0000 F5000
G1 X355.3412 Y956.0821 Z-20.0000 F5000
G1 X372.9986 Y956.0821 Z-20.0000 F5000
G1 X372.9986 Y954.0794 Z-20.0000 F5000
G1 X367.9986 Y954.0794 Z-20.0000 F5000
G1 X367.9986 Y695.9917 Z-20.0000 F5000
G1 X372.9986 Y695.9917 Z-20.0000 F5000
G1 X372.9986 Y693.9887 Z-20.0000 F5000
G1 X355.3412 Y693.9887 Z-20.0000 F5000
G1 X349.9986 Y688.6464 Z-20.0000 F5000
G1 X349.9986 Y631.3342 Z-20.0000 F5000
G1 X355.3412 Y625.9918 Z-20.0000 F5000
G1 X372.9986 Y625.9918 Z-20.0000 F5000
G1 X372.9986 Y623.9890 Z-20.0000 F5000
G1 X367.9986 Y623.9890 Z-20.0000 F5000
G1 X367.9986 Y365.9011 Z-20.0000 F5000
G1 X372.9986 Y365.9011 Z-20.0000 F5000
G1 X372.9986 Y363.8980 Z-20.0000 F5000
G1 X355.3414 Y363.8980 Z-20.0000 F5000
G1 X349.9986 Y358.5562 Z-20.0000 F5000
G1 X349.9986 Y334.9002 Z-20.0000 F5000
G1 X396.9965 Y334.9002 Z-20.0000 F5000
G1 X396.9965 Y339.9000 Z-20.0000 F5000
G1 X398.9985 Y339.9000 Z-20.0000 F5000
G1 X398.9985 Y319.8983 Z-20.0000 F5000
G1 X396.9965 Y319.8983 Z-20.0000 F5000
G1 X396.9965 Y324.8978 Z-20.0000 F5000
G1 X349.9986 Y324.8978 Z-20.0000 F5000
G1 X349.9986 Y301.2440 Z-20.0000 F5000
G1 X355.3411 Y295.9013 Z-20.0000 F5000
G1 X372.9986 Y295.9013 Z-20.0000 F5000
G1 X372.9986 Y293.8985 Z-20.0000 F5000
G1 X367.9986 Y293.8985 Z-20.0000 F5000
G1 X367.9986 Y175.9004 Z-20.0000 F5000
G1 X390.9985 Y175.9004 Z-20.0000 F5000
G1 X390.9985 Y173.8975 Z-20.0000 F5000
G1 X385.9985 Y173.8975 Z-20.0000 F5000
G1 X385.9985 Y65.9018 Z-20.0000 F5000
G1 X390.9985 Y65.9018 Z-20.0000 F5000
G1 X390.9985 Y63.8988 Z-20.0000 F5000
G1 X355.3412 Y63.8988 Z-20.0000 F5000
G1 X349.9986 Y58.5567 Z-20.0000 F5000
G1 X349.9986 Y25.9011 Z-20.0000 F5000
G1 X411.6372 Y25.9011 Z-20.0000 F5000
G1 X412.1862 Y25.8213 Z-20.0000 F5000
G1 X412.4457 Y25.7036 Z-20.0000 F5000
G1 X412.6633 Y25.5098 Z-20.0000 F5000
G1 X412.8101 Y25.2656 Z-20.0000 F5000
G1 X412.8787 Y24.9891 Z-20.0000 F5000
G1 X412.8616 Y24.6982 Z-20.0000 F5000
G1 X412.7612 Y24.4316 Z-20.0000 F5000
G1 X412.4303 Y23.9884 Z-20.0000 F5000
G1 X409.5014 Y21.0598 Z-20.0000 F5000
G1 X408.1151 Y19.2032 Z-20.0000 F5000
G1 X407.1976 Y16.6638 Z-20.0000 F5000
G1 X407.0740 Y13.9683 Z-20.0000 F5000
G1 X407.7159 Y11.4407 Z-20.0000 F5000
G1 X409.0491 Y9.1995 Z-20.0000 F5000
G1 X411.0430 Y7.3797 Z-20.0000 F5000
G1 X413.4878 Y6.2328 Z-20.0000 F5000
G1 X415.7808 Y5.9010 Z-20.0000 F5000
G1 X442.2141 Y5.9010 Z-20.0000 F5000
G1 X444.5071 Y6.2328 Z-20.0000 F5000
G1 X446.9519 Y7.3797 Z-20.0000 F5000
G1 X448.9458 Y9.1995 Z-20.0000 F5000
G1 X450.2790 Y11.4407 Z-20.0000 F5000
G1 X450.9209 Y13.9683 Z-20.0000 F5000
G1 X450.7973 Y16.6638 Z-20.0000 F5000
G1 X449.8798 Y19.2032 Z-20.0000 F5000
G1 X448.4935 Y21.0598 Z-20.0000 F5000
G1 X445.5647 Y23.9884 Z-20.0000 F5000
G1 X445.2337 Y24.4316 Z-20.0000 F5000
G1 X445.1333 Y24.6982 Z-20.0000 F5000
G1 X445.1162 Y24.9891 Z-20.0000 F5000
G1 X445.1848 Y25.2656 Z-20.0000 F5000
G1 X445.3316 Y25.5098 Z-20.0000 F5000
G1 X445.5492 Y25.7036 Z-20.0000 F5000
G1 X445.8087 Y25.8213 Z-20.0000 F5000
G1 X446.3577 Y25.9011 Z-20.0000 F5000
G1 X507.9963 Y25.9011 Z-20.0000 F5000
G1 X507.9963 Y58.5567 Z-20.0000 F5000
G1 X502.6537 Y63.8988 Z-20.0000 F5000
G1 X466.9964 Y63.8988 Z-20.0000 F5000
G1 X466.9964 Y65.9018 Z-20.0000 F5000
G1 X471.9963 Y65.9018 Z-20.0000 F5000
G1 X471.9988 Y173.8975 Z-20.0000 F5000
G1 X466.9987 Y173.8975 Z-20.0000 F5000
G1 X466.9987 Y175.9004 Z-20.0000 F5000
G1 X489.9963 Y175.9004 Z-20.0000 F5000
G1 X489.9963 Y293.8985 Z-20.0000 F5000
G1 X484.9963 Y293.8985 Z-20.0000 F5000
G1 X484.9963 Y295.9013 Z-20.0000 F5000
G1 X502.6538 Y295.9013 Z-20.0000 F5000
G1 X507.9963 Y301.2440 Z-20.0000 F5000
G1 X507.9963 Y324.8978 Z-20.0000 F5000
G1 X460.9984 Y324.8978 Z-20.0000 F5000
G1 X460.9984 Y319.8983 Z-20.0000 F5000
G1 X458.9964 Y319.8983 Z-20.0000 F5000
G1 X458.9964 Y339.9000 Z-20.0000 F5000
G1 X460.9984 Y339.9000 Z-20.0000 F5000
G1 X460.9984 Y334.9002 Z-20.0000 F5000
G1 X507.9963 Y334.9002 Z-20.0000 F5000
G1 X507.9963 Y358.5562 Z-20.0000 F5000
G1 X502.6536 Y363.8980 Z-20.0000 F5000
G1 X484.9963 Y363.8980 Z-20.0000 F5000
G1 X484.9963 Y365.9011 Z-20.0000 F5000
G1 X489.9963 Y365.9011 Z-20.0000 F5000
G1 X489.9963 Y623.9890 Z-20.0000 F5000
G1 X484.9963 Y623.9890 Z-20.0000 F5000
G1 X484.9963 Y625.9918 Z-20.0000 F5000
G1 X502.6537 Y625.9918 Z-20.0000 F5000
G1 X507.9963 Y631.3342 Z-20.0000 F5000
G1 X507.9963 Y688.6464 Z-20.0000 F5000
G1 X502.6537 Y693.9887 Z-20.0000 F5000
G1 X484.9963 Y693.9887 Z-20.0000 F5000
G1 X484.9963 Y695.9917 Z-20.0000 F5000
G1 X489.9963 Y695.9917 Z-20.0000 F5000
G1 X489.9963 Y954.0794 Z-20.0000 F5000
G1 X484.9963 Y954.0794 Z-20.0000 F5000
G1 X484.9963 Y956.0821 Z-20.0000 F5000
G1 X502.6537 Y956.0821 Z-20.0000 F5000
G1 X507.9963 Y961.4245 Z-20.0000 F5000
G1 X507.9963 Y985.0806 Z-20.0000 F5000
G1 X460.9984 Y985.0806 Z-20.0000 F5000
G1 X460.9984 Y980.0809 Z-20.0000 F5000
G1 X458.9964 Y980.0809 Z-20.0000 F5000
G1 X458.9964 Y1000.0825 Z-20.0000 F5000
G1 X460.9984 Y1000.0825 Z-20.0000 F5000
G1 X460.9984 Y995.0828 Z-20.0000 F5000
G1 X507.9963 Y995.0828 Z-20.0000 F5000
G1 X507.9963 Y1018.7366 Z-20.0000 F5000
G1 X502.6543 Y1024.0809 Z-20.0000 F5000
G1 X484.9963 Y1024.0809 Z-20.0000 F5000
G1 X484.9963 Y1026.0823 Z-20.0000 F5000
G1 X489.9963 Y1026.0823 Z-20.0000 F5000
G1 X489.9963 Y1144.0803 Z-20.0000 F5000
G1 X466.9987 Y1144.0803 Z-20.0000 F5000
G1 X466.9987 Y1146.0831 Z-20.0000 F5000
G1 X471.9988 Y1146.0831 Z-20.0000 F5000
G1 X471.9963 Y1254.0789 Z-20.0000 F5000
G1 X466.9964 Y1254.0789 Z-20.0000 F5000
G1 X466.9964 Y1256.0818 Z-20.0000 F5000
G1 X502.6537 Y1256.0818 Z-20.0000 F5000
G1 X507.9963 Y1261.4242 Z-20.0000 F5000
G1 X507.9963 Y1318.7367 Z-20.0000 F5000
G1 X502.6536 Y1324.0786 Z-20.0000 F5000
G1 X466.9964 Y1324.0786 Z-20.0000 F5000
G1 X466.9964 Y1326.0816 Z-20.0000 F5000
G1 X471.9964 Y1326.0816 Z-20.0000 F5000
G1 X471.9964 Y1554.0786 Z-20.0000 F5000
G1 X466.9964 Y1554.0786 Z-20.0000 F5000
G1 X466.9964 Y1556.0812 Z-20.0000 F5000
G1 X502.6538 Y1556.0812 Z-20.0000 F5000
G1 X507.9963 Y1561.4238 Z-20.0000 F5000
G1 X507.9963 Y1618.7362 Z-20.0000 F5000
G1 X502.6537 Y1624.0784 Z-20.0000 F5000
G1 X466.9964 Y1624.0784 Z-20.0000 F5000
G1 X466.9964 Y1626.0813 Z-20.0000 F5000
G1 X471.9964 Y1626.0813 Z-20.0000 F5000
G1 X471.9964 Y1779.6390 Z-20.0000 F5000
G1 X471.9964 Y1779.6390 Z10.0000 F9999
G1 X816.0940 Y1779.6390 Z10.0000 F9999
G1 X816.0940 Y1779.6390 Z1.0000 F2500
G1 X816.0940 Y1818.6102 Z-9.5000 F2500
G1 X816.0940 Y1779.6390 Z-20.0000 F2500
G1 X816.0940 Y1933.1967 Z-20.0000 F5000
G1 X730.0962 Y1933.1967 Z-20.0000 F5000
G1 X730.0962 Y1626.0813 Z-20.0000 F5000
G1 X735.0962 Y1626.0813 Z-20.0000 F5000
G1 X735.0962 Y1624.0784 Z-20.0000 F5000
G1 X699.4389 Y1624.0784 Z-20.0000 F5000
G1 X694.0963 Y1618.7362 Z-20.0000 F5000
G1 X694.0963 Y1561.4238 Z-20.0000 F5000
G1 X699.4388 Y1556.0812 Z-20.0000 F5000
G1 X735.0962 Y1556.0812 Z-20.0000 F5000
G1 X735.0962 Y1554.0786 Z-20.0000 F5000
G1 X730.0962 Y1554.0786 Z-20.0000 F5000
G1 X730.0962 Y1326.0816 Z-20.0000 F5000
G1 X735.0962 Y1326.0816 Z-20.0000 F5000
G1 X735.0962 Y1324.0786 Z-20.0000 F5000
G1 X699.4389 Y1324.0786 Z-20.0000 F5000
G1 X694.0963 Y1318.7367 Z-20.0000 F5000
G1 X694.0963 Y1261.4242 Z-20.0000 F5000
G1 X699.4388 Y1256.0818 Z-20.0000 F5000
G1 X735.0962 Y1256.0818 Z-20.0000 F5000
G1 X735.0962 Y1254.0789 Z-20.0000 F5000
G1 X730.0962 Y1254.0789 Z-20.0000 F5000
