(plotsheet 2n3_nested_153 sheets_final v1_0_sheet 151b_S151.3_outline_CC8 - stepover 1mm)
(Material Size) (X=1220.000, Y=2440.000, Z=20.000)
(LinuxCNC_NoArcs_MM_TC_medium_50um_G1_verbose.con)
G90 G80 G21 G49
G64 P0.050
M6 T1
(Tool Number:1) (7.998 mm dia. slot drill)
G43 H1 G0Z80.0000
M3 S9000
G04 P10
G1 X988.1307 Y2181.1699 Z10.0000 F9999
G1 X988.1307 Y2181.1699 Z0.0000 F2500
G1 X987.7816 Y2221.1684 Z-20.0000 F5000
G1 X987.7816 Y2389.7818 Z-20.0000 F5000
G1 X951.5417 Y2389.7818 Z-20.0000 F5000
G1 X951.5417 Y2389.7818 Z-10.0000 F9999
G1 X938.5437 Y2389.7818 Z-10.0000 F5000
G1 X938.5437 Y2389.7818 Z-20.0000 F2500
G1 X901.7837 Y2389.7818 Z-20.0000 F5000
G1 X901.7837 Y2052.5549 Z-20.0000 F5000
G1 X906.7837 Y2052.5549 Z-20.0000 F5000
G1 X906.7837 Y2050.5521 Z-20.0000 F5000
G1 X871.1264 Y2050.5521 Z-20.0000 F5000
G1 X865.7839 Y2045.2097 Z-20.0000 F5000
G1 X865.7839 Y2022.2613 Z-20.0000 F5000
G1 X865.7839 Y2022.2613 Z-10.0000 F9999
G1 X865.7839 Y2009.2633 Z-10.0000 F5000
G1 X865.7839 Y2009.2633 Z-20.0000 F2500
G1 X865.7839 Y1987.8973 Z-20.0000 F5000
G1 X871.1264 Y1982.5551 Z-20.0000 F5000
G1 X906.7837 Y1982.5551 Z-20.0000 F5000
G1 X906.7837 Y1980.5521 Z-20.0000 F5000
G1 X901.7837 Y1980.5521 Z-20.0000 F5000
G1 X901.7837 Y1752.5553 Z-20.0000 F5000
G1 X906.7837 Y1752.5553 Z-20.0000 F5000
G1 X906.7837 Y1750.5525 Z-20.0000 F5000
G1 X871.1265 Y1750.5525 Z-20.0000 F5000
G1 X865.7839 Y1745.2105 Z-20.0000 F5000
G1 X865.7839 Y1713.0550 Z-20.0000 F5000
G1 X928.0014 Y1713.0550 Z-20.0000 F5000
G1 X930.1506 Y1713.3681 Z-20.0000 F5000
G1 X932.4576 Y1714.4482 Z-20.0000 F5000
G1 X934.3423 Y1716.1671 Z-20.0000 F5000
G1 X935.6027 Y1718.2865 Z-20.0000 F5000
G1 X936.2090 Y1720.6761 Z-20.0000 F5000
G1 X936.0922 Y1723.2208 Z-20.0000 F5000
G1 X935.2255 Y1725.6198 Z-20.0000 F5000
G1 X933.9247 Y1727.3603 Z-20.0000 F5000
G1 X930.9966 Y1730.2884 Z-20.0000 F5000
G1 X930.5793 Y1730.8474 Z-20.0000 F5000
G1 X930.4431 Y1731.1908 Z-20.0000 F5000
G1 X930.3975 Y1731.5668 Z-20.0000 F5000
G1 X930.4493 Y1731.9388 Z-20.0000 F5000
G1 X930.5894 Y1732.2765 Z-20.0000 F5000
G1 X930.8159 Y1732.5761 Z-20.0000 F5000
G1 X931.1142 Y1732.8095 Z-20.0000 F5000
G1 X931.4535 Y1732.9558 Z-20.0000 F5000
G1 X932.1416 Y1733.0553 Z-20.0000 F5000
G1 X957.4238 Y1733.0553 Z-20.0000 F5000
G1 X958.1119 Y1732.9558 Z-20.0000 F5000
G1 X958.4512 Y1732.8095 Z-20.0000 F5000
G1 X958.7494 Y1732.5761 Z-20.0000 F5000
G1 X958.9760 Y1732.2765 Z-20.0000 F5000
G1 X959.1161 Y1731.9388 Z-20.0000 F5000
G1 X959.1679 Y1731.5668 Z-20.0000 F5000
G1 X959.1223 Y1731.1908 Z-20.0000 F5000
G1 X958.9860 Y1730.8474 Z-20.0000 F5000
G1 X958.5688 Y1730.2884 Z-20.0000 F5000
G1 X955.6406 Y1727.3603 Z-20.0000 F5000
G1 X954.3399 Y1725.6198 Z-20.0000 F5000
G1 X953.4732 Y1723.2208 Z-20.0000 F5000
G1 X953.3564 Y1720.6761 Z-20.0000 F5000
G1 X953.9627 Y1718.2865 Z-20.0000 F5000
G1 X955.2230 Y1716.1671 Z-20.0000 F5000
G1 X957.1078 Y1714.4482 Z-20.0000 F5000
G1 X959.4147 Y1713.3681 Z-20.0000 F5000
G1 X961.5640 Y1713.0550 Z-20.0000 F5000
G1 X1023.7815 Y1713.0550 Z-20.0000 F5000
G1 X1023.7815 Y1745.2105 Z-20.0000 F5000
G1 X1018.4388 Y1750.5525 Z-20.0000 F5000
G1 X982.7816 Y1750.5525 Z-20.0000 F5000
G1 X982.7816 Y1752.5553 Z-20.0000 F5000
G1 X987.7816 Y1752.5553 Z-20.0000 F5000
G1 X987.7816 Y1980.5521 Z-20.0000 F5000
G1 X982.7816 Y1980.5521 Z-20.0000 F5000
G1 X982.7816 Y1982.5551 Z-20.0000 F5000
G1 X1018.4389 Y1982.5551 Z-20.0000 F5000
G1 X1023.7815 Y1987.8973 Z-20.0000 F5000
G1 X1023.7815 Y2008.8319 Z-20.0000 F5000
G1 X1023.7815 Y2008.8319 Z-10.0000 F9999
G1 X1023.7815 Y2021.8299 Z-10.0000 F5000
G1 X1023.7815 Y2021.8299 Z-20.0000 F2500
G1 X1023.7815 Y2045.2097 Z-20.0000 F5000
G1 X1018.4390 Y2050.5521 Z-20.0000 F5000
G1 X982.7816 Y2050.5521 Z-20.0000 F5000
G1 X982.7816 Y2052.5549 Z-20.0000 F5000
G1 X987.7816 Y2052.5549 Z-20.0000 F5000
G1 X987.7816 Y2221.1684 Z-20.0000 F5000
G1 X987.7816 Y2241.1684 Z-20.0000 F5000
G1 X988.1307 Y2281.1669 Z0.0000 F5000
G1 X988.1307 Y2281.1669 Z10.0000 F9999
G1 X883.7960 Y499.3976 Z10.0000 F9999
G1 X883.7960 Y499.3976 Z0.0000 F2500
G1 X884.1450 Y459.3991 Z-20.0000 F5000
G1 X884.1450 Y345.4003 Z-20.0000 F5000
G1 X889.1450 Y345.4003 Z-20.0000 F5000
G1 X889.1450 Y343.3983 Z-20.0000 F5000
G1 X871.4876 Y343.3983 Z-20.0000 F5000
G1 X866.1451 Y338.0557 Z-20.0000 F5000
G1 X866.1451 Y280.7430 Z-20.0000 F5000
G1 X871.4876 Y275.4005 Z-20.0000 F5000
G1 X889.1450 Y275.4005 Z-20.0000 F5000
G1 X889.1450 Y273.3985 Z-20.0000 F5000
G1 X884.1450 Y273.3985 Z-20.0000 F5000
G1 X884.1450 Y107.2263 Z-20.0000 F5000
G1 X884.1450 Y107.2263 Z-10.0000 F9999
G1 X884.1450 Y94.2283 Z-10.0000 F5000
G1 X884.1450 Y94.2283 Z-20.0000 F2500
G1 X884.1450 Y45.4009 Z-20.0000 F5000
G1 X889.1450 Y45.4009 Z-20.0000 F5000
G1 X889.1450 Y43.3989 Z-20.0000 F5000
G1 X871.4876 Y43.3989 Z-20.0000 F5000
G1 X866.1451 Y38.0564 Z-20.0000 F5000
G1 X866.1451 Y5.9010 Z-20.0000 F5000
G1 X928.3613 Y5.9010 Z-20.0000 F5000
G1 X930.5119 Y6.2128 Z-20.0000 F5000
G1 X932.8200 Y7.2953 Z-20.0000 F5000
G1 X934.7034 Y9.0135 Z-20.0000 F5000
G1 X935.9636 Y11.1316 Z-20.0000 F5000
G1 X936.5702 Y13.5204 Z-20.0000 F5000
G1 X936.4534 Y16.0670 Z-20.0000 F5000
G1 X935.5868 Y18.4645 Z-20.0000 F5000
G1 X934.2866 Y20.2057 Z-20.0000 F5000
G1 X931.3576 Y23.1347 Z-20.0000 F5000
G1 X930.9406 Y23.6931 Z-20.0000 F5000
G1 X930.8043 Y24.0363 Z-20.0000 F5000
G1 X930.7586 Y24.4121 Z-20.0000 F5000
G1 X930.8103 Y24.7840 Z-20.0000 F5000
G1 X930.9502 Y25.1217 Z-20.0000 F5000
G1 X931.1766 Y25.4212 Z-20.0000 F5000
G1 X931.4746 Y25.6546 Z-20.0000 F5000
G1 X931.8137 Y25.8010 Z-20.0000 F5000
G1 X932.5034 Y25.9010 Z-20.0000 F5000
G1 X957.7844 Y25.9010 Z-20.0000 F5000
G1 X958.4741 Y25.8010 Z-20.0000 F5000
G1 X958.8132 Y25.6546 Z-20.0000 F5000
G1 X959.1112 Y25.4212 Z-20.0000 F5000
G1 X959.3376 Y25.1217 Z-20.0000 F5000
G1 X959.4775 Y24.7840 Z-20.0000 F5000
G1 X959.5292 Y24.4121 Z-20.0000 F5000
G1 X959.4835 Y24.0363 Z-20.0000 F5000
G1 X959.3472 Y23.6931 Z-20.0000 F5000
G1 X958.9302 Y23.1347 Z-20.0000 F5000
G1 X956.0013 Y20.2057 Z-20.0000 F5000
G1 X954.7011 Y18.4645 Z-20.0000 F5000
G1 X953.8344 Y16.0670 Z-20.0000 F5000
G1 X953.7176 Y13.5204 Z-20.0000 F5000
G1 X954.3242 Y11.1316 Z-20.0000 F5000
G1 X955.5844 Y9.0135 Z-20.0000 F5000
G1 X957.4678 Y7.2953 Z-20.0000 F5000
G1 X959.7759 Y6.2128 Z-20.0000 F5000
G1 X961.9265 Y5.9010 Z-20.0000 F5000
G1 X1024.1427 Y5.9010 Z-20.0000 F5000
G1 X1024.1427 Y38.0564 Z-20.0000 F5000
G1 X1018.8003 Y43.3989 Z-20.0000 F5000
G1 X1001.1428 Y43.3989 Z-20.0000 F5000
G1 X1001.1428 Y45.4009 Z-20.0000 F5000
G1 X1006.1428 Y45.4009 Z-20.0000 F5000
G1 X1006.1428 Y91.9992 Z-20.0000 F5000
G1 X1006.1428 Y91.9992 Z-10.0000 F9999
G1 X1006.1428 Y104.9972 Z-10.0000 F5000
G1 X1006.1428 Y104.9972 Z-20.0000 F2500
G1 X1006.1428 Y273.3985 Z-20.0000 F5000
G1 X1001.1428 Y273.3985 Z-20.0000 F5000
G1 X1001.1428 Y275.4005 Z-20.0000 F5000
G1 X1018.8002 Y275.4005 Z-20.0000 F5000
G1 X1024.1427 Y280.7430 Z-20.0000 F5000
G1 X1024.1427 Y338.0557 Z-20.0000 F5000
G1 X1018.8003 Y343.3983 Z-20.0000 F5000
G1 X1001.1428 Y343.3983 Z-20.0000 F5000
G1 X1001.1428 Y345.4003 Z-20.0000 F5000
G1 X1006.1428 Y345.4003 Z-20.0000 F5000
G1 X1006.1428 Y573.3979 Z-20.0000 F5000
G1 X1001.1428 Y573.3979 Z-20.0000 F5000
G1 X1001.1428 Y575.3999 Z-20.0000 F5000
G1 X1018.8003 Y575.3999 Z-20.0000 F5000
G1 X1024.1427 Y580.7425 Z-20.0000 F5000
G1 X1024.1427 Y604.3979 Z-20.0000 F5000
G1 X977.1449 Y604.3979 Z-20.0000 F5000
G1 X977.1449 Y599.3978 Z-20.0000 F5000
G1 X975.1429 Y599.3978 Z-20.0000 F5000
G1 X975.1429 Y619.3998 Z-20.0000 F5000
G1 X977.1449 Y619.3998 Z-20.0000 F5000
G1 X977.1449 Y614.3997 Z-20.0000 F5000
G1 X1024.1427 Y614.3997 Z-20.0000 F5000
G1 X1024.1427 Y638.0552 Z-20.0000 F5000
G1 X1018.8003 Y643.3977 Z-20.0000 F5000
G1 X1001.1428 Y643.3977 Z-20.0000 F5000
G1 X1001.1428 Y645.3997 Z-20.0000 F5000
G1 X1006.1428 Y645.3997 Z-20.0000 F5000
G1 X1006.1428 Y873.3973 Z-20.0000 F5000
G1 X1001.1428 Y873.3973 Z-20.0000 F5000
G1 X1001.1428 Y875.3993 Z-20.0000 F5000
G1 X1018.8003 Y875.3993 Z-20.0000 F5000
G1 X1024.1427 Y880.7418 Z-20.0000 F5000
G1 X1024.1427 Y938.0546 Z-20.0000 F5000
G1 X1018.8003 Y943.3971 Z-20.0000 F5000
G1 X1001.1428 Y943.3971 Z-20.0000 F5000
G1 X1001.1428 Y945.3991 Z-20.0000 F5000
G1 X1006.1428 Y945.3991 Z-20.0000 F5000
G1 X1006.1428 Y1063.3970 Z-20.0000 F5000
G1 X983.1429 Y1063.3970 Z-20.0000 F5000
G1 X983.1429 Y1065.3990 Z-20.0000 F5000
G1 X988.1429 Y1065.3990 Z-20.0000 F5000
G1 X988.1429 Y1173.3967 Z-20.0000 F5000
G1 X983.1429 Y1173.3967 Z-20.0000 F5000
G1 X983.1429 Y1175.3987 Z-20.0000 F5000
G1 X1018.8003 Y1175.3987 Z-20.0000 F5000
G1 X1024.1427 Y1180.7412 Z-20.0000 F5000
G1 X1024.1427 Y1238.0539 Z-20.0000 F5000
G1 X1018.8003 Y1243.3965 Z-20.0000 F5000
G1 X983.1429 Y1243.3965 Z-20.0000 F5000
G1 X983.1429 Y1245.3985 Z-20.0000 F5000
G1 X988.1429 Y1245.3985 Z-20.0000 F5000
G1 X988.1429 Y1473.3960 Z-20.0000 F5000
G1 X983.1429 Y1473.3960 Z-20.0000 F5000
G1 X983.1429 Y1475.3980 Z-20.0000 F5000
G1 X1018.8003 Y1475.3980 Z-20.0000 F5000
G1 X1024.1427 Y1480.7406 Z-20.0000 F5000
G1 X1024.1427 Y1501.5610 Z-20.0000 F5000
G1 X1024.1427 Y1501.5610 Z-10.0000 F9999
G1 X1024.1427 Y1514.5590 Z-10.0000 F5000
G1 X1024.1427 Y1514.5590 Z-20.0000 F2500
G1 X1024.1427 Y1538.0535 Z-20.0000 F5000
G1 X1018.8003 Y1543.3960 Z-20.0000 F5000
G1 X983.1429 Y1543.3960 Z-20.0000 F5000
G1 X983.1429 Y1545.3979 Z-20.0000 F5000
G1 X988.1429 Y1545.3979 Z-20.0000 F5000
G1 X988.1429 Y1674.8957 Z-20.0000 F5000
G1 X902.1450 Y1674.8957 Z-20.0000 F5000
G1 X902.1450 Y1545.3979 Z-20.0000 F5000
G1 X907.1450 Y1545.3979 Z-20.0000 F5000
G1 X907.1450 Y1543.3960 Z-20.0000 F5000
G1 X871.4876 Y1543.3960 Z-20.0000 F5000
G1 X866.1451 Y1538.0535 Z-20.0000 F5000
G1 X866.1451 Y1515.0279 Z-20.0000 F5000
G1 X866.1451 Y1515.0279 Z-10.0000 F9999
G1 X866.1451 Y1502.0299 Z-10.0000 F5000
G1 X866.1451 Y1502.0299 Z-20.0000 F2500
G1 X866.1451 Y1480.7406 Z-20.0000 F5000
G1 X871.4876 Y1475.3980 Z-20.0000 F5000
G1 X907.1450 Y1475.3980 Z-20.0000 F5000
G1 X907.1450 Y1473.3960 Z-20.0000 F5000
G1 X902.1450 Y1473.3960 Z-20.0000 F5000
G1 X902.1450 Y1245.3985 Z-20.0000 F5000
G1 X907.1450 Y1245.3985 Z-20.0000 F5000
G1 X907.1450 Y1243.3965 Z-20.0000 F5000
G1 X871.4876 Y1243.3965 Z-20.0000 F5000
G1 X866.1451 Y1238.0539 Z-20.0000 F5000
G1 X866.1451 Y1180.7412 Z-20.0000 F5000
G1 X871.4876 Y1175.3987 Z-20.0000 F5000
G1 X907.1450 Y1175.3987 Z-20.0000 F5000
G1 X907.1450 Y1173.3967 Z-20.0000 F5000
G1 X902.1451 Y1173.3967 Z-20.0000 F5000
G1 X902.1426 Y1065.3990 Z-20.0000 F5000
G1 X907.1427 Y1065.3990 Z-20.0000 F5000
G1 X907.1427 Y1063.3970 Z-20.0000 F5000
G1 X884.1450 Y1063.3970 Z-20.0000 F5000
G1 X884.1450 Y945.3991 Z-20.0000 F5000
G1 X889.1450 Y945.3991 Z-20.0000 F5000
G1 X889.1450 Y943.3971 Z-20.0000 F5000
G1 X871.4876 Y943.3971 Z-20.0000 F5000
G1 X866.1451 Y938.0546 Z-20.0000 F5000
G1 X866.1451 Y880.7418 Z-20.0000 F5000
G1 X871.4876 Y875.3993 Z-20.0000 F5000
G1 X889.1450 Y875.3993 Z-20.0000 F5000
G1 X889.1450 Y873.3973 Z-20.0000 F5000
G1 X884.1450 Y873.3973 Z-20.0000 F5000
G1 X884.1450 Y645.3997 Z-20.0000 F5000
G1 X889.1450 Y645.3997 Z-20.0000 F5000
G1 X889.1450 Y643.3977 Z-20.0000 F5000
G1 X871.4876 Y643.3977 Z-20.0000 F5000
G1 X866.1451 Y638.0552 Z-20.0000 F5000
G1 X866.1451 Y614.3997 Z-20.0000 F5000
G1 X913.1430 Y614.3997 Z-20.0000 F5000
G1 X913.1430 Y619.3998 Z-20.0000 F5000
G1 X915.1450 Y619.3998 Z-20.0000 F5000
G1 X915.1450 Y599.3978 Z-20.0000 F5000
G1 X913.1430 Y599.3978 Z-20.0000 F5000
G1 X913.1430 Y604.3979 Z-20.0000 F5000
G1 X866.1451 Y604.3979 Z-20.0000 F5000
G1 X866.1451 Y580.7425 Z-20.0000 F5000
G1 X871.4876 Y575.3999 Z-20.0000 F5000
G1 X889.1450 Y575.3999 Z-20.0000 F5000
G1 X889.1450 Y573.3979 Z-20.0000 F5000
G1 X884.1450 Y573.3979 Z-20.0000 F5000
G1 X884.1450 Y459.3991 Z-20.0000 F5000
G1 X884.1450 Y439.3991 Z-20.0000 F5000
G1 X883.7960 Y399.4006 Z0.0000 F5000
G1 X883.7960 Y399.4006 Z10.0000 F9999
G1 X539.6983 Y499.3976 Z10.0000 F9999
G1 X539.6983 Y499.3976 Z0.0000 F2500
G1 X540.0474 Y459.3991 Z-20.0000 F5000
G1 X540.0474 Y345.4003 Z-20.0000 F5000
G1 X545.0474 Y345.4003 Z-20.0000 F5000
G1 X545.0474 Y343.3983 Z-20.0000 F5000
G1 X527.3899 Y343.3983 Z-20.0000 F5000
G1 X522.0475 Y338.0557 Z-20.0000 F5000
G1 X522.0475 Y280.7430 Z-20.0000 F5000
G1 X527.3900 Y275.4005 Z-20.0000 F5000
G1 X545.0474 Y275.4005 Z-20.0000 F5000
G1 X545.0474 Y273.3985 Z-20.0000 F5000
G1 X540.0474 Y273.3985 Z-20.0000 F5000
G1 X540.0474 Y103.5111 Z-20.0000 F5000
G1 X540.0474 Y103.5111 Z-10.0000 F9999
G1 X540.0474 Y90.5131 Z-10.0000 F5000
G1 X540.0474 Y90.5131 Z-20.0000 F2500
G1 X540.0474 Y45.4009 Z-20.0000 F5000
G1 X545.0474 Y45.4009 Z-20.0000 F5000
G1 X545.0474 Y43.3989 Z-20.0000 F5000
G1 X527.3899 Y43.3989 Z-20.0000 F5000
G1 X522.0475 Y38.0564 Z-20.0000 F5000
G1 X522.0475 Y5.9010 Z-20.0000 F5000
G1 X584.2637 Y5.9010 Z-20.0000 F5000
G1 X586.4143 Y6.2128 Z-20.0000 F5000
G1 X588.7224 Y7.2953 Z-20.0000 F5000
G1 X590.6058 Y9.0135 Z-20.0000 F5000
G1 X591.8660 Y11.1316 Z-20.0000 F5000
G1 X592.4725 Y13.5204 Z-20.0000 F5000
G1 X592.3558 Y16.0670 Z-20.0000 F5000
G1 X591.4891 Y18.4645 Z-20.0000 F5000
G1 X590.1889 Y20.2057 Z-20.0000 F5000
G1 X587.2599 Y23.1347 Z-20.0000 F5000
G1 X586.8430 Y23.6931 Z-20.0000 F5000
G1 X586.7067 Y24.0363 Z-20.0000 F5000
G1 X586.6610 Y24.4121 Z-20.0000 F5000
G1 X586.7127 Y24.7840 Z-20.0000 F5000
G1 X586.8525 Y25.1217 Z-20.0000 F5000
G1 X587.0789 Y25.4212 Z-20.0000 F5000
G1 X587.3770 Y25.6546 Z-20.0000 F5000
G1 X587.7161 Y25.8010 Z-20.0000 F5000
G1 X588.4058 Y25.9010 Z-20.0000 F5000
G1 X613.6868 Y25.9010 Z-20.0000 F5000
G1 X614.3765 Y25.8010 Z-20.0000 F5000
G1 X614.7156 Y25.6546 Z-20.0000 F5000
G1 X615.0136 Y25.4212 Z-20.0000 F5000
G1 X615.2400 Y25.1217 Z-20.0000 F5000
G1 X615.3799 Y24.7840 Z-20.0000 F5000
G1 X615.4316 Y24.4121 Z-20.0000 F5000
G1 X615.3859 Y24.0363 Z-20.0000 F5000
G1 X615.2496 Y23.6931 Z-20.0000 F5000
G1 X614.8326 Y23.1347 Z-20.0000 F5000
G1 X611.9036 Y20.2057 Z-20.0000 F5000
G1 X610.6034 Y18.4645 Z-20.0000 F5000
G1 X609.7368 Y16.0670 Z-20.0000 F5000
G1 X609.6200 Y13.5204 Z-20.0000 F5000
G1 X610.2266 Y11.1316 Z-20.0000 F5000
G1 X611.4867 Y9.0135 Z-20.0000 F5000
G1 X613.3701 Y7.2953 Z-20.0000 F5000
G1 X615.6783 Y6.2128 Z-20.0000 F5000
G1 X617.8289 Y5.9010 Z-20.0000 F5000
G1 X680.0451 Y5.9010 Z-20.0000 F5000
G1 X680.0451 Y38.0564 Z-20.0000 F5000
G1 X674.7026 Y43.3989 Z-20.0000 F5000
G1 X657.0452 Y43.3989 Z-20.0000 F5000
G1 X657.0452 Y45.4009 Z-20.0000 F5000
G1 X662.0452 Y45.4009 Z-20.0000 F5000
G1 X662.0452 Y94.2283 Z-20.0000 F5000
G1 X662.0452 Y94.2283 Z-10.0000 F9999
G1 X662.0452 Y107.2263 Z-10.0000 F5000
G1 X662.0452 Y107.2263 Z-20.0000 F2500
G1 X662.0452 Y273.3985 Z-20.0000 F5000
G1 X657.0452 Y273.3985 Z-20.0000 F5000
G1 X657.0452 Y275.4005 Z-20.0000 F5000
G1 X674.7026 Y275.4005 Z-20.0000 F5000
G1 X680.0451 Y280.7430 Z-20.0000 F5000
G1 X680.0451 Y338.0557 Z-20.0000 F5000
G1 X674.7026 Y343.3983 Z-20.0000 F5000
G1 X657.0452 Y343.3983 Z-20.0000 F5000
G1 X657.0452 Y345.4003 Z-20.0000 F5000
G1 X662.0452 Y345.4003 Z-20.0000 F5000
G1 X662.0452 Y573.3979 Z-20.0000 F5000
G1 X657.0452 Y573.3979 Z-20.0000 F5000
G1 X657.0452 Y575.3999 Z-20.0000 F5000
G1 X674.7026 Y575.3999 Z-20.0000 F5000
G1 X680.0451 Y580.7425 Z-20.0000 F5000
G1 X680.0451 Y604.3979 Z-20.0000 F5000
G1 X633.0472 Y604.3979 Z-20.0000 F5000
G1 X633.0472 Y599.3978 Z-20.0000 F5000
G1 X631.0452 Y599.3978 Z-20.0000 F5000
G1 X631.0452 Y619.3998 Z-20.0000 F5000
G1 X633.0472 Y619.3998 Z-20.0000 F5000
G1 X633.0472 Y614.3997 Z-20.0000 F5000
G1 X680.0451 Y614.3997 Z-20.0000 F5000
G1 X680.0451 Y638.0552 Z-20.0000 F5000
G1 X674.7026 Y643.3977 Z-20.0000 F5000
G1 X657.0452 Y643.3977 Z-20.0000 F5000
G1 X657.0452 Y645.3997 Z-20.0000 F5000
G1 X662.0452 Y645.3997 Z-20.0000 F5000
G1 X662.0452 Y873.3973 Z-20.0000 F5000
G1 X657.0452 Y873.3973 Z-20.0000 F5000
G1 X657.0452 Y875.3993 Z-20.0000 F5000
G1 X674.7026 Y875.3993 Z-20.0000 F5000
G1 X680.0451 Y880.7418 Z-20.0000 F5000
G1 X680.0451 Y938.0546 Z-20.0000 F5000
G1 X674.7026 Y943.3971 Z-20.0000 F5000
G1 X657.0452 Y943.3971 Z-20.0000 F5000
G1 X657.0452 Y945.3991 Z-20.0000 F5000
G1 X662.0452 Y945.3991 Z-20.0000 F5000
G1 X662.0452 Y1063.3970 Z-20.0000 F5000
G1 X639.0452 Y1063.3970 Z-20.0000 F5000
G1 X639.0452 Y1065.3990 Z-20.0000 F5000
G1 X644.0452 Y1065.3990 Z-20.0000 F5000
G1 X644.0452 Y1173.3967 Z-20.0000 F5000
G1 X639.0452 Y1173.3967 Z-20.0000 F5000
G1 X639.0452 Y1175.3987 Z-20.0000 F5000
G1 X674.7026 Y1175.3987 Z-20.0000 F5000
G1 X680.0451 Y1180.7412 Z-20.0000 F5000
G1 X680.0451 Y1238.0539 Z-20.0000 F5000
G1 X674.7026 Y1243.3965 Z-20.0000 F5000
G1 X639.0452 Y1243.3965 Z-20.0000 F5000
G1 X639.0452 Y1245.3985 Z-20.0000 F5000
G1 X644.0452 Y1245.3985 Z-20.0000 F5000
G1 X644.0452 Y1473.3960 Z-20.0000 F5000
G1 X639.0452 Y1473.3960 Z-20.0000 F5000
G1 X639.0452 Y1475.3980 Z-20.0000 F5000
G1 X674.7026 Y1475.3980 Z-20.0000 F5000
G1 X680.0451 Y1480.7406 Z-20.0000 F5000
G1 X680.0451 Y1502.4987 Z-20.0000 F5000
G1 X680.0451 Y1502.4987 Z-10.0000 F9999
G1 X680.0451 Y1515.4967 Z-10.0000 F5000
G1 X680.0451 Y1515.4967 Z-20.0000 F2500
G1 X680.0451 Y1538.0535 Z-20.0000 F5000
G1 X674.7026 Y1543.3960 Z-20.0000 F5000
G1 X639.0452 Y1543.3960 Z-20.0000 F5000
G1 X639.0452 Y1545.3979 Z-20.0000 F5000
G1 X644.0452 Y1545.3979 Z-20.0000 F5000
G1 X644.0452 Y1674.8957 Z-20.0000 F5000
G1 X558.0473 Y1674.8957 Z-20.0000 F5000
G1 X558.0473 Y1545.3979 Z-20.0000 F5000
G1 X563.0473 Y1545.3979 Z-20.0000 F5000
G1 X563.0473 Y1543.3960 Z-20.0000 F5000
G1 X527.3899 Y1543.3960 Z-20.0000 F5000
G1 X522.0475 Y1538.0535 Z-20.0000 F5000
G1 X522.0475 Y1514.3056 Z-20.0000 F5000
G1 X522.0475 Y1514.3056 Z-10.0000 F9999
G1 X522.0475 Y1501.3076 Z-10.0000 F5000
G1 X522.0475 Y1501.3076 Z-20.0000 F2500
G1 X522.0475 Y1480.7406 Z-20.0000 F5000
G1 X527.3899 Y1475.3980 Z-20.0000 F5000
G1 X563.0473 Y1475.3980 Z-20.0000 F5000
G1 X563.0473 Y1473.3960 Z-20.0000 F5000
G1 X558.0473 Y1473.3960 Z-20.0000 F5000
G1 X558.0473 Y1245.3985 Z-20.0000 F5000
G1 X563.0473 Y1245.3985 Z-20.0000 F5000
G1 X563.0473 Y1243.3965 Z-20.0000 F5000
G1 X527.3899 Y1243.3965 Z-20.0000 F5000
G1 X522.0475 Y1238.0539 Z-20.0000 F5000
G1 X522.0475 Y1180.7412 Z-20.0000 F5000
G1 X527.3899 Y1175.3987 Z-20.0000 F5000
G1 X563.0473 Y1175.3987 Z-20.0000 F5000
G1 X563.0473 Y1173.3967 Z-20.0000 F5000
G1 X558.0474 Y1173.3967 Z-20.0000 F5000
G1 X558.0449 Y1065.3990 Z-20.0000 F5000
G1 X563.0450 Y1065.3990 Z-20.0000 F5000
G1 X563.0450 Y1063.3970 Z-20.0000 F5000
G1 X540.0474 Y1063.3970 Z-20.0000 F5000
G1 X540.0474 Y945.3991 Z-20.0000 F5000
G1 X545.0474 Y945.3991 Z-20.0000 F5000
G1 X545.0474 Y943.3971 Z-20.0000 F5000
G1 X527.3899 Y943.3971 Z-20.0000 F5000
G1 X522.0475 Y938.0546 Z-20.0000 F5000
G1 X522.0475 Y880.7418 Z-20.0000 F5000
G1 X527.3899 Y875.3993 Z-20.0000 F5000
G1 X545.0474 Y875.3993 Z-20.0000 F5000
G1 X545.0474 Y873.3973 Z-20.0000 F5000
G1 X540.0474 Y873.3973 Z-20.0000 F5000
G1 X540.0474 Y645.3997 Z-20.0000 F5000
G1 X545.0474 Y645.3997 Z-20.0000 F5000
G1 X545.0474 Y643.3977 Z-20.0000 F5000
G1 X527.3899 Y643.3977 Z-20.0000 F5000
G1 X522.0475 Y638.0552 Z-20.0000 F5000
G1 X522.0475 Y614.3997 Z-20.0000 F5000
G1 X569.0453 Y614.3997 Z-20.0000 F5000
G1 X569.0453 Y619.3998 Z-20.0000 F5000
G1 X571.0473 Y619.3998 Z-20.0000 F5000
G1 X571.0473 Y599.3978 Z-20.0000 F5000
G1 X569.0453 Y599.3978 Z-20.0000 F5000
G1 X569.0453 Y604.3979 Z-20.0000 F5000
G1 X522.0475 Y604.3979 Z-20.0000 F5000
G1 X522.0475 Y580.7425 Z-20.0000 F5000
G1 X527.3899 Y575.3999 Z-20.0000 F5000
G1 X545.0474 Y575.3999 Z-20.0000 F5000
G1 X545.0474 Y573.3979 Z-20.0000 F5000
G1 X540.0474 Y573.3979 Z-20.0000 F5000
G1 X540.0474 Y459.3991 Z-20.0000 F5000
G1 X540.0474 Y439.3991 Z-20.0000 F5000
G1 X539.6983 Y399.4006 Z0.0000 F5000
G1 X539.6983 Y399.4006 Z10.0000 F9999
G1 X644.3753 Y2181.1699 Z10.0000 F9999
G1 X644.3753 Y2181.1699 Z0.0000 F2500
G1 X644.0263 Y2221.1684 Z-20.0000 F5000
G1 X644.0263 Y2389.7818 Z-20.0000 F5000
G1 X607.7864 Y2389.7818 Z-20.0000 F5000
G1 X607.7864 Y2389.7818 Z-10.0000 F9999
G1 X594.7884 Y2389.7818 Z-10.0000 F5000
G1 X594.7884 Y2389.7818 Z-20.0000 F2500
G1 X558.0284 Y2389.7818 Z-20.0000 F5000
G1 X558.0284 Y2052.5549 Z-20.0000 F5000
G1 X563.0284 Y2052.5549 Z-20.0000 F5000
G1 X563.0284 Y2050.5521 Z-20.0000 F5000
G1 X527.3711 Y2050.5521 Z-20.0000 F5000
G1 X522.0285 Y2045.2097 Z-20.0000 F5000
G1 X522.0285 Y2022.2613 Z-20.0000 F5000
G1 X522.0285 Y2022.2613 Z-10.0000 F9999
G1 X522.0285 Y2009.2633 Z-10.0000 F5000
G1 X522.0285 Y2009.2633 Z-20.0000 F2500
G1 X522.0285 Y1987.8973 Z-20.0000 F5000
G1 X527.3711 Y1982.5551 Z-20.0000 F5000
G1 X563.0284 Y1982.5551 Z-20.0000 F5000
G1 X563.0284 Y1980.5521 Z-20.0000 F5000
G1 X558.0284 Y1980.5521 Z-20.0000 F5000
G1 X558.0284 Y1752.5553 Z-20.0000 F5000
G1 X563.0284 Y1752.5553 Z-20.0000 F5000
G1 X563.0284 Y1750.5525 Z-20.0000 F5000
G1 X527.3712 Y1750.5525 Z-20.0000 F5000
G1 X522.0285 Y1745.2105 Z-20.0000 F5000
G1 X522.0285 Y1713.0550 Z-20.0000 F5000
G1 X584.2461 Y1713.0550 Z-20.0000 F5000
G1 X586.3953 Y1713.3681 Z-20.0000 F5000
G1 X588.7022 Y1714.4482 Z-20.0000 F5000
G1 X590.5870 Y1716.1671 Z-20.0000 F5000
G1 X591.8473 Y1718.2865 Z-20.0000 F5000
G1 X592.4536 Y1720.6761 Z-20.0000 F5000
G1 X592.3368 Y1723.2208 Z-20.0000 F5000
G1 X591.4701 Y1725.6198 Z-20.0000 F5000
G1 X590.1694 Y1727.3603 Z-20.0000 F5000
G1 X587.2413 Y1730.2884 Z-20.0000 F5000
G1 X586.8240 Y1730.8474 Z-20.0000 F5000
G1 X586.6877 Y1731.1908 Z-20.0000 F5000
G1 X586.6421 Y1731.5668 Z-20.0000 F5000
G1 X586.6940 Y1731.9388 Z-20.0000 F5000
G1 X586.8340 Y1732.2765 Z-20.0000 F5000
G1 X587.0606 Y1732.5761 Z-20.0000 F5000
G1 X587.3589 Y1732.8095 Z-20.0000 F5000
G1 X587.6981 Y1732.9558 Z-20.0000 F5000
G1 X588.3862 Y1733.0553 Z-20.0000 F5000
G1 X613.6684 Y1733.0553 Z-20.0000 F5000
G1 X614.3565 Y1732.9558 Z-20.0000 F5000
G1 X614.6958 Y1732.8095 Z-20.0000 F5000
G1 X614.9941 Y1732.5761 Z-20.0000 F5000
G1 X615.2207 Y1732.2765 Z-20.0000 F5000
G1 X615.3607 Y1731.9388 Z-20.0000 F5000
G1 X615.4125 Y1731.5668 Z-20.0000 F5000
G1 X615.3669 Y1731.1908 Z-20.0000 F5000
G1 X615.2307 Y1730.8474 Z-20.0000 F5000
G1 X614.8134 Y1730.2884 Z-20.0000 F5000
G1 X611.8853 Y1727.3603 Z-20.0000 F5000
G1 X610.5845 Y1725.6198 Z-20.0000 F5000
G1 X609.7179 Y1723.2208 Z-20.0000 F5000
G1 X609.6011 Y1720.6761 Z-20.0000 F5000
G1 X610.2073 Y1718.2865 Z-20.0000 F5000
G1 X611.4677 Y1716.1671 Z-20.0000 F5000
G1 X613.3525 Y1714.4482 Z-20.0000 F5000
G1 X615.6594 Y1713.3681 Z-20.0000 F5000
G1 X617.8086 Y1713.0550 Z-20.0000 F5000
G1 X680.0262 Y1713.0550 Z-20.0000 F5000
G1 X680.0262 Y1745.2105 Z-20.0000 F5000
G1 X674.6835 Y1750.5525 Z-20.0000 F5000
G1 X639.0263 Y1750.5525 Z-20.0000 F5000
G1 X639.0263 Y1752.5553 Z-20.0000 F5000
G1 X644.0263 Y1752.5553 Z-20.0000 F5000
G1 X644.0263 Y1980.5521 Z-20.0000 F5000
G1 X639.0263 Y1980.5521 Z-20.0000 F5000
G1 X639.0263 Y1982.5551 Z-20.0000 F5000
G1 X674.6836 Y1982.5551 Z-20.0000 F5000
G1 X680.0262 Y1987.8973 Z-20.0000 F5000
G1 X680.0262 Y2008.8319 Z-20.0000 F5000
G1 X680.0262 Y2008.8319 Z-10.0000 F9999
G1 X680.0262 Y2021.8299 Z-10.0000 F5000
G1 X680.0262 Y2021.8299 Z-20.0000 F2500
G1 X680.0262 Y2045.2097 Z-20.0000 F5000
G1 X674.6836 Y2050.5521 Z-20.0000 F5000
G1 X639.0263 Y2050.5521 Z-20.0000 F5000
G1 X639.0263 Y2052.5549 Z-20.0000 F5000
G1 X644.0263 Y2052.5549 Z-20.0000 F5000
G1 X644.0263 Y2221.1684 Z-20.0000 F5000
G1 X644.0263 Y2241.1684 Z-20.0000 F5000
G1 X644.3753 Y2281.1669 Z0.0000 F5000
G1 X644.3753 Y2281.1669 Z10.0000 F9999
G1 X213.6006 Y1795.6449 Z10.0000 F9999
G1 X213.6006 Y1795.6449 Z0.0000 F2500
G1 X213.9497 Y1755.6464 Z-20.0000 F5000
G1 X213.9497 Y1565.8978 Z-20.0000 F5000
G1 X218.9497 Y1565.8978 Z-20.0000 F5000
G1 X218.9497 Y1563.8958 Z-20.0000 F5000
G1 X183.2923 Y1563.8958 Z-20.0000 F5000
G1 X177.9498 Y1558.5532 Z-20.0000 F5000
G1 X177.9498 Y1536.6499 Z-20.0000 F5000
G1 X177.9498 Y1536.6499 Z-10.0000 F9999
G1 X177.9498 Y1523.6519 Z-10.0000 F5000
G1 X177.9498 Y1523.6519 Z-20.0000 F2500
G1 X177.9498 Y1501.2405 Z-20.0000 F5000
G1 X183.2923 Y1495.8979 Z-20.0000 F5000
G1 X218.9497 Y1495.8979 Z-20.0000 F5000
G1 X218.9497 Y1493.8959 Z-20.0000 F5000
G1 X213.9497 Y1493.8959 Z-20.0000 F5000
G1 X213.9497 Y1265.8984 Z-20.0000 F5000
G1 X218.9497 Y1265.8984 Z-20.0000 F5000
G1 X218.9497 Y1263.8964 Z-20.0000 F5000
G1 X183.2923 Y1263.8964 Z-20.0000 F5000
G1 X177.9498 Y1258.5539 Z-20.0000 F5000
G1 X177.9498 Y1201.2411 Z-20.0000 F5000
G1 X183.2923 Y1195.8986 Z-20.0000 F5000
G1 X218.9497 Y1195.8986 Z-20.0000 F5000
G1 X218.9497 Y1193.8966 Z-20.0000 F5000
G1 X213.9497 Y1193.8966 Z-20.0000 F5000
G1 X213.9497 Y1085.8987 Z-20.0000 F5000
G1 X218.9497 Y1085.8987 Z-20.0000 F5000
G1 X218.9497 Y1083.8968 Z-20.0000 F5000
G1 X195.9498 Y1083.8968 Z-20.0000 F5000
G1 X195.9498 Y965.8990 Z-20.0000 F5000
G1 X200.9498 Y965.8990 Z-20.0000 F5000
G1 X200.9498 Y963.8970 Z-20.0000 F5000
G1 X183.2923 Y963.8970 Z-20.0000 F5000
G1 X177.9498 Y958.5545 Z-20.0000 F5000
G1 X177.9498 Y934.8990 Z-20.0000 F5000
G1 X224.9477 Y934.8990 Z-20.0000 F5000
G1 X224.9477 Y939.8990 Z-20.0000 F5000
G1 X226.9497 Y939.8990 Z-20.0000 F5000
G1 X226.9497 Y919.8970 Z-20.0000 F5000
G1 X224.9477 Y919.8970 Z-20.0000 F5000
G1 X224.9477 Y924.8970 Z-20.0000 F5000
G1 X177.9498 Y924.8970 Z-20.0000 F5000
G1 X177.9498 Y901.2416 Z-20.0000 F5000
G1 X183.2923 Y895.8992 Z-20.0000 F5000
G1 X200.9498 Y895.8992 Z-20.0000 F5000
G1 X200.9498 Y893.8972 Z-20.0000 F5000
G1 X195.9498 Y893.8972 Z-20.0000 F5000
G1 X195.9498 Y665.8997 Z-20.0000 F5000
G1 X200.9498 Y665.8997 Z-20.0000 F5000
G1 X200.9498 Y663.8975 Z-20.0000 F5000
G1 X183.2923 Y663.8975 Z-20.0000 F5000
G1 X177.9498 Y658.5551 Z-20.0000 F5000
G1 X177.9498 Y601.2424 Z-20.0000 F5000
G1 X183.2923 Y595.8998 Z-20.0000 F5000
G1 X200.9498 Y595.8998 Z-20.0000 F5000
G1 X200.9498 Y593.8978 Z-20.0000 F5000
G1 X195.9498 Y593.8978 Z-20.0000 F5000
G1 X195.9498 Y365.9003 Z-20.0000 F5000
G1 X200.9498 Y365.9003 Z-20.0000 F5000
G1 X200.9498 Y363.8983 Z-20.0000 F5000
G1 X183.2923 Y363.8983 Z-20.0000 F5000
G1 X177.9498 Y358.5557 Z-20.0000 F5000
G1 X177.9498 Y334.9003 Z-20.0000 F5000
G1 X224.9477 Y334.9003 Z-20.0000 F5000
G1 X224.9477 Y339.9003 Z-20.0000 F5000
G1 X226.9497 Y339.9003 Z-20.0000 F5000
G1 X226.9497 Y319.8983 Z-20.0000 F5000
G1 X224.9477 Y319.8983 Z-20.0000 F5000
G1 X224.9477 Y324.8983 Z-20.0000 F5000
G1 X177.9498 Y324.8983 Z-20.0000 F5000
G1 X177.9498 Y301.2430 Z-20.0000 F5000
G1 X183.2922 Y295.9003 Z-20.0000 F5000
G1 X200.9498 Y295.9003 Z-20.0000 F5000
G1 X200.9498 Y293.8984 Z-20.0000 F5000
G1 X195.9498 Y293.8984 Z-20.0000 F5000
G1 X195.9498 Y236.5162 Z-20.0000 F5000
G1 X195.9498 Y236.5162 Z-10.0000 F9999
G1 X195.9498 Y223.5182 Z-10.0000 F5000
G1 X195.9498 Y223.5182 Z-20.0000 F2500
G1 X195.9498 Y175.9006 Z-20.0000 F5000
G1 X218.9497 Y175.9006 Z-20.0000 F5000
G1 X218.9497 Y173.8988 Z-20.0000 F5000
G1 X213.9497 Y173.8988 Z-20.0000 F5000
G1 X213.9497 Y65.9008 Z-20.0000 F5000
G1 X218.9497 Y65.9008 Z-20.0000 F5000
G1 X218.9497 Y63.8989 Z-20.0000 F5000
G1 X183.2922 Y63.8989 Z-20.0000 F5000
G1 X177.9498 Y58.5561 Z-20.0000 F5000
G1 X177.9498 Y25.9008 Z-20.0000 F5000
G1 X239.5893 Y25.9008 Z-20.0000 F5000
G1 X240.1368 Y25.8214 Z-20.0000 F5000
G1 X240.3964 Y25.7038 Z-20.0000 F5000
G1 X240.6141 Y25.5100 Z-20.0000 F5000
G1 X240.7610 Y25.2658 Z-20.0000 F5000
G1 X240.8298 Y24.9893 Z-20.0000 F5000
G1 X240.8129 Y24.6983 Z-20.0000 F5000
G1 X240.7126 Y24.4316 Z-20.0000 F5000
G1 X240.3814 Y23.9881 Z-20.0000 F5000
G1 X237.4526 Y21.0591 Z-20.0000 F5000
G1 X236.0666 Y19.2032 Z-20.0000 F5000
G1 X235.1488 Y16.6648 Z-20.0000 F5000
G1 X235.0252 Y13.9677 Z-20.0000 F5000
G1 X235.6671 Y11.4403 Z-20.0000 F5000
G1 X237.0007 Y9.1985 Z-20.0000 F5000
G1 X238.9950 Y7.3797 Z-20.0000 F5000
G1 X241.4385 Y6.2335 Z-20.0000 F5000
G1 X243.7313 Y5.9010 Z-20.0000 F5000
G1 X270.1660 Y5.9010 Z-20.0000 F5000
G1 X272.4588 Y6.2335 Z-20.0000 F5000
G1 X274.9023 Y7.3797 Z-20.0000 F5000
G1 X276.8966 Y9.1985 Z-20.0000 F5000
G1 X278.2301 Y11.4403 Z-20.0000 F5000
G1 X278.8721 Y13.9677 Z-20.0000 F5000
G1 X278.7485 Y16.6648 Z-20.0000 F5000
G1 X277.8307 Y19.2032 Z-20.0000 F5000
G1 X276.4447 Y21.0591 Z-20.0000 F5000
G1 X273.5158 Y23.9881 Z-20.0000 F5000
G1 X273.1847 Y24.4316 Z-20.0000 F5000
G1 X273.0844 Y24.6983 Z-20.0000 F5000
G1 X273.0675 Y24.9893 Z-20.0000 F5000
G1 X273.1362 Y25.2658 Z-20.0000 F5000
G1 X273.2832 Y25.5100 Z-20.0000 F5000
G1 X273.5009 Y25.7038 Z-20.0000 F5000
G1 X273.7604 Y25.8214 Z-20.0000 F5000
G1 X274.3079 Y25.9008 Z-20.0000 F5000
G1 X335.9475 Y25.9008 Z-20.0000 F5000
G1 X335.9475 Y58.5561 Z-20.0000 F5000
G1 X330.6050 Y63.8989 Z-20.0000 F5000
G1 X294.9476 Y63.8989 Z-20.0000 F5000
G1 X294.9476 Y65.9008 Z-20.0000 F5000
G1 X299.9476 Y65.9008 Z-20.0000 F5000
G1 X299.9476 Y173.8988 Z-20.0000 F5000
G1 X294.9476 Y173.8988 Z-20.0000 F5000
G1 X294.9476 Y175.9006 Z-20.0000 F5000
G1 X317.9475 Y175.9006 Z-20.0000 F5000
G1 X317.9475 Y223.5182 Z-20.0000 F5000
G1 X317.9475 Y223.5182 Z-10.0000 F9999
G1 X317.9475 Y236.5162 Z-10.0000 F5000
G1 X317.9475 Y236.5162 Z-20.0000 F2500
G1 X317.9475 Y293.8984 Z-20.0000 F5000
G1 X312.9475 Y293.8984 Z-20.0000 F5000
G1 X312.9475 Y295.9003 Z-20.0000 F5000
G1 X330.6050 Y295.9003 Z-20.0000 F5000
G1 X335.9475 Y301.2430 Z-20.0000 F5000
G1 X335.9475 Y324.8983 Z-20.0000 F5000
G1 X288.9496 Y324.8983 Z-20.0000 F5000
G1 X288.9496 Y319.8983 Z-20.0000 F5000
G1 X286.9476 Y319.8983 Z-20.0000 F5000
G1 X286.9476 Y339.9003 Z-20.0000 F5000
G1 X288.9496 Y339.9003 Z-20.0000 F5000
G1 X288.9496 Y334.9003 Z-20.0000 F5000
G1 X335.9475 Y334.9003 Z-20.0000 F5000
G1 X335.9475 Y358.5557 Z-20.0000 F5000
G1 X330.6050 Y363.8983 Z-20.0000 F5000
G1 X312.9475 Y363.8983 Z-20.0000 F5000
G1 X312.9475 Y365.9003 Z-20.0000 F5000
G1 X317.9475 Y365.9003 Z-20.0000 F5000
G1 X317.9475 Y593.8978 Z-20.0000 F5000
G1 X312.9475 Y593.8978 Z-20.0000 F5000
G1 X312.9475 Y595.8998 Z-20.0000 F5000
G1 X330.6050 Y595.8998 Z-20.0000 F5000
G1 X335.9475 Y601.2424 Z-20.0000 F5000
G1 X335.9475 Y658.5551 Z-20.0000 F5000
G1 X330.6049 Y663.8975 Z-20.0000 F5000
G1 X312.9475 Y663.8975 Z-20.0000 F5000
G1 X312.9475 Y665.8997 Z-20.0000 F5000
G1 X317.9475 Y665.8997 Z-20.0000 F5000
G1 X317.9475 Y893.8972 Z-20.0000 F5000
G1 X312.9475 Y893.8972 Z-20.0000 F5000
G1 X312.9475 Y895.8992 Z-20.0000 F5000
G1 X330.6049 Y895.8992 Z-20.0000 F5000
G1 X335.9475 Y901.2416 Z-20.0000 F5000
G1 X335.9475 Y924.8970 Z-20.0000 F5000
G1 X288.9496 Y924.8970 Z-20.0000 F5000
G1 X288.9496 Y919.8970 Z-20.0000 F5000
G1 X286.9476 Y919.8970 Z-20.0000 F5000
G1 X286.9476 Y939.8990 Z-20.0000 F5000
G1 X288.9496 Y939.8990 Z-20.0000 F5000
G1 X288.9496 Y934.8990 Z-20.0000 F5000
G1 X335.9475 Y934.8990 Z-20.0000 F5000
G1 X335.9475 Y958.5545 Z-20.0000 F5000
G1 X330.6050 Y963.8970 Z-20.0000 F5000
G1 X312.9475 Y963.8970 Z-20.0000 F5000
G1 X312.9475 Y965.8990 Z-20.0000 F5000
G1 X317.9475 Y965.8990 Z-20.0000 F5000
G1 X317.9475 Y1083.8968 Z-20.0000 F5000
G1 X294.9476 Y1083.8968 Z-20.0000 F5000
G1 X294.9476 Y1085.8987 Z-20.0000 F5000
G1 X299.9476 Y1085.8987 Z-20.0000 F5000
G1 X299.9476 Y1193.8966 Z-20.0000 F5000
G1 X294.9476 Y1193.8966 Z-20.0000 F5000
G1 X294.9476 Y1195.8986 Z-20.0000 F5000
G1 X330.6050 Y1195.8986 Z-20.0000 F5000
G1 X335.9475 Y1201.2411 Z-20.0000 F5000
G1 X335.9475 Y1258.5539 Z-20.0000 F5000
G1 X330.6050 Y1263.8964 Z-20.0000 F5000
G1 X294.9476 Y1263.8964 Z-20.0000 F5000
G1 X294.9476 Y1265.8984 Z-20.0000 F5000
G1 X299.9476 Y1265.8984 Z-20.0000 F5000
G1 X299.9476 Y1493.8959 Z-20.0000 F5000
G1 X294.9476 Y1493.8959 Z-20.0000 F5000
G1 X294.9476 Y1495.8979 Z-20.0000 F5000
G1 X330.6050 Y1495.8979 Z-20.0000 F5000
G1 X335.9475 Y1501.2405 Z-20.0000 F5000
G1 X335.9475 Y1522.5347 Z-20.0000 F5000
G1 X335.9475 Y1522.5347 Z-10.0000 F9999
G1 X335.9475 Y1535.5327 Z-10.0000 F5000
G1 X335.9475 Y1535.5327 Z-20.0000 F2500
G1 X335.9475 Y1558.5532 Z-20.0000 F5000
G1 X330.6050 Y1563.8958 Z-20.0000 F5000
G1 X294.9476 Y1563.8958 Z-20.0000 F5000
G1 X294.9476 Y1565.8978 Z-20.0000 F5000
G1 X299.9476 Y1565.8978 Z-20.0000 F5000
G1 X299.9476 Y1945.3950 Z-20.0000 F5000
G1 X213.9497 Y1945.3950 Z-20.0000 F5000
G1 X213.9497 Y1755.6464 Z-20.0000 F5000
G1 X213.9497 Y1735.6464 Z-20.0000 F5000
G1 X213.6006 Y1695.6480 Z0.0000 F5000
G1 X213.6006 Y1695.6480 Z10.0000 F9999
G1 X128.2478 Y1715.6480 Z10.0000 F9999
G1 X128.2478 Y1715.6480 Z0.0000 F2500
G1 X127.8988 Y1755.6464 Z-20.0000 F5000
G1 X127.8988 Y1945.3950 Z-20.0000 F5000
G1 X41.9009 Y1945.3950 Z-20.0000 F5000
G1 X41.9009 Y1565.8978 Z-20.0000 F5000
G1 X46.9009 Y1565.8978 Z-20.0000 F5000
G1 X46.9009 Y1563.8958 Z-20.0000 F5000
G1 X11.2435 Y1563.8958 Z-20.0000 F5000
G1 X5.9010 Y1558.5532 Z-20.0000 F5000
G1 X5.9010 Y1501.2405 Z-20.0000 F5000
G1 X11.2435 Y1495.8979 Z-20.0000 F5000
G1 X46.9009 Y1495.8979 Z-20.0000 F5000
G1 X46.9009 Y1493.8959 Z-20.0000 F5000
G1 X41.9009 Y1493.8959 Z-20.0000 F5000
G1 X41.9009 Y1265.8984 Z-20.0000 F5000
G1 X46.9009 Y1265.8984 Z-20.0000 F5000
G1 X46.9009 Y1263.8964 Z-20.0000 F5000
G1 X11.2435 Y1263.8964 Z-20.0000 F5000
G1 X5.9010 Y1258.5539 Z-20.0000 F5000
G1 X5.9010 Y1201.2411 Z-20.0000 F5000
G1 X11.2435 Y1195.8986 Z-20.0000 F5000
G1 X46.9009 Y1195.8986 Z-20.0000 F5000
G1 X46.9009 Y1193.8966 Z-20.0000 F5000
G1 X41.9009 Y1193.8966 Z-20.0000 F5000
G1 X41.9009 Y1085.8987 Z-20.0000 F5000
G1 X46.9009 Y1085.8987 Z-20.0000 F5000
G1 X46.9009 Y1083.8968 Z-20.0000 F5000
G1 X23.9009 Y1083.8968 Z-20.0000 F5000
G1 X23.9009 Y965.8990 Z-20.0000 F5000
G1 X28.9009 Y965.8990 Z-20.0000 F5000
G1 X28.9009 Y963.8970 Z-20.0000 F5000
G1 X11.2435 Y963.8970 Z-20.0000 F5000
G1 X5.9010 Y958.5545 Z-20.0000 F5000
G1 X5.9010 Y934.8990 Z-20.0000 F5000
G1 X52.8989 Y934.8990 Z-20.0000 F5000
G1 X52.8989 Y939.8990 Z-20.0000 F5000
G1 X54.9009 Y939.8990 Z-20.0000 F5000
G1 X54.9009 Y919.8970 Z-20.0000 F5000
G1 X52.8989 Y919.8970 Z-20.0000 F5000
G1 X52.8989 Y924.8970 Z-20.0000 F5000
G1 X5.9010 Y924.8970 Z-20.0000 F5000
G1 X5.9010 Y901.2416 Z-20.0000 F5000
G1 X11.2435 Y895.8992 Z-20.0000 F5000
G1 X28.9009 Y895.8992 Z-20.0000 F5000
G1 X28.9009 Y893.8972 Z-20.0000 F5000
G1 X23.9009 Y893.8972 Z-20.0000 F5000
G1 X23.9009 Y665.8997 Z-20.0000 F5000
G1 X28.9009 Y665.8997 Z-20.0000 F5000
G1 X28.9009 Y663.8975 Z-20.0000 F5000
G1 X11.2435 Y663.8975 Z-20.0000 F5000
G1 X5.9010 Y658.5551 Z-20.0000 F5000
G1 X5.9010 Y601.2424 Z-20.0000 F5000
G1 X11.2435 Y595.8998 Z-20.0000 F5000
G1 X28.9009 Y595.8998 Z-20.0000 F5000
G1 X28.9009 Y593.8978 Z-20.0000 F5000
G1 X23.9009 Y593.8978 Z-20.0000 F5000
G1 X23.9009 Y365.9003 Z-20.0000 F5000
G1 X28.9009 Y365.9003 Z-20.0000 F5000
G1 X28.9009 Y363.8983 Z-20.0000 F5000
G1 X11.2435 Y363.8983 Z-20.0000 F5000
G1 X5.9010 Y358.5557 Z-20.0000 F5000
G1 X5.9010 Y334.9003 Z-20.0000 F5000
G1 X52.8989 Y334.9003 Z-20.0000 F5000
G1 X52.8989 Y339.9003 Z-20.0000 F5000
G1 X54.9009 Y339.9003 Z-20.0000 F5000
G1 X54.9009 Y319.8983 Z-20.0000 F5000
G1 X52.8989 Y319.8983 Z-20.0000 F5000
G1 X52.8989 Y324.8983 Z-20.0000 F5000
G1 X5.9010 Y324.8983 Z-20.0000 F5000
G1 X5.9010 Y301.2430 Z-20.0000 F5000
G1 X11.2434 Y295.9003 Z-20.0000 F5000
G1 X28.9009 Y295.9003 Z-20.0000 F5000
G1 X28.9009 Y293.8984 Z-20.0000 F5000
G1 X23.9009 Y293.8984 Z-20.0000 F5000
G1 X23.9009 Y175.9006 Z-20.0000 F5000
G1 X46.9009 Y175.9006 Z-20.0000 F5000
G1 X46.9009 Y173.8988 Z-20.0000 F5000
G1 X41.9009 Y173.8988 Z-20.0000 F5000
G1 X41.9009 Y65.9008 Z-20.0000 F5000
G1 X46.9009 Y65.9008 Z-20.0000 F5000
G1 X46.9009 Y63.8989 Z-20.0000 F5000
G1 X11.2434 Y63.8989 Z-20.0000 F5000
G1 X5.9010 Y58.5561 Z-20.0000 F5000
G1 X5.9010 Y25.9008 Z-20.0000 F5000
G1 X67.5405 Y25.9008 Z-20.0000 F5000
G1 X68.0880 Y25.8214 Z-20.0000 F5000
G1 X68.3475 Y25.7038 Z-20.0000 F5000
G1 X68.5653 Y25.5100 Z-20.0000 F5000
G1 X68.7122 Y25.2658 Z-20.0000 F5000
G1 X68.7810 Y24.9893 Z-20.0000 F5000
G1 X68.7641 Y24.6983 Z-20.0000 F5000
G1 X68.6638 Y24.4316 Z-20.0000 F5000
G1 X68.3326 Y23.9881 Z-20.0000 F5000
G1 X65.4038 Y21.0591 Z-20.0000 F5000
G1 X64.0178 Y19.2032 Z-20.0000 F5000
G1 X63.1000 Y16.6648 Z-20.0000 F5000
G1 X62.9764 Y13.9677 Z-20.0000 F5000
G1 X63.6183 Y11.4403 Z-20.0000 F5000
G1 X64.9519 Y9.1985 Z-20.0000 F5000
G1 X66.9461 Y7.3797 Z-20.0000 F5000
G1 X69.3897 Y6.2335 Z-20.0000 F5000
G1 X71.6825 Y5.9010 Z-20.0000 F5000
G1 X98.1171 Y5.9010 Z-20.0000 F5000
G1 X100.4100 Y6.2335 Z-20.0000 F5000
G1 X102.8535 Y7.3797 Z-20.0000 F5000
G1 X104.8478 Y9.1985 Z-20.0000 F5000
G1 X106.1813 Y11.4403 Z-20.0000 F5000
G1 X106.8233 Y13.9677 Z-20.0000 F5000
G1 X106.6997 Y16.6648 Z-20.0000 F5000
G1 X105.7818 Y19.2032 Z-20.0000 F5000
G1 X104.3959 Y21.0591 Z-20.0000 F5000
G1 X101.4670 Y23.9881 Z-20.0000 F5000
G1 X101.1359 Y24.4316 Z-20.0000 F5000
G1 X101.0356 Y24.6983 Z-20.0000 F5000
G1 X101.0187 Y24.9893 Z-20.0000 F5000
G1 X101.0874 Y25.2658 Z-20.0000 F5000
G1 X101.2344 Y25.5100 Z-20.0000 F5000
G1 X101.4521 Y25.7038 Z-20.0000 F5000
G1 X101.7116 Y25.8214 Z-20.0000 F5000
G1 X102.2591 Y25.9008 Z-20.0000 F5000
G1 X163.8986 Y25.9008 Z-20.0000 F5000
G1 X163.8986 Y58.5561 Z-20.0000 F5000
G1 X158.5562 Y63.8989 Z-20.0000 F5000
G1 X122.8988 Y63.8989 Z-20.0000 F5000
G1 X122.8988 Y65.9008 Z-20.0000 F5000
G1 X127.8988 Y65.9008 Z-20.0000 F5000
G1 X127.8988 Y173.8988 Z-20.0000 F5000
G1 X122.8988 Y173.8988 Z-20.0000 F5000
G1 X122.8988 Y175.9006 Z-20.0000 F5000
G1 X145.8987 Y175.9006 Z-20.0000 F5000
G1 X145.8987 Y293.8984 Z-20.0000 F5000
G1 X140.8987 Y293.8984 Z-20.0000 F5000
G1 X140.8987 Y295.9003 Z-20.0000 F5000
G1 X158.5562 Y295.9003 Z-20.0000 F5000
G1 X163.8986 Y301.2430 Z-20.0000 F5000
G1 X163.8986 Y324.8983 Z-20.0000 F5000
G1 X116.9008 Y324.8983 Z-20.0000 F5000
G1 X116.9008 Y319.8983 Z-20.0000 F5000
G1 X114.8988 Y319.8983 Z-20.0000 F5000
G1 X114.8988 Y339.9003 Z-20.0000 F5000
G1 X116.9008 Y339.9003 Z-20.0000 F5000
G1 X116.9008 Y334.9003 Z-20.0000 F5000
G1 X163.8986 Y334.9003 Z-20.0000 F5000
G1 X163.8986 Y358.5557 Z-20.0000 F5000
G1 X158.5562 Y363.8983 Z-20.0000 F5000
G1 X140.8987 Y363.8983 Z-20.0000 F5000
G1 X140.8987 Y365.9003 Z-20.0000 F5000
G1 X145.8987 Y365.9003 Z-20.0000 F5000
G1 X145.8987 Y593.8978 Z-20.0000 F5000
G1 X140.8987 Y593.8978 Z-20.0000 F5000
G1 X140.8987 Y595.8998 Z-20.0000 F5000
G1 X158.5562 Y595.8998 Z-20.0000 F5000
G1 X163.8986 Y601.2424 Z-20.0000 F5000
G1 X163.8986 Y658.5551 Z-20.0000 F5000
G1 X158.5561 Y663.8975 Z-20.0000 F5000
G1 X140.8987 Y663.8975 Z-20.0000 F5000
G1 X140.8987 Y665.8997 Z-20.0000 F5000
G1 X145.8987 Y665.8997 Z-20.0000 F5000
G1 X145.8987 Y893.8972 Z-20.0000 F5000
G1 X140.8987 Y893.8972 Z-20.0000 F5000
G1 X140.8987 Y895.8992 Z-20.0000 F5000
G1 X158.5561 Y895.8992 Z-20.0000 F5000
G1 X163.8986 Y901.2416 Z-20.0000 F5000
G1 X163.8986 Y924.8970 Z-20.0000 F5000
G1 X116.9008 Y924.8970 Z-20.0000 F5000
G1 X116.9008 Y919.8970 Z-20.0000 F5000
G1 X114.8988 Y919.8970 Z-20.0000 F5000
G1 X114.8988 Y939.8990 Z-20.0000 F5000
G1 X116.9008 Y939.8990 Z-20.0000 F5000
G1 X116.9008 Y934.8990 Z-20.0000 F5000
G1 X163.8986 Y934.8990 Z-20.0000 F5000
G1 X163.8986 Y958.5545 Z-20.0000 F5000
G1 X158.5562 Y963.8970 Z-20.0000 F5000
G1 X140.8987 Y963.8970 Z-20.0000 F5000
G1 X140.8987 Y965.8990 Z-20.0000 F5000
G1 X145.8987 Y965.8990 Z-20.0000 F5000
G1 X145.8987 Y1083.8968 Z-20.0000 F5000
G1 X122.8988 Y1083.8968 Z-20.0000 F5000
G1 X122.8988 Y1085.8987 Z-20.0000 F5000
G1 X127.8988 Y1085.8987 Z-20.0000 F5000
G1 X127.8988 Y1193.8966 Z-20.0000 F5000
G1 X122.8988 Y1193.8966 Z-20.0000 F5000
G1 X122.8988 Y1195.8986 Z-20.0000 F5000
G1 X158.5562 Y1195.8986 Z-20.0000 F5000
G1 X163.8986 Y1201.2411 Z-20.0000 F5000
G1 X163.8986 Y1258.5539 Z-20.0000 F5000
G1 X158.5562 Y1263.8964 Z-20.0000 F5000
G1 X122.8988 Y1263.8964 Z-20.0000 F5000
G1 X122.8988 Y1265.8984 Z-20.0000 F5000
G1 X127.8988 Y1265.8984 Z-20.0000 F5000
G1 X127.8988 Y1493.8959 Z-20.0000 F5000
G1 X122.8988 Y1493.8959 Z-20.0000 F5000
G1 X122.8988 Y1495.8979 Z-20.0000 F5000
G1 X158.5562 Y1495.8979 Z-20.0000 F5000
G1 X163.8986 Y1501.2405 Z-20.0000 F5000
G1 X163.8986 Y1558.5532 Z-20.0000 F5000
G1 X158.5562 Y1563.8958 Z-20.0000 F5000
G1 X122.8988 Y1563.8958 Z-20.0000 F5000
G1 X122.8988 Y1565.8978 Z-20.0000 F5000
G1 X127.8988 Y1565.8978 Z-20.0000 F5000
G1 X127.8988 Y1755.6464 Z-20.0000 F5000
G1 X127.8988 Y1775.6464 Z-20.0000 F5000
G1 X128.2478 Y1815.6449 Z0.0000 F5000
G1 X128.2478 Y1815.6449 Z10.0000 F9999
G1 X89.7013 Y2006.6730 Z10.0000 F9999
G1 X89.7013 Y2006.6730 Z0.0000 F2500
G1 X108.9907 Y2006.8414 Z-20.0000 F5000
G1 X146.4896 Y2006.8414 Z-20.0000 F5000
G1 X146.4896 Y2011.8414 Z-20.0000 F5000
G1 X148.4916 Y2011.8414 Z-20.0000 F5000
G1 X148.4916 Y1994.1839 Z-20.0000 F5000
G1 X153.8342 Y1988.8414 Z-20.0000 F5000
G1 X166.2773 Y1988.8414 Z-20.0000 F5000
G1 X166.2773 Y1988.8414 Z-10.0000 F9999
G1 X179.2753 Y1988.8414 Z-10.0000 F5000
G1 X179.2753 Y1988.8414 Z-20.0000 F2500
G1 X191.1470 Y1988.8414 Z-20.0000 F5000
G1 X196.4895 Y1994.1839 Z-20.0000 F5000
G1 X196.4895 Y2011.8414 Z-20.0000 F5000
G1 X198.4915 Y2011.8414 Z-20.0000 F5000
G1 X198.4915 Y2006.8414 Z-20.0000 F5000
G1 X273.4894 Y2006.8414 Z-20.0000 F5000
G1 X273.4894 Y2011.8414 Z-20.0000 F5000
G1 X275.4914 Y2011.8414 Z-20.0000 F5000
G1 X275.4914 Y1994.1839 Z-20.0000 F5000
G1 X280.8339 Y1988.8414 Z-20.0000 F5000
G1 X296.1467 Y1988.8414 Z-20.0000 F5000
G1 X301.4893 Y1994.1839 Z-20.0000 F5000
G1 X301.4893 Y2011.8414 Z-20.0000 F5000
G1 X303.4913 Y2011.8414 Z-20.0000 F5000
G1 X303.4913 Y2006.8414 Z-20.0000 F5000
G1 X319.4893 Y2006.8414 Z-20.0000 F5000
G1 X319.4893 Y2045.8393 Z-20.0000 F5000
G1 X278.4894 Y2045.8393 Z-20.0000 F5000
G1 X278.4894 Y2047.8413 Z-20.0000 F5000
G1 X283.4894 Y2047.8413 Z-20.0000 F5000
G1 X283.4894 Y2087.8392 Z-20.0000 F5000
G1 X278.4894 Y2087.8392 Z-20.0000 F5000
G1 X278.4894 Y2089.8412 Z-20.0000 F5000
G1 X319.4893 Y2089.8412 Z-20.0000 F5000
G1 X319.4893 Y2128.8391 Z-20.0000 F5000
G1 X303.4913 Y2128.8391 Z-20.0000 F5000
G1 X303.4913 Y2123.8391 Z-20.0000 F5000
G1 X301.4893 Y2123.8391 Z-20.0000 F5000
G1 X301.4893 Y2141.4966 Z-20.0000 F5000
G1 X296.1467 Y2146.8391 Z-20.0000 F5000
G1 X280.8339 Y2146.8391 Z-20.0000 F5000
G1 X275.4914 Y2141.4966 Z-20.0000 F5000
G1 X275.4914 Y2123.8391 Z-20.0000 F5000
G1 X273.4894 Y2123.8391 Z-20.0000 F5000
G1 X273.4894 Y2128.8391 Z-20.0000 F5000
G1 X198.4915 Y2128.8391 Z-20.0000 F5000
G1 X198.4915 Y2123.8391 Z-20.0000 F5000
G1 X196.4895 Y2123.8391 Z-20.0000 F5000
G1 X196.4895 Y2141.4966 Z-20.0000 F5000
G1 X191.1470 Y2146.8391 Z-20.0000 F5000
G1 X178.8439 Y2146.8391 Z-20.0000 F5000
G1 X178.8439 Y2146.8391 Z-10.0000 F9999
G1 X165.8459 Y2146.8391 Z-10.0000 F5000
G1 X165.8459 Y2146.8391 Z-20.0000 F2500
G1 X153.8342 Y2146.8391 Z-20.0000 F5000
G1 X148.4916 Y2141.4966 Z-20.0000 F5000
G1 X148.4916 Y2123.8391 Z-20.0000 F5000
G1 X146.4896 Y2123.8391 Z-20.0000 F5000
G1 X146.4896 Y2128.8391 Z-20.0000 F5000
G1 X71.4918 Y2128.8391 Z-20.0000 F5000
G1 X71.4918 Y2123.8391 Z-20.0000 F5000
G1 X69.4898 Y2123.8391 Z-20.0000 F5000
G1 X69.4898 Y2141.4966 Z-20.0000 F5000
G1 X64.1472 Y2146.8391 Z-20.0000 F5000
G1 X48.8344 Y2146.8391 Z-20.0000 F5000
G1 X43.4918 Y2141.4966 Z-20.0000 F5000
G1 X43.4918 Y2123.8391 Z-20.0000 F5000
G1 X41.4899 Y2123.8391 Z-20.0000 F5000
G1 X41.4899 Y2128.8391 Z-20.0000 F5000
G1 X25.4919 Y2128.8391 Z-20.0000 F5000
G1 X25.4919 Y2089.8412 Z-20.0000 F5000
G1 X66.4918 Y2089.8412 Z-20.0000 F5000
G1 X66.4918 Y2087.8392 Z-20.0000 F5000
G1 X61.4918 Y2087.8392 Z-20.0000 F5000
G1 X61.4918 Y2047.8413 Z-20.0000 F5000
G1 X66.4918 Y2047.8413 Z-20.0000 F5000
G1 X66.4918 Y2045.8393 Z-20.0000 F5000
G1 X25.4919 Y2045.8393 Z-20.0000 F5000
G1 X25.4919 Y2006.8414 Z-20.0000 F5000
G1 X41.4899 Y2006.8414 Z-20.0000 F5000
G1 X41.4899 Y2011.8414 Z-20.0000 F5000
G1 X43.4918 Y2011.8414 Z-20.0000 F5000
G1 X43.4918 Y1994.1839 Z-20.0000 F5000
G1 X48.8344 Y1988.8414 Z-20.0000 F5000
G1 X64.1472 Y1988.8414 Z-20.0000 F5000
G1 X69.4898 Y1994.1839 Z-20.0000 F5000
G1 X69.4898 Y2011.8414 Z-20.0000 F5000
G1 X71.4918 Y2011.8414 Z-20.0000 F5000
G1 X71.4918 Y2006.8414 Z-20.0000 F5000
G1 X108.9907 Y2006.8414 Z-20.0000 F5000
G1 X128.9907 Y2006.8414 Z-20.0000 F5000
G1 X148.2801 Y2006.6730 Z0.0000 F5000
G1 X148.2801 Y2006.6730 Z10.0000 F9999
G1 X89.7013 Y2177.8186 Z10.0000 F9999
G1 X89.7013 Y2177.8186 Z0.0000 F2500
G1 X108.9907 Y2177.9869 Z-20.0000 F5000
G1 X146.4896 Y2177.9869 Z-20.0000 F5000
G1 X146.4896 Y2182.9869 Z-20.0000 F5000
G1 X148.4916 Y2182.9869 Z-20.0000 F5000
G1 X148.4916 Y2165.3295 Z-20.0000 F5000
G1 X153.8342 Y2159.9870 Z-20.0000 F5000
G1 X166.2773 Y2159.9870 Z-20.0000 F5000
G1 X166.2773 Y2159.9870 Z-10.0000 F9999
G1 X179.2753 Y2159.9870 Z-10.0000 F5000
G1 X179.2753 Y2159.9870 Z-20.0000 F2500
G1 X191.1470 Y2159.9870 Z-20.0000 F5000
G1 X196.4895 Y2165.3295 Z-20.0000 F5000
G1 X196.4895 Y2182.9869 Z-20.0000 F5000
G1 X198.4915 Y2182.9869 Z-20.0000 F5000
G1 X198.4915 Y2177.9869 Z-20.0000 F5000
G1 X273.4894 Y2177.9869 Z-20.0000 F5000
G1 X273.4894 Y2182.9869 Z-20.0000 F5000
G1 X275.4914 Y2182.9869 Z-20.0000 F5000
G1 X275.4914 Y2165.3295 Z-20.0000 F5000
G1 X280.8339 Y2159.9870 Z-20.0000 F5000
G1 X296.1467 Y2159.9870 Z-20.0000 F5000
G1 X301.4893 Y2165.3295 Z-20.0000 F5000
G1 X301.4893 Y2182.9869 Z-20.0000 F5000
G1 X303.4913 Y2182.9869 Z-20.0000 F5000
G1 X303.4913 Y2177.9869 Z-20.0000 F5000
G1 X319.4893 Y2177.9869 Z-20.0000 F5000
G1 X319.4893 Y2216.9849 Z-20.0000 F5000
G1 X278.4894 Y2216.9849 Z-20.0000 F5000
G1 X278.4894 Y2218.9869 Z-20.0000 F5000
G1 X283.4894 Y2218.9869 Z-20.0000 F5000
G1 X283.4894 Y2258.9848 Z-20.0000 F5000
G1 X278.4894 Y2258.9848 Z-20.0000 F5000
G1 X278.4894 Y2260.9868 Z-20.0000 F5000
G1 X319.4893 Y2260.9868 Z-20.0000 F5000
G1 X319.4893 Y2299.9847 Z-20.0000 F5000
G1 X303.4913 Y2299.9847 Z-20.0000 F5000
G1 X303.4913 Y2294.9847 Z-20.0000 F5000
G1 X301.4893 Y2294.9847 Z-20.0000 F5000
G1 X301.4893 Y2312.6422 Z-20.0000 F5000
G1 X296.1467 Y2317.9846 Z-20.0000 F5000
G1 X280.8339 Y2317.9846 Z-20.0000 F5000
G1 X275.4914 Y2312.6422 Z-20.0000 F5000
G1 X275.4914 Y2294.9847 Z-20.0000 F5000
G1 X273.4894 Y2294.9847 Z-20.0000 F5000
G1 X273.4894 Y2299.9847 Z-20.0000 F5000
G1 X198.4915 Y2299.9847 Z-20.0000 F5000
G1 X198.4915 Y2294.9847 Z-20.0000 F5000
G1 X196.4895 Y2294.9847 Z-20.0000 F5000
G1 X196.4895 Y2312.6422 Z-20.0000 F5000
G1 X191.1470 Y2317.9846 Z-20.0000 F5000
G1 X178.8439 Y2317.9846 Z-20.0000 F5000
G1 X178.8439 Y2317.9846 Z-10.0000 F9999
G1 X165.8459 Y2317.9846 Z-10.0000 F5000
G1 X165.8459 Y2317.9846 Z-20.0000 F2500
G1 X153.8342 Y2317.9846 Z-20.0000 F5000
G1 X148.4916 Y2312.6422 Z-20.0000 F5000
G1 X148.4916 Y2294.9847 Z-20.0000 F5000
G1 X146.4896 Y2294.9847 Z-20.0000 F5000
G1 X146.4896 Y2299.9847 Z-20.0000 F5000
G1 X71.4918 Y2299.9847 Z-20.0000 F5000
G1 X71.4918 Y2294.9847 Z-20.0000 F5000
G1 X69.4898 Y2294.9847 Z-20.0000 F5000
G1 X69.4898 Y2312.6422 Z-20.0000 F5000
G1 X64.1472 Y2317.9846 Z-20.0000 F5000
G1 X48.8344 Y2317.9846 Z-20.0000 F5000
G1 X43.4918 Y2312.6422 Z-20.0000 F5000
G1 X43.4918 Y2294.9847 Z-20.0000 F5000
G1 X41.4899 Y2294.9847 Z-20.0000 F5000
G1 X41.4899 Y2299.9847 Z-20.0000 F5000
G1 X25.4919 Y2299.9847 Z-20.0000 F5000
G1 X25.4919 Y2260.9868 Z-20.0000 F5000
G1 X66.4918 Y2260.9868 Z-20.0000 F5000
G1 X66.4918 Y2258.9848 Z-20.0000 F5000
G1 X61.4918 Y2258.9848 Z-20.0000 F5000
G1 X61.4918 Y2218.9869 Z-20.0000 F5000
G1 X66.4918 Y2218.9869 Z-20.0000 F5000
G1 X66.4918 Y2216.9849 Z-20.0000 F5000
G1 X25.4919 Y2216.9849 Z-20.0000 F5000
G1 X25.4919 Y2177.9869 Z-20.0000 F5000
G1 X41.4899 Y2177.9869 Z-20.0000 F5000
G1 X41.4899 Y2182.9869 Z-20.0000 F5000
G1 X43.4918 Y2182.9869 Z-20.0000 F5000
G1 X43.4918 Y2165.3295 Z-20.0000 F5000
G1 X48.8344 Y2159.9870 Z-20.0000 F5000
G1 X64.1472 Y2159.9870 Z-20.0000 F5000
G1 X69.4898 Y2165.3295 Z-20.0000 F5000
G1 X69.4898 Y2182.9869 Z-20.0000 F5000
G1 X71.4918 Y2182.9869 Z-20.0000 F5000
G1 X71.4918 Y2177.9869 Z-20.0000 F5000
G1 X108.9907 Y2177.9869 Z-20.0000 F5000
G1 X128.9907 Y2177.9869 Z-20.0000 F5000
G1 X148.2801 Y2177.8186 Z0.0000 F5000
G1 X148.2801 Y2177.8186 Z10.0000 F9999
G1 X501.1260 Y2123.0964 Z10.0000 F9999
G1 X501.1260 Y2123.0964 Z0.0000 F2500
G1 X500.9576 Y2142.3858 Z-20.0000 F5000
G1 X500.9576 Y2179.8847 Z-20.0000 F5000
G1 X495.9576 Y2179.8847 Z-20.0000 F5000
G1 X495.9576 Y2181.8867 Z-20.0000 F5000
G1 X513.6151 Y2181.8867 Z-20.0000 F5000
G1 X518.9576 Y2187.2293 Z-20.0000 F5000
G1 X518.9576 Y2199.6724 Z-20.0000 F5000
G1 X518.9576 Y2199.6724 Z-10.0000 F9999
G1 X518.9576 Y2212.6704 Z-10.0000 F5000
G1 X518.9576 Y2212.6704 Z-20.0000 F2500
G1 X518.9576 Y2224.5421 Z-20.0000 F5000
G1 X513.6151 Y2229.8846 Z-20.0000 F5000
G1 X495.9576 Y2229.8846 Z-20.0000 F5000
G1 X495.9576 Y2231.8866 Z-20.0000 F5000
G1 X500.9576 Y2231.8866 Z-20.0000 F5000
G1 X500.9576 Y2306.8845 Z-20.0000 F5000
G1 X495.9576 Y2306.8845 Z-20.0000 F5000
G1 X495.9576 Y2308.8865 Z-20.0000 F5000
G1 X513.6151 Y2308.8865 Z-20.0000 F5000
G1 X518.9576 Y2314.2290 Z-20.0000 F5000
G1 X518.9576 Y2329.5418 Z-20.0000 F5000
G1 X513.6151 Y2334.8844 Z-20.0000 F5000
G1 X495.9576 Y2334.8844 Z-20.0000 F5000
G1 X495.9576 Y2336.8864 Z-20.0000 F5000
G1 X500.9576 Y2336.8864 Z-20.0000 F5000
G1 X500.9576 Y2352.8844 Z-20.0000 F5000
G1 X461.9597 Y2352.8844 Z-20.0000 F5000
G1 X461.9597 Y2311.8845 Z-20.0000 F5000
G1 X459.9577 Y2311.8845 Z-20.0000 F5000
G1 X459.9577 Y2316.8845 Z-20.0000 F5000
G1 X419.9598 Y2316.8845 Z-20.0000 F5000
G1 X419.9598 Y2311.8845 Z-20.0000 F5000
G1 X417.9578 Y2311.8845 Z-20.0000 F5000
G1 X417.9578 Y2352.8844 Z-20.0000 F5000
G1 X378.9599 Y2352.8844 Z-20.0000 F5000
G1 X378.9599 Y2336.8864 Z-20.0000 F5000
G1 X383.9599 Y2336.8864 Z-20.0000 F5000
G1 X383.9599 Y2334.8844 Z-20.0000 F5000
G1 X366.3024 Y2334.8844 Z-20.0000 F5000
G1 X360.9599 Y2329.5418 Z-20.0000 F5000
G1 X360.9599 Y2314.2290 Z-20.0000 F5000
G1 X366.3024 Y2308.8865 Z-20.0000 F5000
G1 X383.9599 Y2308.8865 Z-20.0000 F5000
G1 X383.9599 Y2306.8845 Z-20.0000 F5000
G1 X378.9599 Y2306.8845 Z-20.0000 F5000
G1 X378.9599 Y2231.8866 Z-20.0000 F5000
G1 X383.9599 Y2231.8866 Z-20.0000 F5000
G1 X383.9599 Y2229.8846 Z-20.0000 F5000
G1 X366.3024 Y2229.8846 Z-20.0000 F5000
G1 X360.9599 Y2224.5421 Z-20.0000 F5000
G1 X360.9599 Y2212.2390 Z-20.0000 F5000
G1 X360.9599 Y2212.2390 Z-10.0000 F9999
G1 X360.9599 Y2199.2410 Z-10.0000 F5000
G1 X360.9599 Y2199.2410 Z-20.0000 F2500
G1 X360.9599 Y2187.2293 Z-20.0000 F5000
G1 X366.3024 Y2181.8867 Z-20.0000 F5000
G1 X383.9599 Y2181.8867 Z-20.0000 F5000
G1 X383.9599 Y2179.8847 Z-20.0000 F5000
G1 X378.9599 Y2179.8847 Z-20.0000 F5000
G1 X378.9599 Y2104.8869 Z-20.0000 F5000
G1 X383.9599 Y2104.8869 Z-20.0000 F5000
G1 X383.9599 Y2102.8849 Z-20.0000 F5000
G1 X366.3024 Y2102.8849 Z-20.0000 F5000
G1 X360.9599 Y2097.5423 Z-20.0000 F5000
G1 X360.9599 Y2082.2295 Z-20.0000 F5000
G1 X366.3024 Y2076.8869 Z-20.0000 F5000
G1 X383.9599 Y2076.8869 Z-20.0000 F5000
G1 X383.9599 Y2074.8850 Z-20.0000 F5000
G1 X378.9599 Y2074.8850 Z-20.0000 F5000
G1 X378.9599 Y2058.8870 Z-20.0000 F5000
G1 X417.9578 Y2058.8870 Z-20.0000 F5000
G1 X417.9578 Y2099.8869 Z-20.0000 F5000
G1 X419.9598 Y2099.8869 Z-20.0000 F5000
G1 X419.9598 Y2094.8869 Z-20.0000 F5000
G1 X459.9577 Y2094.8869 Z-20.0000 F5000
G1 X459.9577 Y2099.8869 Z-20.0000 F5000
G1 X461.9597 Y2099.8869 Z-20.0000 F5000
G1 X461.9597 Y2058.8870 Z-20.0000 F5000
G1 X500.9576 Y2058.8870 Z-20.0000 F5000
G1 X500.9576 Y2074.8850 Z-20.0000 F5000
G1 X495.9576 Y2074.8850 Z-20.0000 F5000
G1 X495.9576 Y2076.8869 Z-20.0000 F5000
G1 X513.6151 Y2076.8869 Z-20.0000 F5000
G1 X518.9576 Y2082.2295 Z-20.0000 F5000
G1 X518.9576 Y2097.5423 Z-20.0000 F5000
G1 X513.6151 Y2102.8849 Z-20.0000 F5000
G1 X495.9576 Y2102.8849 Z-20.0000 F5000
G1 X495.9576 Y2104.8869 Z-20.0000 F5000
G1 X500.9576 Y2104.8869 Z-20.0000 F5000
G1 X500.9576 Y2142.3858 Z-20.0000 F5000
G1 X500.9576 Y2162.3858 Z-20.0000 F5000
G1 X501.1260 Y2181.6752 Z0.0000 F5000
G1 X501.1260 Y2181.6752 Z10.0000 F9999
G1 X472.3455 Y1715.6480 Z10.0000 F9999
G1 X472.3455 Y1715.6480 Z0.0000 F2500
G1 X471.9964 Y1755.6464 Z-20.0000 F5000
G1 X471.9964 Y1945.3950 Z-20.0000 F5000
G1 X385.9985 Y1945.3950 Z-20.0000 F5000
G1 X385.9985 Y1565.8978 Z-20.0000 F5000
G1 X390.9985 Y1565.8978 Z-20.0000 F5000
G1 X390.9985 Y1563.8958 Z-20.0000 F5000
G1 X355.3411 Y1563.8958 Z-20.0000 F5000
G1 X349.9986 Y1558.5532 Z-20.0000 F5000
G1 X349.9986 Y1501.2405 Z-20.0000 F5000
G1 X355.3411 Y1495.8979 Z-20.0000 F5000
G1 X390.9985 Y1495.8979 Z-20.0000 F5000
G1 X390.9985 Y1493.8959 Z-20.0000 F5000
G1 X385.9985 Y1493.8959 Z-20.0000 F5000
G1 X385.9985 Y1265.8984 Z-20.0000 F5000
G1 X390.9985 Y1265.8984 Z-20.0000 F5000
G1 X390.9985 Y1263.8964 Z-20.0000 F5000
G1 X355.3411 Y1263.8964 Z-20.0000 F5000
G1 X349.9986 Y1258.5539 Z-20.0000 F5000
G1 X349.9986 Y1201.2411 Z-20.0000 F5000
G1 X355.3411 Y1195.8986 Z-20.0000 F5000
G1 X390.9985 Y1195.8986 Z-20.0000 F5000
G1 X390.9985 Y1193.8966 Z-20.0000 F5000
G1 X385.9985 Y1193.8966 Z-20.0000 F5000
G1 X385.9985 Y1085.8987 Z-20.0000 F5000
G1 X390.9985 Y1085.8987 Z-20.0000 F5000
G1 X390.9985 Y1083.8968 Z-20.0000 F5000
G1 X367.9986 Y1083.8968 Z-20.0000 F5000
G1 X367.9986 Y965.8990 Z-20.0000 F5000
G1 X372.9986 Y965.8990 Z-20.0000 F5000
G1 X372.9986 Y963.8970 Z-20.0000 F5000
G1 X355.3411 Y963.8970 Z-20.0000 F5000
G1 X349.9986 Y958.5545 Z-20.0000 F5000
G1 X349.9986 Y934.8990 Z-20.0000 F5000
G1 X396.9965 Y934.8990 Z-20.0000 F5000
G1 X396.9965 Y939.8990 Z-20.0000 F5000
G1 X398.9985 Y939.8990 Z-20.0000 F5000
G1 X398.9985 Y919.8970 Z-20.0000 F5000
G1 X396.9965 Y919.8970 Z-20.0000 F5000
G1 X396.9965 Y924.8970 Z-20.0000 F5000
G1 X349.9986 Y924.8970 Z-20.0000 F5000
G1 X349.9986 Y901.2416 Z-20.0000 F5000
G1 X355.3412 Y895.8992 Z-20.0000 F5000
G1 X372.9986 Y895.8992 Z-20.0000 F5000
G1 X372.9986 Y893.8972 Z-20.0000 F5000
G1 X367.9986 Y893.8972 Z-20.0000 F5000
G1 X367.9986 Y665.8997 Z-20.0000 F5000
G1 X372.9986 Y665.8997 Z-20.0000 F5000
G1 X372.9986 Y663.8975 Z-20.0000 F5000
G1 X355.3412 Y663.8975 Z-20.0000 F5000
G1 X349.9986 Y658.5551 Z-20.0000 F5000
G1 X349.9986 Y601.2424 Z-20.0000 F5000
G1 X355.3411 Y595.8998 Z-20.0000 F5000
G1 X372.9986 Y595.8998 Z-20.0000 F5000
G1 X372.9986 Y593.8978 Z-20.0000 F5000
G1 X367.9986 Y593.8978 Z-20.0000 F5000
G1 X367.9986 Y365.9003 Z-20.0000 F5000
G1 X372.9986 Y365.9003 Z-20.0000 F5000
G1 X372.9986 Y363.8983 Z-20.0000 F5000
G1 X355.3411 Y363.8983 Z-20.0000 F5000
G1 X349.9986 Y358.5557 Z-20.0000 F5000
G1 X349.9986 Y334.9003 Z-20.0000 F5000
G1 X396.9965 Y334.9003 Z-20.0000 F5000
G1 X396.9965 Y339.9003 Z-20.0000 F5000
G1 X398.9985 Y339.9003 Z-20.0000 F5000
G1 X398.9985 Y319.8983 Z-20.0000 F5000
G1 X396.9965 Y319.8983 Z-20.0000 F5000
G1 X396.9965 Y324.8983 Z-20.0000 F5000
G1 X349.9986 Y324.8983 Z-20.0000 F5000
G1 X349.9986 Y301.2430 Z-20.0000 F5000
G1 X355.3411 Y295.9003 Z-20.0000 F5000
G1 X372.9986 Y295.9003 Z-20.0000 F5000
G1 X372.9986 Y293.8984 Z-20.0000 F5000
G1 X367.9986 Y293.8984 Z-20.0000 F5000
G1 X367.9986 Y175.9006 Z-20.0000 F5000
G1 X390.9985 Y175.9006 Z-20.0000 F5000
G1 X390.9985 Y173.8988 Z-20.0000 F5000
G1 X385.9985 Y173.8988 Z-20.0000 F5000
G1 X385.9985 Y65.9008 Z-20.0000 F5000
G1 X390.9985 Y65.9008 Z-20.0000 F5000
G1 X390.9985 Y63.8989 Z-20.0000 F5000
G1 X355.3411 Y63.8989 Z-20.0000 F5000
G1 X349.9986 Y58.5561 Z-20.0000 F5000
G1 X349.9986 Y25.9008 Z-20.0000 F5000
G1 X411.6381 Y25.9008 Z-20.0000 F5000
G1 X412.1857 Y25.8214 Z-20.0000 F5000
G1 X412.4452 Y25.7038 Z-20.0000 F5000
G1 X412.6629 Y25.5100 Z-20.0000 F5000
G1 X412.8099 Y25.2658 Z-20.0000 F5000
G1 X412.8786 Y24.9893 Z-20.0000 F5000
G1 X412.8617 Y24.6983 Z-20.0000 F5000
G1 X412.7614 Y24.4316 Z-20.0000 F5000
G1 X412.4302 Y23.9881 Z-20.0000 F5000
G1 X409.5014 Y21.0591 Z-20.0000 F5000
G1 X408.1154 Y19.2032 Z-20.0000 F5000
G1 X407.1976 Y16.6648 Z-20.0000 F5000
G1 X407.0740 Y13.9677 Z-20.0000 F5000
G1 X407.7159 Y11.4403 Z-20.0000 F5000
G1 X409.0495 Y9.1985 Z-20.0000 F5000
G1 X411.0438 Y7.3797 Z-20.0000 F5000
G1 X413.4873 Y6.2335 Z-20.0000 F5000
G1 X415.7801 Y5.9010 Z-20.0000 F5000
G1 X442.2148 Y5.9010 Z-20.0000 F5000
G1 X444.5076 Y6.2335 Z-20.0000 F5000
G1 X446.9511 Y7.3797 Z-20.0000 F5000
G1 X448.9454 Y9.1985 Z-20.0000 F5000
G1 X450.2790 Y11.4403 Z-20.0000 F5000
G1 X450.9209 Y13.9677 Z-20.0000 F5000
G1 X450.7973 Y16.6648 Z-20.0000 F5000
G1 X449.8795 Y19.2032 Z-20.0000 F5000
G1 X448.4935 Y21.0591 Z-20.0000 F5000
G1 X445.5647 Y23.9881 Z-20.0000 F5000
G1 X445.2335 Y24.4316 Z-20.0000 F5000
G1 X445.1332 Y24.6983 Z-20.0000 F5000
G1 X445.1163 Y24.9893 Z-20.0000 F5000
G1 X445.1851 Y25.2658 Z-20.0000 F5000
G1 X445.3320 Y25.5100 Z-20.0000 F5000
G1 X445.5497 Y25.7038 Z-20.0000 F5000
G1 X445.8093 Y25.8214 Z-20.0000 F5000
G1 X446.3568 Y25.9008 Z-20.0000 F5000
G1 X507.9963 Y25.9008 Z-20.0000 F5000
G1 X507.9963 Y58.5561 Z-20.0000 F5000
G1 X502.6538 Y63.8989 Z-20.0000 F5000
G1 X466.9964 Y63.8989 Z-20.0000 F5000
G1 X466.9964 Y65.9008 Z-20.0000 F5000
G1 X471.9964 Y65.9008 Z-20.0000 F5000
G1 X471.9964 Y173.8988 Z-20.0000 F5000
G1 X466.9964 Y173.8988 Z-20.0000 F5000
G1 X466.9964 Y175.9006 Z-20.0000 F5000
G1 X489.9963 Y175.9006 Z-20.0000 F5000
G1 X489.9963 Y293.8984 Z-20.0000 F5000
G1 X484.9963 Y293.8984 Z-20.0000 F5000
G1 X484.9963 Y295.9003 Z-20.0000 F5000
G1 X502.6538 Y295.9003 Z-20.0000 F5000
G1 X507.9963 Y301.2430 Z-20.0000 F5000
G1 X507.9963 Y324.8983 Z-20.0000 F5000
G1 X460.9984 Y324.8983 Z-20.0000 F5000
G1 X460.9984 Y319.8983 Z-20.0000 F5000
G1 X458.9964 Y319.8983 Z-20.0000 F5000
G1 X458.9964 Y339.9003 Z-20.0000 F5000
G1 X460.9984 Y339.9003 Z-20.0000 F5000
G1 X460.9984 Y334.9003 Z-20.0000 F5000
G1 X507.9963 Y334.9003 Z-20.0000 F5000
G1 X507.9963 Y358.5557 Z-20.0000 F5000
G1 X502.6538 Y363.8983 Z-20.0000 F5000
G1 X484.9963 Y363.8983 Z-20.0000 F5000
G1 X484.9963 Y365.9003 Z-20.0000 F5000
G1 X489.9963 Y365.9003 Z-20.0000 F5000
G1 X489.9963 Y593.8978 Z-20.0000 F5000
G1 X484.9963 Y593.8978 Z-20.0000 F5000
G1 X484.9963 Y595.8998 Z-20.0000 F5000
G1 X502.6538 Y595.8998 Z-20.0000 F5000
G1 X507.9963 Y601.2424 Z-20.0000 F5000
G1 X507.9963 Y658.5551 Z-20.0000 F5000
G1 X502.6537 Y663.8975 Z-20.0000 F5000
G1 X484.9963 Y663.8975 Z-20.0000 F5000
G1 X484.9963 Y665.8997 Z-20.0000 F5000
G1 X489.9963 Y665.8997 Z-20.0000 F5000
G1 X489.9963 Y893.8972 Z-20.0000 F5000
G1 X484.9963 Y893.8972 Z-20.0000 F5000
G1 X484.9963 Y895.8992 Z-20.0000 F5000
G1 X502.6537 Y895.8992 Z-20.0000 F5000
G1 X507.9963 Y901.2416 Z-20.0000 F5000
G1 X507.9963 Y924.8970 Z-20.0000 F5000
G1 X460.9984 Y924.8970 Z-20.0000 F5000
G1 X460.9984 Y919.8970 Z-20.0000 F5000
G1 X458.9964 Y919.8970 Z-20.0000 F5000
G1 X458.9964 Y939.8990 Z-20.0000 F5000
G1 X460.9984 Y939.8990 Z-20.0000 F5000
G1 X460.9984 Y934.8990 Z-20.0000 F5000
G1 X507.9963 Y934.8990 Z-20.0000 F5000
G1 X507.9963 Y958.5545 Z-20.0000 F5000
G1 X502.6538 Y963.8970 Z-20.0000 F5000
G1 X484.9963 Y963.8970 Z-20.0000 F5000
G1 X484.9963 Y965.8990 Z-20.0000 F5000
G1 X489.9963 Y965.8990 Z-20.0000 F5000
G1 X489.9963 Y1083.8968 Z-20.0000 F5000
G1 X466.9964 Y1083.8968 Z-20.0000 F5000
G1 X466.9964 Y1085.8987 Z-20.0000 F5000
G1 X471.9964 Y1085.8987 Z-20.0000 F5000
G1 X471.9964 Y1193.8966 Z-20.0000 F5000
G1 X466.9964 Y1193.8966 Z-20.0000 F5000
G1 X466.9964 Y1195.8986 Z-20.0000 F5000
G1 X502.6538 Y1195.8986 Z-20.0000 F5000
G1 X507.9963 Y1201.2411 Z-20.0000 F5000
G1 X507.9963 Y1258.5539 Z-20.0000 F5000
G1 X502.6538 Y1263.8964 Z-20.0000 F5000
G1 X466.9964 Y1263.8964 Z-20.0000 F5000
G1 X466.9964 Y1265.8984 Z-20.0000 F5000
G1 X471.9964 Y1265.8984 Z-20.0000 F5000
G1 X471.9964 Y1493.8959 Z-20.0000 F5000
G1 X466.9964 Y1493.8959 Z-20.0000 F5000
G1 X466.9964 Y1495.8979 Z-20.0000 F5000
G1 X502.6538 Y1495.8979 Z-20.0000 F5000
G1 X507.9963 Y1501.2405 Z-20.0000 F5000
G1 X507.9963 Y1558.5532 Z-20.0000 F5000
G1 X502.6538 Y1563.8958 Z-20.0000 F5000
G1 X466.9964 Y1563.8958 Z-20.0000 F5000
G1 X466.9964 Y1565.8978 Z-20.0000 F5000
G1 X471.9964 Y1565.8978 Z-20.0000 F5000
G1 X471.9964 Y1755.6464 Z-20.0000 F5000
G1 X471.9964 Y1775.6464 Z-20.0000 F5000
G1 X472.3455 Y1815.6449 Z0.0000 F5000
G1 X472.3455 Y1815.6449 Z10.0000 F9999
G1 X817.0122 Y2181.1699 Z10.0000 F9999
G1 X817.0122 Y2181.1699 Z0.0000 F2500
G1 X816.6631 Y2221.1684 Z-20.0000 F5000
G1 X816.6631 Y2389.7818 Z-20.0000 F5000
G1 X780.8625 Y2389.7818 Z-20.0000 F5000
G1 X780.8625 Y2389.7818 Z-10.0000 F9999
G1 X767.8645 Y2389.7818 Z-10.0000 F5000
G1 X767.8645 Y2389.7818 Z-20.0000 F2500
G1 X730.6652 Y2389.7818 Z-20.0000 F5000
G1 X730.6652 Y2052.5549 Z-20.0000 F5000
G1 X735.6652 Y2052.5549 Z-20.0000 F5000
G1 X735.6652 Y2050.5521 Z-20.0000 F5000
G1 X700.0079 Y2050.5521 Z-20.0000 F5000
G1 X694.6653 Y2045.2097 Z-20.0000 F5000
G1 X694.6653 Y1987.8973 Z-20.0000 F5000
G1 X700.0079 Y1982.5551 Z-20.0000 F5000
G1 X735.6652 Y1982.5551 Z-20.0000 F5000
G1 X735.6652 Y1980.5521 Z-20.0000 F5000
G1 X730.6652 Y1980.5521 Z-20.0000 F5000
G1 X730.6652 Y1752.5553 Z-20.0000 F5000
G1 X735.6652 Y1752.5553 Z-20.0000 F5000
G1 X735.6652 Y1750.5525 Z-20.0000 F5000
G1 X700.0080 Y1750.5525 Z-20.0000 F5000
G1 X694.6653 Y1745.2105 Z-20.0000 F5000
G1 X694.6653 Y1713.0550 Z-20.0000 F5000
G1 X756.8829 Y1713.0550 Z-20.0000 F5000
G1 X759.0321 Y1713.3681 Z-20.0000 F5000
G1 X761.3390 Y1714.4482 Z-20.0000 F5000
G1 X763.2238 Y1716.1671 Z-20.0000 F5000
G1 X764.4842 Y1718.2865 Z-20.0000 F5000
G1 X765.0904 Y1720.6761 Z-20.0000 F5000
G1 X764.9736 Y1723.2208 Z-20.0000 F5000
G1 X764.1070 Y1725.6198 Z-20.0000 F5000
G1 X762.8062 Y1727.3603 Z-20.0000 F5000
G1 X759.8781 Y1730.2884 Z-20.0000 F5000
G1 X759.4608 Y1730.8474 Z-20.0000 F5000
G1 X759.3246 Y1731.1908 Z-20.0000 F5000
G1 X759.2790 Y1731.5668 Z-20.0000 F5000
G1 X759.3308 Y1731.9388 Z-20.0000 F5000
G1 X759.4708 Y1732.2765 Z-20.0000 F5000
G1 X759.6974 Y1732.5761 Z-20.0000 F5000
G1 X759.9957 Y1732.8095 Z-20.0000 F5000
G1 X760.3350 Y1732.9558 Z-20.0000 F5000
G1 X761.0231 Y1733.0553 Z-20.0000 F5000
G1 X786.3053 Y1733.0553 Z-20.0000 F5000
G1 X786.9934 Y1732.9558 Z-20.0000 F5000
G1 X787.3326 Y1732.8095 Z-20.0000 F5000
G1 X787.6309 Y1732.5761 Z-20.0000 F5000
G1 X787.8575 Y1732.2765 Z-20.0000 F5000
G1 X787.9975 Y1731.9388 Z-20.0000 F5000
G1 X788.0494 Y1731.5668 Z-20.0000 F5000
G1 X788.0038 Y1731.1908 Z-20.0000 F5000
G1 X787.8675 Y1730.8474 Z-20.0000 F5000
G1 X787.4502 Y1730.2884 Z-20.0000 F5000
G1 X784.5221 Y1727.3603 Z-20.0000 F5000
G1 X783.2214 Y1725.6198 Z-20.0000 F5000
G1 X782.3547 Y1723.2208 Z-20.0000 F5000
G1 X782.2379 Y1720.6761 Z-20.0000 F5000
G1 X782.8442 Y1718.2865 Z-20.0000 F5000
G1 X784.1045 Y1716.1671 Z-20.0000 F5000
G1 X785.9893 Y1714.4482 Z-20.0000 F5000
G1 X788.2962 Y1713.3681 Z-20.0000 F5000
G1 X790.4454 Y1713.0550 Z-20.0000 F5000
G1 X852.6630 Y1713.0550 Z-20.0000 F5000
G1 X852.6630 Y1745.2105 Z-20.0000 F5000
G1 X847.3203 Y1750.5525 Z-20.0000 F5000
G1 X811.6631 Y1750.5525 Z-20.0000 F5000
G1 X811.6631 Y1752.5553 Z-20.0000 F5000
G1 X816.6631 Y1752.5553 Z-20.0000 F5000
G1 X816.6631 Y1980.5521 Z-20.0000 F5000
G1 X811.6631 Y1980.5521 Z-20.0000 F5000
G1 X811.6631 Y1982.5551 Z-20.0000 F5000
G1 X847.3204 Y1982.5551 Z-20.0000 F5000
G1 X852.6630 Y1987.8973 Z-20.0000 F5000
G1 X852.6630 Y2045.2097 Z-20.0000 F5000
G1 X847.3204 Y2050.5521 Z-20.0000 F5000
G1 X811.6631 Y2050.5521 Z-20.0000 F5000
G1 X811.6631 Y2052.5549 Z-20.0000 F5000
G1 X816.6631 Y2052.5549 Z-20.0000 F5000
G1 X816.6631 Y2221.1684 Z-20.0000 F5000
G1 X816.6631 Y2241.1684 Z-20.0000 F5000
G1 X817.0122 Y2281.1669 Z0.0000 F5000
G1 X817.0122 Y2281.1669 Z10.0000 F9999
G1 X1162.0227 Y2181.1699 Z10.0000 F9999
G1 X1162.0227 Y2181.1699 Z0.0000 F2500
G1 X1161.6737 Y2221.1684 Z-20.0000 F5000
G1 X1161.6737 Y2389.7818 Z-20.0000 F5000
G1 X1125.4338 Y2389.7818 Z-20.0000 F5000
G1 X1125.4338 Y2389.7818 Z-10.0000 F9999
G1 X1112.4358 Y2389.7818 Z-10.0000 F5000
G1 X1112.4358 Y2389.7818 Z-20.0000 F2500
G1 X1075.6758 Y2389.7818 Z-20.0000 F5000
G1 X1075.6758 Y2052.5549 Z-20.0000 F5000
G1 X1080.6758 Y2052.5549 Z-20.0000 F5000
G1 X1080.6758 Y2050.5521 Z-20.0000 F5000
G1 X1045.0185 Y2050.5521 Z-20.0000 F5000
G1 X1039.6759 Y2045.2097 Z-20.0000 F5000
G1 X1039.6759 Y1987.8973 Z-20.0000 F5000
G1 X1045.0185 Y1982.5551 Z-20.0000 F5000
G1 X1080.6758 Y1982.5551 Z-20.0000 F5000
G1 X1080.6758 Y1980.5521 Z-20.0000 F5000
G1 X1075.6758 Y1980.5521 Z-20.0000 F5000
G1 X1075.6758 Y1752.5553 Z-20.0000 F5000
G1 X1080.6758 Y1752.5553 Z-20.0000 F5000
G1 X1080.6758 Y1750.5525 Z-20.0000 F5000
G1 X1045.0186 Y1750.5525 Z-20.0000 F5000
G1 X1039.6759 Y1745.2105 Z-20.0000 F5000
G1 X1039.6759 Y1713.0550 Z-20.0000 F5000
G1 X1101.8935 Y1713.0550 Z-20.0000 F5000
G1 X1104.0427 Y1713.3681 Z-20.0000 F5000
G1 X1106.3496 Y1714.4482 Z-20.0000 F5000
G1 X1108.2344 Y1716.1671 Z-20.0000 F5000
G1 X1109.4947 Y1718.2865 Z-20.0000 F5000
G1 X1110.1010 Y1720.6761 Z-20.0000 F5000
G1 X1109.9842 Y1723.2208 Z-20.0000 F5000
G1 X1109.1175 Y1725.6198 Z-20.0000 F5000
G1 X1107.8168 Y1727.3603 Z-20.0000 F5000
G1 X1104.8887 Y1730.2884 Z-20.0000 F5000
G1 X1104.4714 Y1730.8474 Z-20.0000 F5000
G1 X1104.3351 Y1731.1908 Z-20.0000 F5000
G1 X1104.2895 Y1731.5668 Z-20.0000 F5000
G1 X1104.3414 Y1731.9388 Z-20.0000 F5000
G1 X1104.4814 Y1732.2765 Z-20.0000 F5000
G1 X1104.7080 Y1732.5761 Z-20.0000 F5000
G1 X1105.0063 Y1732.8095 Z-20.0000 F5000
G1 X1105.3455 Y1732.9558 Z-20.0000 F5000
G1 X1106.0336 Y1733.0553 Z-20.0000 F5000
G1 X1131.3158 Y1733.0553 Z-20.0000 F5000
G1 X1132.0039 Y1732.9558 Z-20.0000 F5000
G1 X1132.3432 Y1732.8095 Z-20.0000 F5000
G1 X1132.6415 Y1732.5761 Z-20.0000 F5000
G1 X1132.8681 Y1732.2765 Z-20.0000 F5000
G1 X1133.0081 Y1731.9388 Z-20.0000 F5000
G1 X1133.0599 Y1731.5668 Z-20.0000 F5000
G1 X1133.0143 Y1731.1908 Z-20.0000 F5000
G1 X1132.8781 Y1730.8474 Z-20.0000 F5000
G1 X1132.4608 Y1730.2884 Z-20.0000 F5000
G1 X1129.5327 Y1727.3603 Z-20.0000 F5000
G1 X1128.2319 Y1725.6198 Z-20.0000 F5000
G1 X1127.3653 Y1723.2208 Z-20.0000 F5000
G1 X1127.2485 Y1720.6761 Z-20.0000 F5000
G1 X1127.8547 Y1718.2865 Z-20.0000 F5000
G1 X1129.1151 Y1716.1671 Z-20.0000 F5000
G1 X1130.9999 Y1714.4482 Z-20.0000 F5000
G1 X1133.3068 Y1713.3681 Z-20.0000 F5000
G1 X1135.4560 Y1713.0550 Z-20.0000 F5000
G1 X1197.6736 Y1713.0550 Z-20.0000 F5000
G1 X1197.6736 Y1745.2105 Z-20.0000 F5000
G1 X1192.3309 Y1750.5525 Z-20.0000 F5000
G1 X1156.6737 Y1750.5525 Z-20.0000 F5000
G1 X1156.6737 Y1752.5553 Z-20.0000 F5000
G1 X1161.6737 Y1752.5553 Z-20.0000 F5000
G1 X1161.6737 Y1980.5521 Z-20.0000 F5000
G1 X1156.6737 Y1980.5521 Z-20.0000 F5000
G1 X1156.6737 Y1982.5551 Z-20.0000 F5000
G1 X1192.3310 Y1982.5551 Z-20.0000 F5000
G1 X1197.6736 Y1987.8973 Z-20.0000 F5000
G1 X1197.6736 Y2045.2097 Z-20.0000 F5000
G1 X1192.3310 Y2050.5521 Z-20.0000 F5000
G1 X1156.6737 Y2050.5521 Z-20.0000 F5000
G1 X1156.6737 Y2052.5549 Z-20.0000 F5000
G1 X1161.6737 Y2052.5549 Z-20.0000 F5000
G1 X1161.6737 Y2221.1684 Z-20.0000 F5000
G1 X1161.6737 Y2241.1684 Z-20.0000 F5000
G1 X1162.0227 Y2281.1669 Z0.0000 F5000
G1 X1162.0227 Y2281.1669 Z10.0000 F9999
G1 X1055.8448 Y499.3976 Z10.0000 F9999
G1 X1055.8448 Y499.3976 Z0.0000 F2500
G1 X1056.1939 Y459.3991 Z-20.0000 F5000
G1 X1056.1939 Y345.4003 Z-20.0000 F5000
G1 X1061.1939 Y345.4003 Z-20.0000 F5000
G1 X1061.1939 Y343.3983 Z-20.0000 F5000
G1 X1043.5364 Y343.3983 Z-20.0000 F5000
G1 X1038.1939 Y338.0557 Z-20.0000 F5000
G1 X1038.1939 Y280.7430 Z-20.0000 F5000
G1 X1043.5364 Y275.4005 Z-20.0000 F5000
G1 X1061.1939 Y275.4005 Z-20.0000 F5000
G1 X1061.1939 Y273.3985 Z-20.0000 F5000
G1 X1056.1939 Y273.3985 Z-20.0000 F5000
G1 X1056.1939 Y103.9596 Z-20.0000 F5000
G1 X1056.1939 Y103.9596 Z-10.0000 F9999
G1 X1056.1939 Y90.9616 Z-10.0000 F5000
G1 X1056.1939 Y90.9616 Z-20.0000 F2500
G1 X1056.1939 Y45.4009 Z-20.0000 F5000
G1 X1061.1939 Y45.4009 Z-20.0000 F5000
G1 X1061.1939 Y43.3989 Z-20.0000 F5000
G1 X1043.5364 Y43.3989 Z-20.0000 F5000
G1 X1038.1939 Y38.0564 Z-20.0000 F5000
G1 X1038.1939 Y5.9010 Z-20.0000 F5000
G1 X1100.4101 Y5.9010 Z-20.0000 F5000
G1 X1102.5607 Y6.2128 Z-20.0000 F5000
G1 X1104.8689 Y7.2953 Z-20.0000 F5000
G1 X1106.7523 Y9.0135 Z-20.0000 F5000
G1 X1108.0124 Y11.1316 Z-20.0000 F5000
G1 X1108.6190 Y13.5204 Z-20.0000 F5000
G1 X1108.5022 Y16.0670 Z-20.0000 F5000
G1 X1107.6356 Y18.4645 Z-20.0000 F5000
G1 X1106.3354 Y20.2057 Z-20.0000 F5000
G1 X1103.4064 Y23.1347 Z-20.0000 F5000
G1 X1102.9894 Y23.6931 Z-20.0000 F5000
G1 X1102.8531 Y24.0363 Z-20.0000 F5000
G1 X1102.8074 Y24.4121 Z-20.0000 F5000
G1 X1102.8591 Y24.7840 Z-20.0000 F5000
G1 X1102.9990 Y25.1217 Z-20.0000 F5000
G1 X1103.2254 Y25.4212 Z-20.0000 F5000
G1 X1103.5234 Y25.6546 Z-20.0000 F5000
G1 X1103.8625 Y25.8010 Z-20.0000 F5000
G1 X1104.5522 Y25.9010 Z-20.0000 F5000
G1 X1129.8332 Y25.9010 Z-20.0000 F5000
G1 X1130.5230 Y25.8010 Z-20.0000 F5000
G1 X1130.8620 Y25.6546 Z-20.0000 F5000
G1 X1131.1601 Y25.4212 Z-20.0000 F5000
G1 X1131.3865 Y25.1217 Z-20.0000 F5000
G1 X1131.5263 Y24.7840 Z-20.0000 F5000
G1 X1131.5780 Y24.4121 Z-20.0000 F5000
G1 X1131.5323 Y24.0363 Z-20.0000 F5000
G1 X1131.3960 Y23.6931 Z-20.0000 F5000
G1 X1130.9791 Y23.1347 Z-20.0000 F5000
G1 X1128.0501 Y20.2057 Z-20.0000 F5000
G1 X1126.7499 Y18.4645 Z-20.0000 F5000
G1 X1125.8832 Y16.0670 Z-20.0000 F5000
G1 X1125.7665 Y13.5204 Z-20.0000 F5000
G1 X1126.3730 Y11.1316 Z-20.0000 F5000
G1 X1127.6332 Y9.0135 Z-20.0000 F5000
G1 X1129.5166 Y7.2953 Z-20.0000 F5000
G1 X1131.8247 Y6.2128 Z-20.0000 F5000
G1 X1133.9754 Y5.9010 Z-20.0000 F5000
G1 X1196.1915 Y5.9010 Z-20.0000 F5000
G1 X1196.1915 Y38.0564 Z-20.0000 F5000
G1 X1190.8491 Y43.3989 Z-20.0000 F5000
G1 X1173.1916 Y43.3989 Z-20.0000 F5000
G1 X1173.1916 Y45.4009 Z-20.0000 F5000
G1 X1178.1916 Y45.4009 Z-20.0000 F5000
G1 X1178.1916 Y90.2186 Z-20.0000 F5000
G1 X1178.1916 Y90.2186 Z-10.0000 F9999
G1 X1178.1916 Y103.2166 Z-10.0000 F5000
G1 X1178.1916 Y103.2166 Z-20.0000 F2500
G1 X1178.1916 Y273.3985 Z-20.0000 F5000
G1 X1173.1916 Y273.3985 Z-20.0000 F5000
G1 X1173.1916 Y275.4005 Z-20.0000 F5000
G1 X1190.8490 Y275.4005 Z-20.0000 F5000
G1 X1196.1915 Y280.7430 Z-20.0000 F5000
G1 X1196.1915 Y338.0557 Z-20.0000 F5000
G1 X1190.8491 Y343.3983 Z-20.0000 F5000
G1 X1173.1916 Y343.3983 Z-20.0000 F5000
G1 X1173.1916 Y345.4003 Z-20.0000 F5000
G1 X1178.1916 Y345.4003 Z-20.0000 F5000
G1 X1178.1916 Y573.3979 Z-20.0000 F5000
G1 X1173.1916 Y573.3979 Z-20.0000 F5000
G1 X1173.1916 Y575.3999 Z-20.0000 F5000
G1 X1190.8491 Y575.3999 Z-20.0000 F5000
G1 X1196.1915 Y580.7425 Z-20.0000 F5000
G1 X1196.1915 Y604.3979 Z-20.0000 F5000
G1 X1149.1937 Y604.3979 Z-20.0000 F5000
G1 X1149.1937 Y599.3978 Z-20.0000 F5000
G1 X1147.1917 Y599.3978 Z-20.0000 F5000
G1 X1147.1917 Y619.3998 Z-20.0000 F5000
G1 X1149.1937 Y619.3998 Z-20.0000 F5000
G1 X1149.1937 Y614.3997 Z-20.0000 F5000
G1 X1196.1915 Y614.3997 Z-20.0000 F5000
G1 X1196.1915 Y638.0552 Z-20.0000 F5000
G1 X1190.8491 Y643.3977 Z-20.0000 F5000
G1 X1173.1916 Y643.3977 Z-20.0000 F5000
G1 X1173.1916 Y645.3997 Z-20.0000 F5000
G1 X1178.1916 Y645.3997 Z-20.0000 F5000
G1 X1178.1916 Y873.3973 Z-20.0000 F5000
G1 X1173.1916 Y873.3973 Z-20.0000 F5000
G1 X1173.1916 Y875.3993 Z-20.0000 F5000
G1 X1190.8491 Y875.3993 Z-20.0000 F5000
G1 X1196.1915 Y880.7418 Z-20.0000 F5000
G1 X1196.1915 Y938.0546 Z-20.0000 F5000
G1 X1190.8491 Y943.3971 Z-20.0000 F5000
G1 X1173.1916 Y943.3971 Z-20.0000 F5000
G1 X1173.1916 Y945.3991 Z-20.0000 F5000
G1 X1178.1916 Y945.3991 Z-20.0000 F5000
G1 X1178.1916 Y1063.3970 Z-20.0000 F5000
G1 X1155.1917 Y1063.3970 Z-20.0000 F5000
G1 X1155.1917 Y1065.3990 Z-20.0000 F5000
G1 X1160.1917 Y1065.3990 Z-20.0000 F5000
G1 X1160.1917 Y1173.3967 Z-20.0000 F5000
G1 X1155.1917 Y1173.3967 Z-20.0000 F5000
G1 X1155.1917 Y1175.3987 Z-20.0000 F5000
G1 X1190.8491 Y1175.3987 Z-20.0000 F5000
G1 X1196.1915 Y1180.7412 Z-20.0000 F5000
G1 X1196.1915 Y1238.0539 Z-20.0000 F5000
G1 X1190.8491 Y1243.3965 Z-20.0000 F5000
G1 X1155.1917 Y1243.3965 Z-20.0000 F5000
G1 X1155.1917 Y1245.3985 Z-20.0000 F5000
G1 X1160.1917 Y1245.3985 Z-20.0000 F5000
G1 X1160.1917 Y1473.3960 Z-20.0000 F5000
G1 X1155.1917 Y1473.3960 Z-20.0000 F5000
G1 X1155.1917 Y1475.3980 Z-20.0000 F5000
G1 X1190.8491 Y1475.3980 Z-20.0000 F5000
G1 X1196.1915 Y1480.7406 Z-20.0000 F5000
G1 X1196.1915 Y1538.0535 Z-20.0000 F5000
G1 X1190.8491 Y1543.3960 Z-20.0000 F5000
G1 X1155.1917 Y1543.3960 Z-20.0000 F5000
G1 X1155.1917 Y1545.3979 Z-20.0000 F5000
G1 X1160.1917 Y1545.3979 Z-20.0000 F5000
G1 X1160.1917 Y1674.8957 Z-20.0000 F5000
G1 X1074.1938 Y1674.8957 Z-20.0000 F5000
G1 X1074.1938 Y1545.3979 Z-20.0000 F5000
G1 X1079.1938 Y1545.3979 Z-20.0000 F5000
G1 X1079.1938 Y1543.3960 Z-20.0000 F5000
G1 X1043.5364 Y1543.3960 Z-20.0000 F5000
G1 X1038.1939 Y1538.0535 Z-20.0000 F5000
G1 X1038.1939 Y1480.7406 Z-20.0000 F5000
G1 X1043.5364 Y1475.3980 Z-20.0000 F5000
G1 X1079.1938 Y1475.3980 Z-20.0000 F5000
G1 X1079.1938 Y1473.3960 Z-20.0000 F5000
G1 X1074.1938 Y1473.3960 Z-20.0000 F5000
G1 X1074.1938 Y1245.3985 Z-20.0000 F5000
G1 X1079.1938 Y1245.3985 Z-20.0000 F5000
G1 X1079.1938 Y1243.3965 Z-20.0000 F5000
G1 X1043.5364 Y1243.3965 Z-20.0000 F5000
G1 X1038.1939 Y1238.0539 Z-20.0000 F5000
G1 X1038.1939 Y1180.7412 Z-20.0000 F5000
G1 X1043.5364 Y1175.3987 Z-20.0000 F5000
G1 X1079.1938 Y1175.3987 Z-20.0000 F5000
G1 X1079.1938 Y1173.3967 Z-20.0000 F5000
G1 X1074.1939 Y1173.3967 Z-20.0000 F5000
G1 X1074.1914 Y1065.3990 Z-20.0000 F5000
G1 X1079.1915 Y1065.3990 Z-20.0000 F5000
G1 X1079.1915 Y1063.3970 Z-20.0000 F5000
G1 X1056.1939 Y1063.3970 Z-20.0000 F5000
G1 X1056.1939 Y945.3991 Z-20.0000 F5000
G1 X1061.1939 Y945.3991 Z-20.0000 F5000
G1 X1061.1939 Y943.3971 Z-20.0000 F5000
G1 X1043.5364 Y943.3971 Z-20.0000 F5000
G1 X1038.1939 Y938.0546 Z-20.0000 F5000
G1 X1038.1939 Y880.7418 Z-20.0000 F5000
G1 X1043.5364 Y875.3993 Z-20.0000 F5000
G1 X1061.1939 Y875.3993 Z-20.0000 F5000
G1 X1061.1939 Y873.3973 Z-20.0000 F5000
G1 X1056.1939 Y873.3973 Z-20.0000 F5000
G1 X1056.1939 Y645.3997 Z-20.0000 F5000
G1 X1061.1939 Y645.3997 Z-20.0000 F5000
G1 X1061.1939 Y643.3977 Z-20.0000 F5000
G1 X1043.5364 Y643.3977 Z-20.0000 F5000
G1 X1038.1939 Y638.0552 Z-20.0000 F5000
G1 X1038.1939 Y614.3997 Z-20.0000 F5000
G1 X1085.1918 Y614.3997 Z-20.0000 F5000
G1 X1085.1918 Y619.3998 Z-20.0000 F5000
G1 X1087.1938 Y619.3998 Z-20.0000 F5000
G1 X1087.1938 Y599.3978 Z-20.0000 F5000
G1 X1085.1918 Y599.3978 Z-20.0000 F5000
G1 X1085.1918 Y604.3979 Z-20.0000 F5000
G1 X1038.1939 Y604.3979 Z-20.0000 F5000
G1 X1038.1939 Y580.7425 Z-20.0000 F5000
G1 X1043.5364 Y575.3999 Z-20.0000 F5000
G1 X1061.1939 Y575.3999 Z-20.0000 F5000
G1 X1061.1939 Y573.3979 Z-20.0000 F5000
G1 X1056.1939 Y573.3979 Z-20.0000 F5000
G1 X1056.1939 Y459.3991 Z-20.0000 F5000
G1 X1056.1939 Y439.3991 Z-20.0000 F5000
G1 X1055.8448 Y399.4006 Z0.0000 F5000
G1 X1055.8448 Y399.4006 Z10.0000 F9999
G1 X711.7472 Y499.3976 Z10.0000 F9999
G1 X711.7472 Y499.3976 Z0.0000 F2500
G1 X712.0962 Y459.3991 Z-20.0000 F5000
G1 X712.0962 Y345.4003 Z-20.0000 F5000
G1 X717.0962 Y345.4003 Z-20.0000 F5000
G1 X717.0962 Y343.3983 Z-20.0000 F5000
G1 X699.4388 Y343.3983 Z-20.0000 F5000
G1 X694.0963 Y338.0557 Z-20.0000 F5000
G1 X694.0963 Y280.7430 Z-20.0000 F5000
G1 X699.4388 Y275.4005 Z-20.0000 F5000
G1 X717.0962 Y275.4005 Z-20.0000 F5000
G1 X717.0962 Y273.3985 Z-20.0000 F5000
G1 X712.0962 Y273.3985 Z-20.0000 F5000
G1 X712.0962 Y106.4832 Z-20.0000 F5000
G1 X712.0962 Y106.4832 Z-10.0000 F9999
G1 X712.0962 Y93.4852 Z-10.0000 F5000
G1 X712.0962 Y93.4852 Z-20.0000 F2500
G1 X712.0962 Y45.4009 Z-20.0000 F5000
G1 X717.0962 Y45.4009 Z-20.0000 F5000
G1 X717.0962 Y43.3989 Z-20.0000 F5000
G1 X699.4388 Y43.3989 Z-20.0000 F5000
G1 X694.0963 Y38.0564 Z-20.0000 F5000
G1 X694.0963 Y5.9010 Z-20.0000 F5000
G1 X756.3125 Y5.9010 Z-20.0000 F5000
G1 X758.4631 Y6.2128 Z-20.0000 F5000
G1 X760.7712 Y7.2953 Z-20.0000 F5000
G1 X762.6546 Y9.0135 Z-20.0000 F5000
G1 X763.9148 Y11.1316 Z-20.0000 F5000
G1 X764.5214 Y13.5204 Z-20.0000 F5000
G1 X764.4046 Y16.0670 Z-20.0000 F5000
G1 X763.5379 Y18.4645 Z-20.0000 F5000
G1 X762.2377 Y20.2057 Z-20.0000 F5000
G1 X759.3088 Y23.1347 Z-20.0000 F5000
G1 X758.8918 Y23.6931 Z-20.0000 F5000
G1 X758.7555 Y24.0363 Z-20.0000 F5000
G1 X758.7098 Y24.4121 Z-20.0000 F5000
G1 X758.7615 Y24.7840 Z-20.0000 F5000
G1 X758.9014 Y25.1217 Z-20.0000 F5000
G1 X759.1278 Y25.4212 Z-20.0000 F5000
G1 X759.4258 Y25.6546 Z-20.0000 F5000
G1 X759.7649 Y25.8010 Z-20.0000 F5000
G1 X760.4546 Y25.9010 Z-20.0000 F5000
G1 X785.7356 Y25.9010 Z-20.0000 F5000
G1 X786.4253 Y25.8010 Z-20.0000 F5000
G1 X786.7644 Y25.6546 Z-20.0000 F5000
G1 X787.0624 Y25.4212 Z-20.0000 F5000
G1 X787.2888 Y25.1217 Z-20.0000 F5000
G1 X787.4287 Y24.7840 Z-20.0000 F5000
G1 X787.4804 Y24.4121 Z-20.0000 F5000
G1 X787.4347 Y24.0363 Z-20.0000 F5000
G1 X787.2984 Y23.6931 Z-20.0000 F5000
G1 X786.8814 Y23.1347 Z-20.0000 F5000
G1 X783.9524 Y20.2057 Z-20.0000 F5000
G1 X782.6523 Y18.4645 Z-20.0000 F5000
G1 X781.7856 Y16.0670 Z-20.0000 F5000
G1 X781.6688 Y13.5204 Z-20.0000 F5000
G1 X782.2754 Y11.1316 Z-20.0000 F5000
G1 X783.5356 Y9.0135 Z-20.0000 F5000
G1 X785.4190 Y7.2953 Z-20.0000 F5000
G1 X787.7271 Y6.2128 Z-20.0000 F5000
G1 X789.8777 Y5.9010 Z-20.0000 F5000
G1 X852.0939 Y5.9010 Z-20.0000 F5000
G1 X852.0939 Y38.0564 Z-20.0000 F5000
G1 X846.7514 Y43.3989 Z-20.0000 F5000
G1 X829.0940 Y43.3989 Z-20.0000 F5000
G1 X829.0940 Y45.4009 Z-20.0000 F5000
G1 X834.0940 Y45.4009 Z-20.0000 F5000
G1 X834.0940 Y92.7422 Z-20.0000 F5000
G1 X834.0940 Y92.7422 Z-10.0000 F9999
G1 X834.0940 Y105.7402 Z-10.0000 F5000
G1 X834.0940 Y105.7402 Z-20.0000 F2500
G1 X834.0940 Y273.3985 Z-20.0000 F5000
G1 X829.0940 Y273.3985 Z-20.0000 F5000
G1 X829.0940 Y275.4005 Z-20.0000 F5000
G1 X846.7514 Y275.4005 Z-20.0000 F5000
G1 X852.0939 Y280.7430 Z-20.0000 F5000
G1 X852.0939 Y338.0557 Z-20.0000 F5000
G1 X846.7514 Y343.3983 Z-20.0000 F5000
G1 X829.0940 Y343.3983 Z-20.0000 F5000
G1 X829.0940 Y345.4003 Z-20.0000 F5000
G1 X834.0940 Y345.4003 Z-20.0000 F5000
G1 X834.0940 Y573.3979 Z-20.0000 F5000
G1 X829.0940 Y573.3979 Z-20.0000 F5000
G1 X829.0940 Y575.3999 Z-20.0000 F5000
G1 X846.7514 Y575.3999 Z-20.0000 F5000
G1 X852.0939 Y580.7425 Z-20.0000 F5000
G1 X852.0939 Y604.3979 Z-20.0000 F5000
G1 X805.0960 Y604.3979 Z-20.0000 F5000
G1 X805.0960 Y599.3978 Z-20.0000 F5000
G1 X803.0940 Y599.3978 Z-20.0000 F5000
G1 X803.0940 Y619.3998 Z-20.0000 F5000
G1 X805.0960 Y619.3998 Z-20.0000 F5000
G1 X805.0960 Y614.3997 Z-20.0000 F5000
G1 X852.0939 Y614.3997 Z-20.0000 F5000
G1 X852.0939 Y638.0552 Z-20.0000 F5000
G1 X846.7514 Y643.3977 Z-20.0000 F5000
G1 X829.0940 Y643.3977 Z-20.0000 F5000
G1 X829.0940 Y645.3997 Z-20.0000 F5000
G1 X834.0940 Y645.3997 Z-20.0000 F5000
G1 X834.0940 Y873.3973 Z-20.0000 F5000
G1 X829.0940 Y873.3973 Z-20.0000 F5000
G1 X829.0940 Y875.3993 Z-20.0000 F5000
G1 X846.7514 Y875.3993 Z-20.0000 F5000
G1 X852.0939 Y880.7418 Z-20.0000 F5000
G1 X852.0939 Y938.0546 Z-20.0000 F5000
G1 X846.7514 Y943.3971 Z-20.0000 F5000
G1 X829.0940 Y943.3971 Z-20.0000 F5000
G1 X829.0940 Y945.3991 Z-20.0000 F5000
G1 X834.0940 Y945.3991 Z-20.0000 F5000
G1 X834.0940 Y1063.3970 Z-20.0000 F5000
G1 X811.0940 Y1063.3970 Z-20.0000 F5000
G1 X811.0940 Y1065.3990 Z-20.0000 F5000
G1 X816.0940 Y1065.3990 Z-20.0000 F5000
G1 X816.0940 Y1173.3967 Z-20.0000 F5000
G1 X811.0940 Y1173.3967 Z-20.0000 F5000
G1 X811.0940 Y1175.3987 Z-20.0000 F5000
G1 X846.7514 Y1175.3987 Z-20.0000 F5000
G1 X852.0939 Y1180.7412 Z-20.0000 F5000
G1 X852.0939 Y1238.0539 Z-20.0000 F5000
G1 X846.7514 Y1243.3965 Z-20.0000 F5000
G1 X811.0940 Y1243.3965 Z-20.0000 F5000
G1 X811.0940 Y1245.3985 Z-20.0000 F5000
G1 X816.0940 Y1245.3985 Z-20.0000 F5000
G1 X816.0940 Y1473.3960 Z-20.0000 F5000
G1 X811.0940 Y1473.3960 Z-20.0000 F5000
G1 X811.0940 Y1475.3980 Z-20.0000 F5000
G1 X846.7514 Y1475.3980 Z-20.0000 F5000
G1 X852.0939 Y1480.7406 Z-20.0000 F5000
G1 X852.0939 Y1538.0535 Z-20.0000 F5000
G1 X846.7514 Y1543.3960 Z-20.0000 F5000
G1 X811.0940 Y1543.3960 Z-20.0000 F5000
G1 X811.0940 Y1545.3979 Z-20.0000 F5000
G1 X816.0940 Y1545.3979 Z-20.0000 F5000
G1 X816.0940 Y1674.8957 Z-20.0000 F5000
G1 X730.0962 Y1674.8957 Z-20.0000 F5000
G1 X730.0962 Y1545.3979 Z-20.0000 F5000
G1 X735.0962 Y1545.3979 Z-20.0000 F5000
G1 X735.0962 Y1543.3960 Z-20.0000 F5000
G1 X699.4388 Y1543.3960 Z-20.0000 F5000
G1 X694.0963 Y1538.0535 Z-20.0000 F5000
G1 X694.0963 Y1480.7406 Z-20.0000 F5000
G1 X699.4388 Y1475.3980 Z-20.0000 F5000
G1 X735.0962 Y1475.3980 Z-20.0000 F5000
G1 X735.0962 Y1473.3960 Z-20.0000 F5000
G1 X730.0962 Y1473.3960 Z-20.0000 F5000
G1 X730.0962 Y1245.3985 Z-20.0000 F5000
G1 X735.0962 Y1245.3985 Z-20.0000 F5000
G1 X735.0962 Y1243.3965 Z-20.0000 F5000
G1 X699.4388 Y1243.3965 Z-20.0000 F5000
G1 X694.0963 Y1238.0539 Z-20.0000 F5000
G1 X694.0963 Y1180.7412 Z-20.0000 F5000
G1 X699.4388 Y1175.3987 Z-20.0000 F5000
G1 X735.0962 Y1175.3987 Z-20.0000 F5000
G1 X735.0962 Y1173.3967 Z-20.0000 F5000
G1 X730.0962 Y1173.3967 Z-20.0000 F5000
G1 X730.0937 Y1065.3990 Z-20.0000 F5000
G1 X735.0938 Y1065.3990 Z-20.0000 F5000
G1 X735.0938 Y1063.3970 Z-20.0000 F5000
G1 X712.0962 Y1063.3970 Z-20.0000 F5000
G1 X712.0962 Y945.3991 Z-20.0000 F5000
G1 X717.0962 Y945.3991 Z-20.0000 F5000
G1 X717.0962 Y943.3971 Z-20.0000 F5000
G1 X699.4388 Y943.3971 Z-20.0000 F5000
G1 X694.0963 Y938.0546 Z-20.0000 F5000
G1 X694.0963 Y880.7418 Z-20.0000 F5000
G1 X699.4388 Y875.3993 Z-20.0000 F5000
G1 X717.0962 Y875.3993 Z-20.0000 F5000
G1 X717.0962 Y873.3973 Z-20.0000 F5000
G1 X712.0962 Y873.3973 Z-20.0000 F5000
G1 X712.0962 Y645.3997 Z-20.0000 F5000
G1 X717.0962 Y645.3997 Z-20.0000 F5000
G1 X717.0962 Y643.3977 Z-20.0000 F5000
G1 X699.4388 Y643.3977 Z-20.0000 F5000
G1 X694.0963 Y638.0552 Z-20.0000 F5000
G1 X694.0963 Y614.3997 Z-20.0000 F5000
G1 X741.0942 Y614.3997 Z-20.0000 F5000
G1 X741.0942 Y619.3998 Z-20.0000 F5000
G1 X743.0962 Y619.3998 Z-20.0000 F5000
G1 X743.0962 Y599.3978 Z-20.0000 F5000
G1 X741.0942 Y599.3978 Z-20.0000 F5000
G1 X741.0942 Y604.3979 Z-20.0000 F5000
G1 X694.0963 Y604.3979 Z-20.0000 F5000
G1 X694.0963 Y580.7425 Z-20.0000 F5000
G1 X699.4388 Y575.3999 Z-20.0000 F5000
G1 X717.0962 Y575.3999 Z-20.0000 F5000
G1 X717.0962 Y573.3979 Z-20.0000 F5000
G1 X712.0962 Y573.3979 Z-20.0000 F5000
G1 X712.0962 Y459.3991 Z-20.0000 F5000
G1 X712.0962 Y439.3991 Z-20.0000 F5000
G1 X711.7472 Y399.4006 Z0.0000 F5000
G1 X711.7472 Y399.4006 Z10.0000 F9999
G1 X1900.0000 Y2800.0000 Z80.0000 F9999
G1 Z80.0000 F9999
G1 X1900.0000 Y2800.0000 F9999
M5
M30
