(plotsheet 2n3_nested_153 sheets_final v1_0_sheet 147a_S147.1_text_CC8 - stepover 1mm)
(Material Size) (X=1220.000, Y=2440.000, Z=20.000)
(LinuxCNC_NoArcs_MM_TC_medium_50um_G1_verbose.con)
G90 G80 G21 G49
G64 P0.050
M6 T1
(Tool Number:1) (7.998 mm dia. slot drill)
G43 H1 G0Z80.0000
M3 S18000
G04 P10
G1 X82.2037 Y435.9518 Z10.0000 F9999
G1 X82.2037 Y435.9518 Z-1.0000 F2500
G1 X82.2037 Y450.3922 Z-1.0000 F5000
G1 X82.2037 Y435.9518 Z-1.0000 F5000
G1 X63.9101 Y435.9518 Z-1.0000 F5000
G1 X63.9101 Y451.0711 Z-1.0000 F5000
G1 X63.9101 Y435.9518 Z-1.0000 F5000
G1 X105.0110 Y435.9518 Z-1.0000 F5000
G1 X105.0110 Y435.9518 Z10.0000 F9999
G1 X105.0110 Y466.4839 Z10.0000 F9999
G1 X105.0110 Y466.4839 Z-1.0000 F2500
G1 X63.9101 Y466.4839 Z-1.0000 F5000
G1 X63.9101 Y473.6399 Z-1.0000 F5000
G1 X64.5156 Y477.5114 Z-1.0000 F5000
G1 X66.3321 Y480.7224 Z-1.0000 F5000
G1 X69.4881 Y482.9426 Z-1.0000 F5000
G1 X74.1303 Y483.7867 Z-1.0000 F5000
G1 X78.8092 Y482.6307 Z-1.0000 F5000
G1 X82.1303 Y479.8600 Z-1.0000 F5000
G1 X84.0936 Y476.5389 Z-1.0000 F5000
G1 X84.7541 Y473.6399 Z-1.0000 F5000
G1 X84.7541 Y466.4839 Z-1.0000 F5000
G1 X84.7541 Y473.6399 Z-1.0000 F5000
G1 X84.0936 Y476.5389 Z-1.0000 F5000
G1 X82.1303 Y479.8600 Z-1.0000 F5000
G1 X78.8092 Y482.6307 Z-1.0000 F5000
G1 X74.1303 Y483.7867 Z-1.0000 F5000
G1 X69.4881 Y482.9426 Z-1.0000 F5000
G1 X66.3321 Y480.7224 Z-1.0000 F5000
G1 X64.5156 Y477.5114 Z-1.0000 F5000
G1 X63.9101 Y473.6399 Z-1.0000 F5000
G1 X63.9101 Y466.4839 Z-1.0000 F5000
G1 X63.9101 Y466.4839 Z10.0000 F9999
G1 X63.9101 Y510.5940 Z10.0000 F9999
G1 X63.9101 Y510.5940 Z-1.0000 F2500
G1 X105.0110 Y526.6490 Z-1.0000 F5000
G1 X63.9101 Y510.5940 Z-1.0000 F5000
G1 X105.0110 Y494.5756 Z-1.0000 F5000
G1 X105.0110 Y494.5756 Z10.0000 F9999
G1 X105.0110 Y483.8967 Z10.0000 F9999
G1 X105.0110 Y483.8967 Z-1.0000 F2500
G1 X84.8642 Y470.6674 Z-1.0000 F5000
G1 X105.0110 Y483.8967 Z-1.0000 F5000
G1 X105.0110 Y483.8967 Z10.0000 F9999
G1 X90.3138 Y520.9059 Z10.0000 F9999
G1 X90.3138 Y520.9059 Z-1.0000 F2500
G1 X90.3138 Y500.2087 Z-1.0000 F5000
G1 X90.3138 Y520.9059 Z-1.0000 F5000
G1 X90.3138 Y520.9059 Z10.0000 F9999
G1 X80.3505 Y567.2729 Z10.0000 F9999
G1 X80.3505 Y567.2729 Z-1.0000 F2500
G1 X80.3505 Y538.0252 Z-1.0000 F5000
G1 X80.3505 Y567.2729 Z-1.0000 F5000
G1 X80.3505 Y567.2729 Z10.0000 F9999
G1 X63.9101 Y593.9701 Z10.0000 F9999
G1 X63.9101 Y593.9701 Z-1.0000 F2500
G1 X105.0110 Y610.0252 Z-1.0000 F5000
G1 X63.9101 Y593.9701 Z-1.0000 F5000
G1 X105.0110 Y577.9518 Z-1.0000 F5000
G1 X105.0110 Y577.9518 Z10.0000 F9999
G1 X90.3138 Y604.2821 Z10.0000 F9999
G1 X90.3138 Y604.2821 Z-1.0000 F2500
G1 X90.3138 Y583.5848 Z-1.0000 F5000
G1 X90.3138 Y604.2821 Z-1.0000 F5000
G1 X90.3138 Y604.2821 Z10.0000 F9999
G1 X98.1853 Y662.5023 Z10.0000 F9999
G1 X98.1853 Y662.5023 Z-1.0000 F2500
G1 X101.2312 Y664.4472 Z-1.0000 F5000
G1 X103.2863 Y666.8692 Z-1.0000 F5000
G1 X104.5340 Y669.9885 Z-1.0000 F5000
G1 X105.0110 Y674.1169 Z-1.0000 F5000
G1 X104.5523 Y678.6123 Z-1.0000 F5000
G1 X102.8092 Y682.4289 Z-1.0000 F5000
G1 X99.8184 Y685.1078 Z-1.0000 F5000
G1 X95.6532 Y686.2270 Z-1.0000 F5000
G1 X91.6532 Y685.6949 Z-1.0000 F5000
G1 X88.9743 Y684.1536 Z-1.0000 F5000
G1 X87.2863 Y682.1169 Z-1.0000 F5000
G1 X86.1853 Y680.2087 Z-1.0000 F5000
G1 X81.4514 Y671.0160 Z-1.0000 F5000
G1 X80.0386 Y668.6490 Z-1.0000 F5000
G1 X78.3872 Y666.7958 Z-1.0000 F5000
G1 X76.2037 Y665.5481 Z-1.0000 F5000
G1 X73.3230 Y665.0344 Z-1.0000 F5000
G1 X70.0386 Y665.5665 Z-1.0000 F5000
G1 X67.0110 Y667.4013 Z-1.0000 F5000
G1 X64.7908 Y670.5389 Z-1.0000 F5000
G1 X63.9101 Y674.9059 Z-1.0000 F5000
G1 X64.5890 Y679.1628 Z-1.0000 F5000
G1 X66.0569 Y682.0068 Z-1.0000 F5000
G1 X68.2037 Y684.0986 Z-1.0000 F5000
G1 X66.0569 Y682.0068 Z-1.0000 F5000
G1 X64.5890 Y679.1628 Z-1.0000 F5000
G1 X63.9101 Y674.9059 Z-1.0000 F5000
G1 X64.7908 Y670.5389 Z-1.0000 F5000
G1 X67.0110 Y667.4013 Z-1.0000 F5000
G1 X70.0386 Y665.5665 Z-1.0000 F5000
G1 X73.3230 Y665.0344 Z-1.0000 F5000
G1 X76.2037 Y665.5481 Z-1.0000 F5000
G1 X78.3872 Y666.7958 Z-1.0000 F5000
G1 X80.0386 Y668.6490 Z-1.0000 F5000
G1 X81.4514 Y671.0160 Z-1.0000 F5000
G1 X86.1853 Y680.2087 Z-1.0000 F5000
G1 X87.2863 Y682.1169 Z-1.0000 F5000
G1 X88.9743 Y684.1536 Z-1.0000 F5000
G1 X91.6532 Y685.6949 Z-1.0000 F5000
G1 X95.6532 Y686.2270 Z-1.0000 F5000
G1 X99.8184 Y685.1078 Z-1.0000 F5000
G1 X102.8092 Y682.4289 Z-1.0000 F5000
G1 X104.5523 Y678.6123 Z-1.0000 F5000
G1 X105.0110 Y674.1169 Z-1.0000 F5000
G1 X104.5340 Y669.9885 Z-1.0000 F5000
G1 X103.2863 Y666.8692 Z-1.0000 F5000
G1 X101.2312 Y664.4472 Z-1.0000 F5000
G1 X101.2312 Y664.4472 Z10.0000 F9999
G1 X54.5156 Y651.7867 Z10.0000 F9999
G1 X54.5156 Y651.7867 Z-1.0000 F2500
G1 X107.3597 Y621.4013 Z-1.0000 F5000
G1 X54.5156 Y651.7867 Z-1.0000 F5000
G1 X54.5156 Y651.7867 Z10.0000 F9999
G1 X63.9101 Y719.9334 Z10.0000 F9999
G1 X63.9101 Y719.9334 Z-1.0000 F2500
G1 X97.3046 Y697.7316 Z-1.0000 F5000
G1 X97.3046 Y726.5389 Z-1.0000 F5000
G1 X97.3046 Y697.7316 Z-1.0000 F5000
G1 X63.9101 Y719.9334 Z-1.0000 F5000
G1 X105.0110 Y719.9334 Z-1.0000 F5000
G1 X105.0110 Y719.9334 Z10.0000 F9999
G1 X105.0110 Y783.5481 Z10.0000 F9999
G1 X105.0110 Y783.5481 Z-1.0000 F2500
G1 X82.2037 Y783.5481 Z-1.0000 F5000
G1 X82.2037 Y800.0068 Z-1.0000 F5000
G1 X82.2037 Y783.5481 Z-1.0000 F5000
G1 X63.9101 Y783.5481 Z-1.0000 F5000
G1 X63.9101 Y801.3096 Z-1.0000 F5000
G1 X63.9101 Y783.5481 Z-1.0000 F5000
G1 X105.0110 Y783.5481 Z-1.0000 F5000
G1 X105.0110 Y801.3096 Z-1.0000 F5000
G1 X105.0110 Y801.3096 Z10.0000 F9999
G1 X83.8000 Y823.7133 Z10.0000 F9999
G1 X83.8000 Y823.7133 Z-1.0000 F2500
G1 X105.0110 Y835.6582 Z-1.0000 F5000
G1 X83.8000 Y823.7133 Z-1.0000 F5000
G1 X63.9101 Y835.6582 Z-1.0000 F5000
G1 X83.8000 Y823.7133 Z-1.0000 F5000
G1 X63.9101 Y811.6399 Z-1.0000 F5000
G1 X83.8000 Y823.7133 Z-1.0000 F5000
G1 X105.0110 Y811.6399 Z-1.0000 F5000
G1 X105.0110 Y811.6399 Z10.0000 F9999
G1 X54.5156 Y768.0435 Z10.0000 F9999
G1 X54.5156 Y768.0435 Z-1.0000 F2500
G1 X107.3597 Y737.6582 Z-1.0000 F5000
G1 X54.5156 Y768.0435 Z-1.0000 F5000
G1 X54.5156 Y768.0435 Z10.0000 F9999
G1 X225.0279 Y768.0435 Z10.0000 F9999
G1 X225.0279 Y768.0435 Z-1.0000 F2500
G1 X277.8720 Y737.6582 Z-1.0000 F5000
G1 X225.0279 Y768.0435 Z-1.0000 F5000
G1 X225.0279 Y768.0435 Z10.0000 F9999
G1 X234.4224 Y719.9334 Z10.0000 F9999
G1 X234.4224 Y719.9334 Z-1.0000 F2500
G1 X267.8169 Y697.7316 Z-1.0000 F5000
G1 X267.8169 Y726.5389 Z-1.0000 F5000
G1 X267.8169 Y697.7316 Z-1.0000 F5000
G1 X234.4224 Y719.9334 Z-1.0000 F5000
G1 X275.5234 Y719.9334 Z-1.0000 F5000
G1 X275.5234 Y719.9334 Z10.0000 F9999
G1 X268.6977 Y662.5023 Z10.0000 F9999
G1 X268.6977 Y662.5023 Z-1.0000 F2500
G1 X271.7435 Y664.4472 Z-1.0000 F5000
G1 X273.7986 Y666.8692 Z-1.0000 F5000
G1 X275.0463 Y669.9885 Z-1.0000 F5000
G1 X275.5234 Y674.1169 Z-1.0000 F5000
G1 X275.0646 Y678.6123 Z-1.0000 F5000
G1 X273.3215 Y682.4289 Z-1.0000 F5000
G1 X270.3307 Y685.1078 Z-1.0000 F5000
G1 X266.1656 Y686.2270 Z-1.0000 F5000
G1 X262.1656 Y685.6949 Z-1.0000 F5000
G1 X259.4867 Y684.1536 Z-1.0000 F5000
G1 X257.7986 Y682.1169 Z-1.0000 F5000
G1 X256.6977 Y680.2087 Z-1.0000 F5000
G1 X251.9637 Y671.0160 Z-1.0000 F5000
G1 X250.5509 Y668.6490 Z-1.0000 F5000
G1 X248.8995 Y666.7958 Z-1.0000 F5000
G1 X246.7160 Y665.5481 Z-1.0000 F5000
G1 X243.8353 Y665.0344 Z-1.0000 F5000
G1 X240.5509 Y665.5665 Z-1.0000 F5000
G1 X237.5234 Y667.4013 Z-1.0000 F5000
G1 X235.3032 Y670.5389 Z-1.0000 F5000
G1 X234.4224 Y674.9059 Z-1.0000 F5000
G1 X235.1013 Y679.1628 Z-1.0000 F5000
G1 X236.5692 Y682.0068 Z-1.0000 F5000
G1 X238.7160 Y684.0986 Z-1.0000 F5000
G1 X236.5692 Y682.0068 Z-1.0000 F5000
G1 X235.1013 Y679.1628 Z-1.0000 F5000
G1 X234.4224 Y674.9059 Z-1.0000 F5000
G1 X235.3032 Y670.5389 Z-1.0000 F5000
G1 X237.5234 Y667.4013 Z-1.0000 F5000
G1 X240.5509 Y665.5665 Z-1.0000 F5000
G1 X243.8353 Y665.0344 Z-1.0000 F5000
G1 X246.7160 Y665.5481 Z-1.0000 F5000
G1 X248.8995 Y666.7958 Z-1.0000 F5000
G1 X250.5509 Y668.6490 Z-1.0000 F5000
G1 X251.9637 Y671.0160 Z-1.0000 F5000
G1 X256.6977 Y680.2087 Z-1.0000 F5000
G1 X257.7986 Y682.1169 Z-1.0000 F5000
G1 X259.4867 Y684.1536 Z-1.0000 F5000
G1 X262.1656 Y685.6949 Z-1.0000 F5000
G1 X266.1656 Y686.2270 Z-1.0000 F5000
G1 X270.3307 Y685.1078 Z-1.0000 F5000
G1 X273.3215 Y682.4289 Z-1.0000 F5000
G1 X275.0646 Y678.6123 Z-1.0000 F5000
G1 X275.5234 Y674.1169 Z-1.0000 F5000
G1 X275.0463 Y669.9885 Z-1.0000 F5000
G1 X273.7986 Y666.8692 Z-1.0000 F5000
G1 X271.7435 Y664.4472 Z-1.0000 F5000
G1 X271.7435 Y664.4472 Z10.0000 F9999
G1 X225.0279 Y651.7867 Z10.0000 F9999
G1 X225.0279 Y651.7867 Z-1.0000 F2500
G1 X277.8720 Y621.4013 Z-1.0000 F5000
G1 X225.0279 Y651.7867 Z-1.0000 F5000
G1 X225.0279 Y651.7867 Z10.0000 F9999
G1 X234.4224 Y593.9701 Z10.0000 F9999
G1 X234.4224 Y593.9701 Z-1.0000 F2500
G1 X275.5234 Y610.0252 Z-1.0000 F5000
G1 X234.4224 Y593.9701 Z-1.0000 F5000
G1 X275.5234 Y577.9518 Z-1.0000 F5000
G1 X275.5234 Y577.9518 Z10.0000 F9999
G1 X250.8628 Y567.2729 Z10.0000 F9999
G1 X250.8628 Y567.2729 Z-1.0000 F2500
G1 X250.8628 Y538.0252 Z-1.0000 F5000
G1 X250.8628 Y567.2729 Z-1.0000 F5000
G1 X250.8628 Y567.2729 Z10.0000 F9999
G1 X260.8261 Y604.2821 Z10.0000 F9999
G1 X260.8261 Y604.2821 Z-1.0000 F2500
G1 X260.8261 Y583.5848 Z-1.0000 F5000
G1 X260.8261 Y604.2821 Z-1.0000 F5000
G1 X260.8261 Y604.2821 Z10.0000 F9999
G1 X260.8261 Y520.9059 Z10.0000 F9999
G1 X260.8261 Y520.9059 Z-1.0000 F2500
G1 X260.8261 Y500.2087 Z-1.0000 F5000
G1 X260.8261 Y520.9059 Z-1.0000 F5000
G1 X260.8261 Y520.9059 Z10.0000 F9999
G1 X234.4224 Y510.5940 Z10.0000 F9999
G1 X234.4224 Y510.5940 Z-1.0000 F2500
G1 X275.5234 Y526.6490 Z-1.0000 F5000
G1 X234.4224 Y510.5940 Z-1.0000 F5000
G1 X275.5234 Y494.5756 Z-1.0000 F5000
G1 X275.5234 Y494.5756 Z10.0000 F9999
G1 X275.5234 Y483.8967 Z10.0000 F9999
G1 X275.5234 Y483.8967 Z-1.0000 F2500
G1 X255.3766 Y470.6674 Z-1.0000 F5000
G1 X275.5234 Y483.8967 Z-1.0000 F5000
G1 X275.5234 Y483.8967 Z10.0000 F9999
G1 X275.5234 Y466.4839 Z10.0000 F9999
G1 X275.5234 Y466.4839 Z-1.0000 F2500
G1 X234.4224 Y466.4839 Z-1.0000 F5000
G1 X234.4224 Y473.6399 Z-1.0000 F5000
G1 X235.0279 Y477.5114 Z-1.0000 F5000
G1 X236.8445 Y480.7224 Z-1.0000 F5000
G1 X240.0004 Y482.9426 Z-1.0000 F5000
G1 X244.6426 Y483.7867 Z-1.0000 F5000
G1 X249.3215 Y482.6307 Z-1.0000 F5000
G1 X252.6426 Y479.8600 Z-1.0000 F5000
G1 X254.6059 Y476.5389 Z-1.0000 F5000
G1 X255.2665 Y473.6399 Z-1.0000 F5000
G1 X255.2665 Y466.4839 Z-1.0000 F5000
G1 X255.2665 Y473.6399 Z-1.0000 F5000
G1 X254.6059 Y476.5389 Z-1.0000 F5000
G1 X252.6426 Y479.8600 Z-1.0000 F5000
G1 X249.3215 Y482.6307 Z-1.0000 F5000
G1 X244.6426 Y483.7867 Z-1.0000 F5000
G1 X240.0004 Y482.9426 Z-1.0000 F5000
G1 X236.8445 Y480.7224 Z-1.0000 F5000
G1 X235.0279 Y477.5114 Z-1.0000 F5000
G1 X234.4224 Y473.6399 Z-1.0000 F5000
G1 X234.4224 Y466.4839 Z-1.0000 F5000
G1 X234.4224 Y466.4839 Z10.0000 F9999
G1 X252.7160 Y435.9518 Z10.0000 F9999
G1 X252.7160 Y435.9518 Z-1.0000 F2500
G1 X252.7160 Y450.3922 Z-1.0000 F5000
G1 X252.7160 Y435.9518 Z-1.0000 F5000
G1 X234.4224 Y435.9518 Z-1.0000 F5000
G1 X234.4224 Y451.0711 Z-1.0000 F5000
G1 X234.4224 Y435.9518 Z-1.0000 F5000
G1 X275.5234 Y435.9518 Z-1.0000 F5000
G1 X275.5234 Y435.9518 Z10.0000 F9999
G1 X428.7837 Y435.9518 Z10.0000 F9999
G1 X428.7837 Y435.9518 Z-1.0000 F2500
G1 X428.7837 Y450.3922 Z-1.0000 F5000
G1 X428.7837 Y435.9518 Z-1.0000 F5000
G1 X410.4902 Y435.9518 Z-1.0000 F5000
G1 X410.4902 Y451.0711 Z-1.0000 F5000
G1 X410.4902 Y435.9518 Z-1.0000 F5000
G1 X451.5911 Y435.9518 Z-1.0000 F5000
G1 X451.5911 Y435.9518 Z10.0000 F9999
G1 X451.5911 Y466.4839 Z10.0000 F9999
G1 X451.5911 Y466.4839 Z-1.0000 F2500
G1 X410.4902 Y466.4839 Z-1.0000 F5000
G1 X410.4902 Y473.6399 Z-1.0000 F5000
G1 X411.0957 Y477.5114 Z-1.0000 F5000
G1 X412.9122 Y480.7224 Z-1.0000 F5000
G1 X416.0681 Y482.9426 Z-1.0000 F5000
G1 X420.7103 Y483.7867 Z-1.0000 F5000
G1 X425.3892 Y482.6307 Z-1.0000 F5000
G1 X428.7103 Y479.8600 Z-1.0000 F5000
G1 X430.6736 Y476.5389 Z-1.0000 F5000
G1 X431.3342 Y473.6399 Z-1.0000 F5000
G1 X431.3342 Y466.4839 Z-1.0000 F5000
G1 X431.3342 Y473.6399 Z-1.0000 F5000
G1 X430.6736 Y476.5389 Z-1.0000 F5000
G1 X428.7103 Y479.8600 Z-1.0000 F5000
G1 X425.3892 Y482.6307 Z-1.0000 F5000
G1 X420.7103 Y483.7867 Z-1.0000 F5000
G1 X416.0681 Y482.9426 Z-1.0000 F5000
G1 X412.9122 Y480.7224 Z-1.0000 F5000
G1 X411.0957 Y477.5114 Z-1.0000 F5000
G1 X410.4902 Y473.6399 Z-1.0000 F5000
G1 X410.4902 Y466.4839 Z-1.0000 F5000
G1 X410.4902 Y466.4839 Z10.0000 F9999
G1 X410.4902 Y510.5940 Z10.0000 F9999
G1 X410.4902 Y510.5940 Z-1.0000 F2500
G1 X451.5911 Y526.6490 Z-1.0000 F5000
G1 X410.4902 Y510.5940 Z-1.0000 F5000
G1 X451.5911 Y494.5756 Z-1.0000 F5000
G1 X451.5911 Y494.5756 Z10.0000 F9999
G1 X451.5911 Y483.8967 Z10.0000 F9999
G1 X451.5911 Y483.8967 Z-1.0000 F2500
G1 X431.4443 Y470.6674 Z-1.0000 F5000
G1 X451.5911 Y483.8967 Z-1.0000 F5000
G1 X451.5911 Y483.8967 Z10.0000 F9999
G1 X436.8938 Y520.9059 Z10.0000 F9999
G1 X436.8938 Y520.9059 Z-1.0000 F2500
G1 X436.8938 Y500.2087 Z-1.0000 F5000
G1 X436.8938 Y520.9059 Z-1.0000 F5000
G1 X436.8938 Y520.9059 Z10.0000 F9999
G1 X426.9305 Y567.2729 Z10.0000 F9999
G1 X426.9305 Y567.2729 Z-1.0000 F2500
G1 X426.9305 Y538.0252 Z-1.0000 F5000
G1 X426.9305 Y567.2729 Z-1.0000 F5000
G1 X426.9305 Y567.2729 Z10.0000 F9999
G1 X410.4902 Y593.9701 Z10.0000 F9999
G1 X410.4902 Y593.9701 Z-1.0000 F2500
G1 X451.5911 Y610.0252 Z-1.0000 F5000
G1 X410.4902 Y593.9701 Z-1.0000 F5000
G1 X451.5911 Y577.9518 Z-1.0000 F5000
G1 X451.5911 Y577.9518 Z10.0000 F9999
G1 X436.8938 Y604.2821 Z10.0000 F9999
G1 X436.8938 Y604.2821 Z-1.0000 F2500
G1 X436.8938 Y583.5848 Z-1.0000 F5000
G1 X436.8938 Y604.2821 Z-1.0000 F5000
G1 X436.8938 Y604.2821 Z10.0000 F9999
G1 X444.7654 Y662.5023 Z10.0000 F9999
G1 X444.7654 Y662.5023 Z-1.0000 F2500
G1 X447.8113 Y664.4472 Z-1.0000 F5000
G1 X449.8663 Y666.8692 Z-1.0000 F5000
G1 X451.1140 Y669.9885 Z-1.0000 F5000
G1 X451.5911 Y674.1169 Z-1.0000 F5000
G1 X451.1324 Y678.6123 Z-1.0000 F5000
G1 X449.3892 Y682.4289 Z-1.0000 F5000
G1 X446.3984 Y685.1078 Z-1.0000 F5000
G1 X442.2333 Y686.2270 Z-1.0000 F5000
G1 X438.2333 Y685.6949 Z-1.0000 F5000
G1 X435.5544 Y684.1536 Z-1.0000 F5000
G1 X433.8663 Y682.1169 Z-1.0000 F5000
G1 X432.7654 Y680.2087 Z-1.0000 F5000
G1 X428.0314 Y671.0160 Z-1.0000 F5000
G1 X426.6186 Y668.6490 Z-1.0000 F5000
G1 X424.9672 Y666.7958 Z-1.0000 F5000
G1 X422.7837 Y665.5481 Z-1.0000 F5000
G1 X419.9030 Y665.0344 Z-1.0000 F5000
G1 X416.6186 Y665.5665 Z-1.0000 F5000
G1 X413.5911 Y667.4013 Z-1.0000 F5000
G1 X411.3709 Y670.5389 Z-1.0000 F5000
G1 X410.4902 Y674.9059 Z-1.0000 F5000
G1 X411.1691 Y679.1628 Z-1.0000 F5000
G1 X412.6369 Y682.0068 Z-1.0000 F5000
G1 X414.7837 Y684.0986 Z-1.0000 F5000
G1 X412.6369 Y682.0068 Z-1.0000 F5000
G1 X411.1691 Y679.1628 Z-1.0000 F5000
G1 X410.4902 Y674.9059 Z-1.0000 F5000
G1 X411.3709 Y670.5389 Z-1.0000 F5000
G1 X413.5911 Y667.4013 Z-1.0000 F5000
G1 X416.6186 Y665.5665 Z-1.0000 F5000
G1 X419.9030 Y665.0344 Z-1.0000 F5000
G1 X422.7837 Y665.5481 Z-1.0000 F5000
G1 X424.9672 Y666.7958 Z-1.0000 F5000
G1 X426.6186 Y668.6490 Z-1.0000 F5000
G1 X428.0314 Y671.0160 Z-1.0000 F5000
G1 X432.7654 Y680.2087 Z-1.0000 F5000
G1 X433.8663 Y682.1169 Z-1.0000 F5000
G1 X435.5544 Y684.1536 Z-1.0000 F5000
G1 X438.2333 Y685.6949 Z-1.0000 F5000
G1 X442.2333 Y686.2270 Z-1.0000 F5000
G1 X446.3984 Y685.1078 Z-1.0000 F5000
G1 X449.3892 Y682.4289 Z-1.0000 F5000
G1 X451.1324 Y678.6123 Z-1.0000 F5000
G1 X451.5911 Y674.1169 Z-1.0000 F5000
G1 X451.1140 Y669.9885 Z-1.0000 F5000
G1 X449.8663 Y666.8692 Z-1.0000 F5000
G1 X447.8113 Y664.4472 Z-1.0000 F5000
G1 X447.8113 Y664.4472 Z10.0000 F9999
G1 X401.0957 Y651.7867 Z10.0000 F9999
G1 X401.0957 Y651.7867 Z-1.0000 F2500
G1 X453.9397 Y621.4013 Z-1.0000 F5000
G1 X401.0957 Y651.7867 Z-1.0000 F5000
G1 X401.0957 Y651.7867 Z10.0000 F9999
G1 X410.4902 Y719.9334 Z10.0000 F9999
G1 X410.4902 Y719.9334 Z-1.0000 F2500
G1 X443.8847 Y697.7316 Z-1.0000 F5000
G1 X443.8847 Y726.5389 Z-1.0000 F5000
G1 X443.8847 Y697.7316 Z-1.0000 F5000
G1 X410.4902 Y719.9334 Z-1.0000 F5000
G1 X451.5911 Y719.9334 Z-1.0000 F5000
G1 X451.5911 Y719.9334 Z10.0000 F9999
G1 X451.5911 Y783.5481 Z10.0000 F9999
G1 X451.5911 Y783.5481 Z-1.0000 F2500
G1 X428.7837 Y783.5481 Z-1.0000 F5000
G1 X428.7837 Y800.0068 Z-1.0000 F5000
G1 X428.7837 Y783.5481 Z-1.0000 F5000
G1 X410.4902 Y783.5481 Z-1.0000 F5000
G1 X410.4902 Y801.3096 Z-1.0000 F5000
G1 X410.4902 Y783.5481 Z-1.0000 F5000
G1 X451.5911 Y783.5481 Z-1.0000 F5000
G1 X451.5911 Y801.3096 Z-1.0000 F5000
G1 X451.5911 Y801.3096 Z10.0000 F9999
G1 X430.3801 Y823.7133 Z10.0000 F9999
G1 X430.3801 Y823.7133 Z-1.0000 F2500
G1 X451.5911 Y835.6582 Z-1.0000 F5000
G1 X430.3801 Y823.7133 Z-1.0000 F5000
G1 X410.4902 Y835.6582 Z-1.0000 F5000
G1 X430.3801 Y823.7133 Z-1.0000 F5000
G1 X410.4902 Y811.6399 Z-1.0000 F5000
G1 X430.3801 Y823.7133 Z-1.0000 F5000
G1 X451.5911 Y811.6399 Z-1.0000 F5000
G1 X451.5911 Y811.6399 Z10.0000 F9999
G1 X401.0957 Y768.0435 Z10.0000 F9999
G1 X401.0957 Y768.0435 Z-1.0000 F2500
G1 X453.9397 Y737.6582 Z-1.0000 F5000
G1 X401.0957 Y768.0435 Z-1.0000 F5000
G1 X401.0957 Y768.0435 Z10.0000 F9999
G1 X275.5234 Y783.5481 Z10.0000 F9999
G1 X275.5234 Y783.5481 Z-1.0000 F2500
G1 X252.7160 Y783.5481 Z-1.0000 F5000
G1 X252.7160 Y800.0068 Z-1.0000 F5000
G1 X252.7160 Y783.5481 Z-1.0000 F5000
G1 X234.4224 Y783.5481 Z-1.0000 F5000
G1 X234.4224 Y801.3096 Z-1.0000 F5000
G1 X234.4224 Y783.5481 Z-1.0000 F5000
G1 X275.5234 Y783.5481 Z-1.0000 F5000
G1 X275.5234 Y801.3096 Z-1.0000 F5000
G1 X275.5234 Y801.3096 Z10.0000 F9999
G1 X254.3124 Y823.7133 Z10.0000 F9999
G1 X254.3124 Y823.7133 Z-1.0000 F2500
G1 X275.5234 Y835.6582 Z-1.0000 F5000
G1 X254.3124 Y823.7133 Z-1.0000 F5000
G1 X234.4224 Y835.6582 Z-1.0000 F5000
G1 X254.3124 Y823.7133 Z-1.0000 F5000
G1 X234.4224 Y811.6399 Z-1.0000 F5000
G1 X254.3124 Y823.7133 Z-1.0000 F5000
G1 X275.5234 Y811.6399 Z-1.0000 F5000
G1 X275.5234 Y811.6399 Z10.0000 F9999
G1 X571.9302 Y782.5630 Z10.0000 F9999
G1 X571.9302 Y782.5630 Z-1.0000 F2500
G1 X624.7742 Y752.1776 Z-1.0000 F5000
G1 X571.9302 Y782.5630 Z-1.0000 F5000
G1 X571.9302 Y782.5630 Z10.0000 F9999
G1 X622.4256 Y798.0675 Z10.0000 F9999
G1 X622.4256 Y798.0675 Z-1.0000 F2500
G1 X599.6182 Y798.0675 Z-1.0000 F5000
G1 X599.6182 Y814.5263 Z-1.0000 F5000
G1 X599.6182 Y798.0675 Z-1.0000 F5000
G1 X581.3247 Y798.0675 Z-1.0000 F5000
G1 X581.3247 Y815.8290 Z-1.0000 F5000
G1 X581.3247 Y798.0675 Z-1.0000 F5000
G1 X622.4256 Y798.0675 Z-1.0000 F5000
G1 X622.4256 Y815.8290 Z-1.0000 F5000
G1 X622.4256 Y815.8290 Z10.0000 F9999
G1 X601.2146 Y838.2327 Z10.0000 F9999
G1 X601.2146 Y838.2327 Z-1.0000 F2500
G1 X622.4256 Y850.1776 Z-1.0000 F5000
G1 X601.2146 Y838.2327 Z-1.0000 F5000
G1 X581.3247 Y850.1776 Z-1.0000 F5000
G1 X601.2146 Y838.2327 Z-1.0000 F5000
G1 X581.3247 Y826.1593 Z-1.0000 F5000
G1 X601.2146 Y838.2327 Z-1.0000 F5000
G1 X622.4256 Y826.1593 Z-1.0000 F5000
G1 X622.4256 Y826.1593 Z10.0000 F9999
G1 X616.9027 Y715.7740 Z10.0000 F9999
G1 X616.9027 Y715.7740 Z-1.0000 F2500
G1 X618.1687 Y717.0217 Z-1.0000 F5000
G1 X619.9852 Y719.3520 Z-1.0000 F5000
G1 X621.6366 Y722.8198 Z-1.0000 F5000
G1 X622.4256 Y727.5538 Z-1.0000 F5000
G1 X621.2329 Y732.7098 Z-1.0000 F5000
G1 X617.9118 Y737.0767 Z-1.0000 F5000
G1 X612.9944 Y740.1226 Z-1.0000 F5000
G1 X607.0494 Y741.2602 Z-1.0000 F5000
G1 X601.5082 Y739.9208 Z-1.0000 F5000
G1 X597.4715 Y736.6731 Z-1.0000 F5000
G1 X595.0494 Y732.6180 Z-1.0000 F5000
G1 X594.2421 Y728.8565 Z-1.0000 F5000
G1 X594.2421 Y726.7098 Z-1.0000 F5000
G1 X594.6458 Y724.4529 Z-1.0000 F5000
G1 X595.5449 Y721.8107 Z-1.0000 F5000
G1 X580.1504 Y727.4437 Z-1.0000 F5000
G1 X580.1504 Y741.6455 Z-1.0000 F5000
G1 X580.1504 Y727.4437 Z-1.0000 F5000
G1 X595.5449 Y721.8107 Z-1.0000 F5000
G1 X594.6458 Y724.4529 Z-1.0000 F5000
G1 X594.2421 Y726.7098 Z-1.0000 F5000
G1 X594.2421 Y728.8565 Z-1.0000 F5000
G1 X595.0494 Y732.6180 Z-1.0000 F5000
G1 X597.4715 Y736.6731 Z-1.0000 F5000
G1 X601.5082 Y739.9208 Z-1.0000 F5000
G1 X607.0494 Y741.2602 Z-1.0000 F5000
G1 X612.9944 Y740.1226 Z-1.0000 F5000
G1 X617.9118 Y737.0767 Z-1.0000 F5000
G1 X621.2329 Y732.7098 Z-1.0000 F5000
G1 X622.4256 Y727.5538 Z-1.0000 F5000
G1 X621.6366 Y722.8198 Z-1.0000 F5000
G1 X619.9852 Y719.3520 Z-1.0000 F5000
G1 X618.1687 Y717.0217 Z-1.0000 F5000
G1 X618.1687 Y717.0217 Z10.0000 F9999
G1 X615.5999 Y680.5446 Z10.0000 F9999
G1 X615.5999 Y680.5446 Z-1.0000 F2500
G1 X618.6458 Y682.4896 Z-1.0000 F5000
G1 X620.7008 Y684.9116 Z-1.0000 F5000
G1 X621.9485 Y688.0309 Z-1.0000 F5000
G1 X622.4256 Y692.1593 Z-1.0000 F5000
G1 X621.9669 Y696.6547 Z-1.0000 F5000
G1 X620.2238 Y700.4712 Z-1.0000 F5000
G1 X617.2329 Y703.1501 Z-1.0000 F5000
G1 X613.0678 Y704.2694 Z-1.0000 F5000
G1 X609.0678 Y703.7373 Z-1.0000 F5000
G1 X606.3889 Y702.1960 Z-1.0000 F5000
G1 X604.7008 Y700.1593 Z-1.0000 F5000
G1 X603.5999 Y698.2510 Z-1.0000 F5000
G1 X598.8660 Y689.0584 Z-1.0000 F5000
G1 X597.4531 Y686.6914 Z-1.0000 F5000
G1 X595.8017 Y684.8382 Z-1.0000 F5000
G1 X593.6182 Y683.5905 Z-1.0000 F5000
G1 X590.7375 Y683.0767 Z-1.0000 F5000
G1 X587.4531 Y683.6088 Z-1.0000 F5000
G1 X584.4256 Y685.4437 Z-1.0000 F5000
G1 X582.2054 Y688.5813 Z-1.0000 F5000
G1 X581.3247 Y692.9483 Z-1.0000 F5000
G1 X582.0036 Y697.2052 Z-1.0000 F5000
G1 X583.4715 Y700.0492 Z-1.0000 F5000
G1 X585.6182 Y702.1409 Z-1.0000 F5000
G1 X583.4715 Y700.0492 Z-1.0000 F5000
G1 X582.0036 Y697.2052 Z-1.0000 F5000
G1 X581.3247 Y692.9483 Z-1.0000 F5000
G1 X582.2054 Y688.5813 Z-1.0000 F5000
G1 X584.4256 Y685.4437 Z-1.0000 F5000
G1 X587.4531 Y683.6088 Z-1.0000 F5000
G1 X590.7375 Y683.0767 Z-1.0000 F5000
G1 X593.6182 Y683.5905 Z-1.0000 F5000
G1 X595.8017 Y684.8382 Z-1.0000 F5000
G1 X597.4531 Y686.6914 Z-1.0000 F5000
G1 X598.8660 Y689.0584 Z-1.0000 F5000
G1 X603.5999 Y698.2510 Z-1.0000 F5000
G1 X604.7008 Y700.1593 Z-1.0000 F5000
G1 X606.3889 Y702.1960 Z-1.0000 F5000
G1 X609.0678 Y703.7373 Z-1.0000 F5000
G1 X613.0678 Y704.2694 Z-1.0000 F5000
G1 X617.2329 Y703.1501 Z-1.0000 F5000
G1 X620.2238 Y700.4712 Z-1.0000 F5000
G1 X621.9669 Y696.6547 Z-1.0000 F5000
G1 X622.4256 Y692.1593 Z-1.0000 F5000
G1 X621.9485 Y688.0309 Z-1.0000 F5000
G1 X620.7008 Y684.9116 Z-1.0000 F5000
G1 X618.6458 Y682.4896 Z-1.0000 F5000
G1 X618.6458 Y682.4896 Z10.0000 F9999
G1 X571.9302 Y669.8290 Z10.0000 F9999
G1 X571.9302 Y669.8290 Z-1.0000 F2500
G1 X624.7742 Y639.4437 Z-1.0000 F5000
G1 X571.9302 Y669.8290 Z-1.0000 F5000
G1 X571.9302 Y669.8290 Z10.0000 F9999
G1 X581.3247 Y612.0125 Z10.0000 F9999
G1 X581.3247 Y612.0125 Z-1.0000 F2500
G1 X622.4256 Y628.0675 Z-1.0000 F5000
G1 X581.3247 Y612.0125 Z-1.0000 F5000
G1 X622.4256 Y595.9942 Z-1.0000 F5000
G1 X622.4256 Y595.9942 Z10.0000 F9999
G1 X597.7650 Y585.3153 Z10.0000 F9999
G1 X597.7650 Y585.3153 Z-1.0000 F2500
G1 X597.7650 Y556.0675 Z-1.0000 F5000
G1 X597.7650 Y585.3153 Z-1.0000 F5000
G1 X597.7650 Y585.3153 Z10.0000 F9999
G1 X607.7283 Y622.3244 Z10.0000 F9999
G1 X607.7283 Y622.3244 Z-1.0000 F2500
G1 X607.7283 Y601.6272 Z-1.0000 F5000
G1 X607.7283 Y622.3244 Z-1.0000 F5000
G1 X607.7283 Y622.3244 Z10.0000 F9999
G1 X607.7283 Y538.9483 Z10.0000 F9999
G1 X607.7283 Y538.9483 Z-1.0000 F2500
G1 X607.7283 Y518.2510 Z-1.0000 F5000
G1 X607.7283 Y538.9483 Z-1.0000 F5000
G1 X607.7283 Y538.9483 Z10.0000 F9999
G1 X581.3247 Y528.6364 Z10.0000 F9999
G1 X581.3247 Y528.6364 Z-1.0000 F2500
G1 X622.4256 Y544.6914 Z-1.0000 F5000
G1 X581.3247 Y528.6364 Z-1.0000 F5000
G1 X622.4256 Y512.6180 Z-1.0000 F5000
G1 X622.4256 Y512.6180 Z10.0000 F9999
G1 X622.4256 Y501.9391 Z10.0000 F9999
G1 X622.4256 Y501.9391 Z-1.0000 F2500
G1 X602.2788 Y488.7098 Z-1.0000 F5000
G1 X622.4256 Y501.9391 Z-1.0000 F5000
G1 X622.4256 Y501.9391 Z10.0000 F9999
G1 X622.4256 Y484.5263 Z10.0000 F9999
G1 X622.4256 Y484.5263 Z-1.0000 F2500
G1 X581.3247 Y484.5263 Z-1.0000 F5000
G1 X581.3247 Y491.6822 Z-1.0000 F5000
G1 X581.9302 Y495.5538 Z-1.0000 F5000
G1 X583.7467 Y498.7648 Z-1.0000 F5000
G1 X586.9027 Y500.9850 Z-1.0000 F5000
G1 X591.5449 Y501.8290 Z-1.0000 F5000
G1 X596.2238 Y500.6731 Z-1.0000 F5000
G1 X599.5449 Y497.9024 Z-1.0000 F5000
G1 X601.5082 Y494.5813 Z-1.0000 F5000
G1 X602.1687 Y491.6822 Z-1.0000 F5000
G1 X602.1687 Y484.5263 Z-1.0000 F5000
G1 X602.1687 Y491.6822 Z-1.0000 F5000
G1 X601.5082 Y494.5813 Z-1.0000 F5000
G1 X599.5449 Y497.9024 Z-1.0000 F5000
G1 X596.2238 Y500.6731 Z-1.0000 F5000
G1 X591.5449 Y501.8290 Z-1.0000 F5000
G1 X586.9027 Y500.9850 Z-1.0000 F5000
G1 X583.7467 Y498.7648 Z-1.0000 F5000
G1 X581.9302 Y495.5538 Z-1.0000 F5000
G1 X581.3247 Y491.6822 Z-1.0000 F5000
G1 X581.3247 Y484.5263 Z-1.0000 F5000
G1 X581.3247 Y484.5263 Z10.0000 F9999
G1 X599.6182 Y453.9942 Z10.0000 F9999
G1 X599.6182 Y453.9942 Z-1.0000 F2500
G1 X599.6182 Y468.4345 Z-1.0000 F5000
G1 X599.6182 Y453.9942 Z-1.0000 F5000
G1 X581.3247 Y453.9942 Z-1.0000 F5000
G1 X581.3247 Y469.1134 Z-1.0000 F5000
G1 X581.3247 Y453.9942 Z-1.0000 F5000
G1 X622.4256 Y453.9942 Z-1.0000 F5000
G1 X622.4256 Y453.9942 Z10.0000 F9999
G1 X773.5420 Y453.9942 Z10.0000 F9999
G1 X773.5420 Y453.9942 Z-1.0000 F2500
G1 X773.5420 Y468.4345 Z-1.0000 F5000
G1 X773.5420 Y453.9942 Z-1.0000 F5000
G1 X755.2484 Y453.9942 Z-1.0000 F5000
G1 X755.2484 Y469.1134 Z-1.0000 F5000
G1 X755.2484 Y453.9942 Z-1.0000 F5000
G1 X796.3493 Y453.9942 Z-1.0000 F5000
G1 X796.3493 Y453.9942 Z10.0000 F9999
G1 X796.3493 Y484.5263 Z10.0000 F9999
G1 X796.3493 Y484.5263 Z-1.0000 F2500
G1 X755.2484 Y484.5263 Z-1.0000 F5000
G1 X755.2484 Y491.6822 Z-1.0000 F5000
G1 X755.8539 Y495.5538 Z-1.0000 F5000
G1 X757.6704 Y498.7648 Z-1.0000 F5000
G1 X760.8264 Y500.9850 Z-1.0000 F5000
G1 X765.4686 Y501.8290 Z-1.0000 F5000
G1 X770.1475 Y500.6731 Z-1.0000 F5000
G1 X773.4686 Y497.9024 Z-1.0000 F5000
G1 X775.4319 Y494.5813 Z-1.0000 F5000
G1 X776.0924 Y491.6822 Z-1.0000 F5000
G1 X776.0924 Y484.5263 Z-1.0000 F5000
G1 X776.0924 Y491.6822 Z-1.0000 F5000
G1 X775.4319 Y494.5813 Z-1.0000 F5000
G1 X773.4686 Y497.9024 Z-1.0000 F5000
G1 X770.1475 Y500.6731 Z-1.0000 F5000
G1 X765.4686 Y501.8290 Z-1.0000 F5000
G1 X760.8264 Y500.9850 Z-1.0000 F5000
G1 X757.6704 Y498.7648 Z-1.0000 F5000
G1 X755.8539 Y495.5538 Z-1.0000 F5000
G1 X755.2484 Y491.6822 Z-1.0000 F5000
G1 X755.2484 Y484.5263 Z-1.0000 F5000
G1 X755.2484 Y484.5263 Z10.0000 F9999
G1 X755.2484 Y528.6364 Z10.0000 F9999
G1 X755.2484 Y528.6364 Z-1.0000 F2500
G1 X796.3493 Y544.6914 Z-1.0000 F5000
G1 X755.2484 Y528.6364 Z-1.0000 F5000
G1 X796.3493 Y512.6180 Z-1.0000 F5000
G1 X796.3493 Y512.6180 Z10.0000 F9999
G1 X796.3493 Y501.9391 Z10.0000 F9999
G1 X796.3493 Y501.9391 Z-1.0000 F2500
G1 X776.2025 Y488.7098 Z-1.0000 F5000
G1 X796.3493 Y501.9391 Z-1.0000 F5000
G1 X796.3493 Y501.9391 Z10.0000 F9999
G1 X781.6521 Y538.9483 Z10.0000 F9999
G1 X781.6521 Y538.9483 Z-1.0000 F2500
G1 X781.6521 Y518.2510 Z-1.0000 F5000
G1 X781.6521 Y538.9483 Z-1.0000 F5000
G1 X781.6521 Y538.9483 Z10.0000 F9999
G1 X771.6888 Y585.3153 Z10.0000 F9999
G1 X771.6888 Y585.3153 Z-1.0000 F2500
G1 X771.6888 Y556.0675 Z-1.0000 F5000
G1 X771.6888 Y585.3153 Z-1.0000 F5000
G1 X771.6888 Y585.3153 Z10.0000 F9999
G1 X755.2484 Y612.0125 Z10.0000 F9999
G1 X755.2484 Y612.0125 Z-1.0000 F2500
G1 X796.3493 Y628.0675 Z-1.0000 F5000
G1 X755.2484 Y612.0125 Z-1.0000 F5000
G1 X796.3493 Y595.9942 Z-1.0000 F5000
G1 X796.3493 Y595.9942 Z10.0000 F9999
G1 X781.6521 Y622.3244 Z10.0000 F9999
G1 X781.6521 Y622.3244 Z-1.0000 F2500
G1 X781.6521 Y601.6272 Z-1.0000 F5000
G1 X781.6521 Y622.3244 Z-1.0000 F5000
G1 X781.6521 Y622.3244 Z10.0000 F9999
G1 X789.5236 Y680.5446 Z10.0000 F9999
G1 X789.5236 Y680.5446 Z-1.0000 F2500
G1 X792.5695 Y682.4896 Z-1.0000 F5000
G1 X794.6245 Y684.9116 Z-1.0000 F5000
G1 X795.8722 Y688.0309 Z-1.0000 F5000
G1 X796.3493 Y692.1593 Z-1.0000 F5000
G1 X795.8906 Y696.6547 Z-1.0000 F5000
G1 X794.1475 Y700.4712 Z-1.0000 F5000
G1 X791.1567 Y703.1501 Z-1.0000 F5000
G1 X786.9915 Y704.2694 Z-1.0000 F5000
G1 X782.9915 Y703.7373 Z-1.0000 F5000
G1 X780.3126 Y702.1960 Z-1.0000 F5000
G1 X778.6245 Y700.1593 Z-1.0000 F5000
G1 X777.5236 Y698.2510 Z-1.0000 F5000
G1 X772.7897 Y689.0584 Z-1.0000 F5000
G1 X771.3768 Y686.6914 Z-1.0000 F5000
G1 X769.7255 Y684.8382 Z-1.0000 F5000
G1 X767.5420 Y683.5905 Z-1.0000 F5000
G1 X764.6612 Y683.0767 Z-1.0000 F5000
G1 X761.3768 Y683.6088 Z-1.0000 F5000
G1 X758.3493 Y685.4437 Z-1.0000 F5000
G1 X756.1291 Y688.5813 Z-1.0000 F5000
G1 X755.2484 Y692.9483 Z-1.0000 F5000
G1 X755.9273 Y697.2052 Z-1.0000 F5000
G1 X757.3952 Y700.0492 Z-1.0000 F5000
G1 X759.5420 Y702.1409 Z-1.0000 F5000
G1 X757.3952 Y700.0492 Z-1.0000 F5000
G1 X755.9273 Y697.2052 Z-1.0000 F5000
G1 X755.2484 Y692.9483 Z-1.0000 F5000
G1 X756.1291 Y688.5813 Z-1.0000 F5000
G1 X758.3493 Y685.4437 Z-1.0000 F5000
G1 X761.3768 Y683.6088 Z-1.0000 F5000
G1 X764.6612 Y683.0767 Z-1.0000 F5000
G1 X767.5420 Y683.5905 Z-1.0000 F5000
G1 X769.7255 Y684.8382 Z-1.0000 F5000
G1 X771.3768 Y686.6914 Z-1.0000 F5000
G1 X772.7897 Y689.0584 Z-1.0000 F5000
G1 X777.5236 Y698.2510 Z-1.0000 F5000
G1 X778.6245 Y700.1593 Z-1.0000 F5000
G1 X780.3126 Y702.1960 Z-1.0000 F5000
G1 X782.9915 Y703.7373 Z-1.0000 F5000
G1 X786.9915 Y704.2694 Z-1.0000 F5000
G1 X791.1567 Y703.1501 Z-1.0000 F5000
G1 X794.1475 Y700.4712 Z-1.0000 F5000
G1 X795.8906 Y696.6547 Z-1.0000 F5000
G1 X796.3493 Y692.1593 Z-1.0000 F5000
G1 X795.8722 Y688.0309 Z-1.0000 F5000
G1 X794.6245 Y684.9116 Z-1.0000 F5000
G1 X792.5695 Y682.4896 Z-1.0000 F5000
G1 X792.5695 Y682.4896 Z10.0000 F9999
G1 X790.8264 Y715.7740 Z10.0000 F9999
G1 X790.8264 Y715.7740 Z-1.0000 F2500
G1 X792.0924 Y717.0217 Z-1.0000 F5000
G1 X793.9089 Y719.3520 Z-1.0000 F5000
G1 X795.5603 Y722.8198 Z-1.0000 F5000
G1 X796.3493 Y727.5538 Z-1.0000 F5000
G1 X795.1567 Y732.7098 Z-1.0000 F5000
G1 X791.8356 Y737.0767 Z-1.0000 F5000
G1 X786.9181 Y740.1226 Z-1.0000 F5000
G1 X780.9732 Y741.2602 Z-1.0000 F5000
G1 X775.4319 Y739.9208 Z-1.0000 F5000
G1 X771.3952 Y736.6731 Z-1.0000 F5000
G1 X768.9732 Y732.6180 Z-1.0000 F5000
G1 X768.1658 Y728.8565 Z-1.0000 F5000
G1 X768.1658 Y726.7098 Z-1.0000 F5000
G1 X768.5695 Y724.4529 Z-1.0000 F5000
G1 X769.4686 Y721.8107 Z-1.0000 F5000
G1 X754.0741 Y727.4437 Z-1.0000 F5000
G1 X754.0741 Y741.6455 Z-1.0000 F5000
G1 X754.0741 Y727.4437 Z-1.0000 F5000
G1 X769.4686 Y721.8107 Z-1.0000 F5000
G1 X768.5695 Y724.4529 Z-1.0000 F5000
G1 X768.1658 Y726.7098 Z-1.0000 F5000
G1 X768.1658 Y728.8565 Z-1.0000 F5000
G1 X768.9732 Y732.6180 Z-1.0000 F5000
G1 X771.3952 Y736.6731 Z-1.0000 F5000
G1 X775.4319 Y739.9208 Z-1.0000 F5000
G1 X780.9732 Y741.2602 Z-1.0000 F5000
G1 X786.9181 Y740.1226 Z-1.0000 F5000
G1 X791.8356 Y737.0767 Z-1.0000 F5000
G1 X795.1567 Y732.7098 Z-1.0000 F5000
G1 X796.3493 Y727.5538 Z-1.0000 F5000
G1 X795.5603 Y722.8198 Z-1.0000 F5000
G1 X793.9089 Y719.3520 Z-1.0000 F5000
G1 X792.0924 Y717.0217 Z-1.0000 F5000
G1 X792.0924 Y717.0217 Z10.0000 F9999
G1 X745.8539 Y669.8290 Z10.0000 F9999
G1 X745.8539 Y669.8290 Z-1.0000 F2500
G1 X798.6979 Y639.4437 Z-1.0000 F5000
G1 X745.8539 Y669.8290 Z-1.0000 F5000
G1 X745.8539 Y669.8290 Z10.0000 F9999
G1 X745.8539 Y782.5630 Z10.0000 F9999
G1 X745.8539 Y782.5630 Z-1.0000 F2500
G1 X798.6979 Y752.1776 Z-1.0000 F5000
G1 X745.8539 Y782.5630 Z-1.0000 F5000
G1 X745.8539 Y782.5630 Z10.0000 F9999
G1 X796.3493 Y798.0675 Z10.0000 F9999
G1 X796.3493 Y798.0675 Z-1.0000 F2500
G1 X773.5420 Y798.0675 Z-1.0000 F5000
G1 X773.5420 Y814.5263 Z-1.0000 F5000
G1 X773.5420 Y798.0675 Z-1.0000 F5000
G1 X755.2484 Y798.0675 Z-1.0000 F5000
G1 X755.2484 Y815.8290 Z-1.0000 F5000
G1 X755.2484 Y798.0675 Z-1.0000 F5000
G1 X796.3493 Y798.0675 Z-1.0000 F5000
G1 X796.3493 Y815.8290 Z-1.0000 F5000
G1 X796.3493 Y815.8290 Z10.0000 F9999
G1 X775.1383 Y838.2327 Z10.0000 F9999
G1 X775.1383 Y838.2327 Z-1.0000 F2500
G1 X796.3493 Y850.1776 Z-1.0000 F5000
G1 X775.1383 Y838.2327 Z-1.0000 F5000
G1 X755.2484 Y850.1776 Z-1.0000 F5000
G1 X775.1383 Y838.2327 Z-1.0000 F5000
G1 X755.2484 Y826.1593 Z-1.0000 F5000
G1 X775.1383 Y838.2327 Z-1.0000 F5000
G1 X796.3493 Y826.1593 Z-1.0000 F5000
G1 X796.3493 Y826.1593 Z10.0000 F9999
G1 X917.3082 Y782.5630 Z10.0000 F9999
G1 X917.3082 Y782.5630 Z-1.0000 F2500
G1 X970.1522 Y752.1776 Z-1.0000 F5000
G1 X917.3082 Y782.5630 Z-1.0000 F5000
G1 X917.3082 Y782.5630 Z10.0000 F9999
G1 X967.8036 Y798.0675 Z10.0000 F9999
G1 X967.8036 Y798.0675 Z-1.0000 F2500
G1 X944.9962 Y798.0675 Z-1.0000 F5000
G1 X944.9962 Y814.5263 Z-1.0000 F5000
G1 X944.9962 Y798.0675 Z-1.0000 F5000
G1 X926.7027 Y798.0675 Z-1.0000 F5000
G1 X926.7027 Y815.8290 Z-1.0000 F5000
G1 X926.7027 Y798.0675 Z-1.0000 F5000
G1 X967.8036 Y798.0675 Z-1.0000 F5000
G1 X967.8036 Y815.8290 Z-1.0000 F5000
G1 X967.8036 Y815.8290 Z10.0000 F9999
G1 X946.5926 Y838.2327 Z10.0000 F9999
G1 X946.5926 Y838.2327 Z-1.0000 F2500
G1 X967.8036 Y850.1776 Z-1.0000 F5000
G1 X946.5926 Y838.2327 Z-1.0000 F5000
G1 X926.7027 Y850.1776 Z-1.0000 F5000
G1 X946.5926 Y838.2327 Z-1.0000 F5000
G1 X926.7027 Y826.1593 Z-1.0000 F5000
G1 X946.5926 Y838.2327 Z-1.0000 F5000
G1 X967.8036 Y826.1593 Z-1.0000 F5000
G1 X967.8036 Y826.1593 Z10.0000 F9999
G1 X962.2806 Y715.7740 Z10.0000 F9999
G1 X962.2806 Y715.7740 Z-1.0000 F2500
G1 X963.5467 Y717.0217 Z-1.0000 F5000
G1 X965.3632 Y719.3520 Z-1.0000 F5000
G1 X967.0146 Y722.8198 Z-1.0000 F5000
G1 X967.8036 Y727.5538 Z-1.0000 F5000
G1 X966.6109 Y732.7098 Z-1.0000 F5000
G1 X963.2898 Y737.0767 Z-1.0000 F5000
G1 X958.3724 Y740.1226 Z-1.0000 F5000
G1 X952.4274 Y741.2602 Z-1.0000 F5000
G1 X946.8861 Y739.9208 Z-1.0000 F5000
G1 X942.8494 Y736.6731 Z-1.0000 F5000
G1 X940.4274 Y732.6180 Z-1.0000 F5000
G1 X939.6201 Y728.8565 Z-1.0000 F5000
G1 X939.6201 Y726.7098 Z-1.0000 F5000
G1 X940.0238 Y724.4529 Z-1.0000 F5000
G1 X940.9228 Y721.8107 Z-1.0000 F5000
G1 X925.5283 Y727.4437 Z-1.0000 F5000
G1 X925.5283 Y741.6455 Z-1.0000 F5000
G1 X925.5283 Y727.4437 Z-1.0000 F5000
G1 X940.9228 Y721.8107 Z-1.0000 F5000
G1 X940.0238 Y724.4529 Z-1.0000 F5000
G1 X939.6201 Y726.7098 Z-1.0000 F5000
G1 X939.6201 Y728.8565 Z-1.0000 F5000
G1 X940.4274 Y732.6180 Z-1.0000 F5000
G1 X942.8494 Y736.6731 Z-1.0000 F5000
G1 X946.8861 Y739.9208 Z-1.0000 F5000
G1 X952.4274 Y741.2602 Z-1.0000 F5000
G1 X958.3724 Y740.1226 Z-1.0000 F5000
G1 X963.2898 Y737.0767 Z-1.0000 F5000
G1 X966.6109 Y732.7098 Z-1.0000 F5000
G1 X967.8036 Y727.5538 Z-1.0000 F5000
G1 X967.0146 Y722.8198 Z-1.0000 F5000
G1 X965.3632 Y719.3520 Z-1.0000 F5000
G1 X963.5467 Y717.0217 Z-1.0000 F5000
G1 X963.5467 Y717.0217 Z10.0000 F9999
G1 X960.9779 Y680.5446 Z10.0000 F9999
G1 X960.9779 Y680.5446 Z-1.0000 F2500
G1 X964.0238 Y682.4896 Z-1.0000 F5000
G1 X966.0788 Y684.9116 Z-1.0000 F5000
G1 X967.3265 Y688.0309 Z-1.0000 F5000
G1 X967.8036 Y692.1593 Z-1.0000 F5000
G1 X967.3449 Y696.6547 Z-1.0000 F5000
G1 X965.6017 Y700.4712 Z-1.0000 F5000
G1 X962.6109 Y703.1501 Z-1.0000 F5000
G1 X958.4458 Y704.2694 Z-1.0000 F5000
G1 X954.4458 Y703.7373 Z-1.0000 F5000
G1 X951.7669 Y702.1960 Z-1.0000 F5000
G1 X950.0788 Y700.1593 Z-1.0000 F5000
G1 X948.9779 Y698.2510 Z-1.0000 F5000
G1 X944.2439 Y689.0584 Z-1.0000 F5000
G1 X942.8311 Y686.6914 Z-1.0000 F5000
G1 X941.1797 Y684.8382 Z-1.0000 F5000
G1 X938.9962 Y683.5905 Z-1.0000 F5000
G1 X936.1155 Y683.0767 Z-1.0000 F5000
G1 X932.8311 Y683.6088 Z-1.0000 F5000
G1 X929.8036 Y685.4437 Z-1.0000 F5000
G1 X927.5834 Y688.5813 Z-1.0000 F5000
G1 X926.7027 Y692.9483 Z-1.0000 F5000
G1 X927.3816 Y697.2052 Z-1.0000 F5000
G1 X928.8494 Y700.0492 Z-1.0000 F5000
G1 X930.9962 Y702.1409 Z-1.0000 F5000
G1 X928.8494 Y700.0492 Z-1.0000 F5000
G1 X927.3816 Y697.2052 Z-1.0000 F5000
G1 X926.7027 Y692.9483 Z-1.0000 F5000
G1 X927.5834 Y688.5813 Z-1.0000 F5000
G1 X929.8036 Y685.4437 Z-1.0000 F5000
G1 X932.8311 Y683.6088 Z-1.0000 F5000
G1 X936.1155 Y683.0767 Z-1.0000 F5000
G1 X938.9962 Y683.5905 Z-1.0000 F5000
G1 X941.1797 Y684.8382 Z-1.0000 F5000
G1 X942.8311 Y686.6914 Z-1.0000 F5000
G1 X944.2439 Y689.0584 Z-1.0000 F5000
G1 X948.9779 Y698.2510 Z-1.0000 F5000
G1 X950.0788 Y700.1593 Z-1.0000 F5000
G1 X951.7669 Y702.1960 Z-1.0000 F5000
G1 X954.4458 Y703.7373 Z-1.0000 F5000
G1 X958.4458 Y704.2694 Z-1.0000 F5000
G1 X962.6109 Y703.1501 Z-1.0000 F5000
G1 X965.6017 Y700.4712 Z-1.0000 F5000
G1 X967.3449 Y696.6547 Z-1.0000 F5000
G1 X967.8036 Y692.1593 Z-1.0000 F5000
G1 X967.3265 Y688.0309 Z-1.0000 F5000
G1 X966.0788 Y684.9116 Z-1.0000 F5000
G1 X964.0238 Y682.4896 Z-1.0000 F5000
G1 X964.0238 Y682.4896 Z10.0000 F9999
G1 X917.3082 Y669.8290 Z10.0000 F9999
G1 X917.3082 Y669.8290 Z-1.0000 F2500
G1 X970.1522 Y639.4437 Z-1.0000 F5000
G1 X917.3082 Y669.8290 Z-1.0000 F5000
G1 X917.3082 Y669.8290 Z10.0000 F9999
G1 X926.7027 Y612.0125 Z10.0000 F9999
G1 X926.7027 Y612.0125 Z-1.0000 F2500
G1 X967.8036 Y628.0675 Z-1.0000 F5000
G1 X926.7027 Y612.0125 Z-1.0000 F5000
G1 X967.8036 Y595.9942 Z-1.0000 F5000
G1 X967.8036 Y595.9942 Z10.0000 F9999
G1 X943.1430 Y585.3153 Z10.0000 F9999
G1 X943.1430 Y585.3153 Z-1.0000 F2500
G1 X943.1430 Y556.0675 Z-1.0000 F5000
G1 X943.1430 Y585.3153 Z-1.0000 F5000
G1 X943.1430 Y585.3153 Z10.0000 F9999
G1 X953.1063 Y622.3244 Z10.0000 F9999
G1 X953.1063 Y622.3244 Z-1.0000 F2500
G1 X953.1063 Y601.6272 Z-1.0000 F5000
G1 X953.1063 Y622.3244 Z-1.0000 F5000
G1 X953.1063 Y622.3244 Z10.0000 F9999
G1 X953.1063 Y538.9483 Z10.0000 F9999
G1 X953.1063 Y538.9483 Z-1.0000 F2500
G1 X953.1063 Y518.2510 Z-1.0000 F5000
G1 X953.1063 Y538.9483 Z-1.0000 F5000
G1 X953.1063 Y538.9483 Z10.0000 F9999
G1 X926.7027 Y528.6364 Z10.0000 F9999
G1 X926.7027 Y528.6364 Z-1.0000 F2500
G1 X967.8036 Y544.6914 Z-1.0000 F5000
G1 X926.7027 Y528.6364 Z-1.0000 F5000
G1 X967.8036 Y512.6180 Z-1.0000 F5000
G1 X967.8036 Y512.6180 Z10.0000 F9999
G1 X967.8036 Y501.9391 Z10.0000 F9999
G1 X967.8036 Y501.9391 Z-1.0000 F2500
G1 X947.6568 Y488.7098 Z-1.0000 F5000
G1 X967.8036 Y501.9391 Z-1.0000 F5000
G1 X967.8036 Y501.9391 Z10.0000 F9999
G1 X967.8036 Y484.5263 Z10.0000 F9999
G1 X967.8036 Y484.5263 Z-1.0000 F2500
G1 X926.7027 Y484.5263 Z-1.0000 F5000
G1 X926.7027 Y491.6822 Z-1.0000 F5000
G1 X927.3082 Y495.5538 Z-1.0000 F5000
G1 X929.1247 Y498.7648 Z-1.0000 F5000
G1 X932.2806 Y500.9850 Z-1.0000 F5000
G1 X936.9228 Y501.8290 Z-1.0000 F5000
G1 X941.6017 Y500.6731 Z-1.0000 F5000
G1 X944.9228 Y497.9024 Z-1.0000 F5000
G1 X946.8861 Y494.5813 Z-1.0000 F5000
G1 X947.5467 Y491.6822 Z-1.0000 F5000
G1 X947.5467 Y484.5263 Z-1.0000 F5000
G1 X947.5467 Y491.6822 Z-1.0000 F5000
G1 X946.8861 Y494.5813 Z-1.0000 F5000
G1 X944.9228 Y497.9024 Z-1.0000 F5000
G1 X941.6017 Y500.6731 Z-1.0000 F5000
G1 X936.9228 Y501.8290 Z-1.0000 F5000
G1 X932.2806 Y500.9850 Z-1.0000 F5000
G1 X929.1247 Y498.7648 Z-1.0000 F5000
G1 X927.3082 Y495.5538 Z-1.0000 F5000
G1 X926.7027 Y491.6822 Z-1.0000 F5000
G1 X926.7027 Y484.5263 Z-1.0000 F5000
G1 X926.7027 Y484.5263 Z10.0000 F9999
G1 X944.9962 Y453.9942 Z10.0000 F9999
G1 X944.9962 Y453.9942 Z-1.0000 F2500
G1 X944.9962 Y468.4345 Z-1.0000 F5000
G1 X944.9962 Y453.9942 Z-1.0000 F5000
G1 X926.7027 Y453.9942 Z-1.0000 F5000
G1 X926.7027 Y469.1134 Z-1.0000 F5000
G1 X926.7027 Y453.9942 Z-1.0000 F5000
G1 X967.8036 Y453.9942 Z-1.0000 F5000
G1 X967.8036 Y453.9942 Z10.0000 F9999
G1 X1115.2965 Y453.9942 Z10.0000 F9999
G1 X1115.2965 Y453.9942 Z-1.0000 F2500
G1 X1115.2965 Y468.4345 Z-1.0000 F5000
G1 X1115.2965 Y453.9942 Z-1.0000 F5000
G1 X1097.0029 Y453.9942 Z-1.0000 F5000
G1 X1097.0029 Y469.1134 Z-1.0000 F5000
G1 X1097.0029 Y453.9942 Z-1.0000 F5000
G1 X1138.1038 Y453.9942 Z-1.0000 F5000
G1 X1138.1038 Y453.9942 Z10.0000 F9999
G1 X1138.1038 Y484.5263 Z10.0000 F9999
G1 X1138.1038 Y484.5263 Z-1.0000 F2500
G1 X1097.0029 Y484.5263 Z-1.0000 F5000
G1 X1097.0029 Y491.6822 Z-1.0000 F5000
G1 X1097.6084 Y495.5538 Z-1.0000 F5000
G1 X1099.4249 Y498.7648 Z-1.0000 F5000
G1 X1102.5809 Y500.9850 Z-1.0000 F5000
G1 X1107.2231 Y501.8290 Z-1.0000 F5000
G1 X1111.9020 Y500.6731 Z-1.0000 F5000
G1 X1115.2231 Y497.9024 Z-1.0000 F5000
G1 X1117.1864 Y494.5813 Z-1.0000 F5000
G1 X1117.8469 Y491.6822 Z-1.0000 F5000
G1 X1117.8469 Y484.5263 Z-1.0000 F5000
G1 X1117.8469 Y491.6822 Z-1.0000 F5000
G1 X1117.1864 Y494.5813 Z-1.0000 F5000
G1 X1115.2231 Y497.9024 Z-1.0000 F5000
G1 X1111.9020 Y500.6731 Z-1.0000 F5000
G1 X1107.2231 Y501.8290 Z-1.0000 F5000
G1 X1102.5809 Y500.9850 Z-1.0000 F5000
G1 X1099.4249 Y498.7648 Z-1.0000 F5000
G1 X1097.6084 Y495.5538 Z-1.0000 F5000
G1 X1097.0029 Y491.6822 Z-1.0000 F5000
G1 X1097.0029 Y484.5263 Z-1.0000 F5000
G1 X1097.0029 Y484.5263 Z10.0000 F9999
G1 X1097.0029 Y528.6364 Z10.0000 F9999
G1 X1097.0029 Y528.6364 Z-1.0000 F2500
G1 X1138.1038 Y544.6914 Z-1.0000 F5000
G1 X1097.0029 Y528.6364 Z-1.0000 F5000
G1 X1138.1038 Y512.6180 Z-1.0000 F5000
G1 X1138.1038 Y512.6180 Z10.0000 F9999
G1 X1138.1038 Y501.9391 Z10.0000 F9999
G1 X1138.1038 Y501.9391 Z-1.0000 F2500
G1 X1117.9570 Y488.7098 Z-1.0000 F5000
G1 X1138.1038 Y501.9391 Z-1.0000 F5000
G1 X1138.1038 Y501.9391 Z10.0000 F9999
G1 X1123.4066 Y538.9483 Z10.0000 F9999
G1 X1123.4066 Y538.9483 Z-1.0000 F2500
G1 X1123.4066 Y518.2510 Z-1.0000 F5000
G1 X1123.4066 Y538.9483 Z-1.0000 F5000
G1 X1123.4066 Y538.9483 Z10.0000 F9999
G1 X1113.4433 Y585.3153 Z10.0000 F9999
G1 X1113.4433 Y585.3153 Z-1.0000 F2500
G1 X1113.4433 Y556.0675 Z-1.0000 F5000
G1 X1113.4433 Y585.3153 Z-1.0000 F5000
G1 X1113.4433 Y585.3153 Z10.0000 F9999
G1 X1097.0029 Y612.0125 Z10.0000 F9999
G1 X1097.0029 Y612.0125 Z-1.0000 F2500
G1 X1138.1038 Y628.0675 Z-1.0000 F5000
G1 X1097.0029 Y612.0125 Z-1.0000 F5000
G1 X1138.1038 Y595.9942 Z-1.0000 F5000
G1 X1138.1038 Y595.9942 Z10.0000 F9999
G1 X1123.4066 Y622.3244 Z10.0000 F9999
G1 X1123.4066 Y622.3244 Z-1.0000 F2500
G1 X1123.4066 Y601.6272 Z-1.0000 F5000
G1 X1123.4066 Y622.3244 Z-1.0000 F5000
G1 X1123.4066 Y622.3244 Z10.0000 F9999
G1 X1131.2781 Y680.5446 Z10.0000 F9999
G1 X1131.2781 Y680.5446 Z-1.0000 F2500
G1 X1134.3240 Y682.4896 Z-1.0000 F5000
G1 X1136.3791 Y684.9116 Z-1.0000 F5000
G1 X1137.6268 Y688.0309 Z-1.0000 F5000
G1 X1138.1038 Y692.1593 Z-1.0000 F5000
G1 X1137.6451 Y696.6547 Z-1.0000 F5000
G1 X1135.9020 Y700.4712 Z-1.0000 F5000
G1 X1132.9112 Y703.1501 Z-1.0000 F5000
G1 X1128.7460 Y704.2694 Z-1.0000 F5000
G1 X1124.7460 Y703.7373 Z-1.0000 F5000
G1 X1122.0671 Y702.1960 Z-1.0000 F5000
G1 X1120.3791 Y700.1593 Z-1.0000 F5000
G1 X1119.2781 Y698.2510 Z-1.0000 F5000
G1 X1114.5442 Y689.0584 Z-1.0000 F5000
G1 X1113.1313 Y686.6914 Z-1.0000 F5000
G1 X1111.4800 Y684.8382 Z-1.0000 F5000
G1 X1109.2965 Y683.5905 Z-1.0000 F5000
G1 X1106.4158 Y683.0767 Z-1.0000 F5000
G1 X1103.1313 Y683.6088 Z-1.0000 F5000
G1 X1100.1038 Y685.4437 Z-1.0000 F5000
G1 X1097.8836 Y688.5813 Z-1.0000 F5000
G1 X1097.0029 Y692.9483 Z-1.0000 F5000
G1 X1097.6818 Y697.2052 Z-1.0000 F5000
G1 X1099.1497 Y700.0492 Z-1.0000 F5000
G1 X1101.2965 Y702.1409 Z-1.0000 F5000
G1 X1099.1497 Y700.0492 Z-1.0000 F5000
G1 X1097.6818 Y697.2052 Z-1.0000 F5000
G1 X1097.0029 Y692.9483 Z-1.0000 F5000
G1 X1097.8836 Y688.5813 Z-1.0000 F5000
G1 X1100.1038 Y685.4437 Z-1.0000 F5000
G1 X1103.1313 Y683.6088 Z-1.0000 F5000
G1 X1106.4158 Y683.0767 Z-1.0000 F5000
G1 X1109.2965 Y683.5905 Z-1.0000 F5000
G1 X1111.4800 Y684.8382 Z-1.0000 F5000
G1 X1113.1313 Y686.6914 Z-1.0000 F5000
G1 X1114.5442 Y689.0584 Z-1.0000 F5000
G1 X1119.2781 Y698.2510 Z-1.0000 F5000
G1 X1120.3791 Y700.1593 Z-1.0000 F5000
G1 X1122.0671 Y702.1960 Z-1.0000 F5000
G1 X1124.7460 Y703.7373 Z-1.0000 F5000
G1 X1128.7460 Y704.2694 Z-1.0000 F5000
G1 X1132.9112 Y703.1501 Z-1.0000 F5000
G1 X1135.9020 Y700.4712 Z-1.0000 F5000
G1 X1137.6451 Y696.6547 Z-1.0000 F5000
G1 X1138.1038 Y692.1593 Z-1.0000 F5000
G1 X1137.6268 Y688.0309 Z-1.0000 F5000
G1 X1136.3791 Y684.9116 Z-1.0000 F5000
G1 X1134.3240 Y682.4896 Z-1.0000 F5000
G1 X1134.3240 Y682.4896 Z10.0000 F9999
G1 X1132.5809 Y715.7740 Z10.0000 F9999
G1 X1132.5809 Y715.7740 Z-1.0000 F2500
G1 X1133.8469 Y717.0217 Z-1.0000 F5000
G1 X1135.6635 Y719.3520 Z-1.0000 F5000
G1 X1137.3148 Y722.8198 Z-1.0000 F5000
G1 X1138.1038 Y727.5538 Z-1.0000 F5000
G1 X1136.9112 Y732.7098 Z-1.0000 F5000
G1 X1133.5901 Y737.0767 Z-1.0000 F5000
G1 X1128.6726 Y740.1226 Z-1.0000 F5000
G1 X1122.7277 Y741.2602 Z-1.0000 F5000
G1 X1117.1864 Y739.9208 Z-1.0000 F5000
G1 X1113.1497 Y736.6731 Z-1.0000 F5000
G1 X1110.7277 Y732.6180 Z-1.0000 F5000
G1 X1109.9203 Y728.8565 Z-1.0000 F5000
G1 X1109.9203 Y726.7098 Z-1.0000 F5000
G1 X1110.3240 Y724.4529 Z-1.0000 F5000
G1 X1111.2231 Y721.8107 Z-1.0000 F5000
G1 X1095.8286 Y727.4437 Z-1.0000 F5000
G1 X1095.8286 Y741.6455 Z-1.0000 F5000
G1 X1095.8286 Y727.4437 Z-1.0000 F5000
G1 X1111.2231 Y721.8107 Z-1.0000 F5000
G1 X1110.3240 Y724.4529 Z-1.0000 F5000
G1 X1109.9203 Y726.7098 Z-1.0000 F5000
G1 X1109.9203 Y728.8565 Z-1.0000 F5000
G1 X1110.7277 Y732.6180 Z-1.0000 F5000
G1 X1113.1497 Y736.6731 Z-1.0000 F5000
G1 X1117.1864 Y739.9208 Z-1.0000 F5000
G1 X1122.7277 Y741.2602 Z-1.0000 F5000
G1 X1128.6726 Y740.1226 Z-1.0000 F5000
G1 X1133.5901 Y737.0767 Z-1.0000 F5000
G1 X1136.9112 Y732.7098 Z-1.0000 F5000
G1 X1138.1038 Y727.5538 Z-1.0000 F5000
G1 X1137.3148 Y722.8198 Z-1.0000 F5000
G1 X1135.6635 Y719.3520 Z-1.0000 F5000
G1 X1133.8469 Y717.0217 Z-1.0000 F5000
G1 X1133.8469 Y717.0217 Z10.0000 F9999
G1 X1087.6084 Y669.8290 Z10.0000 F9999
G1 X1087.6084 Y669.8290 Z-1.0000 F2500
G1 X1140.4525 Y639.4437 Z-1.0000 F5000
G1 X1087.6084 Y669.8290 Z-1.0000 F5000
G1 X1087.6084 Y669.8290 Z10.0000 F9999
G1 X1087.6084 Y782.5630 Z10.0000 F9999
G1 X1087.6084 Y782.5630 Z-1.0000 F2500
G1 X1140.4525 Y752.1776 Z-1.0000 F5000
G1 X1087.6084 Y782.5630 Z-1.0000 F5000
G1 X1087.6084 Y782.5630 Z10.0000 F9999
G1 X1138.1038 Y798.0675 Z10.0000 F9999
G1 X1138.1038 Y798.0675 Z-1.0000 F2500
G1 X1115.2965 Y798.0675 Z-1.0000 F5000
G1 X1115.2965 Y814.5263 Z-1.0000 F5000
G1 X1115.2965 Y798.0675 Z-1.0000 F5000
G1 X1097.0029 Y798.0675 Z-1.0000 F5000
G1 X1097.0029 Y815.8290 Z-1.0000 F5000
G1 X1097.0029 Y798.0675 Z-1.0000 F5000
G1 X1138.1038 Y798.0675 Z-1.0000 F5000
G1 X1138.1038 Y815.8290 Z-1.0000 F5000
G1 X1138.1038 Y815.8290 Z10.0000 F9999
G1 X1116.8928 Y838.2327 Z10.0000 F9999
G1 X1116.8928 Y838.2327 Z-1.0000 F2500
G1 X1138.1038 Y850.1776 Z-1.0000 F5000
G1 X1116.8928 Y838.2327 Z-1.0000 F5000
G1 X1097.0029 Y850.1776 Z-1.0000 F5000
G1 X1116.8928 Y838.2327 Z-1.0000 F5000
G1 X1097.0029 Y826.1593 Z-1.0000 F5000
G1 X1116.8928 Y838.2327 Z-1.0000 F5000
G1 X1138.1038 Y826.1593 Z-1.0000 F5000
G1 X1138.1038 Y826.1593 Z10.0000 F9999
(Tool Number:1) (7.998 mm dia. slot drill)
M3 S9000
G1 X0.0000 Y1954.2433 Z10.0000 F9999
G1 X0.0000 Y1954.2433 Z1.0000 F2500
G1 X38.9711 Y1954.2433 Z-9.5000 F2500
G1 X0.0000 Y1954.2433 Z-20.0000 F2500
G1 X1220.0000 Y1954.2433 Z-20.0000 F5000
G1 X1220.0000 Y1954.2433 Z10.0000 F9999
(Tool Number:1) (7.998 mm dia. slot drill)
M3 S9000
G1 X299.9476 Y1379.8972 Z10.0000 F9999
G1 X299.9476 Y1379.8972 Z1.0000 F2500
G1 X299.9476 Y1418.8683 Z-9.5000 F2500
G1 X299.9476 Y1379.8972 Z-20.0000 F2500
G1 X299.9476 Y1493.8959 Z-20.0000 F5000
G1 X294.9476 Y1493.8959 Z-20.0000 F5000
G1 X294.9476 Y1495.8979 Z-20.0000 F5000
G1 X330.6050 Y1495.8979 Z-20.0000 F5000
G1 X335.9475 Y1501.2405 Z-20.0000 F5000
G1 X335.9475 Y1558.5532 Z-20.0000 F5000
G1 X330.6050 Y1563.8958 Z-20.0000 F5000
G1 X294.9476 Y1563.8958 Z-20.0000 F5000
G1 X294.9476 Y1565.8978 Z-20.0000 F5000
G1 X299.9476 Y1565.8978 Z-20.0000 F5000
G1 X299.9476 Y1793.8953 Z-20.0000 F5000
G1 X294.9476 Y1793.8953 Z-20.0000 F5000
G1 X294.9476 Y1795.8973 Z-20.0000 F5000
G1 X330.6050 Y1795.8973 Z-20.0000 F5000
G1 X335.9475 Y1801.2399 Z-20.0000 F5000
G1 X335.9475 Y1821.5822 Z-20.0000 F5000
G1 X335.9475 Y1821.5822 Z-10.0000 F9999
G1 X335.9475 Y1837.5802 Z-10.0000 F5000
G1 X335.9475 Y1837.5802 Z-20.0000 F2500
G1 X335.9475 Y1858.5526 Z-20.0000 F5000
G1 X330.6050 Y1863.8952 Z-20.0000 F5000
G1 X294.9476 Y1863.8952 Z-20.0000 F5000
G1 X294.9476 Y1865.8972 Z-20.0000 F5000
G1 X299.9476 Y1865.8972 Z-20.0000 F5000
G1 X299.9476 Y1931.8951 Z-20.0000 F5000
G1 X213.9497 Y1931.8951 Z-20.0000 F5000
G1 X213.9497 Y1865.8972 Z-20.0000 F5000
G1 X218.9497 Y1865.8972 Z-20.0000 F5000
G1 X218.9497 Y1863.8952 Z-20.0000 F5000
G1 X183.2923 Y1863.8952 Z-20.0000 F5000
G1 X177.9498 Y1858.5526 Z-20.0000 F5000
G1 X177.9498 Y1837.9300 Z-20.0000 F5000
G1 X177.9498 Y1837.9300 Z-10.0000 F9999
G1 X177.9498 Y1821.9320 Z-10.0000 F5000
G1 X177.9498 Y1821.9320 Z-20.0000 F2500
G1 X177.9498 Y1801.2399 Z-20.0000 F5000
G1 X183.2923 Y1795.8973 Z-20.0000 F5000
G1 X218.9497 Y1795.8973 Z-20.0000 F5000
G1 X218.9497 Y1793.8953 Z-20.0000 F5000
G1 X213.9497 Y1793.8953 Z-20.0000 F5000
G1 X213.9497 Y1565.8978 Z-20.0000 F5000
G1 X218.9497 Y1565.8978 Z-20.0000 F5000
G1 X218.9497 Y1563.8958 Z-20.0000 F5000
G1 X183.2923 Y1563.8958 Z-20.0000 F5000
G1 X177.9498 Y1558.5532 Z-20.0000 F5000
G1 X177.9498 Y1501.2405 Z-20.0000 F5000
G1 X183.2923 Y1495.8979 Z-20.0000 F5000
G1 X218.9497 Y1495.8979 Z-20.0000 F5000
G1 X218.9497 Y1493.8959 Z-20.0000 F5000
G1 X213.9497 Y1493.8959 Z-20.0000 F5000
G1 X213.9497 Y1265.8984 Z-20.0000 F5000
G1 X218.9497 Y1265.8984 Z-20.0000 F5000
G1 X218.9497 Y1263.8964 Z-20.0000 F5000
G1 X183.2923 Y1263.8964 Z-20.0000 F5000
G1 X177.9498 Y1258.5539 Z-20.0000 F5000
G1 X177.9498 Y1201.2411 Z-20.0000 F5000
G1 X183.2923 Y1195.8986 Z-20.0000 F5000
G1 X218.9497 Y1195.8986 Z-20.0000 F5000
G1 X218.9497 Y1193.8966 Z-20.0000 F5000
G1 X213.9497 Y1193.8966 Z-20.0000 F5000
G1 X213.9497 Y1085.8987 Z-20.0000 F5000
G1 X218.9497 Y1085.8987 Z-20.0000 F5000
G1 X218.9497 Y1083.8968 Z-20.0000 F5000
G1 X195.9498 Y1083.8968 Z-20.0000 F5000
G1 X195.9498 Y965.8990 Z-20.0000 F5000
G1 X200.9498 Y965.8990 Z-20.0000 F5000
G1 X200.9498 Y963.8970 Z-20.0000 F5000
G1 X183.2923 Y963.8970 Z-20.0000 F5000
G1 X177.9498 Y958.5545 Z-20.0000 F5000
G1 X177.9498 Y934.8990 Z-20.0000 F5000
G1 X224.9477 Y934.8990 Z-20.0000 F5000
G1 X224.9477 Y939.8990 Z-20.0000 F5000
G1 X226.9497 Y939.8990 Z-20.0000 F5000
G1 X226.9497 Y919.8970 Z-20.0000 F5000
G1 X224.9477 Y919.8970 Z-20.0000 F5000
G1 X224.9477 Y924.8970 Z-20.0000 F5000
G1 X177.9498 Y924.8970 Z-20.0000 F5000
G1 X177.9498 Y901.2416 Z-20.0000 F5000
G1 X183.2923 Y895.8992 Z-20.0000 F5000
G1 X200.9498 Y895.8992 Z-20.0000 F5000
G1 X200.9498 Y893.8972 Z-20.0000 F5000
G1 X195.9498 Y893.8972 Z-20.0000 F5000
G1 X195.9498 Y665.8997 Z-20.0000 F5000
G1 X200.9498 Y665.8997 Z-20.0000 F5000
G1 X200.9498 Y663.8975 Z-20.0000 F5000
G1 X183.2923 Y663.8975 Z-20.0000 F5000
G1 X177.9498 Y658.5551 Z-20.0000 F5000
G1 X177.9498 Y601.2424 Z-20.0000 F5000
G1 X183.2923 Y595.8998 Z-20.0000 F5000
G1 X200.9498 Y595.8998 Z-20.0000 F5000
G1 X200.9498 Y593.8978 Z-20.0000 F5000
G1 X195.9498 Y593.8978 Z-20.0000 F5000
G1 X195.9498 Y365.9003 Z-20.0000 F5000
G1 X200.9498 Y365.9003 Z-20.0000 F5000
G1 X200.9498 Y363.8983 Z-20.0000 F5000
G1 X183.2923 Y363.8983 Z-20.0000 F5000
G1 X177.9498 Y358.5557 Z-20.0000 F5000
G1 X177.9498 Y334.9003 Z-20.0000 F5000
G1 X224.9477 Y334.9003 Z-20.0000 F5000
G1 X224.9477 Y339.9003 Z-20.0000 F5000
G1 X226.9497 Y339.9003 Z-20.0000 F5000
G1 X226.9497 Y319.8983 Z-20.0000 F5000
G1 X224.9477 Y319.8983 Z-20.0000 F5000
G1 X224.9477 Y324.8983 Z-20.0000 F5000
G1 X177.9498 Y324.8983 Z-20.0000 F5000
G1 X177.9498 Y301.2430 Z-20.0000 F5000
G1 X183.2922 Y295.9003 Z-20.0000 F5000
G1 X200.9498 Y295.9003 Z-20.0000 F5000
G1 X200.9498 Y293.8984 Z-20.0000 F5000
G1 X195.9498 Y293.8984 Z-20.0000 F5000
G1 X195.9498 Y225.7512 Z-20.0000 F5000
G1 X195.9498 Y225.7512 Z-10.0000 F9999
G1 X195.9498 Y209.7532 Z-10.0000 F5000
G1 X195.9498 Y209.7532 Z-20.0000 F2500
G1 X195.9498 Y175.9006 Z-20.0000 F5000
G1 X218.9497 Y175.9006 Z-20.0000 F5000
G1 X218.9497 Y173.8988 Z-20.0000 F5000
G1 X213.9497 Y173.8988 Z-20.0000 F5000
G1 X213.9497 Y65.9008 Z-20.0000 F5000
G1 X218.9497 Y65.9008 Z-20.0000 F5000
G1 X218.9497 Y63.8989 Z-20.0000 F5000
G1 X183.2922 Y63.8989 Z-20.0000 F5000
G1 X177.9498 Y58.5561 Z-20.0000 F5000
G1 X177.9498 Y25.9008 Z-20.0000 F5000
G1 X239.5893 Y25.9008 Z-20.0000 F5000
G1 X240.1368 Y25.8214 Z-20.0000 F5000
G1 X240.3964 Y25.7038 Z-20.0000 F5000
G1 X240.6141 Y25.5100 Z-20.0000 F5000
G1 X240.7610 Y25.2658 Z-20.0000 F5000
G1 X240.8298 Y24.9893 Z-20.0000 F5000
G1 X240.8129 Y24.6983 Z-20.0000 F5000
G1 X240.7126 Y24.4316 Z-20.0000 F5000
G1 X240.3814 Y23.9881 Z-20.0000 F5000
G1 X237.4526 Y21.0591 Z-20.0000 F5000
G1 X236.0666 Y19.2032 Z-20.0000 F5000
G1 X235.1488 Y16.6648 Z-20.0000 F5000
G1 X235.0252 Y13.9677 Z-20.0000 F5000
G1 X235.6671 Y11.4403 Z-20.0000 F5000
G1 X237.0007 Y9.1985 Z-20.0000 F5000
G1 X238.9950 Y7.3797 Z-20.0000 F5000
G1 X241.4385 Y6.2335 Z-20.0000 F5000
G1 X243.7313 Y5.9010 Z-20.0000 F5000
G1 X270.1660 Y5.9010 Z-20.0000 F5000
G1 X272.4588 Y6.2335 Z-20.0000 F5000
G1 X274.9023 Y7.3797 Z-20.0000 F5000
G1 X276.8966 Y9.1985 Z-20.0000 F5000
G1 X278.2301 Y11.4403 Z-20.0000 F5000
G1 X278.8721 Y13.9677 Z-20.0000 F5000
G1 X278.7485 Y16.6648 Z-20.0000 F5000
G1 X277.8307 Y19.2032 Z-20.0000 F5000
G1 X276.4447 Y21.0591 Z-20.0000 F5000
G1 X273.5158 Y23.9881 Z-20.0000 F5000
G1 X273.1847 Y24.4316 Z-20.0000 F5000
G1 X273.0844 Y24.6983 Z-20.0000 F5000
G1 X273.0675 Y24.9893 Z-20.0000 F5000
G1 X273.1362 Y25.2658 Z-20.0000 F5000
G1 X273.2832 Y25.5100 Z-20.0000 F5000
G1 X273.5009 Y25.7038 Z-20.0000 F5000
G1 X273.7604 Y25.8214 Z-20.0000 F5000
G1 X274.3079 Y25.9008 Z-20.0000 F5000
G1 X335.9475 Y25.9008 Z-20.0000 F5000
G1 X335.9475 Y58.5561 Z-20.0000 F5000
G1 X330.6050 Y63.8989 Z-20.0000 F5000
G1 X294.9476 Y63.8989 Z-20.0000 F5000
G1 X294.9476 Y65.9008 Z-20.0000 F5000
G1 X299.9476 Y65.9008 Z-20.0000 F5000
G1 X299.9476 Y173.8988 Z-20.0000 F5000
G1 X294.9476 Y173.8988 Z-20.0000 F5000
G1 X294.9476 Y175.9006 Z-20.0000 F5000
G1 X317.9475 Y175.9006 Z-20.0000 F5000
G1 X317.9475 Y206.6049 Z-20.0000 F5000
G1 X317.9475 Y206.6049 Z-10.0000 F9999
G1 X317.9475 Y222.6029 Z-10.0000 F5000
G1 X317.9475 Y222.6029 Z-20.0000 F2500
G1 X317.9475 Y293.8984 Z-20.0000 F5000
G1 X312.9475 Y293.8984 Z-20.0000 F5000
G1 X312.9475 Y295.9003 Z-20.0000 F5000
G1 X330.6050 Y295.9003 Z-20.0000 F5000
G1 X335.9475 Y301.2430 Z-20.0000 F5000
G1 X335.9475 Y324.8983 Z-20.0000 F5000
G1 X288.9496 Y324.8983 Z-20.0000 F5000
G1 X288.9496 Y319.8983 Z-20.0000 F5000
G1 X286.9476 Y319.8983 Z-20.0000 F5000
G1 X286.9476 Y339.9003 Z-20.0000 F5000
G1 X288.9496 Y339.9003 Z-20.0000 F5000
G1 X288.9496 Y334.9003 Z-20.0000 F5000
G1 X335.9475 Y334.9003 Z-20.0000 F5000
G1 X335.9475 Y358.5557 Z-20.0000 F5000
G1 X330.6050 Y363.8983 Z-20.0000 F5000
G1 X312.9475 Y363.8983 Z-20.0000 F5000
G1 X312.9475 Y365.9003 Z-20.0000 F5000
G1 X317.9475 Y365.9003 Z-20.0000 F5000
G1 X317.9475 Y593.8978 Z-20.0000 F5000
G1 X312.9475 Y593.8978 Z-20.0000 F5000
G1 X312.9475 Y595.8998 Z-20.0000 F5000
G1 X330.6050 Y595.8998 Z-20.0000 F5000
G1 X335.9475 Y601.2424 Z-20.0000 F5000
G1 X335.9475 Y658.5551 Z-20.0000 F5000
G1 X330.6049 Y663.8975 Z-20.0000 F5000
G1 X312.9475 Y663.8975 Z-20.0000 F5000
G1 X312.9475 Y665.8997 Z-20.0000 F5000
G1 X317.9475 Y665.8997 Z-20.0000 F5000
G1 X317.9475 Y893.8972 Z-20.0000 F5000
G1 X312.9475 Y893.8972 Z-20.0000 F5000
G1 X312.9475 Y895.8992 Z-20.0000 F5000
G1 X330.6049 Y895.8992 Z-20.0000 F5000
G1 X335.9475 Y901.2416 Z-20.0000 F5000
G1 X335.9475 Y924.8970 Z-20.0000 F5000
G1 X288.9496 Y924.8970 Z-20.0000 F5000
G1 X288.9496 Y919.8970 Z-20.0000 F5000
G1 X286.9476 Y919.8970 Z-20.0000 F5000
G1 X286.9476 Y939.8990 Z-20.0000 F5000
G1 X288.9496 Y939.8990 Z-20.0000 F5000
G1 X288.9496 Y934.8990 Z-20.0000 F5000
G1 X335.9475 Y934.8990 Z-20.0000 F5000
G1 X335.9475 Y958.5545 Z-20.0000 F5000
G1 X330.6050 Y963.8970 Z-20.0000 F5000
G1 X312.9475 Y963.8970 Z-20.0000 F5000
G1 X312.9475 Y965.8990 Z-20.0000 F5000
G1 X317.9475 Y965.8990 Z-20.0000 F5000
G1 X317.9475 Y1083.8968 Z-20.0000 F5000
G1 X294.9476 Y1083.8968 Z-20.0000 F5000
G1 X294.9476 Y1085.8987 Z-20.0000 F5000
G1 X299.9476 Y1085.8987 Z-20.0000 F5000
G1 X299.9476 Y1193.8966 Z-20.0000 F5000
G1 X294.9476 Y1193.8966 Z-20.0000 F5000
G1 X294.9476 Y1195.8986 Z-20.0000 F5000
G1 X330.6050 Y1195.8986 Z-20.0000 F5000
G1 X335.9475 Y1201.2411 Z-20.0000 F5000
G1 X335.9475 Y1258.5539 Z-20.0000 F5000
G1 X330.6050 Y1263.8964 Z-20.0000 F5000
G1 X294.9476 Y1263.8964 Z-20.0000 F5000
G1 X294.9476 Y1265.8984 Z-20.0000 F5000
G1 X299.9476 Y1265.8984 Z-20.0000 F5000
G1 X299.9476 Y1379.8972 Z-20.0000 F5000
G1 X299.9476 Y1379.8972 Z10.0000 F9999
G1 X644.0452 Y1779.6390 Z10.0000 F9999
G1 X644.0452 Y1779.6390 Z1.0000 F2500
G1 X644.0452 Y1818.6102 Z-9.5000 F2500
G1 X644.0452 Y1779.6390 Z-20.0000 F2500
G1 X644.0452 Y1933.1967 Z-20.0000 F5000
G1 X558.0473 Y1933.1967 Z-20.0000 F5000
G1 X558.0473 Y1626.0813 Z-20.0000 F5000
G1 X563.0473 Y1626.0813 Z-20.0000 F5000
G1 X563.0473 Y1624.0784 Z-20.0000 F5000
G1 X527.3900 Y1624.0784 Z-20.0000 F5000
G1 X522.0475 Y1618.7362 Z-20.0000 F5000
G1 X522.0475 Y1596.4538 Z-20.0000 F5000
G1 X522.0475 Y1596.4538 Z-10.0000 F9999
G1 X522.0475 Y1580.4558 Z-10.0000 F5000
G1 X522.0475 Y1580.4558 Z-20.0000 F2500
G1 X522.0475 Y1561.4238 Z-20.0000 F5000
G1 X527.3899 Y1556.0812 Z-20.0000 F5000
G1 X563.0473 Y1556.0812 Z-20.0000 F5000
G1 X563.0473 Y1554.0786 Z-20.0000 F5000
G1 X558.0473 Y1554.0786 Z-20.0000 F5000
G1 X558.0473 Y1326.0816 Z-20.0000 F5000
G1 X563.0473 Y1326.0816 Z-20.0000 F5000
G1 X563.0473 Y1324.0786 Z-20.0000 F5000
G1 X527.3901 Y1324.0786 Z-20.0000 F5000
G1 X522.0475 Y1318.7367 Z-20.0000 F5000
G1 X522.0475 Y1261.4242 Z-20.0000 F5000
G1 X527.3900 Y1256.0818 Z-20.0000 F5000
G1 X563.0473 Y1256.0818 Z-20.0000 F5000
G1 X563.0473 Y1254.0789 Z-20.0000 F5000
G1 X558.0473 Y1254.0789 Z-20.0000 F5000
G1 X558.0473 Y1146.0831 Z-20.0000 F5000
G1 X563.0473 Y1146.0831 Z-20.0000 F5000
G1 X563.0473 Y1144.0803 Z-20.0000 F5000
G1 X540.0474 Y1144.0803 Z-20.0000 F5000
G1 X540.0474 Y1026.0823 Z-20.0000 F5000
G1 X545.0474 Y1026.0823 Z-20.0000 F5000
G1 X545.0474 Y1024.0809 Z-20.0000 F5000
G1 X527.3895 Y1024.0809 Z-20.0000 F5000
G1 X522.0475 Y1018.7366 Z-20.0000 F5000
G1 X522.0475 Y995.0828 Z-20.0000 F5000
G1 X569.0453 Y995.0828 Z-20.0000 F5000
G1 X569.0453 Y1000.0825 Z-20.0000 F5000
G1 X571.0473 Y1000.0825 Z-20.0000 F5000
G1 X571.0473 Y980.0809 Z-20.0000 F5000
G1 X569.0453 Y980.0809 Z-20.0000 F5000
G1 X569.0453 Y985.0806 Z-20.0000 F5000
G1 X522.0475 Y985.0806 Z-20.0000 F5000
G1 X522.0475 Y961.4245 Z-20.0000 F5000
G1 X527.3900 Y956.0821 Z-20.0000 F5000
G1 X545.0474 Y956.0821 Z-20.0000 F5000
G1 X545.0474 Y954.0794 Z-20.0000 F5000
G1 X540.0474 Y954.0794 Z-20.0000 F5000
G1 X540.0474 Y695.9917 Z-20.0000 F5000
G1 X545.0474 Y695.9917 Z-20.0000 F5000
G1 X545.0474 Y693.9887 Z-20.0000 F5000
G1 X527.3900 Y693.9887 Z-20.0000 F5000
G1 X522.0475 Y688.6464 Z-20.0000 F5000
G1 X522.0475 Y631.3342 Z-20.0000 F5000
G1 X527.3900 Y625.9918 Z-20.0000 F5000
G1 X545.0474 Y625.9918 Z-20.0000 F5000
G1 X545.0474 Y623.9890 Z-20.0000 F5000
G1 X540.0474 Y623.9890 Z-20.0000 F5000
G1 X540.0474 Y365.9011 Z-20.0000 F5000
G1 X545.0474 Y365.9011 Z-20.0000 F5000
G1 X545.0474 Y363.8980 Z-20.0000 F5000
G1 X527.3902 Y363.8980 Z-20.0000 F5000
G1 X522.0475 Y358.5562 Z-20.0000 F5000
G1 X522.0475 Y334.9002 Z-20.0000 F5000
G1 X569.0453 Y334.9002 Z-20.0000 F5000
G1 X569.0453 Y339.9000 Z-20.0000 F5000
G1 X571.0473 Y339.9000 Z-20.0000 F5000
G1 X571.0473 Y319.8983 Z-20.0000 F5000
G1 X569.0453 Y319.8983 Z-20.0000 F5000
G1 X569.0453 Y324.8978 Z-20.0000 F5000
G1 X522.0475 Y324.8978 Z-20.0000 F5000
G1 X522.0475 Y301.2440 Z-20.0000 F5000
G1 X527.3899 Y295.9013 Z-20.0000 F5000
G1 X545.0474 Y295.9013 Z-20.0000 F5000
G1 X545.0474 Y293.8985 Z-20.0000 F5000
G1 X540.0474 Y293.8985 Z-20.0000 F5000
G1 X540.0474 Y216.6560 Z-20.0000 F5000
G1 X540.0474 Y216.6560 Z-10.0000 F9999
G1 X540.0474 Y200.6580 Z-10.0000 F5000
G1 X540.0474 Y200.6580 Z-20.0000 F2500
G1 X540.0474 Y175.9004 Z-20.0000 F5000
G1 X563.0473 Y175.9004 Z-20.0000 F5000
G1 X563.0473 Y173.8975 Z-20.0000 F5000
G1 X558.0473 Y173.8975 Z-20.0000 F5000
G1 X558.0473 Y65.9018 Z-20.0000 F5000
G1 X563.0473 Y65.9018 Z-20.0000 F5000
G1 X563.0473 Y63.8988 Z-20.0000 F5000
G1 X527.3901 Y63.8988 Z-20.0000 F5000
G1 X522.0475 Y58.5567 Z-20.0000 F5000
G1 X522.0475 Y25.9011 Z-20.0000 F5000
G1 X583.6860 Y25.9011 Z-20.0000 F5000
G1 X584.2350 Y25.8213 Z-20.0000 F5000
G1 X584.4945 Y25.7036 Z-20.0000 F5000
G1 X584.7121 Y25.5098 Z-20.0000 F5000
G1 X584.8589 Y25.2656 Z-20.0000 F5000
G1 X584.9275 Y24.9891 Z-20.0000 F5000
G1 X584.9104 Y24.6982 Z-20.0000 F5000
G1 X584.8100 Y24.4316 Z-20.0000 F5000
G1 X584.4791 Y23.9884 Z-20.0000 F5000
G1 X581.5502 Y21.0598 Z-20.0000 F5000
G1 X580.1639 Y19.2032 Z-20.0000 F5000
G1 X579.2464 Y16.6638 Z-20.0000 F5000
G1 X579.1228 Y13.9683 Z-20.0000 F5000
G1 X579.7647 Y11.4407 Z-20.0000 F5000
G1 X581.0979 Y9.1995 Z-20.0000 F5000
G1 X583.0919 Y7.3797 Z-20.0000 F5000
G1 X585.5366 Y6.2328 Z-20.0000 F5000
G1 X587.8296 Y5.9010 Z-20.0000 F5000
G1 X614.2630 Y5.9010 Z-20.0000 F5000
G1 X616.5559 Y6.2328 Z-20.0000 F5000
G1 X619.0007 Y7.3797 Z-20.0000 F5000
G1 X620.9946 Y9.1995 Z-20.0000 F5000
G1 X622.3278 Y11.4407 Z-20.0000 F5000
G1 X622.9697 Y13.9683 Z-20.0000 F5000
G1 X622.8461 Y16.6638 Z-20.0000 F5000
G1 X621.9286 Y19.2032 Z-20.0000 F5000
G1 X620.5423 Y21.0598 Z-20.0000 F5000
G1 X617.6135 Y23.9884 Z-20.0000 F5000
G1 X617.2826 Y24.4316 Z-20.0000 F5000
G1 X617.1821 Y24.6982 Z-20.0000 F5000
G1 X617.1650 Y24.9891 Z-20.0000 F5000
G1 X617.2336 Y25.2656 Z-20.0000 F5000
G1 X617.3804 Y25.5098 Z-20.0000 F5000
G1 X617.5981 Y25.7036 Z-20.0000 F5000
G1 X617.8575 Y25.8213 Z-20.0000 F5000
G1 X618.4065 Y25.9011 Z-20.0000 F5000
G1 X680.0451 Y25.9011 Z-20.0000 F5000
G1 X680.0451 Y58.5567 Z-20.0000 F5000
G1 X674.7025 Y63.8988 Z-20.0000 F5000
G1 X639.0452 Y63.8988 Z-20.0000 F5000
G1 X639.0452 Y65.9018 Z-20.0000 F5000
G1 X644.0451 Y65.9018 Z-20.0000 F5000
G1 X644.0476 Y173.8975 Z-20.0000 F5000
G1 X639.0475 Y173.8975 Z-20.0000 F5000
G1 X639.0475 Y175.9004 Z-20.0000 F5000
G1 X662.0452 Y175.9004 Z-20.0000 F5000
G1 X662.0452 Y199.5647 Z-20.0000 F5000
G1 X662.0452 Y199.5647 Z-10.0000 F9999
G1 X662.0452 Y215.5627 Z-10.0000 F5000
G1 X662.0452 Y215.5627 Z-20.0000 F2500
G1 X662.0452 Y293.8985 Z-20.0000 F5000
G1 X657.0452 Y293.8985 Z-20.0000 F5000
G1 X657.0452 Y295.9013 Z-20.0000 F5000
G1 X674.7026 Y295.9013 Z-20.0000 F5000
G1 X680.0451 Y301.2440 Z-20.0000 F5000
G1 X680.0451 Y324.8978 Z-20.0000 F5000
G1 X633.0472 Y324.8978 Z-20.0000 F5000
G1 X633.0472 Y319.8983 Z-20.0000 F5000
G1 X631.0452 Y319.8983 Z-20.0000 F5000
G1 X631.0452 Y339.9000 Z-20.0000 F5000
G1 X633.0472 Y339.9000 Z-20.0000 F5000
G1 X633.0472 Y334.9002 Z-20.0000 F5000
G1 X680.0451 Y334.9002 Z-20.0000 F5000
G1 X680.0451 Y358.5562 Z-20.0000 F5000
G1 X674.7024 Y363.8980 Z-20.0000 F5000
G1 X657.0452 Y363.8980 Z-20.0000 F5000
G1 X657.0452 Y365.9011 Z-20.0000 F5000
G1 X662.0452 Y365.9011 Z-20.0000 F5000
G1 X662.0452 Y623.9890 Z-20.0000 F5000
G1 X657.0452 Y623.9890 Z-20.0000 F5000
G1 X657.0452 Y625.9918 Z-20.0000 F5000
G1 X674.7026 Y625.9918 Z-20.0000 F5000
G1 X680.0451 Y631.3342 Z-20.0000 F5000
G1 X680.0451 Y688.6464 Z-20.0000 F5000
G1 X674.7025 Y693.9887 Z-20.0000 F5000
G1 X657.0452 Y693.9887 Z-20.0000 F5000
G1 X657.0452 Y695.9917 Z-20.0000 F5000
G1 X662.0452 Y695.9917 Z-20.0000 F5000
G1 X662.0452 Y954.0794 Z-20.0000 F5000
G1 X657.0452 Y954.0794 Z-20.0000 F5000
G1 X657.0452 Y956.0821 Z-20.0000 F5000
G1 X674.7026 Y956.0821 Z-20.0000 F5000
G1 X680.0451 Y961.4245 Z-20.0000 F5000
G1 X680.0451 Y985.0806 Z-20.0000 F5000
G1 X633.0472 Y985.0806 Z-20.0000 F5000
G1 X633.0472 Y980.0809 Z-20.0000 F5000
G1 X631.0452 Y980.0809 Z-20.0000 F5000
G1 X631.0452 Y1000.0825 Z-20.0000 F5000
G1 X633.0472 Y1000.0825 Z-20.0000 F5000
G1 X633.0472 Y995.0828 Z-20.0000 F5000
G1 X680.0451 Y995.0828 Z-20.0000 F5000
G1 X680.0451 Y1018.7366 Z-20.0000 F5000
G1 X674.7031 Y1024.0809 Z-20.0000 F5000
G1 X657.0452 Y1024.0809 Z-20.0000 F5000
G1 X657.0452 Y1026.0823 Z-20.0000 F5000
G1 X662.0452 Y1026.0823 Z-20.0000 F5000
G1 X662.0452 Y1144.0803 Z-20.0000 F5000
G1 X639.0475 Y1144.0803 Z-20.0000 F5000
G1 X639.0475 Y1146.0831 Z-20.0000 F5000
G1 X644.0476 Y1146.0831 Z-20.0000 F5000
G1 X644.0451 Y1254.0789 Z-20.0000 F5000
G1 X639.0452 Y1254.0789 Z-20.0000 F5000
G1 X639.0452 Y1256.0818 Z-20.0000 F5000
G1 X674.7026 Y1256.0818 Z-20.0000 F5000
G1 X680.0451 Y1261.4242 Z-20.0000 F5000
G1 X680.0451 Y1318.7367 Z-20.0000 F5000
G1 X674.7024 Y1324.0786 Z-20.0000 F5000
G1 X639.0452 Y1324.0786 Z-20.0000 F5000
G1 X639.0452 Y1326.0816 Z-20.0000 F5000
G1 X644.0452 Y1326.0816 Z-20.0000 F5000
G1 X644.0452 Y1554.0786 Z-20.0000 F5000
G1 X639.0452 Y1554.0786 Z-20.0000 F5000
G1 X639.0452 Y1556.0812 Z-20.0000 F5000
G1 X674.7026 Y1556.0812 Z-20.0000 F5000
G1 X680.0451 Y1561.4238 Z-20.0000 F5000
G1 X680.0451 Y1580.4558 Z-20.0000 F5000
G1 X680.0451 Y1580.4558 Z-10.0000 F9999
G1 X680.0451 Y1596.4538 Z-10.0000 F5000
G1 X680.0451 Y1596.4538 Z-20.0000 F2500
G1 X680.0451 Y1618.7362 Z-20.0000 F5000
G1 X674.7025 Y1624.0784 Z-20.0000 F5000
G1 X639.0452 Y1624.0784 Z-20.0000 F5000
G1 X639.0452 Y1626.0813 Z-20.0000 F5000
G1 X644.0452 Y1626.0813 Z-20.0000 F5000
G1 X644.0452 Y1779.6390 Z-20.0000 F5000
G1 X644.0452 Y1779.6390 Z10.0000 F9999
G1 X988.1429 Y1779.6390 Z10.0000 F9999
G1 X988.1429 Y1779.6390 Z1.0000 F2500
G1 X988.1429 Y1818.6102 Z-9.5000 F2500
G1 X988.1429 Y1779.6390 Z-20.0000 F2500
G1 X988.1429 Y1933.1967 Z-20.0000 F5000
G1 X902.1450 Y1933.1967 Z-20.0000 F5000
G1 X902.1450 Y1626.0813 Z-20.0000 F5000
G1 X907.1450 Y1626.0813 Z-20.0000 F5000
G1 X907.1450 Y1624.0784 Z-20.0000 F5000
G1 X871.4877 Y1624.0784 Z-20.0000 F5000
G1 X866.1451 Y1618.7362 Z-20.0000 F5000
G1 X866.1451 Y1596.4430 Z-20.0000 F5000
G1 X866.1451 Y1596.4430 Z-10.0000 F9999
G1 X866.1451 Y1580.4450 Z-10.0000 F5000
G1 X866.1451 Y1580.4450 Z-20.0000 F2500
G1 X866.1451 Y1561.4238 Z-20.0000 F5000
G1 X871.4876 Y1556.0812 Z-20.0000 F5000
G1 X907.1450 Y1556.0812 Z-20.0000 F5000
G1 X907.1450 Y1554.0786 Z-20.0000 F5000
G1 X902.1450 Y1554.0786 Z-20.0000 F5000
G1 X902.1450 Y1326.0816 Z-20.0000 F5000
G1 X907.1450 Y1326.0816 Z-20.0000 F5000
G1 X907.1450 Y1324.0786 Z-20.0000 F5000
G1 X871.4878 Y1324.0786 Z-20.0000 F5000
G1 X866.1451 Y1318.7367 Z-20.0000 F5000
G1 X866.1451 Y1261.4242 Z-20.0000 F5000
G1 X871.4876 Y1256.0818 Z-20.0000 F5000
G1 X907.1450 Y1256.0818 Z-20.0000 F5000
G1 X907.1450 Y1254.0789 Z-20.0000 F5000
G1 X902.1450 Y1254.0789 Z-20.0000 F5000
G1 X902.1450 Y1146.0831 Z-20.0000 F5000
G1 X907.1450 Y1146.0831 Z-20.0000 F5000
G1 X907.1450 Y1144.0803 Z-20.0000 F5000
G1 X884.1450 Y1144.0803 Z-20.0000 F5000
G1 X884.1450 Y1026.0823 Z-20.0000 F5000
G1 X889.1450 Y1026.0823 Z-20.0000 F5000
G1 X889.1450 Y1024.0809 Z-20.0000 F5000
G1 X871.4871 Y1024.0809 Z-20.0000 F5000
G1 X866.1451 Y1018.7366 Z-20.0000 F5000
G1 X866.1451 Y995.0828 Z-20.0000 F5000
G1 X913.1430 Y995.0828 Z-20.0000 F5000
G1 X913.1430 Y1000.0825 Z-20.0000 F5000
G1 X915.1450 Y1000.0825 Z-20.0000 F5000
G1 X915.1450 Y980.0809 Z-20.0000 F5000
G1 X913.1430 Y980.0809 Z-20.0000 F5000
G1 X913.1430 Y985.0806 Z-20.0000 F5000
G1 X866.1451 Y985.0806 Z-20.0000 F5000
G1 X866.1451 Y961.4245 Z-20.0000 F5000
G1 X871.4876 Y956.0821 Z-20.0000 F5000
G1 X889.1450 Y956.0821 Z-20.0000 F5000
G1 X889.1450 Y954.0794 Z-20.0000 F5000
G1 X884.1450 Y954.0794 Z-20.0000 F5000
G1 X884.1450 Y695.9917 Z-20.0000 F5000
G1 X889.1450 Y695.9917 Z-20.0000 F5000
G1 X889.1450 Y693.9887 Z-20.0000 F5000
G1 X871.4877 Y693.9887 Z-20.0000 F5000
G1 X866.1451 Y688.6464 Z-20.0000 F5000
G1 X866.1451 Y631.3342 Z-20.0000 F5000
G1 X871.4876 Y625.9918 Z-20.0000 F5000
G1 X889.1450 Y625.9918 Z-20.0000 F5000
G1 X889.1450 Y623.9890 Z-20.0000 F5000
G1 X884.1450 Y623.9890 Z-20.0000 F5000
G1 X884.1450 Y365.9011 Z-20.0000 F5000
G1 X889.1450 Y365.9011 Z-20.0000 F5000
G1 X889.1450 Y363.8980 Z-20.0000 F5000
G1 X871.4878 Y363.8980 Z-20.0000 F5000
G1 X866.1451 Y358.5562 Z-20.0000 F5000
G1 X866.1451 Y334.9002 Z-20.0000 F5000
G1 X913.1430 Y334.9002 Z-20.0000 F5000
G1 X913.1430 Y339.9000 Z-20.0000 F5000
G1 X915.1450 Y339.9000 Z-20.0000 F5000
G1 X915.1450 Y319.8983 Z-20.0000 F5000
G1 X913.1430 Y319.8983 Z-20.0000 F5000
G1 X913.1430 Y324.8978 Z-20.0000 F5000
G1 X866.1451 Y324.8978 Z-20.0000 F5000
G1 X866.1451 Y301.2440 Z-20.0000 F5000
G1 X871.4875 Y295.9013 Z-20.0000 F5000
G1 X889.1450 Y295.9013 Z-20.0000 F5000
G1 X889.1450 Y293.8985 Z-20.0000 F5000
G1 X884.1450 Y293.8985 Z-20.0000 F5000
G1 X884.1450 Y215.5627 Z-20.0000 F5000
G1 X884.1450 Y215.5627 Z-10.0000 F9999
G1 X884.1450 Y199.5647 Z-10.0000 F5000
G1 X884.1450 Y199.5647 Z-20.0000 F2500
G1 X884.1450 Y175.9004 Z-20.0000 F5000
G1 X907.1450 Y175.9004 Z-20.0000 F5000
G1 X907.1450 Y173.8975 Z-20.0000 F5000
G1 X902.1450 Y173.8975 Z-20.0000 F5000
G1 X902.1450 Y65.9018 Z-20.0000 F5000
G1 X907.1450 Y65.9018 Z-20.0000 F5000
G1 X907.1450 Y63.8988 Z-20.0000 F5000
G1 X871.4877 Y63.8988 Z-20.0000 F5000
G1 X866.1451 Y58.5567 Z-20.0000 F5000
G1 X866.1451 Y25.9011 Z-20.0000 F5000
G1 X927.7837 Y25.9011 Z-20.0000 F5000
G1 X928.3327 Y25.8213 Z-20.0000 F5000
G1 X928.5921 Y25.7036 Z-20.0000 F5000
G1 X928.8098 Y25.5098 Z-20.0000 F5000
G1 X928.9566 Y25.2656 Z-20.0000 F5000
G1 X929.0252 Y24.9891 Z-20.0000 F5000
G1 X929.0081 Y24.6982 Z-20.0000 F5000
G1 X928.9076 Y24.4316 Z-20.0000 F5000
G1 X928.5767 Y23.9884 Z-20.0000 F5000
G1 X925.6478 Y21.0598 Z-20.0000 F5000
G1 X924.2615 Y19.2032 Z-20.0000 F5000
G1 X923.3441 Y16.6638 Z-20.0000 F5000
G1 X923.2204 Y13.9683 Z-20.0000 F5000
G1 X923.8624 Y11.4407 Z-20.0000 F5000
G1 X925.1956 Y9.1995 Z-20.0000 F5000
G1 X927.1895 Y7.3797 Z-20.0000 F5000
G1 X929.6343 Y6.2328 Z-20.0000 F5000
G1 X931.9272 Y5.9010 Z-20.0000 F5000
G1 X958.3606 Y5.9010 Z-20.0000 F5000
G1 X960.6536 Y6.2328 Z-20.0000 F5000
G1 X963.0983 Y7.3797 Z-20.0000 F5000
G1 X965.0923 Y9.1995 Z-20.0000 F5000
G1 X966.4255 Y11.4407 Z-20.0000 F5000
G1 X967.0674 Y13.9683 Z-20.0000 F5000
G1 X966.9438 Y16.6638 Z-20.0000 F5000
G1 X966.0263 Y19.2032 Z-20.0000 F5000
G1 X964.6400 Y21.0598 Z-20.0000 F5000
G1 X961.7111 Y23.9884 Z-20.0000 F5000
G1 X961.3802 Y24.4316 Z-20.0000 F5000
G1 X961.2797 Y24.6982 Z-20.0000 F5000
G1 X961.2627 Y24.9891 Z-20.0000 F5000
G1 X961.3313 Y25.2656 Z-20.0000 F5000
G1 X961.4781 Y25.5098 Z-20.0000 F5000
G1 X961.6957 Y25.7036 Z-20.0000 F5000
G1 X961.9551 Y25.8213 Z-20.0000 F5000
G1 X962.5041 Y25.9011 Z-20.0000 F5000
G1 X1024.1427 Y25.9011 Z-20.0000 F5000
G1 X1024.1427 Y58.5567 Z-20.0000 F5000
G1 X1018.8001 Y63.8988 Z-20.0000 F5000
G1 X983.1429 Y63.8988 Z-20.0000 F5000
G1 X983.1429 Y65.9018 Z-20.0000 F5000
G1 X988.1428 Y65.9018 Z-20.0000 F5000
G1 X988.1453 Y173.8975 Z-20.0000 F5000
G1 X983.1452 Y173.8975 Z-20.0000 F5000
G1 X983.1452 Y175.9004 Z-20.0000 F5000
G1 X1006.1428 Y175.9004 Z-20.0000 F5000
G1 X1006.1428 Y201.6586 Z-20.0000 F5000
G1 X1006.1428 Y201.6586 Z-10.0000 F9999
G1 X1006.1428 Y217.6566 Z-10.0000 F5000
G1 X1006.1428 Y217.6566 Z-20.0000 F2500
G1 X1006.1428 Y293.8985 Z-20.0000 F5000
G1 X1001.1428 Y293.8985 Z-20.0000 F5000
G1 X1001.1428 Y295.9013 Z-20.0000 F5000
G1 X1018.8003 Y295.9013 Z-20.0000 F5000
G1 X1024.1427 Y301.2440 Z-20.0000 F5000
G1 X1024.1427 Y324.8978 Z-20.0000 F5000
G1 X977.1449 Y324.8978 Z-20.0000 F5000
G1 X977.1449 Y319.8983 Z-20.0000 F5000
G1 X975.1429 Y319.8983 Z-20.0000 F5000
G1 X975.1429 Y339.9000 Z-20.0000 F5000
G1 X977.1449 Y339.9000 Z-20.0000 F5000
G1 X977.1449 Y334.9002 Z-20.0000 F5000
G1 X1024.1427 Y334.9002 Z-20.0000 F5000
G1 X1024.1427 Y358.5562 Z-20.0000 F5000
G1 X1018.8000 Y363.8980 Z-20.0000 F5000
G1 X1001.1428 Y363.8980 Z-20.0000 F5000
G1 X1001.1428 Y365.9011 Z-20.0000 F5000
G1 X1006.1428 Y365.9011 Z-20.0000 F5000
G1 X1006.1428 Y623.9890 Z-20.0000 F5000
G1 X1001.1428 Y623.9890 Z-20.0000 F5000
G1 X1001.1428 Y625.9918 Z-20.0000 F5000
G1 X1018.8002 Y625.9918 Z-20.0000 F5000
G1 X1024.1427 Y631.3342 Z-20.0000 F5000
G1 X1024.1427 Y688.6464 Z-20.0000 F5000
G1 X1018.8002 Y693.9887 Z-20.0000 F5000
G1 X1001.1428 Y693.9887 Z-20.0000 F5000
G1 X1001.1428 Y695.9917 Z-20.0000 F5000
G1 X1006.1428 Y695.9917 Z-20.0000 F5000
G1 X1006.1428 Y954.0794 Z-20.0000 F5000
G1 X1001.1428 Y954.0794 Z-20.0000 F5000
G1 X1001.1428 Y956.0821 Z-20.0000 F5000
G1 X1018.8002 Y956.0821 Z-20.0000 F5000
G1 X1024.1427 Y961.4245 Z-20.0000 F5000
G1 X1024.1427 Y985.0806 Z-20.0000 F5000
G1 X977.1449 Y985.0806 Z-20.0000 F5000
G1 X977.1449 Y980.0809 Z-20.0000 F5000
G1 X975.1429 Y980.0809 Z-20.0000 F5000
G1 X975.1429 Y1000.0825 Z-20.0000 F5000
G1 X977.1449 Y1000.0825 Z-20.0000 F5000
G1 X977.1449 Y995.0828 Z-20.0000 F5000
G1 X1024.1427 Y995.0828 Z-20.0000 F5000
G1 X1024.1427 Y1018.7366 Z-20.0000 F5000
G1 X1018.8007 Y1024.0809 Z-20.0000 F5000
G1 X1001.1428 Y1024.0809 Z-20.0000 F5000
G1 X1001.1428 Y1026.0823 Z-20.0000 F5000
G1 X1006.1428 Y1026.0823 Z-20.0000 F5000
G1 X1006.1428 Y1144.0803 Z-20.0000 F5000
G1 X983.1452 Y1144.0803 Z-20.0000 F5000
G1 X983.1452 Y1146.0831 Z-20.0000 F5000
G1 X988.1453 Y1146.0831 Z-20.0000 F5000
G1 X988.1428 Y1254.0789 Z-20.0000 F5000
G1 X983.1429 Y1254.0789 Z-20.0000 F5000
G1 X983.1429 Y1256.0818 Z-20.0000 F5000
G1 X1018.8002 Y1256.0818 Z-20.0000 F5000
G1 X1024.1427 Y1261.4242 Z-20.0000 F5000
G1 X1024.1427 Y1318.7367 Z-20.0000 F5000
G1 X1018.8001 Y1324.0786 Z-20.0000 F5000
G1 X983.1429 Y1324.0786 Z-20.0000 F5000
G1 X983.1429 Y1326.0816 Z-20.0000 F5000
G1 X988.1429 Y1326.0816 Z-20.0000 F5000
G1 X988.1429 Y1554.0786 Z-20.0000 F5000
G1 X983.1429 Y1554.0786 Z-20.0000 F5000
G1 X983.1429 Y1556.0812 Z-20.0000 F5000
G1 X1018.8002 Y1556.0812 Z-20.0000 F5000
G1 X1024.1427 Y1561.4238 Z-20.0000 F5000
G1 X1024.1427 Y1580.9995 Z-20.0000 F5000
G1 X1024.1427 Y1580.9995 Z-10.0000 F9999
G1 X1024.1427 Y1596.9975 Z-10.0000 F5000
G1 X1024.1427 Y1596.9975 Z-20.0000 F2500
G1 X1024.1427 Y1618.7362 Z-20.0000 F5000
G1 X1018.8001 Y1624.0784 Z-20.0000 F5000
G1 X983.1429 Y1624.0784 Z-20.0000 F5000
G1 X983.1429 Y1626.0813 Z-20.0000 F5000
G1 X988.1429 Y1626.0813 Z-20.0000 F5000
G1 X988.1429 Y1779.6390 Z-20.0000 F5000
G1 X988.1429 Y1779.6390 Z10.0000 F9999
G1 X1160.1917 Y1779.6390 Z10.0000 F9999
G1 X1160.1917 Y1779.6390 Z1.0000 F2500
G1 X1160.1917 Y1818.6102 Z-9.5000 F2500
G1 X1160.1917 Y1779.6390 Z-20.0000 F2500
G1 X1160.1917 Y1933.1967 Z-20.0000 F5000
G1 X1074.1938 Y1933.1967 Z-20.0000 F5000
G1 X1074.1938 Y1626.0813 Z-20.0000 F5000
G1 X1079.1938 Y1626.0813 Z-20.0000 F5000
G1 X1079.1938 Y1624.0784 Z-20.0000 F5000
G1 X1043.5365 Y1624.0784 Z-20.0000 F5000
G1 X1038.1939 Y1618.7362 Z-20.0000 F5000
G1 X1038.1939 Y1561.4238 Z-20.0000 F5000
G1 X1043.5364 Y1556.0812 Z-20.0000 F5000
G1 X1079.1938 Y1556.0812 Z-20.0000 F5000
G1 X1079.1938 Y1554.0786 Z-20.0000 F5000
G1 X1074.1938 Y1554.0786 Z-20.0000 F5000
G1 X1074.1938 Y1326.0816 Z-20.0000 F5000
G1 X1079.1938 Y1326.0816 Z-20.0000 F5000
G1 X1079.1938 Y1324.0786 Z-20.0000 F5000
G1 X1043.5366 Y1324.0786 Z-20.0000 F5000
G1 X1038.1939 Y1318.7367 Z-20.0000 F5000
G1 X1038.1939 Y1261.4242 Z-20.0000 F5000
G1 X1043.5364 Y1256.0818 Z-20.0000 F5000
G1 X1079.1938 Y1256.0818 Z-20.0000 F5000
G1 X1079.1938 Y1254.0789 Z-20.0000 F5000
G1 X1074.1938 Y1254.0789 Z-20.0000 F5000
G1 X1074.1938 Y1146.0831 Z-20.0000 F5000
G1 X1079.1938 Y1146.0831 Z-20.0000 F5000
G1 X1079.1938 Y1144.0803 Z-20.0000 F5000
G1 X1056.1939 Y1144.0803 Z-20.0000 F5000
G1 X1056.1939 Y1026.0823 Z-20.0000 F5000
G1 X1061.1939 Y1026.0823 Z-20.0000 F5000
G1 X1061.1939 Y1024.0809 Z-20.0000 F5000
G1 X1043.5359 Y1024.0809 Z-20.0000 F5000
G1 X1038.1939 Y1018.7366 Z-20.0000 F5000
G1 X1038.1939 Y995.0828 Z-20.0000 F5000
G1 X1085.1918 Y995.0828 Z-20.0000 F5000
G1 X1085.1918 Y1000.0825 Z-20.0000 F5000
G1 X1087.1938 Y1000.0825 Z-20.0000 F5000
G1 X1087.1938 Y980.0809 Z-20.0000 F5000
G1 X1085.1918 Y980.0809 Z-20.0000 F5000
G1 X1085.1918 Y985.0806 Z-20.0000 F5000
G1 X1038.1939 Y985.0806 Z-20.0000 F5000
G1 X1038.1939 Y961.4245 Z-20.0000 F5000
G1 X1043.5365 Y956.0821 Z-20.0000 F5000
G1 X1061.1939 Y956.0821 Z-20.0000 F5000
G1 X1061.1939 Y954.0794 Z-20.0000 F5000
G1 X1056.1939 Y954.0794 Z-20.0000 F5000
G1 X1056.1939 Y695.9917 Z-20.0000 F5000
G1 X1061.1939 Y695.9917 Z-20.0000 F5000
G1 X1061.1939 Y693.9887 Z-20.0000 F5000
G1 X1043.5365 Y693.9887 Z-20.0000 F5000
G1 X1038.1939 Y688.6464 Z-20.0000 F5000
G1 X1038.1939 Y631.3342 Z-20.0000 F5000
G1 X1043.5364 Y625.9918 Z-20.0000 F5000
G1 X1061.1939 Y625.9918 Z-20.0000 F5000
G1 X1061.1939 Y623.9890 Z-20.0000 F5000
G1 X1056.1939 Y623.9890 Z-20.0000 F5000
G1 X1056.1939 Y365.9011 Z-20.0000 F5000
G1 X1061.1939 Y365.9011 Z-20.0000 F5000
G1 X1061.1939 Y363.8980 Z-20.0000 F5000
G1 X1043.5366 Y363.8980 Z-20.0000 F5000
G1 X1038.1939 Y358.5562 Z-20.0000 F5000
G1 X1038.1939 Y334.9002 Z-20.0000 F5000
G1 X1085.1918 Y334.9002 Z-20.0000 F5000
G1 X1085.1918 Y339.9000 Z-20.0000 F5000
G1 X1087.1938 Y339.9000 Z-20.0000 F5000
G1 X1087.1938 Y319.8983 Z-20.0000 F5000
G1 X1085.1918 Y319.8983 Z-20.0000 F5000
G1 X1085.1918 Y324.8978 Z-20.0000 F5000
G1 X1038.1939 Y324.8978 Z-20.0000 F5000
G1 X1038.1939 Y301.2440 Z-20.0000 F5000
G1 X1043.5364 Y295.9013 Z-20.0000 F5000
G1 X1061.1939 Y295.9013 Z-20.0000 F5000
G1 X1061.1939 Y293.8985 Z-20.0000 F5000
G1 X1056.1939 Y293.8985 Z-20.0000 F5000
G1 X1056.1939 Y175.9004 Z-20.0000 F5000
G1 X1079.1938 Y175.9004 Z-20.0000 F5000
G1 X1079.1938 Y173.8975 Z-20.0000 F5000
G1 X1074.1938 Y173.8975 Z-20.0000 F5000
G1 X1074.1938 Y65.9018 Z-20.0000 F5000
G1 X1079.1938 Y65.9018 Z-20.0000 F5000
G1 X1079.1938 Y63.8988 Z-20.0000 F5000
G1 X1043.5365 Y63.8988 Z-20.0000 F5000
G1 X1038.1939 Y58.5567 Z-20.0000 F5000
G1 X1038.1939 Y25.9011 Z-20.0000 F5000
G1 X1099.8325 Y25.9011 Z-20.0000 F5000
G1 X1100.3815 Y25.8213 Z-20.0000 F5000
G1 X1100.6409 Y25.7036 Z-20.0000 F5000
G1 X1100.8586 Y25.5098 Z-20.0000 F5000
G1 X1101.0054 Y25.2656 Z-20.0000 F5000
G1 X1101.0740 Y24.9891 Z-20.0000 F5000
G1 X1101.0569 Y24.6982 Z-20.0000 F5000
G1 X1100.9565 Y24.4316 Z-20.0000 F5000
G1 X1100.6255 Y23.9884 Z-20.0000 F5000
G1 X1097.6967 Y21.0598 Z-20.0000 F5000
G1 X1096.3104 Y19.2032 Z-20.0000 F5000
G1 X1095.3929 Y16.6638 Z-20.0000 F5000
G1 X1095.2693 Y13.9683 Z-20.0000 F5000
G1 X1095.9112 Y11.4407 Z-20.0000 F5000
G1 X1097.2444 Y9.1995 Z-20.0000 F5000
G1 X1099.2383 Y7.3797 Z-20.0000 F5000
G1 X1101.6831 Y6.2328 Z-20.0000 F5000
G1 X1103.9760 Y5.9010 Z-20.0000 F5000
G1 X1130.4094 Y5.9010 Z-20.0000 F5000
G1 X1132.7024 Y6.2328 Z-20.0000 F5000
G1 X1135.1472 Y7.3797 Z-20.0000 F5000
G1 X1137.1411 Y9.1995 Z-20.0000 F5000
G1 X1138.4743 Y11.4407 Z-20.0000 F5000
G1 X1139.1162 Y13.9683 Z-20.0000 F5000
G1 X1138.9926 Y16.6638 Z-20.0000 F5000
G1 X1138.0751 Y19.2032 Z-20.0000 F5000
G1 X1136.6888 Y21.0598 Z-20.0000 F5000
G1 X1133.7599 Y23.9884 Z-20.0000 F5000
G1 X1133.4290 Y24.4316 Z-20.0000 F5000
G1 X1133.3286 Y24.6982 Z-20.0000 F5000
G1 X1133.3115 Y24.9891 Z-20.0000 F5000
G1 X1133.3801 Y25.2656 Z-20.0000 F5000
G1 X1133.5269 Y25.5098 Z-20.0000 F5000
G1 X1133.7445 Y25.7036 Z-20.0000 F5000
G1 X1134.0040 Y25.8213 Z-20.0000 F5000
G1 X1134.5530 Y25.9011 Z-20.0000 F5000
G1 X1196.1915 Y25.9011 Z-20.0000 F5000
G1 X1196.1915 Y58.5567 Z-20.0000 F5000
G1 X1190.8489 Y63.8988 Z-20.0000 F5000
G1 X1155.1917 Y63.8988 Z-20.0000 F5000
G1 X1155.1917 Y65.9018 Z-20.0000 F5000
G1 X1160.1916 Y65.9018 Z-20.0000 F5000
G1 X1160.1941 Y173.8975 Z-20.0000 F5000
G1 X1155.1940 Y173.8975 Z-20.0000 F5000
G1 X1155.1940 Y175.9004 Z-20.0000 F5000
G1 X1178.1916 Y175.9004 Z-20.0000 F5000
G1 X1178.1916 Y293.8985 Z-20.0000 F5000
G1 X1173.1916 Y293.8985 Z-20.0000 F5000
G1 X1173.1916 Y295.9013 Z-20.0000 F5000
G1 X1190.8491 Y295.9013 Z-20.0000 F5000
G1 X1196.1915 Y301.2440 Z-20.0000 F5000
G1 X1196.1915 Y324.8978 Z-20.0000 F5000
G1 X1149.1937 Y324.8978 Z-20.0000 F5000
G1 X1149.1937 Y319.8983 Z-20.0000 F5000
G1 X1147.1917 Y319.8983 Z-20.0000 F5000
G1 X1147.1917 Y339.9000 Z-20.0000 F5000
G1 X1149.1937 Y339.9000 Z-20.0000 F5000
G1 X1149.1937 Y334.9002 Z-20.0000 F5000
G1 X1196.1915 Y334.9002 Z-20.0000 F5000
G1 X1196.1915 Y358.5562 Z-20.0000 F5000
G1 X1190.8488 Y363.8980 Z-20.0000 F5000
G1 X1173.1916 Y363.8980 Z-20.0000 F5000
G1 X1173.1916 Y365.9011 Z-20.0000 F5000
G1 X1178.1916 Y365.9011 Z-20.0000 F5000
G1 X1178.1916 Y623.9890 Z-20.0000 F5000
G1 X1173.1916 Y623.9890 Z-20.0000 F5000
G1 X1173.1916 Y625.9918 Z-20.0000 F5000
G1 X1190.8490 Y625.9918 Z-20.0000 F5000
G1 X1196.1915 Y631.3342 Z-20.0000 F5000
G1 X1196.1915 Y688.6464 Z-20.0000 F5000
G1 X1190.8490 Y693.9887 Z-20.0000 F5000
G1 X1173.1916 Y693.9887 Z-20.0000 F5000
G1 X1173.1916 Y695.9917 Z-20.0000 F5000
G1 X1178.1916 Y695.9917 Z-20.0000 F5000
G1 X1178.1916 Y954.0794 Z-20.0000 F5000
G1 X1173.1916 Y954.0794 Z-20.0000 F5000
G1 X1173.1916 Y956.0821 Z-20.0000 F5000
G1 X1190.8490 Y956.0821 Z-20.0000 F5000
G1 X1196.1915 Y961.4245 Z-20.0000 F5000
G1 X1196.1915 Y985.0806 Z-20.0000 F5000
G1 X1149.1937 Y985.0806 Z-20.0000 F5000
G1 X1149.1937 Y980.0809 Z-20.0000 F5000
G1 X1147.1917 Y980.0809 Z-20.0000 F5000
G1 X1147.1917 Y1000.0825 Z-20.0000 F5000
G1 X1149.1937 Y1000.0825 Z-20.0000 F5000
G1 X1149.1937 Y995.0828 Z-20.0000 F5000
G1 X1196.1915 Y995.0828 Z-20.0000 F5000
G1 X1196.1915 Y1018.7366 Z-20.0000 F5000
G1 X1190.8496 Y1024.0809 Z-20.0000 F5000
G1 X1173.1916 Y1024.0809 Z-20.0000 F5000
G1 X1173.1916 Y1026.0823 Z-20.0000 F5000
G1 X1178.1916 Y1026.0823 Z-20.0000 F5000
G1 X1178.1916 Y1144.0803 Z-20.0000 F5000
G1 X1155.1940 Y1144.0803 Z-20.0000 F5000
G1 X1155.1940 Y1146.0831 Z-20.0000 F5000
G1 X1160.1941 Y1146.0831 Z-20.0000 F5000
G1 X1160.1916 Y1254.0789 Z-20.0000 F5000
G1 X1155.1917 Y1254.0789 Z-20.0000 F5000
G1 X1155.1917 Y1256.0818 Z-20.0000 F5000
G1 X1190.8490 Y1256.0818 Z-20.0000 F5000
G1 X1196.1915 Y1261.4242 Z-20.0000 F5000
G1 X1196.1915 Y1318.7367 Z-20.0000 F5000
G1 X1190.8489 Y1324.0786 Z-20.0000 F5000
G1 X1155.1917 Y1324.0786 Z-20.0000 F5000
G1 X1155.1917 Y1326.0816 Z-20.0000 F5000
G1 X1160.1917 Y1326.0816 Z-20.0000 F5000
G1 X1160.1917 Y1554.0786 Z-20.0000 F5000
G1 X1155.1917 Y1554.0786 Z-20.0000 F5000
G1 X1155.1917 Y1556.0812 Z-20.0000 F5000
G1 X1190.8491 Y1556.0812 Z-20.0000 F5000
G1 X1196.1915 Y1561.4238 Z-20.0000 F5000
G1 X1196.1915 Y1618.7362 Z-20.0000 F5000
G1 X1190.8490 Y1624.0784 Z-20.0000 F5000
G1 X1155.1917 Y1624.0784 Z-20.0000 F5000
G1 X1155.1917 Y1626.0813 Z-20.0000 F5000
G1 X1160.1917 Y1626.0813 Z-20.0000 F5000
G1 X1160.1917 Y1779.6390 Z-20.0000 F5000
G1 X1160.1917 Y1779.6390 Z10.0000 F9999
G1 X127.8988 Y1379.8972 Z10.0000 F9999
G1 X127.8988 Y1379.8972 Z1.0000 F2500
G1 X127.8988 Y1418.8683 Z-9.5000 F2500
G1 X127.8988 Y1379.8972 Z-20.0000 F2500
G1 X127.8988 Y1493.8959 Z-20.0000 F5000
G1 X122.8988 Y1493.8959 Z-20.0000 F5000
G1 X122.8988 Y1495.8979 Z-20.0000 F5000
G1 X158.5562 Y1495.8979 Z-20.0000 F5000
G1 X163.8986 Y1501.2405 Z-20.0000 F5000
G1 X163.8986 Y1558.5532 Z-20.0000 F5000
G1 X158.5562 Y1563.8958 Z-20.0000 F5000
G1 X122.8988 Y1563.8958 Z-20.0000 F5000
G1 X122.8988 Y1565.8978 Z-20.0000 F5000
G1 X127.8988 Y1565.8978 Z-20.0000 F5000
G1 X127.8988 Y1793.8953 Z-20.0000 F5000
G1 X122.8988 Y1793.8953 Z-20.0000 F5000
G1 X122.8988 Y1795.8973 Z-20.0000 F5000
G1 X158.5562 Y1795.8973 Z-20.0000 F5000
G1 X163.8986 Y1801.2399 Z-20.0000 F5000
G1 X163.8986 Y1858.5526 Z-20.0000 F5000
G1 X158.5562 Y1863.8952 Z-20.0000 F5000
G1 X122.8988 Y1863.8952 Z-20.0000 F5000
G1 X122.8988 Y1865.8972 Z-20.0000 F5000
G1 X127.8988 Y1865.8972 Z-20.0000 F5000
G1 X127.8988 Y1931.8951 Z-20.0000 F5000
G1 X41.9009 Y1931.8951 Z-20.0000 F5000
G1 X41.9009 Y1865.8972 Z-20.0000 F5000
G1 X46.9009 Y1865.8972 Z-20.0000 F5000
G1 X46.9009 Y1863.8952 Z-20.0000 F5000
G1 X11.2435 Y1863.8952 Z-20.0000 F5000
G1 X5.9010 Y1858.5526 Z-20.0000 F5000
G1 X5.9010 Y1801.2399 Z-20.0000 F5000
G1 X11.2435 Y1795.8973 Z-20.0000 F5000
G1 X46.9009 Y1795.8973 Z-20.0000 F5000
G1 X46.9009 Y1793.8953 Z-20.0000 F5000
G1 X41.9009 Y1793.8953 Z-20.0000 F5000
G1 X41.9009 Y1565.8978 Z-20.0000 F5000
G1 X46.9009 Y1565.8978 Z-20.0000 F5000
G1 X46.9009 Y1563.8958 Z-20.0000 F5000
G1 X11.2435 Y1563.8958 Z-20.0000 F5000
G1 X5.9010 Y1558.5532 Z-20.0000 F5000
G1 X5.9010 Y1501.2405 Z-20.0000 F5000
G1 X11.2435 Y1495.8979 Z-20.0000 F5000
G1 X46.9009 Y1495.8979 Z-20.0000 F5000
G1 X46.9009 Y1493.8959 Z-20.0000 F5000
G1 X41.9009 Y1493.8959 Z-20.0000 F5000
G1 X41.9009 Y1265.8984 Z-20.0000 F5000
G1 X46.9009 Y1265.8984 Z-20.0000 F5000
G1 X46.9009 Y1263.8964 Z-20.0000 F5000
G1 X11.2435 Y1263.8964 Z-20.0000 F5000
G1 X5.9010 Y1258.5539 Z-20.0000 F5000
G1 X5.9010 Y1201.2411 Z-20.0000 F5000
G1 X11.2435 Y1195.8986 Z-20.0000 F5000
G1 X46.9009 Y1195.8986 Z-20.0000 F5000
G1 X46.9009 Y1193.8966 Z-20.0000 F5000
G1 X41.9009 Y1193.8966 Z-20.0000 F5000
G1 X41.9009 Y1085.8987 Z-20.0000 F5000
G1 X46.9009 Y1085.8987 Z-20.0000 F5000
G1 X46.9009 Y1083.8968 Z-20.0000 F5000
G1 X23.9009 Y1083.8968 Z-20.0000 F5000
G1 X23.9009 Y965.8990 Z-20.0000 F5000
G1 X28.9009 Y965.8990 Z-20.0000 F5000
G1 X28.9009 Y963.8970 Z-20.0000 F5000
G1 X11.2435 Y963.8970 Z-20.0000 F5000
G1 X5.9010 Y958.5545 Z-20.0000 F5000
G1 X5.9010 Y934.8990 Z-20.0000 F5000
G1 X52.8989 Y934.8990 Z-20.0000 F5000
G1 X52.8989 Y939.8990 Z-20.0000 F5000
G1 X54.9009 Y939.8990 Z-20.0000 F5000
G1 X54.9009 Y919.8970 Z-20.0000 F5000
G1 X52.8989 Y919.8970 Z-20.0000 F5000
G1 X52.8989 Y924.8970 Z-20.0000 F5000
G1 X5.9010 Y924.8970 Z-20.0000 F5000
G1 X5.9010 Y901.2416 Z-20.0000 F5000
G1 X11.2435 Y895.8992 Z-20.0000 F5000
G1 X28.9009 Y895.8992 Z-20.0000 F5000
G1 X28.9009 Y893.8972 Z-20.0000 F5000
G1 X23.9009 Y893.8972 Z-20.0000 F5000
G1 X23.9009 Y665.8997 Z-20.0000 F5000
G1 X28.9009 Y665.8997 Z-20.0000 F5000
G1 X28.9009 Y663.8975 Z-20.0000 F5000
G1 X11.2435 Y663.8975 Z-20.0000 F5000
G1 X5.9010 Y658.5551 Z-20.0000 F5000
G1 X5.9010 Y601.2424 Z-20.0000 F5000
G1 X11.2435 Y595.8998 Z-20.0000 F5000
G1 X28.9009 Y595.8998 Z-20.0000 F5000
G1 X28.9009 Y593.8978 Z-20.0000 F5000
G1 X23.9009 Y593.8978 Z-20.0000 F5000
G1 X23.9009 Y365.9003 Z-20.0000 F5000
G1 X28.9009 Y365.9003 Z-20.0000 F5000
G1 X28.9009 Y363.8983 Z-20.0000 F5000
G1 X11.2435 Y363.8983 Z-20.0000 F5000
G1 X5.9010 Y358.5557 Z-20.0000 F5000
G1 X5.9010 Y334.9003 Z-20.0000 F5000
G1 X52.8989 Y334.9003 Z-20.0000 F5000
G1 X52.8989 Y339.9003 Z-20.0000 F5000
G1 X54.9009 Y339.9003 Z-20.0000 F5000
G1 X54.9009 Y319.8983 Z-20.0000 F5000
G1 X52.8989 Y319.8983 Z-20.0000 F5000
G1 X52.8989 Y324.8983 Z-20.0000 F5000
G1 X5.9010 Y324.8983 Z-20.0000 F5000
G1 X5.9010 Y301.2430 Z-20.0000 F5000
G1 X11.2434 Y295.9003 Z-20.0000 F5000
G1 X28.9009 Y295.9003 Z-20.0000 F5000
G1 X28.9009 Y293.8984 Z-20.0000 F5000
G1 X23.9009 Y293.8984 Z-20.0000 F5000
G1 X23.9009 Y175.9006 Z-20.0000 F5000
G1 X46.9009 Y175.9006 Z-20.0000 F5000
G1 X46.9009 Y173.8988 Z-20.0000 F5000
G1 X41.9009 Y173.8988 Z-20.0000 F5000
G1 X41.9009 Y65.9008 Z-20.0000 F5000
G1 X46.9009 Y65.9008 Z-20.0000 F5000
G1 X46.9009 Y63.8989 Z-20.0000 F5000
G1 X11.2434 Y63.8989 Z-20.0000 F5000
G1 X5.9010 Y58.5561 Z-20.0000 F5000
G1 X5.9010 Y25.9008 Z-20.0000 F5000
G1 X67.5405 Y25.9008 Z-20.0000 F5000
G1 X68.0880 Y25.8214 Z-20.0000 F5000
G1 X68.3475 Y25.7038 Z-20.0000 F5000
G1 X68.5653 Y25.5100 Z-20.0000 F5000
G1 X68.7122 Y25.2658 Z-20.0000 F5000
G1 X68.7810 Y24.9893 Z-20.0000 F5000
G1 X68.7641 Y24.6983 Z-20.0000 F5000
G1 X68.6638 Y24.4316 Z-20.0000 F5000
G1 X68.3326 Y23.9881 Z-20.0000 F5000
G1 X65.4038 Y21.0591 Z-20.0000 F5000
G1 X64.0178 Y19.2032 Z-20.0000 F5000
G1 X63.1000 Y16.6648 Z-20.0000 F5000
G1 X62.9764 Y13.9677 Z-20.0000 F5000
G1 X63.6183 Y11.4403 Z-20.0000 F5000
G1 X64.9519 Y9.1985 Z-20.0000 F5000
G1 X66.9461 Y7.3797 Z-20.0000 F5000
G1 X69.3897 Y6.2335 Z-20.0000 F5000
G1 X71.6825 Y5.9010 Z-20.0000 F5000
G1 X98.1171 Y5.9010 Z-20.0000 F5000
G1 X100.4100 Y6.2335 Z-20.0000 F5000
G1 X102.8535 Y7.3797 Z-20.0000 F5000
G1 X104.8478 Y9.1985 Z-20.0000 F5000
G1 X106.1813 Y11.4403 Z-20.0000 F5000
G1 X106.8233 Y13.9677 Z-20.0000 F5000
G1 X106.6997 Y16.6648 Z-20.0000 F5000
G1 X105.7818 Y19.2032 Z-20.0000 F5000
G1 X104.3959 Y21.0591 Z-20.0000 F5000
G1 X101.4670 Y23.9881 Z-20.0000 F5000
G1 X101.1359 Y24.4316 Z-20.0000 F5000
G1 X101.0356 Y24.6983 Z-20.0000 F5000
G1 X101.0187 Y24.9893 Z-20.0000 F5000
G1 X101.0874 Y25.2658 Z-20.0000 F5000
G1 X101.2344 Y25.5100 Z-20.0000 F5000
G1 X101.4521 Y25.7038 Z-20.0000 F5000
G1 X101.7116 Y25.8214 Z-20.0000 F5000
G1 X102.2591 Y25.9008 Z-20.0000 F5000
G1 X163.8986 Y25.9008 Z-20.0000 F5000
G1 X163.8986 Y58.5561 Z-20.0000 F5000
G1 X158.5562 Y63.8989 Z-20.0000 F5000
G1 X122.8988 Y63.8989 Z-20.0000 F5000
G1 X122.8988 Y65.9008 Z-20.0000 F5000
G1 X127.8988 Y65.9008 Z-20.0000 F5000
G1 X127.8988 Y173.8988 Z-20.0000 F5000
G1 X122.8988 Y173.8988 Z-20.0000 F5000
G1 X122.8988 Y175.9006 Z-20.0000 F5000
G1 X145.8987 Y175.9006 Z-20.0000 F5000
G1 X145.8987 Y293.8984 Z-20.0000 F5000
G1 X140.8987 Y293.8984 Z-20.0000 F5000
G1 X140.8987 Y295.9003 Z-20.0000 F5000
G1 X158.5562 Y295.9003 Z-20.0000 F5000
G1 X163.8986 Y301.2430 Z-20.0000 F5000
G1 X163.8986 Y324.8983 Z-20.0000 F5000
G1 X116.9008 Y324.8983 Z-20.0000 F5000
G1 X116.9008 Y319.8983 Z-20.0000 F5000
G1 X114.8988 Y319.8983 Z-20.0000 F5000
G1 X114.8988 Y339.9003 Z-20.0000 F5000
G1 X116.9008 Y339.9003 Z-20.0000 F5000
G1 X116.9008 Y334.9003 Z-20.0000 F5000
G1 X163.8986 Y334.9003 Z-20.0000 F5000
G1 X163.8986 Y358.5557 Z-20.0000 F5000
G1 X158.5562 Y363.8983 Z-20.0000 F5000
G1 X140.8987 Y363.8983 Z-20.0000 F5000
G1 X140.8987 Y365.9003 Z-20.0000 F5000
G1 X145.8987 Y365.9003 Z-20.0000 F5000
G1 X145.8987 Y593.8978 Z-20.0000 F5000
G1 X140.8987 Y593.8978 Z-20.0000 F5000
G1 X140.8987 Y595.8998 Z-20.0000 F5000
G1 X158.5562 Y595.8998 Z-20.0000 F5000
G1 X163.8986 Y601.2424 Z-20.0000 F5000
G1 X163.8986 Y658.5551 Z-20.0000 F5000
G1 X158.5561 Y663.8975 Z-20.0000 F5000
G1 X140.8987 Y663.8975 Z-20.0000 F5000
G1 X140.8987 Y665.8997 Z-20.0000 F5000
G1 X145.8987 Y665.8997 Z-20.0000 F5000
G1 X145.8987 Y893.8972 Z-20.0000 F5000
G1 X140.8987 Y893.8972 Z-20.0000 F5000
G1 X140.8987 Y895.8992 Z-20.0000 F5000
G1 X158.5561 Y895.8992 Z-20.0000 F5000
G1 X163.8986 Y901.2416 Z-20.0000 F5000
G1 X163.8986 Y924.8970 Z-20.0000 F5000
G1 X116.9008 Y924.8970 Z-20.0000 F5000
G1 X116.9008 Y919.8970 Z-20.0000 F5000
G1 X114.8988 Y919.8970 Z-20.0000 F5000
G1 X114.8988 Y939.8990 Z-20.0000 F5000
G1 X116.9008 Y939.8990 Z-20.0000 F5000
G1 X116.9008 Y934.8990 Z-20.0000 F5000
G1 X163.8986 Y934.8990 Z-20.0000 F5000
G1 X163.8986 Y958.5545 Z-20.0000 F5000
G1 X158.5562 Y963.8970 Z-20.0000 F5000
G1 X140.8987 Y963.8970 Z-20.0000 F5000
G1 X140.8987 Y965.8990 Z-20.0000 F5000
G1 X145.8987 Y965.8990 Z-20.0000 F5000
G1 X145.8987 Y1083.8968 Z-20.0000 F5000
G1 X122.8988 Y1083.8968 Z-20.0000 F5000
G1 X122.8988 Y1085.8987 Z-20.0000 F5000
G1 X127.8988 Y1085.8987 Z-20.0000 F5000
G1 X127.8988 Y1193.8966 Z-20.0000 F5000
G1 X122.8988 Y1193.8966 Z-20.0000 F5000
G1 X122.8988 Y1195.8986 Z-20.0000 F5000
G1 X158.5562 Y1195.8986 Z-20.0000 F5000
G1 X163.8986 Y1201.2411 Z-20.0000 F5000
G1 X163.8986 Y1258.5539 Z-20.0000 F5000
G1 X158.5562 Y1263.8964 Z-20.0000 F5000
G1 X122.8988 Y1263.8964 Z-20.0000 F5000
G1 X122.8988 Y1265.8984 Z-20.0000 F5000
G1 X127.8988 Y1265.8984 Z-20.0000 F5000
G1 X127.8988 Y1379.8972 Z-20.0000 F5000
G1 X127.8988 Y1379.8972 Z10.0000 F9999
G1 X471.9964 Y1379.8972 Z10.0000 F9999
G1 X471.9964 Y1379.8972 Z1.0000 F2500
G1 X471.9964 Y1418.8683 Z-9.5000 F2500
G1 X471.9964 Y1379.8972 Z-20.0000 F2500
G1 X471.9964 Y1493.8959 Z-20.0000 F5000
G1 X466.9964 Y1493.8959 Z-20.0000 F5000
G1 X466.9964 Y1495.8979 Z-20.0000 F5000
G1 X502.6538 Y1495.8979 Z-20.0000 F5000
G1 X507.9963 Y1501.2405 Z-20.0000 F5000
G1 X507.9963 Y1558.5532 Z-20.0000 F5000
G1 X502.6538 Y1563.8958 Z-20.0000 F5000
G1 X466.9964 Y1563.8958 Z-20.0000 F5000
G1 X466.9964 Y1565.8978 Z-20.0000 F5000
G1 X471.9964 Y1565.8978 Z-20.0000 F5000
G1 X471.9964 Y1793.8953 Z-20.0000 F5000
G1 X466.9964 Y1793.8953 Z-20.0000 F5000
G1 X466.9964 Y1795.8973 Z-20.0000 F5000
G1 X502.6538 Y1795.8973 Z-20.0000 F5000
G1 X507.9963 Y1801.2399 Z-20.0000 F5000
G1 X507.9963 Y1858.5526 Z-20.0000 F5000
G1 X502.6538 Y1863.8952 Z-20.0000 F5000
G1 X466.9964 Y1863.8952 Z-20.0000 F5000
G1 X466.9964 Y1865.8972 Z-20.0000 F5000
G1 X471.9964 Y1865.8972 Z-20.0000 F5000
G1 X471.9964 Y1931.8951 Z-20.0000 F5000
G1 X385.9985 Y1931.8951 Z-20.0000 F5000
G1 X385.9985 Y1865.8972 Z-20.0000 F5000
G1 X390.9985 Y1865.8972 Z-20.0000 F5000
G1 X390.9985 Y1863.8952 Z-20.0000 F5000
G1 X355.3411 Y1863.8952 Z-20.0000 F5000
G1 X349.9986 Y1858.5526 Z-20.0000 F5000
G1 X349.9986 Y1801.2399 Z-20.0000 F5000
G1 X355.3411 Y1795.8973 Z-20.0000 F5000
G1 X390.9985 Y1795.8973 Z-20.0000 F5000
G1 X390.9985 Y1793.8953 Z-20.0000 F5000
G1 X385.9985 Y1793.8953 Z-20.0000 F5000
G1 X385.9985 Y1565.8978 Z-20.0000 F5000
G1 X390.9985 Y1565.8978 Z-20.0000 F5000
G1 X390.9985 Y1563.8958 Z-20.0000 F5000
G1 X355.3411 Y1563.8958 Z-20.0000 F5000
G1 X349.9986 Y1558.5532 Z-20.0000 F5000
G1 X349.9986 Y1501.2405 Z-20.0000 F5000
G1 X355.3411 Y1495.8979 Z-20.0000 F5000
G1 X390.9985 Y1495.8979 Z-20.0000 F5000
G1 X390.9985 Y1493.8959 Z-20.0000 F5000
G1 X385.9985 Y1493.8959 Z-20.0000 F5000
G1 X385.9985 Y1265.8984 Z-20.0000 F5000
G1 X390.9985 Y1265.8984 Z-20.0000 F5000
G1 X390.9985 Y1263.8964 Z-20.0000 F5000
G1 X355.3411 Y1263.8964 Z-20.0000 F5000
G1 X349.9986 Y1258.5539 Z-20.0000 F5000
G1 X349.9986 Y1201.2411 Z-20.0000 F5000
G1 X355.3411 Y1195.8986 Z-20.0000 F5000
G1 X390.9985 Y1195.8986 Z-20.0000 F5000
G1 X390.9985 Y1193.8966 Z-20.0000 F5000
G1 X385.9985 Y1193.8966 Z-20.0000 F5000
G1 X385.9985 Y1085.8987 Z-20.0000 F5000
G1 X390.9985 Y1085.8987 Z-20.0000 F5000
G1 X390.9985 Y1083.8968 Z-20.0000 F5000
G1 X367.9986 Y1083.8968 Z-20.0000 F5000
G1 X367.9986 Y965.8990 Z-20.0000 F5000
G1 X372.9986 Y965.8990 Z-20.0000 F5000
G1 X372.9986 Y963.8970 Z-20.0000 F5000
G1 X355.3411 Y963.8970 Z-20.0000 F5000
G1 X349.9986 Y958.5545 Z-20.0000 F5000
G1 X349.9986 Y934.8990 Z-20.0000 F5000
G1 X396.9965 Y934.8990 Z-20.0000 F5000
G1 X396.9965 Y939.8990 Z-20.0000 F5000
G1 X398.9985 Y939.8990 Z-20.0000 F5000
G1 X398.9985 Y919.8970 Z-20.0000 F5000
G1 X396.9965 Y919.8970 Z-20.0000 F5000
G1 X396.9965 Y924.8970 Z-20.0000 F5000
G1 X349.9986 Y924.8970 Z-20.0000 F5000
G1 X349.9986 Y901.2416 Z-20.0000 F5000
G1 X355.3412 Y895.8992 Z-20.0000 F5000
G1 X372.9986 Y895.8992 Z-20.0000 F5000
G1 X372.9986 Y893.8972 Z-20.0000 F5000
G1 X367.9986 Y893.8972 Z-20.0000 F5000
G1 X367.9986 Y665.8997 Z-20.0000 F5000
G1 X372.9986 Y665.8997 Z-20.0000 F5000
G1 X372.9986 Y663.8975 Z-20.0000 F5000
G1 X355.3412 Y663.8975 Z-20.0000 F5000
G1 X349.9986 Y658.5551 Z-20.0000 F5000
G1 X349.9986 Y601.2424 Z-20.0000 F5000
G1 X355.3411 Y595.8998 Z-20.0000 F5000
G1 X372.9986 Y595.8998 Z-20.0000 F5000
G1 X372.9986 Y593.8978 Z-20.0000 F5000
G1 X367.9986 Y593.8978 Z-20.0000 F5000
G1 X367.9986 Y365.9003 Z-20.0000 F5000
G1 X372.9986 Y365.9003 Z-20.0000 F5000
G1 X372.9986 Y363.8983 Z-20.0000 F5000
G1 X355.3411 Y363.8983 Z-20.0000 F5000
G1 X349.9986 Y358.5557 Z-20.0000 F5000
G1 X349.9986 Y334.9003 Z-20.0000 F5000
G1 X396.9965 Y334.9003 Z-20.0000 F5000
G1 X396.9965 Y339.9003 Z-20.0000 F5000
G1 X398.9985 Y339.9003 Z-20.0000 F5000
G1 X398.9985 Y319.8983 Z-20.0000 F5000
G1 X396.9965 Y319.8983 Z-20.0000 F5000
G1 X396.9965 Y324.8983 Z-20.0000 F5000
G1 X349.9986 Y324.8983 Z-20.0000 F5000
G1 X349.9986 Y301.2430 Z-20.0000 F5000
G1 X355.3411 Y295.9003 Z-20.0000 F5000
G1 X372.9986 Y295.9003 Z-20.0000 F5000
G1 X372.9986 Y293.8984 Z-20.0000 F5000
G1 X367.9986 Y293.8984 Z-20.0000 F5000
G1 X367.9986 Y175.9006 Z-20.0000 F5000
G1 X390.9985 Y175.9006 Z-20.0000 F5000
G1 X390.9985 Y173.8988 Z-20.0000 F5000
G1 X385.9985 Y173.8988 Z-20.0000 F5000
G1 X385.9985 Y65.9008 Z-20.0000 F5000
G1 X390.9985 Y65.9008 Z-20.0000 F5000
G1 X390.9985 Y63.8989 Z-20.0000 F5000
G1 X355.3411 Y63.8989 Z-20.0000 F5000
G1 X349.9986 Y58.5561 Z-20.0000 F5000
G1 X349.9986 Y25.9008 Z-20.0000 F5000
G1 X411.6381 Y25.9008 Z-20.0000 F5000
G1 X412.1857 Y25.8214 Z-20.0000 F5000
G1 X412.4452 Y25.7038 Z-20.0000 F5000
G1 X412.6629 Y25.5100 Z-20.0000 F5000
G1 X412.8099 Y25.2658 Z-20.0000 F5000
G1 X412.8786 Y24.9893 Z-20.0000 F5000
G1 X412.8617 Y24.6983 Z-20.0000 F5000
G1 X412.7614 Y24.4316 Z-20.0000 F5000
G1 X412.4302 Y23.9881 Z-20.0000 F5000
G1 X409.5014 Y21.0591 Z-20.0000 F5000
G1 X408.1154 Y19.2032 Z-20.0000 F5000
G1 X407.1976 Y16.6648 Z-20.0000 F5000
G1 X407.0740 Y13.9677 Z-20.0000 F5000
G1 X407.7159 Y11.4403 Z-20.0000 F5000
G1 X409.0495 Y9.1985 Z-20.0000 F5000
G1 X411.0438 Y7.3797 Z-20.0000 F5000
G1 X413.4873 Y6.2335 Z-20.0000 F5000
G1 X415.7801 Y5.9010 Z-20.0000 F5000
G1 X442.2148 Y5.9010 Z-20.0000 F5000
G1 X444.5076 Y6.2335 Z-20.0000 F5000
G1 X446.9511 Y7.3797 Z-20.0000 F5000
G1 X448.9454 Y9.1985 Z-20.0000 F5000
G1 X450.2790 Y11.4403 Z-20.0000 F5000
G1 X450.9209 Y13.9677 Z-20.0000 F5000
G1 X450.7973 Y16.6648 Z-20.0000 F5000
G1 X449.8795 Y19.2032 Z-20.0000 F5000
G1 X448.4935 Y21.0591 Z-20.0000 F5000
G1 X445.5647 Y23.9881 Z-20.0000 F5000
G1 X445.2335 Y24.4316 Z-20.0000 F5000
G1 X445.1332 Y24.6983 Z-20.0000 F5000
G1 X445.1163 Y24.9893 Z-20.0000 F5000
G1 X445.1851 Y25.2658 Z-20.0000 F5000
G1 X445.3320 Y25.5100 Z-20.0000 F5000
G1 X445.5497 Y25.7038 Z-20.0000 F5000
G1 X445.8093 Y25.8214 Z-20.0000 F5000
G1 X446.3568 Y25.9008 Z-20.0000 F5000
G1 X507.9963 Y25.9008 Z-20.0000 F5000
G1 X507.9963 Y58.5561 Z-20.0000 F5000
G1 X502.6538 Y63.8989 Z-20.0000 F5000
G1 X466.9964 Y63.8989 Z-20.0000 F5000
G1 X466.9964 Y65.9008 Z-20.0000 F5000
G1 X471.9964 Y65.9008 Z-20.0000 F5000
G1 X471.9964 Y173.8988 Z-20.0000 F5000
G1 X466.9964 Y173.8988 Z-20.0000 F5000
G1 X466.9964 Y175.9006 Z-20.0000 F5000
G1 X489.9963 Y175.9006 Z-20.0000 F5000
G1 X489.9963 Y293.8984 Z-20.0000 F5000
G1 X484.9963 Y293.8984 Z-20.0000 F5000
G1 X484.9963 Y295.9003 Z-20.0000 F5000
G1 X502.6538 Y295.9003 Z-20.0000 F5000
G1 X507.9963 Y301.2430 Z-20.0000 F5000
G1 X507.9963 Y324.8983 Z-20.0000 F5000
G1 X460.9984 Y324.8983 Z-20.0000 F5000
G1 X460.9984 Y319.8983 Z-20.0000 F5000
G1 X458.9964 Y319.8983 Z-20.0000 F5000
G1 X458.9964 Y339.9003 Z-20.0000 F5000
G1 X460.9984 Y339.9003 Z-20.0000 F5000
G1 X460.9984 Y334.9003 Z-20.0000 F5000
G1 X507.9963 Y334.9003 Z-20.0000 F5000
G1 X507.9963 Y358.5557 Z-20.0000 F5000
G1 X502.6538 Y363.8983 Z-20.0000 F5000
G1 X484.9963 Y363.8983 Z-20.0000 F5000
G1 X484.9963 Y365.9003 Z-20.0000 F5000
G1 X489.9963 Y365.9003 Z-20.0000 F5000
G1 X489.9963 Y593.8978 Z-20.0000 F5000
G1 X484.9963 Y593.8978 Z-20.0000 F5000
G1 X484.9963 Y595.8998 Z-20.0000 F5000
G1 X502.6538 Y595.8998 Z-20.0000 F5000
G1 X507.9963 Y601.2424 Z-20.0000 F5000
G1 X507.9963 Y658.5551 Z-20.0000 F5000
G1 X502.6537 Y663.8975 Z-20.0000 F5000
G1 X484.9963 Y663.8975 Z-20.0000 F5000
G1 X484.9963 Y665.8997 Z-20.0000 F5000
G1 X489.9963 Y665.8997 Z-20.0000 F5000
G1 X489.9963 Y893.8972 Z-20.0000 F5000
G1 X484.9963 Y893.8972 Z-20.0000 F5000
G1 X484.9963 Y895.8992 Z-20.0000 F5000
G1 X502.6537 Y895.8992 Z-20.0000 F5000
G1 X507.9963 Y901.2416 Z-20.0000 F5000
G1 X507.9963 Y924.8970 Z-20.0000 F5000
G1 X460.9984 Y924.8970 Z-20.0000 F5000
G1 X460.9984 Y919.8970 Z-20.0000 F5000
G1 X458.9964 Y919.8970 Z-20.0000 F5000
G1 X458.9964 Y939.8990 Z-20.0000 F5000
G1 X460.9984 Y939.8990 Z-20.0000 F5000
G1 X460.9984 Y934.8990 Z-20.0000 F5000
G1 X507.9963 Y934.8990 Z-20.0000 F5000
G1 X507.9963 Y958.5545 Z-20.0000 F5000
G1 X502.6538 Y963.8970 Z-20.0000 F5000
G1 X484.9963 Y963.8970 Z-20.0000 F5000
G1 X484.9963 Y965.8990 Z-20.0000 F5000
G1 X489.9963 Y965.8990 Z-20.0000 F5000
G1 X489.9963 Y1083.8968 Z-20.0000 F5000
G1 X466.9964 Y1083.8968 Z-20.0000 F5000
G1 X466.9964 Y1085.8987 Z-20.0000 F5000
G1 X471.9964 Y1085.8987 Z-20.0000 F5000
G1 X471.9964 Y1193.8966 Z-20.0000 F5000
G1 X466.9964 Y1193.8966 Z-20.0000 F5000
G1 X466.9964 Y1195.8986 Z-20.0000 F5000
G1 X502.6538 Y1195.8986 Z-20.0000 F5000
G1 X507.9963 Y1201.2411 Z-20.0000 F5000
G1 X507.9963 Y1258.5539 Z-20.0000 F5000
G1 X502.6538 Y1263.8964 Z-20.0000 F5000
G1 X466.9964 Y1263.8964 Z-20.0000 F5000
G1 X466.9964 Y1265.8984 Z-20.0000 F5000
G1 X471.9964 Y1265.8984 Z-20.0000 F5000
G1 X471.9964 Y1379.8972 Z-20.0000 F5000
G1 X471.9964 Y1379.8972 Z10.0000 F9999
G1 X816.0940 Y1779.6390 Z10.0000 F9999
G1 X816.0940 Y1779.6390 Z1.0000 F2500
G1 X816.0940 Y1818.6102 Z-9.5000 F2500
G1 X816.0940 Y1779.6390 Z-20.0000 F2500
G1 X816.0940 Y1933.1967 Z-20.0000 F5000
G1 X730.0962 Y1933.1967 Z-20.0000 F5000
G1 X730.0962 Y1626.0813 Z-20.0000 F5000
G1 X735.0962 Y1626.0813 Z-20.0000 F5000
G1 X735.0962 Y1624.0784 Z-20.0000 F5000
G1 X699.4389 Y1624.0784 Z-20.0000 F5000
G1 X694.0963 Y1618.7362 Z-20.0000 F5000
G1 X694.0963 Y1561.4238 Z-20.0000 F5000
G1 X699.4388 Y1556.0812 Z-20.0000 F5000
G1 X735.0962 Y1556.0812 Z-20.0000 F5000
G1 X735.0962 Y1554.0786 Z-20.0000 F5000
G1 X730.0962 Y1554.0786 Z-20.0000 F5000
G1 X730.0962 Y1326.0816 Z-20.0000 F5000
G1 X735.0962 Y1326.0816 Z-20.0000 F5000
G1 X735.0962 Y1324.0786 Z-20.0000 F5000
G1 X699.4389 Y1324.0786 Z-20.0000 F5000
G1 X694.0963 Y1318.7367 Z-20.0000 F5000
G1 X694.0963 Y1261.4242 Z-20.0000 F5000
G1 X699.4388 Y1256.0818 Z-20.0000 F5000
G1 X735.0962 Y1256.0818 Z-20.0000 F5000
G1 X735.0962 Y1254.0789 Z-20.0000 F5000
G1 X730.0962 Y1254.0789 Z-20.0000 F5000
G1 X730.0962 Y1146.0831 Z-20.0000 F5000
G1 X735.0962 Y1146.0831 Z-20.0000 F5000
G1 X735.0962 Y1144.0803 Z-20.0000 F5000
G1 X712.0962 Y1144.0803 Z-20.0000 F5000
G1 X712.0962 Y1026.0823 Z-20.0000 F5000
G1 X717.0962 Y1026.0823 Z-20.0000 F5000
G1 X717.0962 Y1024.0809 Z-20.0000 F5000
G1 X699.4383 Y1024.0809 Z-20.0000 F5000
G1 X694.0963 Y1018.7366 Z-20.0000 F5000
G1 X694.0963 Y995.0828 Z-20.0000 F5000
G1 X741.0942 Y995.0828 Z-20.0000 F5000
G1 X741.0942 Y1000.0825 Z-20.0000 F5000
G1 X743.0962 Y1000.0825 Z-20.0000 F5000
G1 X743.0962 Y980.0809 Z-20.0000 F5000
G1 X741.0942 Y980.0809 Z-20.0000 F5000
G1 X741.0942 Y985.0806 Z-20.0000 F5000
G1 X694.0963 Y985.0806 Z-20.0000 F5000
G1 X694.0963 Y961.4245 Z-20.0000 F5000
G1 X699.4388 Y956.0821 Z-20.0000 F5000
G1 X717.0962 Y956.0821 Z-20.0000 F5000
G1 X717.0962 Y954.0794 Z-20.0000 F5000
