(plotsheet 2n3_nested_153 sheets_final v1_0_sheet 148a_S148.0_15 screws_CC8 - stepover 1mm)
(Material Size) (X=1220.000, Y=2440.000, Z=20.000)
(LinuxCNC_NoArcs_MM_TC_medium_50um_G1_verbose.con)
G90 G80 G21 G49
G64 P0.050
M6 T1
(Tool Number:1) (7.998 mm dia. slot drill)
G43 H1 G0Z80.0000
M3 S9000
G04 P10
G1 X87.3566 Y112.6270 Z10.0000 F9999
G1 X87.3566 Y112.6270 Z2.0000 F9999
G1 X87.3566 Y112.6270 Z-1.0000 F2500
G1 X87.3566 Y112.6270 Z10.0000 F9999
G1 X429.6846 Y112.6270 Z10.0000 F9999
G1 X429.6846 Y112.6270 Z2.0000 F9999
G1 X429.6846 Y112.6270 Z-1.0000 F2500
G1 X429.6846 Y112.6270 Z10.0000 F9999
G1 X772.5852 Y112.6270 Z10.0000 F9999
G1 X772.5852 Y112.6270 Z2.0000 F9999
G1 X772.5852 Y112.6270 Z-1.0000 F2500
G1 X772.5852 Y112.6270 Z10.0000 F9999
G1 X1117.6361 Y112.6270 Z10.0000 F9999
G1 X1117.6361 Y112.6270 Z2.0000 F9999
G1 X1117.6361 Y112.6270 Z-1.0000 F2500
G1 X1117.6361 Y112.6270 Z10.0000 F9999
G1 X1119.4838 Y906.6478 Z10.0000 F9999
G1 X1119.4838 Y906.6478 Z2.0000 F9999
G1 X1119.4838 Y906.6478 Z-1.0000 F2500
G1 X1119.4838 Y906.6478 Z10.0000 F9999
G1 X945.8757 Y906.6478 Z10.0000 F9999
G1 X945.8757 Y906.6478 Z2.0000 F9999
G1 X945.8757 Y906.6478 Z-1.0000 F2500
G1 X945.8757 Y906.6478 Z10.0000 F9999
G1 X774.3519 Y906.6478 Z10.0000 F9999
G1 X774.3519 Y906.6478 Z2.0000 F9999
G1 X774.3519 Y906.6478 Z-1.0000 F2500
G1 X774.3519 Y906.6478 Z10.0000 F9999
G1 X603.7042 Y906.6478 Z10.0000 F9999
G1 X603.7042 Y906.6478 Z2.0000 F9999
G1 X603.7042 Y906.6478 Z-1.0000 F2500
G1 X603.7042 Y906.6478 Z10.0000 F9999
G1 X428.4541 Y906.6478 Z10.0000 F9999
G1 X428.4541 Y906.6478 Z2.0000 F9999
G1 X428.4541 Y906.6478 Z-1.0000 F2500
G1 X428.4541 Y906.6478 Z10.0000 F9999
G1 X257.2220 Y906.6478 Z10.0000 F9999
G1 X257.2220 Y906.6478 Z2.0000 F9999
G1 X257.2220 Y906.6478 Z-1.0000 F2500
G1 X257.2220 Y906.6478 Z10.0000 F9999
G1 X84.5457 Y906.6478 Z10.0000 F9999
G1 X84.5457 Y906.6478 Z2.0000 F9999
G1 X84.5457 Y906.6478 Z-1.0000 F2500
G1 X84.5457 Y906.6478 Z10.0000 F9999
G1 X87.3566 Y1588.4398 Z10.0000 F9999
G1 X87.3566 Y1588.4398 Z2.0000 F9999
G1 X87.3566 Y1588.4398 Z-1.0000 F2500
G1 X87.3566 Y1588.4398 Z10.0000 F9999
G1 X431.2650 Y1588.4398 Z10.0000 F9999
G1 X431.2650 Y1588.4398 Z2.0000 F9999
G1 X431.2650 Y1588.4398 Z-1.0000 F2500
G1 X431.2650 Y1588.4398 Z10.0000 F9999
G1 X771.4789 Y1588.4398 Z10.0000 F9999
G1 X771.4789 Y1588.4398 Z2.0000 F9999
G1 X771.4789 Y1588.4398 Z-1.0000 F2500
G1 X771.4789 Y1588.4398 Z10.0000 F9999
G1 X1116.6107 Y1588.4398 Z10.0000 F9999
G1 X1116.6107 Y1588.4398 Z2.0000 F9999
G1 X1116.6107 Y1588.4398 Z-1.0000 F2500
G1 X1116.6107 Y1588.4398 Z10.0000 F9999
G1 X1900.0000 Y2800.0000 Z80.0000 F9999
G1 Z80.0000 F9999
G1 X1900.0000 Y2800.0000 F9999
M5
M30
