(plotsheet 2n3_nested_153 sheets_final v1_0_sheet 143a_S143.0_15 screws_CC8 - stepover 1mm)
(Material Size) (X=1220.000, Y=2440.000, Z=20.000)
(LinuxCNC_NoArcs_MM_TC_medium_50um_G1_verbose.con)
G90 G80 G21 G49
G64 P0.050
M6 T1
(Tool Number:1) (7.998 mm dia. slot drill)
G43 H1 G0Z80.0000
M3 S9000
G04 P10
G1 X82.8289 Y196.0113 Z10.0000 F9999
G1 X82.8289 Y196.0113 Z2.0000 F9999
G1 X82.8289 Y196.0113 Z-1.0000 F2500
G1 X82.8289 Y196.0113 Z10.0000 F9999
G1 X429.6747 Y196.0113 Z10.0000 F9999
G1 X429.6747 Y196.0113 Z2.0000 F9999
G1 X429.6747 Y196.0113 Z-1.0000 F2500
G1 X429.6747 Y196.0113 Z10.0000 F9999
G1 X764.8727 Y196.0113 Z10.0000 F9999
G1 X764.8727 Y196.0113 Z2.0000 F9999
G1 X764.8727 Y196.0113 Z-1.0000 F2500
G1 X764.8727 Y196.0113 Z10.0000 F9999
G1 X1109.6709 Y196.0113 Z10.0000 F9999
G1 X1109.6709 Y196.0113 Z2.0000 F9999
G1 X1109.6709 Y196.0113 Z-1.0000 F2500
G1 X1109.6709 Y196.0113 Z10.0000 F9999
G1 X1108.2211 Y875.7426 Z10.0000 F9999
G1 X1108.2211 Y875.7426 Z2.0000 F9999
G1 X1108.2211 Y875.7426 Z-1.0000 F2500
G1 X1108.2211 Y875.7426 Z10.0000 F9999
G1 X944.4988 Y875.7426 Z10.0000 F9999
G1 X944.4988 Y875.7426 Z2.0000 F9999
G1 X944.4988 Y875.7426 Z-1.0000 F2500
G1 X944.4988 Y875.7426 Z10.0000 F9999
G1 X763.4229 Y875.7426 Z10.0000 F9999
G1 X763.4229 Y875.7426 Z2.0000 F9999
G1 X763.4229 Y875.7426 Z-1.0000 F2500
G1 X763.4229 Y875.7426 Z10.0000 F9999
G1 X594.4785 Y875.7426 Z10.0000 F9999
G1 X594.4785 Y875.7426 Z2.0000 F9999
G1 X594.4785 Y875.7426 Z-1.0000 F2500
G1 X594.4785 Y875.7426 Z10.0000 F9999
G1 X424.5552 Y875.7426 Z10.0000 F9999
G1 X424.5552 Y875.7426 Z2.0000 F9999
G1 X424.5552 Y875.7426 Z-1.0000 F2500
G1 X424.5552 Y875.7426 Z10.0000 F9999
G1 X255.4463 Y875.7426 Z10.0000 F9999
G1 X255.4463 Y875.7426 Z2.0000 F9999
G1 X255.4463 Y875.7426 Z-1.0000 F2500
G1 X255.4463 Y875.7426 Z10.0000 F9999
G1 X82.8862 Y875.7426 Z10.0000 F9999
G1 X82.8862 Y875.7426 Z2.0000 F9999
G1 X82.8862 Y875.7426 Z-1.0000 F2500
G1 X82.8862 Y875.7426 Z10.0000 F9999
G1 X86.2801 Y2059.3494 Z10.0000 F9999
G1 X86.2801 Y2059.3494 Z2.0000 F9999
G1 X86.2801 Y2059.3494 Z-1.0000 F2500
G1 X86.2801 Y2059.3494 Z10.0000 F9999
G1 X426.2235 Y2059.3494 Z10.0000 F9999
G1 X426.2235 Y2059.3494 Z2.0000 F9999
G1 X426.2235 Y2059.3494 Z-1.0000 F2500
G1 X426.2235 Y2059.3494 Z10.0000 F9999
G1 X768.3239 Y2059.3494 Z10.0000 F9999
G1 X768.3239 Y2059.3494 Z2.0000 F9999
G1 X768.3239 Y2059.3494 Z-1.0000 F2500
G1 X768.3239 Y2059.3494 Z10.0000 F9999
G1 X1113.1221 Y2059.3494 Z10.0000 F9999
G1 X1113.1221 Y2059.3494 Z2.0000 F9999
G1 X1113.1221 Y2059.3494 Z-1.0000 F2500
G1 X1113.1221 Y2059.3494 Z10.0000 F9999
G1 X1900.0000 Y2800.0000 Z80.0000 F9999
G1 Z80.0000 F9999
G1 X1900.0000 Y2800.0000 F9999
M5
M30
