(plotsheet 2n3_nested_153 sheets_final v1_0_sheet 42 to 55_S42.1_text_CC8 - stepover 1mm)
(Material Size) (X=1220.000, Y=2440.000, Z=21.000)
(LinuxCNC_NoArcs_MM_TC_medium_50um_G1_verbose.con)
G90 G80 G21 G49
G64 P0.050
M6 T1
(Tool Number:1) (7.998 mm dia. slot drill)
G43 H1 G0Z30.0000
M3 S19000
G04 P10
G1 X576.3484 Y1041.3389 Z10.0000 F9999
G1 X576.3484 Y1041.3389 Z-1.5000 F2000
G1 X563.7245 Y1041.3389 Z-1.5000 F4000
G1 X563.7245 Y1082.4398 Z-1.5000 F4000
G1 X563.7245 Y1041.3389 Z-1.5000 F4000
G1 X563.7245 Y1041.3389 Z10.0000 F9999
G1 X609.3209 Y1082.4398 Z10.0000 F9999
G1 X609.3209 Y1082.4398 Z-1.5000 F2000
G1 X587.1190 Y1049.0454 Z-1.5000 F4000
G1 X615.9264 Y1049.0454 Z-1.5000 F4000
G1 X587.1190 Y1049.0454 Z-1.5000 F4000
G1 X609.3209 Y1082.4398 Z-1.5000 F4000
G1 X609.3209 Y1041.3389 Z-1.5000 F4000
G1 X609.3209 Y1041.3389 Z10.0000 F9999
G1 X656.0732 Y1082.4398 Z10.0000 F9999
G1 X656.0732 Y1082.4398 Z-1.5000 F2000
G1 X627.0456 Y1041.3389 Z-1.5000 F4000
G1 X656.0732 Y1082.4398 Z-1.5000 F4000
G1 X628.5686 Y1082.4398 Z-1.5000 F4000
G1 X628.5686 Y1082.4398 Z10.0000 F9999
G1 X498.4310 Y2243.5438 Z10.0000 F9999
G1 X498.4310 Y2243.5438 Z-1.5000 F2000
G1 X528.8163 Y2296.3878 Z-1.5000 F4000
G1 X498.4310 Y2243.5438 Z-1.5000 F4000
G1 X498.4310 Y2243.5438 Z10.0000 F9999
G1 X482.9264 Y2294.0392 Z10.0000 F9999
G1 X482.9264 Y2294.0392 Z-1.5000 F2000
G1 X482.9264 Y2252.9383 Z-1.5000 F4000
G1 X475.7704 Y2252.9383 Z-1.5000 F4000
G1 X471.8988 Y2253.5438 Z-1.5000 F4000
G1 X468.6878 Y2255.3603 Z-1.5000 F4000
G1 X466.4676 Y2258.5162 Z-1.5000 F4000
G1 X465.6236 Y2263.1584 Z-1.5000 F4000
G1 X466.7796 Y2267.8373 Z-1.5000 F4000
G1 X469.5502 Y2271.1584 Z-1.5000 F4000
G1 X472.8713 Y2273.1217 Z-1.5000 F4000
G1 X475.7704 Y2273.7823 Z-1.5000 F4000
G1 X482.9264 Y2273.7823 Z-1.5000 F4000
G1 X475.7704 Y2273.7823 Z-1.5000 F4000
G1 X472.8713 Y2273.1217 Z-1.5000 F4000
G1 X469.5502 Y2271.1584 Z-1.5000 F4000
G1 X466.7796 Y2267.8373 Z-1.5000 F4000
G1 X465.6236 Y2263.1584 Z-1.5000 F4000
G1 X466.4676 Y2258.5162 Z-1.5000 F4000
G1 X468.6878 Y2255.3603 Z-1.5000 F4000
G1 X471.8988 Y2253.5438 Z-1.5000 F4000
G1 X475.7704 Y2252.9383 Z-1.5000 F4000
G1 X482.9264 Y2252.9383 Z-1.5000 F4000
G1 X482.9264 Y2252.9383 Z10.0000 F9999
G1 X465.5135 Y2294.0392 Z10.0000 F9999
G1 X465.5135 Y2294.0392 Z-1.5000 F2000
G1 X478.7429 Y2273.8924 Z-1.5000 F4000
G1 X465.5135 Y2294.0392 Z-1.5000 F4000
G1 X465.5135 Y2294.0392 Z10.0000 F9999
G1 X539.4952 Y2294.0392 Z10.0000 F9999
G1 X539.4952 Y2294.0392 Z-1.5000 F2000
G1 X552.7245 Y2273.8924 Z-1.5000 F4000
G1 X539.4952 Y2294.0392 Z-1.5000 F4000
G1 X539.4952 Y2294.0392 Z10.0000 F9999
G1 X556.9080 Y2294.0392 Z10.0000 F9999
G1 X556.9080 Y2294.0392 Z-1.5000 F2000
G1 X556.9080 Y2252.9383 Z-1.5000 F4000
G1 X549.7521 Y2252.9383 Z-1.5000 F4000
G1 X545.8805 Y2253.5438 Z-1.5000 F4000
G1 X542.6695 Y2255.3603 Z-1.5000 F4000
G1 X540.4493 Y2258.5162 Z-1.5000 F4000
G1 X539.6053 Y2263.1584 Z-1.5000 F4000
G1 X540.7612 Y2267.8373 Z-1.5000 F4000
G1 X543.5319 Y2271.1584 Z-1.5000 F4000
G1 X546.8530 Y2273.1217 Z-1.5000 F4000
G1 X549.7521 Y2273.7823 Z-1.5000 F4000
G1 X556.9080 Y2273.7823 Z-1.5000 F4000
G1 X549.7521 Y2273.7823 Z-1.5000 F4000
G1 X546.8530 Y2273.1217 Z-1.5000 F4000
G1 X543.5319 Y2271.1584 Z-1.5000 F4000
G1 X540.7612 Y2267.8373 Z-1.5000 F4000
G1 X539.6053 Y2263.1584 Z-1.5000 F4000
G1 X540.4493 Y2258.5162 Z-1.5000 F4000
G1 X542.6695 Y2255.3603 Z-1.5000 F4000
G1 X545.8805 Y2253.5438 Z-1.5000 F4000
G1 X549.7521 Y2252.9383 Z-1.5000 F4000
G1 X556.9080 Y2252.9383 Z-1.5000 F4000
G1 X556.9080 Y2252.9383 Z10.0000 F9999
G1 X589.7887 Y2294.0392 Z10.0000 F9999
G1 X589.7887 Y2294.0392 Z-1.5000 F2000
G1 X589.7887 Y2271.2318 Z-1.5000 F4000
G1 X573.3300 Y2271.2318 Z-1.5000 F4000
G1 X589.7887 Y2271.2318 Z-1.5000 F4000
G1 X589.7887 Y2252.9383 Z-1.5000 F4000
G1 X572.0273 Y2252.9383 Z-1.5000 F4000
G1 X589.7887 Y2252.9383 Z-1.5000 F4000
G1 X589.7887 Y2294.0392 Z-1.5000 F4000
G1 X572.0273 Y2294.0392 Z-1.5000 F4000
G1 X572.0273 Y2294.0392 Z10.0000 F9999
G1 X605.6420 Y2288.3511 Z10.0000 F9999
G1 X605.6420 Y2288.3511 Z-1.5000 F2000
G1 X612.2658 Y2292.5162 Z-1.5000 F4000
G1 X620.2475 Y2294.0392 Z-1.5000 F4000
G1 X628.5227 Y2292.4061 Z-1.5000 F4000
G1 X635.2933 Y2287.9841 Z-1.5000 F4000
G1 X639.8621 Y2281.4520 Z-1.5000 F4000
G1 X641.5502 Y2273.4520 Z-1.5000 F4000
G1 X639.8621 Y2265.5071 Z-1.5000 F4000
G1 X635.2933 Y2258.9933 Z-1.5000 F4000
G1 X628.5227 Y2254.5713 Z-1.5000 F4000
G1 X620.2475 Y2252.9383 Z-1.5000 F4000
G1 X612.4676 Y2254.3511 Z-1.5000 F4000
G1 X605.9172 Y2258.2961 Z-1.5000 F4000
G1 X612.4676 Y2254.3511 Z-1.5000 F4000
G1 X620.2475 Y2252.9383 Z-1.5000 F4000
G1 X628.5227 Y2254.5713 Z-1.5000 F4000
G1 X635.2933 Y2258.9933 Z-1.5000 F4000
G1 X639.8621 Y2265.5071 Z-1.5000 F4000
G1 X641.5502 Y2273.4520 Z-1.5000 F4000
G1 X639.8621 Y2281.4520 Z-1.5000 F4000
G1 X635.2933 Y2287.9841 Z-1.5000 F4000
G1 X628.5227 Y2292.4061 Z-1.5000 F4000
G1 X620.2475 Y2294.0392 Z-1.5000 F4000
G1 X612.2658 Y2292.5162 Z-1.5000 F4000
G1 X612.2658 Y2292.5162 Z10.0000 F9999
G1 X658.6695 Y2279.3419 Z10.0000 F9999
G1 X658.6695 Y2279.3419 Z-1.5000 F2000
G1 X679.3667 Y2279.3419 Z-1.5000 F4000
G1 X658.6695 Y2279.3419 Z-1.5000 F4000
G1 X658.6695 Y2279.3419 Z10.0000 F9999
G1 X668.9814 Y2252.9383 Z10.0000 F9999
G1 X668.9814 Y2252.9383 Z-1.5000 F2000
G1 X652.9264 Y2294.0392 Z-1.5000 F4000
G1 X668.9814 Y2252.9383 Z-1.5000 F4000
G1 X684.9998 Y2294.0392 Z-1.5000 F4000
G1 X684.9998 Y2294.0392 Z10.0000 F9999
G1 X714.2658 Y2252.9383 Z10.0000 F9999
G1 X714.2658 Y2252.9383 Z-1.5000 F2000
G1 X707.8438 Y2252.9383 Z-1.5000 F4000
G1 X699.2199 Y2255.5071 Z-1.5000 F4000
G1 X696.2291 Y2263.1034 Z-1.5000 F4000
G1 X699.3117 Y2270.9749 Z-1.5000 F4000
G1 X707.5502 Y2273.8006 Z-1.5000 F4000
G1 X714.2658 Y2273.8006 Z-1.5000 F4000
G1 X707.5502 Y2273.8006 Z-1.5000 F4000
G1 X699.3117 Y2270.9749 Z-1.5000 F4000
G1 X696.2291 Y2263.1034 Z-1.5000 F4000
G1 X699.2199 Y2255.5071 Z-1.5000 F4000
G1 X707.8438 Y2252.9383 Z-1.5000 F4000
G1 X714.2658 Y2252.9383 Z-1.5000 F4000
G1 X714.2658 Y2294.0392 Z-1.5000 F4000
G1 X714.2658 Y2294.0392 Z10.0000 F9999
G1 X754.2842 Y2287.2135 Z10.0000 F9999
G1 X754.2842 Y2287.2135 Z-1.5000 F2000
G1 X752.3392 Y2290.2594 Z-1.5000 F4000
G1 X749.9172 Y2292.3144 Z-1.5000 F4000
G1 X746.7979 Y2293.5621 Z-1.5000 F4000
G1 X742.6695 Y2294.0392 Z-1.5000 F4000
G1 X738.1741 Y2293.5805 Z-1.5000 F4000
G1 X734.3576 Y2291.8373 Z-1.5000 F4000
G1 X731.6787 Y2288.8465 Z-1.5000 F4000
G1 X730.5594 Y2284.6814 Z-1.5000 F4000
G1 X731.0915 Y2280.6814 Z-1.5000 F4000
G1 X732.6328 Y2278.0025 Z-1.5000 F4000
G1 X734.6695 Y2276.3144 Z-1.5000 F4000
G1 X736.5777 Y2275.2135 Z-1.5000 F4000
G1 X745.7704 Y2270.4795 Z-1.5000 F4000
G1 X748.1374 Y2269.0667 Z-1.5000 F4000
G1 X749.9906 Y2267.4153 Z-1.5000 F4000
G1 X751.2383 Y2265.2318 Z-1.5000 F4000
G1 X751.7521 Y2262.3511 Z-1.5000 F4000
G1 X751.2199 Y2259.0667 Z-1.5000 F4000
G1 X749.3851 Y2256.0392 Z-1.5000 F4000
G1 X746.2475 Y2253.8190 Z-1.5000 F4000
G1 X741.8805 Y2252.9383 Z-1.5000 F4000
G1 X737.6236 Y2253.6172 Z-1.5000 F4000
G1 X734.7796 Y2255.0850 Z-1.5000 F4000
G1 X732.6878 Y2257.2318 Z-1.5000 F4000
G1 X734.7796 Y2255.0850 Z-1.5000 F4000
G1 X737.6236 Y2253.6172 Z-1.5000 F4000
G1 X741.8805 Y2252.9383 Z-1.5000 F4000
G1 X746.2475 Y2253.8190 Z-1.5000 F4000
G1 X749.3851 Y2256.0392 Z-1.5000 F4000
G1 X751.2199 Y2259.0667 Z-1.5000 F4000
G1 X751.7521 Y2262.3511 Z-1.5000 F4000
G1 X751.2383 Y2265.2318 Z-1.5000 F4000
G1 X749.9906 Y2267.4153 Z-1.5000 F4000
G1 X748.1374 Y2269.0667 Z-1.5000 F4000
G1 X745.7704 Y2270.4795 Z-1.5000 F4000
G1 X736.5777 Y2275.2135 Z-1.5000 F4000
G1 X734.6695 Y2276.3144 Z-1.5000 F4000
G1 X732.6328 Y2278.0025 Z-1.5000 F4000
G1 X731.0915 Y2280.6814 Z-1.5000 F4000
G1 X730.5594 Y2284.6814 Z-1.5000 F4000
G1 X731.6787 Y2288.8465 Z-1.5000 F4000
G1 X734.3576 Y2291.8373 Z-1.5000 F4000
G1 X738.1741 Y2293.5805 Z-1.5000 F4000
G1 X742.6695 Y2294.0392 Z-1.5000 F4000
G1 X746.7979 Y2293.5621 Z-1.5000 F4000
G1 X749.9172 Y2292.3144 Z-1.5000 F4000
G1 X752.3392 Y2290.2594 Z-1.5000 F4000
G1 X752.3392 Y2290.2594 Z10.0000 F9999
(Tool Number:1) (7.998 mm dia. slot drill)
M3 S19000
G1 X80.9009 Y371.4495 Z10.0000 F9999
G1 X80.9009 Y371.4495 Z1.0000 F2000
G1 X80.9009 Y332.4783 Z-10.0000 F2000
G1 X80.9009 Y371.4495 Z-21.0000 F2000
G1 X80.9009 Y291.4504 Z-21.0000 F2750
G1 X80.9366 Y290.9168 Z-21.0000 F2750
G1 X81.0492 Y290.3714 Z-21.0000 F2750
G1 X81.2437 Y289.8305 Z-21.0000 F2750
G1 X81.5204 Y289.3125 Z-21.0000 F2750
G1 X81.8742 Y288.8356 Z-21.0000 F2750
G1 X82.2947 Y288.4164 Z-21.0000 F2750
G1 X82.7672 Y288.0676 Z-21.0000 F2750
G1 X83.2742 Y287.7968 Z-21.0000 F2750
G1 X83.7975 Y287.6064 Z-21.0000 F2750
G1 X84.3203 Y287.4937 Z-21.0000 F2750
G1 X85.1098 Y287.4438 Z-21.0000 F2750
G1 X85.9008 Y287.4514 Z-21.0000 F2750
G1 X85.9008 Y285.4483 Z-21.0000 F2750
G1 X47.8989 Y285.4483 Z-21.0000 F2750
G1 X47.8989 Y287.4514 Z-21.0000 F2750
G1 X48.6900 Y287.4438 Z-21.0000 F2750
G1 X49.4795 Y287.4937 Z-21.0000 F2750
G1 X50.0023 Y287.6064 Z-21.0000 F2750
G1 X50.5256 Y287.7968 Z-21.0000 F2750
G1 X51.0326 Y288.0676 Z-21.0000 F2750
G1 X51.5051 Y288.4164 Z-21.0000 F2750
G1 X51.9256 Y288.8356 Z-21.0000 F2750
G1 X52.2795 Y289.3125 Z-21.0000 F2750
G1 X52.5561 Y289.8305 Z-21.0000 F2750
G1 X52.7506 Y290.3714 Z-21.0000 F2750
G1 X52.8632 Y290.9168 Z-21.0000 F2750
G1 X52.8989 Y291.4504 Z-21.0000 F2750
G1 X52.8989 Y451.4485 Z-21.0000 F2750
G1 X52.8632 Y451.9822 Z-21.0000 F2750
G1 X52.7506 Y452.5276 Z-21.0000 F2750
G1 X52.5561 Y453.0685 Z-21.0000 F2750
G1 X52.2795 Y453.5865 Z-21.0000 F2750
G1 X51.9256 Y454.0634 Z-21.0000 F2750
G1 X51.5051 Y454.4825 Z-21.0000 F2750
G1 X51.0326 Y454.8314 Z-21.0000 F2750
G1 X50.5256 Y455.1022 Z-21.0000 F2750
G1 X50.0023 Y455.2926 Z-21.0000 F2750
G1 X49.4795 Y455.4053 Z-21.0000 F2750
G1 X48.6900 Y455.4552 Z-21.0000 F2750
G1 X47.8989 Y455.4475 Z-21.0000 F2750
G1 X47.8989 Y457.4503 Z-21.0000 F2750
G1 X85.9008 Y457.4503 Z-21.0000 F2750
G1 X85.9008 Y455.4475 Z-21.0000 F2750
G1 X85.1098 Y455.4552 Z-21.0000 F2750
G1 X84.3203 Y455.4053 Z-21.0000 F2750
G1 X83.7975 Y455.2926 Z-21.0000 F2750
G1 X83.2742 Y455.1022 Z-21.0000 F2750
G1 X82.7672 Y454.8314 Z-21.0000 F2750
G1 X82.2947 Y454.4825 Z-21.0000 F2750
G1 X81.8742 Y454.0634 Z-21.0000 F2750
G1 X81.5204 Y453.5865 Z-21.0000 F2750
G1 X81.2437 Y453.0685 Z-21.0000 F2750
G1 X81.0492 Y452.5276 Z-21.0000 F2750
G1 X80.9366 Y451.9822 Z-21.0000 F2750
G1 X80.9009 Y451.4485 Z-21.0000 F2750
G1 X80.9009 Y371.4495 Z-21.0000 F2750
G1 X80.9009 Y371.4495 Z10.0000 F9999
G1 X52.8989 Y671.4481 Z10.0000 F9999
G1 X52.8989 Y671.4481 Z1.0000 F2000
G1 X52.8989 Y710.4192 Z-10.0000 F2000
G1 X52.8989 Y671.4481 Z-21.0000 F2000
G1 X52.8989 Y751.4480 Z-21.0000 F2750
G1 X52.8632 Y751.9816 Z-21.0000 F2750
G1 X52.7506 Y752.5271 Z-21.0000 F2750
G1 X52.5561 Y753.0679 Z-21.0000 F2750
G1 X52.2795 Y753.5860 Z-21.0000 F2750
G1 X51.9256 Y754.0628 Z-21.0000 F2750
G1 X51.5051 Y754.4820 Z-21.0000 F2750
G1 X51.0326 Y754.8309 Z-21.0000 F2750
G1 X50.5256 Y755.1016 Z-21.0000 F2750
G1 X50.0023 Y755.2921 Z-21.0000 F2750
G1 X49.4795 Y755.4048 Z-21.0000 F2750
G1 X48.6900 Y755.4546 Z-21.0000 F2750
G1 X47.8989 Y755.4470 Z-21.0000 F2750
G1 X47.8989 Y757.4498 Z-21.0000 F2750
G1 X85.9008 Y757.4498 Z-21.0000 F2750
G1 X85.9008 Y755.4470 Z-21.0000 F2750
G1 X85.1098 Y755.4546 Z-21.0000 F2750
G1 X84.3203 Y755.4048 Z-21.0000 F2750
G1 X83.7975 Y755.2921 Z-21.0000 F2750
G1 X83.2742 Y755.1016 Z-21.0000 F2750
G1 X82.7672 Y754.8309 Z-21.0000 F2750
G1 X82.2947 Y754.4820 Z-21.0000 F2750
G1 X81.8742 Y754.0628 Z-21.0000 F2750
G1 X81.5204 Y753.5860 Z-21.0000 F2750
G1 X81.2437 Y753.0679 Z-21.0000 F2750
G1 X81.0492 Y752.5271 Z-21.0000 F2750
G1 X80.9366 Y751.9816 Z-21.0000 F2750
G1 X80.9009 Y751.4480 Z-21.0000 F2750
G1 X80.9009 Y591.4482 Z-21.0000 F2750
G1 X80.9366 Y590.9145 Z-21.0000 F2750
G1 X81.0492 Y590.3691 Z-21.0000 F2750
G1 X81.2437 Y589.8282 Z-21.0000 F2750
G1 X81.5204 Y589.3102 Z-21.0000 F2750
G1 X81.8742 Y588.8334 Z-21.0000 F2750
G1 X82.2947 Y588.4142 Z-21.0000 F2750
G1 X82.7672 Y588.0653 Z-21.0000 F2750
G1 X83.2742 Y587.7945 Z-21.0000 F2750
G1 X83.7975 Y587.6041 Z-21.0000 F2750
G1 X84.3203 Y587.4914 Z-21.0000 F2750
G1 X85.1098 Y587.4415 Z-21.0000 F2750
G1 X85.9008 Y587.4492 Z-21.0000 F2750
G1 X85.9008 Y585.4478 Z-21.0000 F2750
G1 X47.8989 Y585.4478 Z-21.0000 F2750
G1 X47.8989 Y587.4492 Z-21.0000 F2750
G1 X48.6900 Y587.4415 Z-21.0000 F2750
G1 X49.4795 Y587.4914 Z-21.0000 F2750
G1 X50.0023 Y587.6041 Z-21.0000 F2750
G1 X50.5256 Y587.7945 Z-21.0000 F2750
G1 X51.0326 Y588.0653 Z-21.0000 F2750
G1 X51.5051 Y588.4142 Z-21.0000 F2750
G1 X51.9256 Y588.8334 Z-21.0000 F2750
G1 X52.2795 Y589.3102 Z-21.0000 F2750
G1 X52.5561 Y589.8282 Z-21.0000 F2750
G1 X52.7506 Y590.3691 Z-21.0000 F2750
G1 X52.8632 Y590.9145 Z-21.0000 F2750
G1 X52.8989 Y591.4482 Z-21.0000 F2750
G1 X52.8989 Y671.4481 Z-21.0000 F2750
G1 X52.8989 Y671.4481 Z10.0000 F9999
G1 X80.9009 Y971.4476 Z10.0000 F9999
G1 X80.9009 Y971.4476 Z1.0000 F2000
G1 X80.9009 Y932.4764 Z-10.0000 F2000
G1 X80.9009 Y971.4476 Z-21.0000 F2000
G1 X80.9009 Y891.4476 Z-21.0000 F2750
G1 X80.9366 Y890.9140 Z-21.0000 F2750
G1 X81.0492 Y890.3686 Z-21.0000 F2750
G1 X81.2437 Y889.8277 Z-21.0000 F2750
G1 X81.5204 Y889.3097 Z-21.0000 F2750
G1 X81.8742 Y888.8328 Z-21.0000 F2750
G1 X82.2947 Y888.4136 Z-21.0000 F2750
G1 X82.7672 Y888.0648 Z-21.0000 F2750
G1 X83.2742 Y887.7940 Z-21.0000 F2750
G1 X83.7975 Y887.6035 Z-21.0000 F2750
G1 X84.3203 Y887.4908 Z-21.0000 F2750
G1 X85.1098 Y887.4410 Z-21.0000 F2750
G1 X85.9008 Y887.4486 Z-21.0000 F2750
G1 X85.9008 Y885.4475 Z-21.0000 F2750
G1 X65.8989 Y885.4475 Z-21.0000 F2750
G1 X65.8989 Y887.4486 Z-21.0000 F2750
G1 X66.6899 Y887.4410 Z-21.0000 F2750
G1 X67.4794 Y887.4908 Z-21.0000 F2750
G1 X68.0022 Y887.6035 Z-21.0000 F2750
G1 X68.5256 Y887.7940 Z-21.0000 F2750
G1 X69.0326 Y888.0648 Z-21.0000 F2750
G1 X69.5050 Y888.4136 Z-21.0000 F2750
G1 X69.9256 Y888.8328 Z-21.0000 F2750
G1 X70.2794 Y889.3097 Z-21.0000 F2750
G1 X70.5561 Y889.8277 Z-21.0000 F2750
G1 X70.7505 Y890.3686 Z-21.0000 F2750
G1 X70.8631 Y890.9140 Z-21.0000 F2750
G1 X70.8989 Y891.4476 Z-21.0000 F2750
G1 X70.8989 Y962.4474 Z-21.0000 F2750
G1 X70.8567 Y963.0270 Z-21.0000 F2750
G1 X70.7224 Y963.6224 Z-21.0000 F2750
G1 X70.4885 Y964.2121 Z-21.0000 F2750
G1 X70.1544 Y964.7713 Z-21.0000 F2750
G1 X69.7276 Y965.2751 Z-21.0000 F2750
G1 X69.2237 Y965.7019 Z-21.0000 F2750
G1 X68.6645 Y966.0360 Z-21.0000 F2750
G1 X68.0748 Y966.2699 Z-21.0000 F2750
G1 X67.4794 Y966.4042 Z-21.0000 F2750
G1 X66.8999 Y966.4464 Z-21.0000 F2750
G1 X45.8999 Y966.4464 Z-21.0000 F2750
G1 X45.3663 Y966.4107 Z-21.0000 F2750
G1 X44.8209 Y966.2981 Z-21.0000 F2750
G1 X44.2800 Y966.1036 Z-21.0000 F2750
G1 X43.7620 Y965.8269 Z-21.0000 F2750
G1 X43.2851 Y965.4731 Z-21.0000 F2750
G1 X42.8659 Y965.0526 Z-21.0000 F2750
G1 X42.5171 Y964.5801 Z-21.0000 F2750
G1 X42.2463 Y964.0731 Z-21.0000 F2750
G1 X42.0559 Y963.5498 Z-21.0000 F2750
G1 X41.9432 Y963.0270 Z-21.0000 F2750
G1 X41.8933 Y962.2376 Z-21.0000 F2750
G1 X41.9009 Y961.4467 Z-21.0000 F2750
G1 X39.8989 Y961.4467 Z-21.0000 F2750
G1 X39.8989 Y981.4484 Z-21.0000 F2750
G1 X41.9009 Y981.4484 Z-21.0000 F2750
G1 X41.8933 Y980.6575 Z-21.0000 F2750
G1 X41.9432 Y979.8681 Z-21.0000 F2750
G1 X42.0559 Y979.3453 Z-21.0000 F2750
G1 X42.2463 Y978.8219 Z-21.0000 F2750
G1 X42.5171 Y978.3150 Z-21.0000 F2750
G1 X42.8659 Y977.8425 Z-21.0000 F2750
G1 X43.2851 Y977.4220 Z-21.0000 F2750
G1 X43.7620 Y977.0681 Z-21.0000 F2750
G1 X44.2800 Y976.7914 Z-21.0000 F2750
G1 X44.8209 Y976.5970 Z-21.0000 F2750
G1 X45.3663 Y976.4844 Z-21.0000 F2750
G1 X45.8999 Y976.4486 Z-21.0000 F2750
G1 X66.8999 Y976.4486 Z-21.0000 F2750
G1 X67.5177 Y976.4967 Z-21.0000 F2750
G1 X68.1319 Y976.6432 Z-21.0000 F2750
G1 X68.7189 Y976.8863 Z-21.0000 F2750
G1 X69.2567 Y977.2170 Z-21.0000 F2750
G1 X69.7276 Y977.6199 Z-21.0000 F2750
G1 X70.1305 Y978.0908 Z-21.0000 F2750
G1 X70.4612 Y978.6286 Z-21.0000 F2750
G1 X70.7044 Y979.2156 Z-21.0000 F2750
G1 X70.8509 Y979.8298 Z-21.0000 F2750
G1 X70.8989 Y980.4476 Z-21.0000 F2750
G1 X70.8989 Y1051.4475 Z-21.0000 F2750
G1 X70.8631 Y1051.9811 Z-21.0000 F2750
G1 X70.7505 Y1052.5266 Z-21.0000 F2750
G1 X70.5561 Y1053.0674 Z-21.0000 F2750
G1 X70.2794 Y1053.5855 Z-21.0000 F2750
G1 X69.9256 Y1054.0623 Z-21.0000 F2750
G1 X69.5050 Y1054.4815 Z-21.0000 F2750
G1 X69.0326 Y1054.8304 Z-21.0000 F2750
G1 X68.5256 Y1055.1011 Z-21.0000 F2750
G1 X68.0022 Y1055.2916 Z-21.0000 F2750
G1 X67.4794 Y1055.4043 Z-21.0000 F2750
G1 X66.6899 Y1055.4541 Z-21.0000 F2750
G1 X65.8989 Y1055.4465 Z-21.0000 F2750
G1 X65.8989 Y1057.4494 Z-21.0000 F2750
G1 X85.9008 Y1057.4494 Z-21.0000 F2750
G1 X85.9008 Y1055.4465 Z-21.0000 F2750
G1 X85.1098 Y1055.4541 Z-21.0000 F2750
G1 X84.3203 Y1055.4043 Z-21.0000 F2750
G1 X83.7975 Y1055.2916 Z-21.0000 F2750
G1 X83.2742 Y1055.1011 Z-21.0000 F2750
G1 X82.7672 Y1054.8304 Z-21.0000 F2750
G1 X82.2947 Y1054.4815 Z-21.0000 F2750
G1 X81.8742 Y1054.0623 Z-21.0000 F2750
G1 X81.5204 Y1053.5855 Z-21.0000 F2750
G1 X81.2437 Y1053.0674 Z-21.0000 F2750
G1 X81.0492 Y1052.5266 Z-21.0000 F2750
G1 X80.9366 Y1051.9811 Z-21.0000 F2750
G1 X80.9009 Y1051.4475 Z-21.0000 F2750
G1 X80.9009 Y971.4476 Z-21.0000 F2750
G1 X80.9009 Y971.4476 Z10.0000 F9999
G1 X70.8989 Y1301.5395 Z10.0000 F9999
G1 X70.8989 Y1301.5395 Z1.0000 F2000
G1 X70.8989 Y1340.5106 Z-10.0000 F2000
G1 X70.8989 Y1301.5395 Z-21.0000 F2000
G1 X70.8989 Y1381.5395 Z-21.0000 F2750
G1 X70.8631 Y1382.0731 Z-21.0000 F2750
G1 X70.7505 Y1382.6185 Z-21.0000 F2750
G1 X70.5561 Y1383.1594 Z-21.0000 F2750
G1 X70.2794 Y1383.6775 Z-21.0000 F2750
G1 X69.9256 Y1384.1543 Z-21.0000 F2750
G1 X69.5050 Y1384.5735 Z-21.0000 F2750
G1 X69.0326 Y1384.9223 Z-21.0000 F2750
G1 X68.5256 Y1385.1931 Z-21.0000 F2750
G1 X68.0022 Y1385.3836 Z-21.0000 F2750
G1 X67.4794 Y1385.4963 Z-21.0000 F2750
G1 X66.6899 Y1385.5461 Z-21.0000 F2750
G1 X65.8989 Y1385.5385 Z-21.0000 F2750
G1 X65.8989 Y1387.5399 Z-21.0000 F2750
G1 X85.9008 Y1387.5399 Z-21.0000 F2750
G1 X85.9008 Y1385.5385 Z-21.0000 F2750
G1 X85.1098 Y1385.5461 Z-21.0000 F2750
G1 X84.3203 Y1385.4963 Z-21.0000 F2750
G1 X83.7975 Y1385.3836 Z-21.0000 F2750
G1 X83.2742 Y1385.1931 Z-21.0000 F2750
G1 X82.7672 Y1384.9223 Z-21.0000 F2750
G1 X82.2947 Y1384.5735 Z-21.0000 F2750
G1 X81.8742 Y1384.1543 Z-21.0000 F2750
G1 X81.5204 Y1383.6775 Z-21.0000 F2750
G1 X81.2437 Y1383.1594 Z-21.0000 F2750
G1 X81.0492 Y1382.6185 Z-21.0000 F2750
G1 X80.9366 Y1382.0731 Z-21.0000 F2750
G1 X80.9009 Y1381.5395 Z-21.0000 F2750
G1 X80.9009 Y1221.5395 Z-21.0000 F2750
G1 X80.9366 Y1221.0059 Z-21.0000 F2750
G1 X81.0492 Y1220.4604 Z-21.0000 F2750
G1 X81.2437 Y1219.9195 Z-21.0000 F2750
G1 X81.5204 Y1219.4015 Z-21.0000 F2750
G1 X81.8742 Y1218.9247 Z-21.0000 F2750
G1 X82.2947 Y1218.5055 Z-21.0000 F2750
G1 X82.7672 Y1218.1566 Z-21.0000 F2750
G1 X83.2742 Y1217.8858 Z-21.0000 F2750
G1 X83.7975 Y1217.6954 Z-21.0000 F2750
G1 X84.3203 Y1217.5827 Z-21.0000 F2750
G1 X85.1098 Y1217.5328 Z-21.0000 F2750
G1 X85.9008 Y1217.5405 Z-21.0000 F2750
G1 X85.9008 Y1215.5379 Z-21.0000 F2750
G1 X65.8989 Y1215.5379 Z-21.0000 F2750
G1 X65.8989 Y1217.5405 Z-21.0000 F2750
G1 X66.6899 Y1217.5328 Z-21.0000 F2750
G1 X67.4794 Y1217.5827 Z-21.0000 F2750
G1 X68.0022 Y1217.6954 Z-21.0000 F2750
G1 X68.5256 Y1217.8858 Z-21.0000 F2750
G1 X69.0326 Y1218.1566 Z-21.0000 F2750
G1 X69.5050 Y1218.5055 Z-21.0000 F2750
G1 X69.9256 Y1218.9247 Z-21.0000 F2750
G1 X70.2794 Y1219.4015 Z-21.0000 F2750
G1 X70.5561 Y1219.9195 Z-21.0000 F2750
G1 X70.7505 Y1220.4604 Z-21.0000 F2750
G1 X70.8631 Y1221.0059 Z-21.0000 F2750
G1 X70.8989 Y1221.5395 Z-21.0000 F2750
G1 X70.8989 Y1301.5395 Z-21.0000 F2750
G1 X70.8989 Y1301.5395 Z10.0000 F9999
G1 X80.9009 Y1631.6301 Z10.0000 F9999
G1 X80.9009 Y1631.6301 Z1.0000 F2000
G1 X80.9009 Y1592.6590 Z-10.0000 F2000
G1 X80.9009 Y1631.6301 Z-21.0000 F2000
G1 X80.9009 Y1551.6303 Z-21.0000 F2750
G1 X80.9366 Y1551.0967 Z-21.0000 F2750
G1 X81.0492 Y1550.5513 Z-21.0000 F2750
G1 X81.2437 Y1550.0104 Z-21.0000 F2750
G1 X81.5204 Y1549.4923 Z-21.0000 F2750
G1 X81.8742 Y1549.0155 Z-21.0000 F2750
G1 X82.2947 Y1548.5963 Z-21.0000 F2750
G1 X82.7672 Y1548.2475 Z-21.0000 F2750
G1 X83.2742 Y1547.9767 Z-21.0000 F2750
G1 X83.7975 Y1547.7862 Z-21.0000 F2750
G1 X84.3203 Y1547.6735 Z-21.0000 F2750
G1 X85.1098 Y1547.6237 Z-21.0000 F2750
G1 X85.9008 Y1547.6313 Z-21.0000 F2750
G1 X85.9008 Y1545.6284 Z-21.0000 F2750
G1 X65.8989 Y1545.6284 Z-21.0000 F2750
G1 X65.8989 Y1547.6313 Z-21.0000 F2750
G1 X66.6899 Y1547.6237 Z-21.0000 F2750
G1 X67.4794 Y1547.6735 Z-21.0000 F2750
G1 X68.0022 Y1547.7862 Z-21.0000 F2750
G1 X68.5256 Y1547.9767 Z-21.0000 F2750
G1 X69.0326 Y1548.2475 Z-21.0000 F2750
G1 X69.5050 Y1548.5963 Z-21.0000 F2750
G1 X69.9256 Y1549.0155 Z-21.0000 F2750
G1 X70.2794 Y1549.4923 Z-21.0000 F2750
G1 X70.5561 Y1550.0104 Z-21.0000 F2750
G1 X70.7505 Y1550.5513 Z-21.0000 F2750
G1 X70.8631 Y1551.0967 Z-21.0000 F2750
G1 X70.8989 Y1551.6303 Z-21.0000 F2750
G1 X70.8989 Y1622.6300 Z-21.0000 F2750
G1 X70.8509 Y1623.2479 Z-21.0000 F2750
G1 X70.7044 Y1623.8620 Z-21.0000 F2750
G1 X70.4612 Y1624.4490 Z-21.0000 F2750
G1 X70.1305 Y1624.9869 Z-21.0000 F2750
G1 X69.7276 Y1625.4577 Z-21.0000 F2750
G1 X69.2567 Y1625.8607 Z-21.0000 F2750
G1 X68.7189 Y1626.1914 Z-21.0000 F2750
G1 X68.1319 Y1626.4345 Z-21.0000 F2750
G1 X67.5177 Y1626.5810 Z-21.0000 F2750
G1 X66.8999 Y1626.6290 Z-21.0000 F2750
G1 X45.8999 Y1626.6290 Z-21.0000 F2750
G1 X45.3663 Y1626.5933 Z-21.0000 F2750
G1 X44.8209 Y1626.4807 Z-21.0000 F2750
G1 X44.2800 Y1626.2862 Z-21.0000 F2750
G1 X43.7620 Y1626.0095 Z-21.0000 F2750
G1 X43.2851 Y1625.6557 Z-21.0000 F2750
G1 X42.8659 Y1625.2352 Z-21.0000 F2750
G1 X42.5171 Y1624.7627 Z-21.0000 F2750
G1 X42.2463 Y1624.2557 Z-21.0000 F2750
G1 X42.0559 Y1623.7323 Z-21.0000 F2750
G1 X41.9432 Y1623.2096 Z-21.0000 F2750
G1 X41.8933 Y1622.4202 Z-21.0000 F2750
G1 X41.9009 Y1621.6293 Z-21.0000 F2750
G1 X39.8989 Y1621.6293 Z-21.0000 F2750
G1 X39.8989 Y1641.6309 Z-21.0000 F2750
G1 X41.9009 Y1641.6309 Z-21.0000 F2750
G1 X41.8933 Y1640.8401 Z-21.0000 F2750
G1 X41.9432 Y1640.0508 Z-21.0000 F2750
G1 X42.0559 Y1639.5280 Z-21.0000 F2750
G1 X42.2463 Y1639.0046 Z-21.0000 F2750
G1 X42.5171 Y1638.4977 Z-21.0000 F2750
G1 X42.8659 Y1638.0252 Z-21.0000 F2750
G1 X43.2851 Y1637.6047 Z-21.0000 F2750
G1 X43.7620 Y1637.2508 Z-21.0000 F2750
G1 X44.2800 Y1636.9741 Z-21.0000 F2750
G1 X44.8209 Y1636.7797 Z-21.0000 F2750
G1 X45.3663 Y1636.6671 Z-21.0000 F2750
G1 X45.8999 Y1636.6313 Z-21.0000 F2750
G1 X66.8999 Y1636.6313 Z-21.0000 F2750
G1 X67.4794 Y1636.6736 Z-21.0000 F2750
G1 X68.0748 Y1636.8078 Z-21.0000 F2750
G1 X68.6645 Y1637.0417 Z-21.0000 F2750
G1 X69.2237 Y1637.3758 Z-21.0000 F2750
G1 X69.7276 Y1637.8026 Z-21.0000 F2750
G1 X70.1544 Y1638.3065 Z-21.0000 F2750
G1 X70.4885 Y1638.8657 Z-21.0000 F2750
G1 X70.7224 Y1639.4554 Z-21.0000 F2750
G1 X70.8567 Y1640.0508 Z-21.0000 F2750
G1 X70.8989 Y1640.6303 Z-21.0000 F2750
G1 X70.8989 Y1711.6300 Z-21.0000 F2750
G1 X70.8631 Y1712.1636 Z-21.0000 F2750
G1 X70.7505 Y1712.7090 Z-21.0000 F2750
G1 X70.5561 Y1713.2499 Z-21.0000 F2750
G1 X70.2794 Y1713.7679 Z-21.0000 F2750
G1 X69.9256 Y1714.2448 Z-21.0000 F2750
G1 X69.5050 Y1714.6640 Z-21.0000 F2750
G1 X69.0326 Y1715.0128 Z-21.0000 F2750
G1 X68.5256 Y1715.2836 Z-21.0000 F2750
G1 X68.0022 Y1715.4740 Z-21.0000 F2750
G1 X67.4794 Y1715.5867 Z-21.0000 F2750
G1 X66.6899 Y1715.6366 Z-21.0000 F2750
G1 X65.8989 Y1715.6290 Z-21.0000 F2750
G1 X65.8989 Y1717.6302 Z-21.0000 F2750
G1 X85.9008 Y1717.6302 Z-21.0000 F2750
G1 X85.9008 Y1715.6290 Z-21.0000 F2750
G1 X85.1098 Y1715.6366 Z-21.0000 F2750
G1 X84.3203 Y1715.5867 Z-21.0000 F2750
G1 X83.7975 Y1715.4740 Z-21.0000 F2750
G1 X83.2742 Y1715.2836 Z-21.0000 F2750
G1 X82.7672 Y1715.0128 Z-21.0000 F2750
G1 X82.2947 Y1714.6640 Z-21.0000 F2750
G1 X81.8742 Y1714.2448 Z-21.0000 F2750
G1 X81.5204 Y1713.7679 Z-21.0000 F2750
G1 X81.2437 Y1713.2499 Z-21.0000 F2750
G1 X81.0492 Y1712.7090 Z-21.0000 F2750
G1 X80.9366 Y1712.1636 Z-21.0000 F2750
G1 X80.9009 Y1711.6300 Z-21.0000 F2750
G1 X80.9009 Y1631.6301 Z-21.0000 F2750
G1 X80.9009 Y1631.6301 Z10.0000 F9999
G1 X52.8989 Y1931.6296 Z10.0000 F9999
G1 X52.8989 Y1931.6296 Z1.0000 F2000
G1 X52.8989 Y1970.6007 Z-10.0000 F2000
G1 X52.8989 Y1931.6296 Z-21.0000 F2000
G1 X52.8989 Y2011.6295 Z-21.0000 F2750
G1 X52.8632 Y2012.1631 Z-21.0000 F2750
G1 X52.7506 Y2012.7086 Z-21.0000 F2750
G1 X52.5561 Y2013.2495 Z-21.0000 F2750
G1 X52.2795 Y2013.7675 Z-21.0000 F2750
G1 X51.9256 Y2014.2443 Z-21.0000 F2750
G1 X51.5051 Y2014.6635 Z-21.0000 F2750
G1 X51.0326 Y2015.0124 Z-21.0000 F2750
G1 X50.5256 Y2015.2832 Z-21.0000 F2750
G1 X50.0023 Y2015.4736 Z-21.0000 F2750
G1 X49.4795 Y2015.5863 Z-21.0000 F2750
G1 X48.6900 Y2015.6362 Z-21.0000 F2750
G1 X47.8989 Y2015.6285 Z-21.0000 F2750
G1 X47.8989 Y2017.6298 Z-21.0000 F2750
G1 X85.9008 Y2017.6298 Z-21.0000 F2750
G1 X85.9008 Y2015.6285 Z-21.0000 F2750
G1 X85.1098 Y2015.6362 Z-21.0000 F2750
G1 X84.3203 Y2015.5863 Z-21.0000 F2750
G1 X83.7975 Y2015.4736 Z-21.0000 F2750
G1 X83.2742 Y2015.2832 Z-21.0000 F2750
G1 X82.7672 Y2015.0124 Z-21.0000 F2750
G1 X82.2947 Y2014.6635 Z-21.0000 F2750
G1 X81.8742 Y2014.2443 Z-21.0000 F2750
G1 X81.5204 Y2013.7675 Z-21.0000 F2750
G1 X81.2437 Y2013.2495 Z-21.0000 F2750
G1 X81.0492 Y2012.7086 Z-21.0000 F2750
G1 X80.9366 Y2012.1631 Z-21.0000 F2750
G1 X80.9009 Y2011.6295 Z-21.0000 F2750
G1 X80.9009 Y1851.6297 Z-21.0000 F2750
G1 X80.9366 Y1851.0961 Z-21.0000 F2750
G1 X81.0492 Y1850.5506 Z-21.0000 F2750
G1 X81.2437 Y1850.0097 Z-21.0000 F2750
G1 X81.5204 Y1849.4917 Z-21.0000 F2750
G1 X81.8742 Y1849.0149 Z-21.0000 F2750
G1 X82.2947 Y1848.5957 Z-21.0000 F2750
G1 X82.7672 Y1848.2468 Z-21.0000 F2750
G1 X83.2742 Y1847.9760 Z-21.0000 F2750
G1 X83.7975 Y1847.7856 Z-21.0000 F2750
G1 X84.3203 Y1847.6729 Z-21.0000 F2750
G1 X85.1098 Y1847.6230 Z-21.0000 F2750
G1 X85.9008 Y1847.6307 Z-21.0000 F2750
G1 X85.9008 Y1845.6278 Z-21.0000 F2750
G1 X47.8989 Y1845.6278 Z-21.0000 F2750
G1 X47.8989 Y1847.6307 Z-21.0000 F2750
G1 X48.6900 Y1847.6230 Z-21.0000 F2750
G1 X49.4795 Y1847.6729 Z-21.0000 F2750
G1 X50.0023 Y1847.7856 Z-21.0000 F2750
G1 X50.5256 Y1847.9760 Z-21.0000 F2750
G1 X51.0326 Y1848.2468 Z-21.0000 F2750
G1 X51.5051 Y1848.5957 Z-21.0000 F2750
G1 X51.9256 Y1849.0149 Z-21.0000 F2750
G1 X52.2795 Y1849.4917 Z-21.0000 F2750
G1 X52.5561 Y1850.0097 Z-21.0000 F2750
G1 X52.7506 Y1850.5506 Z-21.0000 F2750
G1 X52.8632 Y1851.0961 Z-21.0000 F2750
G1 X52.8989 Y1851.6297 Z-21.0000 F2750
G1 X52.8989 Y1931.6296 Z-21.0000 F2750
G1 X52.8989 Y1931.6296 Z10.0000 F9999
G1 X1166.8987 Y1931.6296 Z10.0000 F9999
G1 X1166.8987 Y1931.6296 Z1.0000 F2000
G1 X1166.8987 Y1892.6585 Z-10.0000 F2000
G1 X1166.8987 Y1931.6296 Z-21.0000 F2000
G1 X1166.8987 Y1851.6297 Z-21.0000 F2750
G1 X1166.9344 Y1851.0961 Z-21.0000 F2750
G1 X1167.0470 Y1850.5506 Z-21.0000 F2750
G1 X1167.2415 Y1850.0097 Z-21.0000 F2750
G1 X1167.5182 Y1849.4917 Z-21.0000 F2750
G1 X1167.8720 Y1849.0149 Z-21.0000 F2750
G1 X1168.2925 Y1848.5957 Z-21.0000 F2750
G1 X1168.7650 Y1848.2468 Z-21.0000 F2750
G1 X1169.2720 Y1847.9760 Z-21.0000 F2750
G1 X1169.7954 Y1847.7856 Z-21.0000 F2750
G1 X1170.3181 Y1847.6729 Z-21.0000 F2750
G1 X1171.1076 Y1847.6230 Z-21.0000 F2750
G1 X1171.8986 Y1847.6307 Z-21.0000 F2750
G1 X1171.8986 Y1845.6278 Z-21.0000 F2750
G1 X1133.8967 Y1845.6278 Z-21.0000 F2750
G1 X1133.8967 Y1847.6307 Z-21.0000 F2750
G1 X1134.6877 Y1847.6230 Z-21.0000 F2750
G1 X1135.4772 Y1847.6729 Z-21.0000 F2750
G1 X1136.0000 Y1847.7856 Z-21.0000 F2750
G1 X1136.5234 Y1847.9760 Z-21.0000 F2750
G1 X1137.0304 Y1848.2468 Z-21.0000 F2750
G1 X1137.5028 Y1848.5957 Z-21.0000 F2750
G1 X1137.9234 Y1849.0149 Z-21.0000 F2750
G1 X1138.2772 Y1849.4917 Z-21.0000 F2750
G1 X1138.5539 Y1850.0097 Z-21.0000 F2750
G1 X1138.7483 Y1850.5506 Z-21.0000 F2750
G1 X1138.8609 Y1851.0961 Z-21.0000 F2750
G1 X1138.8967 Y1851.6297 Z-21.0000 F2750
G1 X1138.8967 Y2011.6295 Z-21.0000 F2750
G1 X1138.8609 Y2012.1631 Z-21.0000 F2750
G1 X1138.7483 Y2012.7086 Z-21.0000 F2750
G1 X1138.5539 Y2013.2495 Z-21.0000 F2750
G1 X1138.2772 Y2013.7675 Z-21.0000 F2750
G1 X1137.9234 Y2014.2443 Z-21.0000 F2750
G1 X1137.5028 Y2014.6635 Z-21.0000 F2750
G1 X1137.0304 Y2015.0124 Z-21.0000 F2750
G1 X1136.5234 Y2015.2832 Z-21.0000 F2750
G1 X1136.0000 Y2015.4736 Z-21.0000 F2750
G1 X1135.4772 Y2015.5863 Z-21.0000 F2750
G1 X1134.6877 Y2015.6362 Z-21.0000 F2750
G1 X1133.8967 Y2015.6285 Z-21.0000 F2750
G1 X1133.8967 Y2017.6298 Z-21.0000 F2750
G1 X1171.8986 Y2017.6298 Z-21.0000 F2750
G1 X1171.8986 Y2015.6285 Z-21.0000 F2750
G1 X1171.1076 Y2015.6362 Z-21.0000 F2750
G1 X1170.3181 Y2015.5863 Z-21.0000 F2750
G1 X1169.7954 Y2015.4736 Z-21.0000 F2750
G1 X1169.2720 Y2015.2832 Z-21.0000 F2750
G1 X1168.7650 Y2015.0124 Z-21.0000 F2750
G1 X1168.2925 Y2014.6635 Z-21.0000 F2750
G1 X1167.8720 Y2014.2443 Z-21.0000 F2750
G1 X1167.5182 Y2013.7675 Z-21.0000 F2750
G1 X1167.2415 Y2013.2495 Z-21.0000 F2750
G1 X1167.0470 Y2012.7086 Z-21.0000 F2750
G1 X1166.9344 Y2012.1631 Z-21.0000 F2750
G1 X1166.8987 Y2011.6295 Z-21.0000 F2750
G1 X1166.8987 Y1931.6296 Z-21.0000 F2750
G1 X1166.8987 Y1931.6296 Z10.0000 F9999
G1 X1138.8967 Y1631.6301 Z10.0000 F9999
G1 X1138.8967 Y1631.6301 Z1.0000 F2000
G1 X1138.8967 Y1670.6013 Z-10.0000 F2000
G1 X1138.8967 Y1631.6301 Z-21.0000 F2000
G1 X1138.8967 Y1711.6300 Z-21.0000 F2750
G1 X1138.8609 Y1712.1636 Z-21.0000 F2750
G1 X1138.7483 Y1712.7090 Z-21.0000 F2750
G1 X1138.5539 Y1713.2499 Z-21.0000 F2750
G1 X1138.2772 Y1713.7679 Z-21.0000 F2750
G1 X1137.9234 Y1714.2448 Z-21.0000 F2750
G1 X1137.5028 Y1714.6640 Z-21.0000 F2750
G1 X1137.0304 Y1715.0128 Z-21.0000 F2750
G1 X1136.5234 Y1715.2836 Z-21.0000 F2750
G1 X1136.0000 Y1715.4740 Z-21.0000 F2750
G1 X1135.4772 Y1715.5867 Z-21.0000 F2750
G1 X1134.6877 Y1715.6366 Z-21.0000 F2750
G1 X1133.8967 Y1715.6290 Z-21.0000 F2750
G1 X1133.8967 Y1717.6302 Z-21.0000 F2750
G1 X1153.8987 Y1717.6302 Z-21.0000 F2750
G1 X1153.8987 Y1715.6290 Z-21.0000 F2750
G1 X1153.1076 Y1715.6366 Z-21.0000 F2750
G1 X1152.3181 Y1715.5867 Z-21.0000 F2750
G1 X1151.7954 Y1715.4740 Z-21.0000 F2750
G1 X1151.2720 Y1715.2836 Z-21.0000 F2750
G1 X1150.7650 Y1715.0128 Z-21.0000 F2750
G1 X1150.2925 Y1714.6640 Z-21.0000 F2750
G1 X1149.8720 Y1714.2448 Z-21.0000 F2750
G1 X1149.5182 Y1713.7679 Z-21.0000 F2750
G1 X1149.2415 Y1713.2499 Z-21.0000 F2750
G1 X1149.0470 Y1712.7090 Z-21.0000 F2750
G1 X1148.9344 Y1712.1636 Z-21.0000 F2750
G1 X1148.8987 Y1711.6300 Z-21.0000 F2750
G1 X1148.8987 Y1640.6303 Z-21.0000 F2750
G1 X1148.9467 Y1640.0125 Z-21.0000 F2750
G1 X1149.0932 Y1639.3983 Z-21.0000 F2750
G1 X1149.3363 Y1638.8113 Z-21.0000 F2750
G1 X1149.6670 Y1638.2735 Z-21.0000 F2750
G1 X1150.0700 Y1637.8026 Z-21.0000 F2750
G1 X1150.5408 Y1637.3997 Z-21.0000 F2750
G1 X1151.0787 Y1637.0690 Z-21.0000 F2750
G1 X1151.6657 Y1636.8259 Z-21.0000 F2750
G1 X1152.2798 Y1636.6794 Z-21.0000 F2750
G1 X1152.8977 Y1636.6313 Z-21.0000 F2750
G1 X1173.8977 Y1636.6313 Z-21.0000 F2750
G1 X1174.4313 Y1636.6671 Z-21.0000 F2750
G1 X1174.9767 Y1636.7797 Z-21.0000 F2750
G1 X1175.5176 Y1636.9741 Z-21.0000 F2750
G1 X1176.0356 Y1637.2508 Z-21.0000 F2750
G1 X1176.5125 Y1637.6047 Z-21.0000 F2750
G1 X1176.9317 Y1638.0252 Z-21.0000 F2750
G1 X1177.2805 Y1638.4977 Z-21.0000 F2750
G1 X1177.5513 Y1639.0046 Z-21.0000 F2750
G1 X1177.7418 Y1639.5280 Z-21.0000 F2750
G1 X1177.8545 Y1640.0508 Z-21.0000 F2750
G1 X1177.9043 Y1640.8401 Z-21.0000 F2750
G1 X1177.8967 Y1641.6309 Z-21.0000 F2750
G1 X1179.8986 Y1641.6309 Z-21.0000 F2750
G1 X1179.8986 Y1621.6293 Z-21.0000 F2750
G1 X1177.8967 Y1621.6293 Z-21.0000 F2750
G1 X1177.9043 Y1622.4202 Z-21.0000 F2750
G1 X1177.8545 Y1623.2096 Z-21.0000 F2750
G1 X1177.7418 Y1623.7323 Z-21.0000 F2750
G1 X1177.5513 Y1624.2557 Z-21.0000 F2750
G1 X1177.2805 Y1624.7627 Z-21.0000 F2750
G1 X1176.9317 Y1625.2352 Z-21.0000 F2750
G1 X1176.5125 Y1625.6557 Z-21.0000 F2750
G1 X1176.0356 Y1626.0095 Z-21.0000 F2750
G1 X1175.5176 Y1626.2862 Z-21.0000 F2750
G1 X1174.9767 Y1626.4807 Z-21.0000 F2750
G1 X1174.4313 Y1626.5933 Z-21.0000 F2750
G1 X1173.8977 Y1626.6290 Z-21.0000 F2750
G1 X1152.8977 Y1626.6290 Z-21.0000 F2750
G1 X1152.3181 Y1626.5868 Z-21.0000 F2750
G1 X1151.7227 Y1626.4525 Z-21.0000 F2750
G1 X1151.1331 Y1626.2186 Z-21.0000 F2750
G1 X1150.5738 Y1625.8845 Z-21.0000 F2750
G1 X1150.0700 Y1625.4577 Z-21.0000 F2750
G1 X1149.6432 Y1624.9539 Z-21.0000 F2750
G1 X1149.3091 Y1624.3946 Z-21.0000 F2750
G1 X1149.0752 Y1623.8050 Z-21.0000 F2750
G1 X1148.9409 Y1623.2096 Z-21.0000 F2750
G1 X1148.8987 Y1622.6300 Z-21.0000 F2750
G1 X1148.8987 Y1551.6303 Z-21.0000 F2750
G1 X1148.9344 Y1551.0967 Z-21.0000 F2750
G1 X1149.0470 Y1550.5513 Z-21.0000 F2750
G1 X1149.2415 Y1550.0104 Z-21.0000 F2750
G1 X1149.5182 Y1549.4923 Z-21.0000 F2750
G1 X1149.8720 Y1549.0155 Z-21.0000 F2750
G1 X1150.2925 Y1548.5963 Z-21.0000 F2750
G1 X1150.7650 Y1548.2475 Z-21.0000 F2750
G1 X1151.2720 Y1547.9767 Z-21.0000 F2750
G1 X1151.7954 Y1547.7862 Z-21.0000 F2750
G1 X1152.3181 Y1547.6735 Z-21.0000 F2750
G1 X1153.1076 Y1547.6237 Z-21.0000 F2750
G1 X1153.8987 Y1547.6313 Z-21.0000 F2750
G1 X1153.8987 Y1545.6284 Z-21.0000 F2750
G1 X1133.8967 Y1545.6284 Z-21.0000 F2750
G1 X1133.8967 Y1547.6313 Z-21.0000 F2750
G1 X1134.6877 Y1547.6237 Z-21.0000 F2750
G1 X1135.4772 Y1547.6735 Z-21.0000 F2750
G1 X1136.0000 Y1547.7862 Z-21.0000 F2750
G1 X1136.5234 Y1547.9767 Z-21.0000 F2750
G1 X1137.0304 Y1548.2475 Z-21.0000 F2750
G1 X1137.5028 Y1548.5963 Z-21.0000 F2750
G1 X1137.9234 Y1549.0155 Z-21.0000 F2750
G1 X1138.2772 Y1549.4923 Z-21.0000 F2750
G1 X1138.5539 Y1550.0104 Z-21.0000 F2750
G1 X1138.7483 Y1550.5513 Z-21.0000 F2750
G1 X1138.8609 Y1551.0967 Z-21.0000 F2750
G1 X1138.8967 Y1551.6303 Z-21.0000 F2750
G1 X1138.8967 Y1631.6301 Z-21.0000 F2750
G1 X1138.8967 Y1631.6301 Z10.0000 F9999
G1 X1148.8987 Y1301.5395 Z10.0000 F9999
G1 X1148.8987 Y1301.5395 Z1.0000 F2000
G1 X1148.8987 Y1262.5683 Z-10.0000 F2000
G1 X1148.8987 Y1301.5395 Z-21.0000 F2000
G1 X1148.8987 Y1221.5395 Z-21.0000 F2750
G1 X1148.9344 Y1221.0059 Z-21.0000 F2750
G1 X1149.0470 Y1220.4604 Z-21.0000 F2750
G1 X1149.2415 Y1219.9195 Z-21.0000 F2750
G1 X1149.5182 Y1219.4015 Z-21.0000 F2750
G1 X1149.8720 Y1218.9247 Z-21.0000 F2750
G1 X1150.2925 Y1218.5055 Z-21.0000 F2750
G1 X1150.7650 Y1218.1566 Z-21.0000 F2750
G1 X1151.2720 Y1217.8858 Z-21.0000 F2750
G1 X1151.7954 Y1217.6954 Z-21.0000 F2750
G1 X1152.3181 Y1217.5827 Z-21.0000 F2750
G1 X1153.1076 Y1217.5328 Z-21.0000 F2750
G1 X1153.8987 Y1217.5405 Z-21.0000 F2750
G1 X1153.8987 Y1215.5379 Z-21.0000 F2750
G1 X1133.8967 Y1215.5379 Z-21.0000 F2750
G1 X1133.8967 Y1217.5405 Z-21.0000 F2750
G1 X1134.6877 Y1217.5328 Z-21.0000 F2750
G1 X1135.4772 Y1217.5827 Z-21.0000 F2750
G1 X1136.0000 Y1217.6954 Z-21.0000 F2750
G1 X1136.5234 Y1217.8858 Z-21.0000 F2750
G1 X1137.0304 Y1218.1566 Z-21.0000 F2750
G1 X1137.5028 Y1218.5055 Z-21.0000 F2750
G1 X1137.9234 Y1218.9247 Z-21.0000 F2750
G1 X1138.2772 Y1219.4015 Z-21.0000 F2750
G1 X1138.5539 Y1219.9195 Z-21.0000 F2750
G1 X1138.7483 Y1220.4604 Z-21.0000 F2750
G1 X1138.8609 Y1221.0059 Z-21.0000 F2750
G1 X1138.8967 Y1221.5395 Z-21.0000 F2750
G1 X1138.8967 Y1381.5395 Z-21.0000 F2750
G1 X1138.8609 Y1382.0731 Z-21.0000 F2750
G1 X1138.7483 Y1382.6185 Z-21.0000 F2750
G1 X1138.5539 Y1383.1594 Z-21.0000 F2750
G1 X1138.2772 Y1383.6775 Z-21.0000 F2750
G1 X1137.9234 Y1384.1543 Z-21.0000 F2750
G1 X1137.5028 Y1384.5735 Z-21.0000 F2750
G1 X1137.0304 Y1384.9223 Z-21.0000 F2750
G1 X1136.5234 Y1385.1931 Z-21.0000 F2750
G1 X1136.0000 Y1385.3836 Z-21.0000 F2750
G1 X1135.4772 Y1385.4963 Z-21.0000 F2750
G1 X1134.6877 Y1385.5461 Z-21.0000 F2750
G1 X1133.8967 Y1385.5385 Z-21.0000 F2750
G1 X1133.8967 Y1387.5399 Z-21.0000 F2750
G1 X1153.8987 Y1387.5399 Z-21.0000 F2750
G1 X1153.8987 Y1385.5385 Z-21.0000 F2750
G1 X1153.1076 Y1385.5461 Z-21.0000 F2750
G1 X1152.3181 Y1385.4963 Z-21.0000 F2750
G1 X1151.7954 Y1385.3836 Z-21.0000 F2750
G1 X1151.2720 Y1385.1931 Z-21.0000 F2750
G1 X1150.7650 Y1384.9223 Z-21.0000 F2750
G1 X1150.2925 Y1384.5735 Z-21.0000 F2750
G1 X1149.8720 Y1384.1543 Z-21.0000 F2750
G1 X1149.5182 Y1383.6775 Z-21.0000 F2750
G1 X1149.2415 Y1383.1594 Z-21.0000 F2750
G1 X1149.0470 Y1382.6185 Z-21.0000 F2750
G1 X1148.9344 Y1382.0731 Z-21.0000 F2750
G1 X1148.8987 Y1381.5395 Z-21.0000 F2750
G1 X1148.8987 Y1301.5395 Z-21.0000 F2750
G1 X1148.8987 Y1301.5395 Z10.0000 F9999
G1 X1138.8967 Y971.4476 Z10.0000 F9999
G1 X1138.8967 Y971.4476 Z1.0000 F2000
G1 X1138.8967 Y1010.4187 Z-10.0000 F2000
G1 X1138.8967 Y971.4476 Z-21.0000 F2000
G1 X1138.8967 Y1051.4475 Z-21.0000 F2750
G1 X1138.8609 Y1051.9811 Z-21.0000 F2750
G1 X1138.7483 Y1052.5266 Z-21.0000 F2750
G1 X1138.5539 Y1053.0674 Z-21.0000 F2750
G1 X1138.2772 Y1053.5855 Z-21.0000 F2750
G1 X1137.9234 Y1054.0623 Z-21.0000 F2750
G1 X1137.5028 Y1054.4815 Z-21.0000 F2750
G1 X1137.0304 Y1054.8304 Z-21.0000 F2750
G1 X1136.5234 Y1055.1011 Z-21.0000 F2750
G1 X1136.0000 Y1055.2916 Z-21.0000 F2750
G1 X1135.4772 Y1055.4043 Z-21.0000 F2750
G1 X1134.6877 Y1055.4541 Z-21.0000 F2750
G1 X1133.8967 Y1055.4465 Z-21.0000 F2750
G1 X1133.8967 Y1057.4494 Z-21.0000 F2750
G1 X1153.8987 Y1057.4494 Z-21.0000 F2750
G1 X1153.8987 Y1055.4465 Z-21.0000 F2750
G1 X1153.1076 Y1055.4541 Z-21.0000 F2750
G1 X1152.3181 Y1055.4043 Z-21.0000 F2750
G1 X1151.7954 Y1055.2916 Z-21.0000 F2750
G1 X1151.2720 Y1055.1011 Z-21.0000 F2750
G1 X1150.7650 Y1054.8304 Z-21.0000 F2750
G1 X1150.2925 Y1054.4815 Z-21.0000 F2750
G1 X1149.8720 Y1054.0623 Z-21.0000 F2750
G1 X1149.5182 Y1053.5855 Z-21.0000 F2750
G1 X1149.2415 Y1053.0674 Z-21.0000 F2750
G1 X1149.0470 Y1052.5266 Z-21.0000 F2750
G1 X1148.9344 Y1051.9811 Z-21.0000 F2750
G1 X1148.8987 Y1051.4475 Z-21.0000 F2750
G1 X1148.8987 Y980.4476 Z-21.0000 F2750
G1 X1148.9467 Y979.8298 Z-21.0000 F2750
G1 X1149.0932 Y979.2156 Z-21.0000 F2750
G1 X1149.3363 Y978.6286 Z-21.0000 F2750
G1 X1149.6670 Y978.0908 Z-21.0000 F2750
G1 X1150.0700 Y977.6199 Z-21.0000 F2750
G1 X1150.5408 Y977.2170 Z-21.0000 F2750
G1 X1151.0787 Y976.8863 Z-21.0000 F2750
G1 X1151.6657 Y976.6432 Z-21.0000 F2750
G1 X1152.2798 Y976.4967 Z-21.0000 F2750
G1 X1152.8977 Y976.4486 Z-21.0000 F2750
G1 X1173.8977 Y976.4486 Z-21.0000 F2750
G1 X1174.4313 Y976.4844 Z-21.0000 F2750
G1 X1174.9767 Y976.5970 Z-21.0000 F2750
G1 X1175.5176 Y976.7914 Z-21.0000 F2750
G1 X1176.0356 Y977.0681 Z-21.0000 F2750
G1 X1176.5125 Y977.4220 Z-21.0000 F2750
G1 X1176.9317 Y977.8425 Z-21.0000 F2750
G1 X1177.2805 Y978.3150 Z-21.0000 F2750
G1 X1177.5513 Y978.8219 Z-21.0000 F2750
G1 X1177.7418 Y979.3453 Z-21.0000 F2750
G1 X1177.8545 Y979.8681 Z-21.0000 F2750
G1 X1177.9043 Y980.6575 Z-21.0000 F2750
G1 X1177.8967 Y981.4484 Z-21.0000 F2750
G1 X1179.8986 Y981.4484 Z-21.0000 F2750
G1 X1179.8986 Y961.4467 Z-21.0000 F2750
G1 X1177.8967 Y961.4467 Z-21.0000 F2750
G1 X1177.9043 Y962.2376 Z-21.0000 F2750
G1 X1177.8545 Y963.0270 Z-21.0000 F2750
G1 X1177.7418 Y963.5498 Z-21.0000 F2750
G1 X1177.5513 Y964.0731 Z-21.0000 F2750
G1 X1177.2805 Y964.5801 Z-21.0000 F2750
G1 X1176.9317 Y965.0526 Z-21.0000 F2750
G1 X1176.5125 Y965.4731 Z-21.0000 F2750
G1 X1176.0356 Y965.8269 Z-21.0000 F2750
G1 X1175.5176 Y966.1036 Z-21.0000 F2750
G1 X1174.9767 Y966.2981 Z-21.0000 F2750
G1 X1174.4313 Y966.4107 Z-21.0000 F2750
G1 X1173.8977 Y966.4464 Z-21.0000 F2750
G1 X1152.8977 Y966.4464 Z-21.0000 F2750
G1 X1152.2798 Y966.3984 Z-21.0000 F2750
G1 X1151.6657 Y966.2519 Z-21.0000 F2750
G1 X1151.0787 Y966.0088 Z-21.0000 F2750
G1 X1150.5408 Y965.6781 Z-21.0000 F2750
G1 X1150.0700 Y965.2751 Z-21.0000 F2750
G1 X1149.6670 Y964.8043 Z-21.0000 F2750
G1 X1149.3363 Y964.2664 Z-21.0000 F2750
G1 X1149.0932 Y963.6794 Z-21.0000 F2750
G1 X1148.9467 Y963.0653 Z-21.0000 F2750
G1 X1148.8987 Y962.4474 Z-21.0000 F2750
G1 X1148.8987 Y891.4476 Z-21.0000 F2750
G1 X1148.9344 Y890.9140 Z-21.0000 F2750
G1 X1149.0470 Y890.3686 Z-21.0000 F2750
G1 X1149.2415 Y889.8277 Z-21.0000 F2750
G1 X1149.5182 Y889.3097 Z-21.0000 F2750
G1 X1149.8720 Y888.8328 Z-21.0000 F2750
G1 X1150.2925 Y888.4136 Z-21.0000 F2750
G1 X1150.7650 Y888.0648 Z-21.0000 F2750
G1 X1151.2720 Y887.7940 Z-21.0000 F2750
G1 X1151.7954 Y887.6035 Z-21.0000 F2750
G1 X1152.3181 Y887.4908 Z-21.0000 F2750
G1 X1153.1076 Y887.4410 Z-21.0000 F2750
G1 X1153.8987 Y887.4486 Z-21.0000 F2750
G1 X1153.8987 Y885.4475 Z-21.0000 F2750
G1 X1133.8967 Y885.4475 Z-21.0000 F2750
G1 X1133.8967 Y887.4486 Z-21.0000 F2750
G1 X1134.6877 Y887.4410 Z-21.0000 F2750
G1 X1135.4772 Y887.4908 Z-21.0000 F2750
G1 X1136.0000 Y887.6035 Z-21.0000 F2750
G1 X1136.5234 Y887.7940 Z-21.0000 F2750
G1 X1137.0304 Y888.0648 Z-21.0000 F2750
G1 X1137.5028 Y888.4136 Z-21.0000 F2750
G1 X1137.9234 Y888.8328 Z-21.0000 F2750
G1 X1138.2772 Y889.3097 Z-21.0000 F2750
G1 X1138.5539 Y889.8277 Z-21.0000 F2750
G1 X1138.7483 Y890.3686 Z-21.0000 F2750
G1 X1138.8609 Y890.9140 Z-21.0000 F2750
G1 X1138.8967 Y891.4476 Z-21.0000 F2750
G1 X1138.8967 Y971.4476 Z-21.0000 F2750
G1 X1138.8967 Y971.4476 Z10.0000 F9999
G1 X1138.8967 Y671.4481 Z10.0000 F9999
G1 X1138.8967 Y671.4481 Z1.0000 F2000
G1 X1138.8967 Y710.4192 Z-10.0000 F2000
G1 X1138.8967 Y671.4481 Z-21.0000 F2000
G1 X1138.8967 Y751.4480 Z-21.0000 F2750
G1 X1138.8609 Y751.9816 Z-21.0000 F2750
G1 X1138.7483 Y752.5271 Z-21.0000 F2750
G1 X1138.5539 Y753.0679 Z-21.0000 F2750
G1 X1138.2772 Y753.5860 Z-21.0000 F2750
G1 X1137.9234 Y754.0628 Z-21.0000 F2750
G1 X1137.5028 Y754.4820 Z-21.0000 F2750
G1 X1137.0304 Y754.8309 Z-21.0000 F2750
G1 X1136.5234 Y755.1016 Z-21.0000 F2750
G1 X1136.0000 Y755.2921 Z-21.0000 F2750
G1 X1135.4772 Y755.4048 Z-21.0000 F2750
G1 X1134.6877 Y755.4546 Z-21.0000 F2750
G1 X1133.8967 Y755.4470 Z-21.0000 F2750
G1 X1133.8967 Y757.4498 Z-21.0000 F2750
G1 X1171.8986 Y757.4498 Z-21.0000 F2750
G1 X1171.8986 Y755.4470 Z-21.0000 F2750
G1 X1171.1076 Y755.4546 Z-21.0000 F2750
G1 X1170.3181 Y755.4048 Z-21.0000 F2750
G1 X1169.7954 Y755.2921 Z-21.0000 F2750
G1 X1169.2720 Y755.1016 Z-21.0000 F2750
G1 X1168.7650 Y754.8309 Z-21.0000 F2750
G1 X1168.2925 Y754.4820 Z-21.0000 F2750
G1 X1167.8720 Y754.0628 Z-21.0000 F2750
G1 X1167.5182 Y753.5860 Z-21.0000 F2750
G1 X1167.2415 Y753.0679 Z-21.0000 F2750
G1 X1167.0470 Y752.5271 Z-21.0000 F2750
G1 X1166.9344 Y751.9816 Z-21.0000 F2750
G1 X1166.8987 Y751.4480 Z-21.0000 F2750
G1 X1166.8987 Y591.4482 Z-21.0000 F2750
G1 X1166.9344 Y590.9145 Z-21.0000 F2750
G1 X1167.0470 Y590.3691 Z-21.0000 F2750
G1 X1167.2415 Y589.8282 Z-21.0000 F2750
G1 X1167.5182 Y589.3102 Z-21.0000 F2750
G1 X1167.8720 Y588.8334 Z-21.0000 F2750
G1 X1168.2925 Y588.4142 Z-21.0000 F2750
G1 X1168.7650 Y588.0653 Z-21.0000 F2750
G1 X1169.2720 Y587.7945 Z-21.0000 F2750
G1 X1169.7954 Y587.6041 Z-21.0000 F2750
G1 X1170.3181 Y587.4914 Z-21.0000 F2750
G1 X1171.1076 Y587.4415 Z-21.0000 F2750
G1 X1171.8986 Y587.4492 Z-21.0000 F2750
G1 X1171.8986 Y585.4478 Z-21.0000 F2750
G1 X1133.8967 Y585.4478 Z-21.0000 F2750
G1 X1133.8967 Y587.4492 Z-21.0000 F2750
G1 X1134.6877 Y587.4415 Z-21.0000 F2750
G1 X1135.4772 Y587.4914 Z-21.0000 F2750
G1 X1136.0000 Y587.6041 Z-21.0000 F2750
G1 X1136.5234 Y587.7945 Z-21.0000 F2750
G1 X1137.0304 Y588.0653 Z-21.0000 F2750
G1 X1137.5028 Y588.4142 Z-21.0000 F2750
G1 X1137.9234 Y588.8334 Z-21.0000 F2750
G1 X1138.2772 Y589.3102 Z-21.0000 F2750
G1 X1138.5539 Y589.8282 Z-21.0000 F2750
G1 X1138.7483 Y590.3691 Z-21.0000 F2750
G1 X1138.8609 Y590.9145 Z-21.0000 F2750
G1 X1138.8967 Y591.4482 Z-21.0000 F2750
G1 X1138.8967 Y671.4481 Z-21.0000 F2750
G1 X1138.8967 Y671.4481 Z10.0000 F9999
G1 X1166.8987 Y371.4495 Z10.0000 F9999
G1 X1166.8987 Y371.4495 Z1.0000 F2000
G1 X1166.8987 Y332.4783 Z-10.0000 F2000
G1 X1166.8987 Y371.4495 Z-21.0000 F2000
G1 X1166.8987 Y291.4504 Z-21.0000 F2750
G1 X1166.9344 Y290.9168 Z-21.0000 F2750
G1 X1167.0470 Y290.3714 Z-21.0000 F2750
G1 X1167.2415 Y289.8305 Z-21.0000 F2750
G1 X1167.5182 Y289.3125 Z-21.0000 F2750
G1 X1167.8720 Y288.8356 Z-21.0000 F2750
G1 X1168.2925 Y288.4164 Z-21.0000 F2750
G1 X1168.7650 Y288.0676 Z-21.0000 F2750
G1 X1169.2720 Y287.7968 Z-21.0000 F2750
G1 X1169.7954 Y287.6064 Z-21.0000 F2750
G1 X1170.3181 Y287.4937 Z-21.0000 F2750
G1 X1171.1076 Y287.4438 Z-21.0000 F2750
G1 X1171.8986 Y287.4514 Z-21.0000 F2750
G1 X1171.8986 Y285.4483 Z-21.0000 F2750
G1 X1133.8967 Y285.4483 Z-21.0000 F2750
G1 X1133.8967 Y287.4514 Z-21.0000 F2750
G1 X1134.6877 Y287.4438 Z-21.0000 F2750
G1 X1135.4772 Y287.4937 Z-21.0000 F2750
G1 X1136.0000 Y287.6064 Z-21.0000 F2750
G1 X1136.5234 Y287.7968 Z-21.0000 F2750
G1 X1137.0304 Y288.0676 Z-21.0000 F2750
G1 X1137.5028 Y288.4164 Z-21.0000 F2750
G1 X1137.9234 Y288.8356 Z-21.0000 F2750
G1 X1138.2772 Y289.3125 Z-21.0000 F2750
G1 X1138.5539 Y289.8305 Z-21.0000 F2750
G1 X1138.7483 Y290.3714 Z-21.0000 F2750
G1 X1138.8609 Y290.9168 Z-21.0000 F2750
G1 X1138.8967 Y291.4504 Z-21.0000 F2750
G1 X1138.8967 Y451.4485 Z-21.0000 F2750
G1 X1138.8609 Y451.9822 Z-21.0000 F2750
G1 X1138.7483 Y452.5276 Z-21.0000 F2750
G1 X1138.5539 Y453.0685 Z-21.0000 F2750
G1 X1138.2772 Y453.5865 Z-21.0000 F2750
G1 X1137.9234 Y454.0634 Z-21.0000 F2750
G1 X1137.5028 Y454.4825 Z-21.0000 F2750
G1 X1137.0304 Y454.8314 Z-21.0000 F2750
G1 X1136.5234 Y455.1022 Z-21.0000 F2750
G1 X1136.0000 Y455.2926 Z-21.0000 F2750
G1 X1135.4772 Y455.4053 Z-21.0000 F2750
G1 X1134.6877 Y455.4552 Z-21.0000 F2750
G1 X1133.8967 Y455.4475 Z-21.0000 F2750
G1 X1133.8967 Y457.4503 Z-21.0000 F2750
G1 X1171.8986 Y457.4503 Z-21.0000 F2750
G1 X1171.8986 Y455.4475 Z-21.0000 F2750
G1 X1171.1076 Y455.4552 Z-21.0000 F2750
G1 X1170.3181 Y455.4053 Z-21.0000 F2750
G1 X1169.7954 Y455.2926 Z-21.0000 F2750
G1 X1169.2720 Y455.1022 Z-21.0000 F2750
G1 X1168.7650 Y454.8314 Z-21.0000 F2750
G1 X1168.2925 Y454.4825 Z-21.0000 F2750
G1 X1167.8720 Y454.0634 Z-21.0000 F2750
G1 X1167.5182 Y453.5865 Z-21.0000 F2750
G1 X1167.2415 Y453.0685 Z-21.0000 F2750
G1 X1167.0470 Y452.5276 Z-21.0000 F2750
G1 X1166.9344 Y451.9822 Z-21.0000 F2750
G1 X1166.8987 Y451.4485 Z-21.0000 F2750
G1 X1166.8987 Y371.4495 Z-21.0000 F2750
G1 X1166.8987 Y371.4495 Z10.0000 F9999
(Tool Number:1) (7.998 mm dia. slot drill)
M3 S19000
G1 X609.8988 Y2131.9671 Z10.0000 F9999
G1 X609.8988 Y2131.9671 Z1.0000 F2000
G1 X648.8700 Y2131.9671 Z-10.0000 F2000
G1 X609.8988 Y2131.9671 Z-21.0000 F2000
G1 X1213.8967 Y2131.9671 Z-21.0000 F2750
G1 X1213.8967 Y2249.9648 Z-21.0000 F2750
G1 X1166.8987 Y2249.9648 Z-21.0000 F2750
G1 X1166.8987 Y2186.9669 Z-21.0000 F2750
G1 X1171.8987 Y2186.9669 Z-21.0000 F2750
G1 X1171.8987 Y2184.9649 Z-21.0000 F2750
G1 X1133.8969 Y2184.9649 Z-21.0000 F2750
G1 X1133.8969 Y2186.9669 Z-21.0000 F2750
G1 X1138.8968 Y2186.9669 Z-21.0000 F2750
G1 X1138.8968 Y2389.9647 Z-21.0000 F2750
G1 X655.8998 Y2389.9647 Z-21.0000 F2750
G1 X655.8998 Y2384.9644 Z-21.0000 F2750
G1 X653.8978 Y2384.9644 Z-21.0000 F2750
G1 X653.8978 Y2407.9644 Z-21.0000 F2750
G1 X565.9000 Y2407.9644 Z-21.0000 F2750
G1 X565.9000 Y2384.9644 Z-21.0000 F2750
G1 X563.8980 Y2384.9644 Z-21.0000 F2750
G1 X563.8980 Y2389.9647 Z-21.0000 F2750
G1 X80.9010 Y2389.9647 Z-21.0000 F2750
G1 X80.9010 Y2186.9669 Z-21.0000 F2750
G1 X85.9010 Y2186.9669 Z-21.0000 F2750
G1 X85.9010 Y2184.9649 Z-21.0000 F2750
G1 X47.8991 Y2184.9649 Z-21.0000 F2750
G1 X47.8991 Y2186.9669 Z-21.0000 F2750
G1 X52.8990 Y2186.9669 Z-21.0000 F2750
G1 X52.8990 Y2249.9648 Z-21.0000 F2750
G1 X5.9010 Y2249.9648 Z-21.0000 F2750
G1 X5.9010 Y2131.9671 Z-21.0000 F2750
G1 X609.8988 Y2131.9671 Z-21.0000 F2750
G1 X609.8988 Y2131.9671 Z10.0000 F9999
G1 X5.9010 Y1061.8894 Z10.0000 F9999
G1 X5.9010 Y1061.8894 Z1.0000 F2000
G1 X5.9010 Y1022.9182 Z-10.0000 F2000
G1 X5.9010 Y1061.8894 Z-21.0000 F2000
G1 X5.9010 Y5.9010 Z-21.0000 F2750
G1 X1213.8967 Y5.9010 Z-21.0000 F2750
G1 X1213.8967 Y2117.8778 Z-21.0000 F2750
G1 X1156.1986 Y2117.8778 Z-21.0000 F2750
G1 X1152.6753 Y2117.0399 Z-21.0000 F2750
G1 X1149.5397 Y2114.3918 Z-21.0000 F2750
G1 X1147.9327 Y2110.6167 Z-21.0000 F2750
G1 X1148.1674 Y2107.0036 Z-21.0000 F2750
G1 X1164.1856 Y2054.9452 Z-21.0000 F2750
G1 X1164.2510 Y2053.9377 Z-21.0000 F2750
G1 X1164.0442 Y2053.4517 Z-21.0000 F2750
G1 X1163.6409 Y2053.1112 Z-21.0000 F2750
G1 X1162.6588 Y2052.8775 Z-21.0000 F2750
G1 X1057.1369 Y2052.8775 Z-21.0000 F2750
G1 X1056.1547 Y2053.1112 Z-21.0000 F2750
G1 X1055.7518 Y2053.4515 Z-21.0000 F2750
G1 X1055.5447 Y2053.9381 Z-21.0000 F2750
G1 X1055.6099 Y2054.9456 Z-21.0000 F2750
G1 X1071.6281 Y2107.0036 Z-21.0000 F2750
G1 X1071.8628 Y2110.6166 Z-21.0000 F2750
G1 X1070.2559 Y2114.3918 Z-21.0000 F2750
G1 X1067.1201 Y2117.0398 Z-21.0000 F2750
G1 X1063.5973 Y2117.8778 Z-21.0000 F2750
G1 X956.1989 Y2117.8778 Z-21.0000 F2750
G1 X952.6758 Y2117.0399 Z-21.0000 F2750
G1 X949.5400 Y2114.3918 Z-21.0000 F2750
G1 X947.9331 Y2110.6166 Z-21.0000 F2750
G1 X948.1678 Y2107.0036 Z-21.0000 F2750
G1 X964.1860 Y2054.9453 Z-21.0000 F2750
G1 X964.2514 Y2053.9380 Z-21.0000 F2750
G1 X964.0443 Y2053.4517 Z-21.0000 F2750
G1 X963.6411 Y2053.1112 Z-21.0000 F2750
G1 X962.6593 Y2052.8775 Z-21.0000 F2750
G1 X857.1373 Y2052.8775 Z-21.0000 F2750
G1 X856.1551 Y2053.1112 Z-21.0000 F2750
G1 X855.7519 Y2053.4517 Z-21.0000 F2750
G1 X855.5449 Y2053.9379 Z-21.0000 F2750
G1 X855.6103 Y2054.9452 Z-21.0000 F2750
G1 X871.6286 Y2107.0036 Z-21.0000 F2750
G1 X871.8631 Y2110.6166 Z-21.0000 F2750
G1 X870.2563 Y2114.3918 Z-21.0000 F2750
G1 X867.1206 Y2117.0399 Z-21.0000 F2750
G1 X863.5975 Y2117.8778 Z-21.0000 F2750
G1 X756.1994 Y2117.8778 Z-21.0000 F2750
G1 X752.6762 Y2117.0399 Z-21.0000 F2750
G1 X749.5405 Y2114.3918 Z-21.0000 F2750
G1 X747.9335 Y2110.6166 Z-21.0000 F2750
G1 X748.1682 Y2107.0036 Z-21.0000 F2750
G1 X764.1865 Y2054.9453 Z-21.0000 F2750
G1 X764.2519 Y2053.9380 Z-21.0000 F2750
G1 X764.0448 Y2053.4517 Z-21.0000 F2750
G1 X763.6416 Y2053.1112 Z-21.0000 F2750
G1 X762.6594 Y2052.8775 Z-21.0000 F2750
G1 X657.1377 Y2052.8775 Z-21.0000 F2750
G1 X656.1555 Y2053.1112 Z-21.0000 F2750
G1 X655.7523 Y2053.4517 Z-21.0000 F2750
G1 X655.5453 Y2053.9379 Z-21.0000 F2750
G1 X655.6107 Y2054.9453 Z-21.0000 F2750
G1 X671.6290 Y2107.0036 Z-21.0000 F2750
G1 X671.8636 Y2110.6167 Z-21.0000 F2750
G1 X670.2566 Y2114.3918 Z-21.0000 F2750
G1 X667.1210 Y2117.0399 Z-21.0000 F2750
G1 X663.5977 Y2117.8778 Z-21.0000 F2750
G1 X556.1997 Y2117.8778 Z-21.0000 F2750
G1 X552.6765 Y2117.0399 Z-21.0000 F2750
G1 X549.5409 Y2114.3917 Z-21.0000 F2750
G1 X547.9341 Y2110.6167 Z-21.0000 F2750
G1 X548.1686 Y2107.0037 Z-21.0000 F2750
G1 X564.1868 Y2054.9453 Z-21.0000 F2750
G1 X564.2523 Y2053.9379 Z-21.0000 F2750
G1 X564.0452 Y2053.4517 Z-21.0000 F2750
G1 X563.6420 Y2053.1112 Z-21.0000 F2750
G1 X562.6599 Y2052.8775 Z-21.0000 F2750
G1 X457.1381 Y2052.8775 Z-21.0000 F2750
G1 X456.1560 Y2053.1112 Z-21.0000 F2750
G1 X455.7528 Y2053.4517 Z-21.0000 F2750
G1 X455.5458 Y2053.9378 Z-21.0000 F2750
G1 X455.6113 Y2054.9451 Z-21.0000 F2750
G1 X471.6294 Y2107.0037 Z-21.0000 F2750
G1 X471.8639 Y2110.6166 Z-21.0000 F2750
G1 X470.2571 Y2114.3918 Z-21.0000 F2750
G1 X467.1214 Y2117.0399 Z-21.0000 F2750
G1 X463.5982 Y2117.8778 Z-21.0000 F2750
G1 X356.2002 Y2117.8778 Z-21.0000 F2750
G1 X352.6770 Y2117.0399 Z-21.0000 F2750
G1 X349.5413 Y2114.3918 Z-21.0000 F2750
G1 X347.9344 Y2110.6166 Z-21.0000 F2750
G1 X348.1690 Y2107.0036 Z-21.0000 F2750
G1 X364.1872 Y2054.9453 Z-21.0000 F2750
G1 X364.2526 Y2053.9380 Z-21.0000 F2750
G1 X364.0456 Y2053.4517 Z-21.0000 F2750
G1 X363.6424 Y2053.1112 Z-21.0000 F2750
G1 X362.6603 Y2052.8775 Z-21.0000 F2750
G1 X257.1384 Y2052.8775 Z-21.0000 F2750
G1 X256.1563 Y2053.1112 Z-21.0000 F2750
G1 X255.7531 Y2053.4516 Z-21.0000 F2750
G1 X255.5462 Y2053.9378 Z-21.0000 F2750
G1 X255.6116 Y2054.9453 Z-21.0000 F2750
G1 X271.6298 Y2107.0037 Z-21.0000 F2750
G1 X271.8643 Y2110.6166 Z-21.0000 F2750
G1 X270.2575 Y2114.3918 Z-21.0000 F2750
G1 X267.1218 Y2117.0399 Z-21.0000 F2750
G1 X263.5987 Y2117.8778 Z-21.0000 F2750
G1 X156.2005 Y2117.8778 Z-21.0000 F2750
G1 X152.6774 Y2117.0398 Z-21.0000 F2750
G1 X149.5417 Y2114.3918 Z-21.0000 F2750
G1 X147.9348 Y2110.6167 Z-21.0000 F2750
G1 X148.1694 Y2107.0036 Z-21.0000 F2750
G1 X164.1876 Y2054.9453 Z-21.0000 F2750
G1 X164.2530 Y2053.9378 Z-21.0000 F2750
G1 X164.0460 Y2053.4516 Z-21.0000 F2750
G1 X163.6429 Y2053.1112 Z-21.0000 F2750
G1 X162.6607 Y2052.8775 Z-21.0000 F2750
G1 X57.1389 Y2052.8775 Z-21.0000 F2750
G1 X56.1568 Y2053.1112 Z-21.0000 F2750
G1 X55.7536 Y2053.4516 Z-21.0000 F2750
G1 X55.5466 Y2053.9378 Z-21.0000 F2750
G1 X55.6121 Y2054.9453 Z-21.0000 F2750
G1 X71.6302 Y2107.0036 Z-21.0000 F2750
G1 X71.8648 Y2110.6166 Z-21.0000 F2750
G1 X70.2579 Y2114.3918 Z-21.0000 F2750
G1 X67.1222 Y2117.0399 Z-21.0000 F2750
G1 X63.5991 Y2117.8778 Z-21.0000 F2750
G1 X5.9010 Y2117.8778 Z-21.0000 F2750
G1 X5.9010 Y1061.8894 Z-21.0000 F2750
G1 X5.9010 Y1061.8894 Z10.0000 F9999
G1 X1900.0000 Y2800.0000 Z80.0000 F9999
G1 Z80.0000 F9999
G1 X1900.0000 Y2800.0000 F9999
M5
M30
