(plotsheet 2n3_nested_153 sheets_final v1_0_sheet 147a_S147.0_15 screws_CC8 - stepover 1mm)
(Material Size) (X=1220.000, Y=2440.000, Z=20.000)
(LinuxCNC_NoArcs_MM_TC_medium_50um_G1_verbose.con)
G90 G80 G21 G49
G64 P0.050
M6 T1
(Tool Number:1) (7.998 mm dia. slot drill)
G43 H1 G0Z80.0000
M3 S9000
G04 P10
G1 X87.3566 Y97.4275 Z10.0000 F9999
G1 X87.3566 Y97.4275 Z2.0000 F9999
G1 X87.3566 Y97.4275 Z-1.0000 F2500
G1 X87.3566 Y97.4275 Z10.0000 F9999
G1 X431.2650 Y96.2498 Z10.0000 F9999
G1 X431.2650 Y96.2498 Z2.0000 F9999
G1 X431.2650 Y96.2498 Z-1.0000 F2500
G1 X431.2650 Y96.2498 Z10.0000 F9999
G1 X775.1340 Y96.2498 Z10.0000 F9999
G1 X775.1340 Y96.2498 Z2.0000 F9999
G1 X775.1340 Y96.2498 Z-1.0000 F2500
G1 X775.1340 Y96.2498 Z10.0000 F9999
G1 X1120.2657 Y96.2498 Z10.0000 F9999
G1 X1120.2657 Y96.2498 Z2.0000 F9999
G1 X1120.2657 Y96.2498 Z-1.0000 F2500
G1 X1120.2657 Y96.2498 Z10.0000 F9999
G1 X1119.4838 Y893.2744 Z10.0000 F9999
G1 X1119.4838 Y893.2744 Z2.0000 F9999
G1 X1119.4838 Y893.2744 Z-1.0000 F2500
G1 X1119.4838 Y893.2744 Z10.0000 F9999
G1 X945.8757 Y893.2744 Z10.0000 F9999
G1 X945.8757 Y893.2744 Z2.0000 F9999
G1 X945.8757 Y893.2744 Z-1.0000 F2500
G1 X945.8757 Y893.2744 Z10.0000 F9999
G1 X774.3519 Y893.2744 Z10.0000 F9999
G1 X774.3519 Y893.2744 Z2.0000 F9999
G1 X774.3519 Y893.2744 Z-1.0000 F2500
G1 X774.3519 Y893.2744 Z10.0000 F9999
G1 X603.7042 Y893.2744 Z10.0000 F9999
G1 X603.7042 Y893.2744 Z2.0000 F9999
G1 X603.7042 Y893.2744 Z-1.0000 F2500
G1 X603.7042 Y893.2744 Z10.0000 F9999
G1 X428.4541 Y865.6367 Z10.0000 F9999
G1 X428.4541 Y865.6367 Z2.0000 F9999
G1 X428.4541 Y865.6367 Z-1.0000 F2500
G1 X428.4541 Y865.6367 Z10.0000 F9999
G1 X257.2220 Y865.6367 Z10.0000 F9999
G1 X257.2220 Y865.6367 Z2.0000 F9999
G1 X257.2220 Y865.6367 Z-1.0000 F2500
G1 X257.2220 Y865.6367 Z10.0000 F9999
G1 X84.5457 Y865.6367 Z10.0000 F9999
G1 X84.5457 Y865.6367 Z2.0000 F9999
G1 X84.5457 Y865.6367 Z-1.0000 F2500
G1 X84.5457 Y865.6367 Z10.0000 F9999
G1 X87.3566 Y1830.0846 Z10.0000 F9999
G1 X87.3566 Y1830.0846 Z2.0000 F9999
G1 X87.3566 Y1830.0846 Z-1.0000 F2500
G1 X87.3566 Y1830.0846 Z10.0000 F9999
G1 X431.2650 Y1830.0846 Z10.0000 F9999
G1 X431.2650 Y1830.0846 Z2.0000 F9999
G1 X431.2650 Y1830.0846 Z-1.0000 F2500
G1 X431.2650 Y1830.0846 Z10.0000 F9999
G1 X771.4789 Y1588.4398 Z10.0000 F9999
G1 X771.4789 Y1588.4398 Z2.0000 F9999
G1 X771.4789 Y1588.4398 Z-1.0000 F2500
G1 X771.4789 Y1588.4398 Z10.0000 F9999
G1 X1116.6107 Y1588.4398 Z10.0000 F9999
G1 X1116.6107 Y1588.4398 Z2.0000 F9999
G1 X1116.6107 Y1588.4398 Z-1.0000 F2500
G1 X1116.6107 Y1588.4398 Z10.0000 F9999
G1 X1900.0000 Y2800.0000 Z80.0000 F9999
G1 Z80.0000 F9999
G1 X1900.0000 Y2800.0000 F9999
M5
M30
