(plotsheet 2n3_nested_153 sheets_final v1_0_sheet 132a_S132.0_8 screws_CC8 - stepover 1mm)
(Material Size) (X=1220.000, Y=2440.000, Z=21.000)
(LinuxCNC_NoArcs_MM_TC_medium_50um_G1_verbose.con)
G90 G80 G21 G49
G64 P0.050
M6 T1
(Tool Number:1) (7.998 mm dia. slot drill)
G43 H1 G0Z80.0000
M3 S9000
G04 P10
G1 X135.8911 Y141.6549 Z10.0000 F9999
G1 X135.8911 Y141.6549 Z2.0000 F9999
G1 X135.8911 Y141.6549 Z-1.0000 F2500
G1 X135.8911 Y141.6549 Z10.0000 F9999
G1 X615.6082 Y502.3055 Z10.0000 F9999
G1 X615.6082 Y502.3055 Z2.0000 F9999
G1 X615.6082 Y502.3055 Z-1.0000 F2500
G1 X615.6082 Y502.3055 Z10.0000 F9999
G1 X976.2589 Y414.2999 Z10.0000 F9999
G1 X976.2589 Y414.2999 Z2.0000 F9999
G1 X976.2589 Y414.2999 Z-1.0000 F2500
G1 X976.2589 Y414.2999 Z10.0000 F9999
G1 X151.4215 Y759.4201 Z10.0000 F9999
G1 X151.4215 Y759.4201 Z2.0000 F9999
G1 X151.4215 Y759.4201 Z-1.0000 F2500
G1 X151.4215 Y759.4201 Z10.0000 F9999
G1 X230.7991 Y1444.4838 Z10.0000 F9999
G1 X230.7991 Y1444.4838 Z2.0000 F9999
G1 X230.7991 Y1444.4838 Z-1.0000 F2500
G1 X230.7991 Y1444.4838 Z10.0000 F9999
G1 X166.9519 Y2100.2122 Z10.0000 F9999
G1 X166.9519 Y2100.2122 Z2.0000 F9999
G1 X166.9519 Y2100.2122 Z-1.0000 F2500
G1 X166.9519 Y2100.2122 Z10.0000 F9999
G1 X802.9915 Y2106.0962 Z10.0000 F9999
G1 X802.9915 Y2106.0962 Z2.0000 F9999
G1 X802.9915 Y2106.0962 Z-1.0000 F2500
G1 X802.9915 Y2106.0962 Z10.0000 F9999
G1 X801.9731 Y1808.5856 Z10.0000 F9999
G1 X801.9731 Y1808.5856 Z2.0000 F9999
G1 X801.9731 Y1808.5856 Z-1.0000 F2500
G1 X801.9731 Y1808.5856 Z10.0000 F9999
G1 X1900.0000 Y2800.0000 Z80.0000 F9999
G1 Z80.0000 F9999
G1 X1900.0000 Y2800.0000 F9999
M5
M30
