(plotsheet 2n3_nested_153 sheets_final v1_0_sheet 142a_S142.1_text_CC8 - stepover 1mm)
(Material Size) (X=1220.000, Y=2440.000, Z=20.000)
(LinuxCNC_NoArcs_MM_TC_medium_50um_G1_verbose.con)
G90 G80 G21 G49
G64 P0.050
M6 T1
(Tool Number:1) (7.998 mm dia. slot drill)
G43 H1 G0Z80.0000
M3 S18000
G04 P10
G1 X84.6272 Y733.2584 Z10.0000 F9999
G1 X84.6272 Y733.2584 Z-1.0000 F2500
G1 X84.6272 Y747.6987 Z-1.0000 F4000
G1 X84.6272 Y733.2584 Z-1.0000 F4000
G1 X66.3336 Y733.2584 Z-1.0000 F4000
G1 X66.3336 Y748.3776 Z-1.0000 F4000
G1 X66.3336 Y733.2584 Z-1.0000 F4000
G1 X107.4345 Y733.2584 Z-1.0000 F4000
G1 X107.4345 Y733.2584 Z10.0000 F9999
G1 X107.4345 Y763.7905 Z10.0000 F9999
G1 X107.4345 Y763.7905 Z-1.0000 F2500
G1 X66.3336 Y763.7905 Z-1.0000 F4000
G1 X66.3336 Y770.9464 Z-1.0000 F4000
G1 X66.9391 Y774.8180 Z-1.0000 F4000
G1 X68.7556 Y778.0290 Z-1.0000 F4000
G1 X71.9116 Y780.2492 Z-1.0000 F4000
G1 X76.5538 Y781.0932 Z-1.0000 F4000
G1 X81.2327 Y779.9373 Z-1.0000 F4000
G1 X84.5538 Y777.1666 Z-1.0000 F4000
G1 X86.5171 Y773.8455 Z-1.0000 F4000
G1 X87.1776 Y770.9464 Z-1.0000 F4000
G1 X87.1776 Y763.7905 Z-1.0000 F4000
G1 X87.1776 Y770.9464 Z-1.0000 F4000
G1 X86.5171 Y773.8455 Z-1.0000 F4000
G1 X84.5538 Y777.1666 Z-1.0000 F4000
G1 X81.2327 Y779.9373 Z-1.0000 F4000
G1 X76.5538 Y781.0932 Z-1.0000 F4000
G1 X71.9116 Y780.2492 Z-1.0000 F4000
G1 X68.7556 Y778.0290 Z-1.0000 F4000
G1 X66.9391 Y774.8180 Z-1.0000 F4000
G1 X66.3336 Y770.9464 Z-1.0000 F4000
G1 X66.3336 Y763.7905 Z-1.0000 F4000
G1 X66.3336 Y763.7905 Z10.0000 F9999
G1 X66.3336 Y807.9006 Z10.0000 F9999
G1 X66.3336 Y807.9006 Z-1.0000 F2500
G1 X107.4345 Y823.9556 Z-1.0000 F4000
G1 X66.3336 Y807.9006 Z-1.0000 F4000
G1 X107.4345 Y791.8822 Z-1.0000 F4000
G1 X107.4345 Y791.8822 Z10.0000 F9999
G1 X107.4345 Y781.2033 Z10.0000 F9999
G1 X107.4345 Y781.2033 Z-1.0000 F2500
G1 X87.2877 Y767.9740 Z-1.0000 F4000
G1 X107.4345 Y781.2033 Z-1.0000 F4000
G1 X107.4345 Y781.2033 Z10.0000 F9999
G1 X92.7373 Y818.2125 Z10.0000 F9999
G1 X92.7373 Y818.2125 Z-1.0000 F2500
G1 X92.7373 Y797.5153 Z-1.0000 F4000
G1 X92.7373 Y818.2125 Z-1.0000 F4000
G1 X92.7373 Y818.2125 Z10.0000 F9999
G1 X100.6088 Y876.4327 Z10.0000 F9999
G1 X100.6088 Y876.4327 Z-1.0000 F2500
G1 X103.6547 Y878.3776 Z-1.0000 F4000
G1 X105.7098 Y880.7997 Z-1.0000 F4000
G1 X106.9575 Y883.9189 Z-1.0000 F4000
G1 X107.4345 Y888.0474 Z-1.0000 F4000
G1 X106.9758 Y892.5428 Z-1.0000 F4000
G1 X105.2327 Y896.3593 Z-1.0000 F4000
G1 X102.2419 Y899.0382 Z-1.0000 F4000
G1 X98.0767 Y900.1575 Z-1.0000 F4000
G1 X94.0767 Y899.6253 Z-1.0000 F4000
G1 X91.3978 Y898.0841 Z-1.0000 F4000
G1 X89.7098 Y896.0474 Z-1.0000 F4000
G1 X88.6088 Y894.1391 Z-1.0000 F4000
G1 X83.8749 Y884.9464 Z-1.0000 F4000
G1 X82.4621 Y882.5795 Z-1.0000 F4000
G1 X80.8107 Y880.7263 Z-1.0000 F4000
G1 X78.6272 Y879.4786 Z-1.0000 F4000
G1 X75.7465 Y878.9648 Z-1.0000 F4000
G1 X72.4621 Y879.4969 Z-1.0000 F4000
G1 X69.4345 Y881.3318 Z-1.0000 F4000
G1 X67.2143 Y884.4694 Z-1.0000 F4000
G1 X66.3336 Y888.8364 Z-1.0000 F4000
G1 X67.0125 Y893.0932 Z-1.0000 F4000
G1 X68.4804 Y895.9373 Z-1.0000 F4000
G1 X70.6272 Y898.0290 Z-1.0000 F4000
G1 X68.4804 Y895.9373 Z-1.0000 F4000
G1 X67.0125 Y893.0932 Z-1.0000 F4000
G1 X66.3336 Y888.8364 Z-1.0000 F4000
G1 X67.2143 Y884.4694 Z-1.0000 F4000
G1 X69.4345 Y881.3318 Z-1.0000 F4000
G1 X72.4621 Y879.4969 Z-1.0000 F4000
G1 X75.7465 Y878.9648 Z-1.0000 F4000
G1 X78.6272 Y879.4786 Z-1.0000 F4000
G1 X80.8107 Y880.7263 Z-1.0000 F4000
G1 X82.4621 Y882.5795 Z-1.0000 F4000
G1 X83.8749 Y884.9464 Z-1.0000 F4000
G1 X88.6088 Y894.1391 Z-1.0000 F4000
G1 X89.7098 Y896.0474 Z-1.0000 F4000
G1 X91.3978 Y898.0841 Z-1.0000 F4000
G1 X94.0767 Y899.6253 Z-1.0000 F4000
G1 X98.0767 Y900.1575 Z-1.0000 F4000
G1 X102.2419 Y899.0382 Z-1.0000 F4000
G1 X105.2327 Y896.3593 Z-1.0000 F4000
G1 X106.9758 Y892.5428 Z-1.0000 F4000
G1 X107.4345 Y888.0474 Z-1.0000 F4000
G1 X106.9575 Y883.9189 Z-1.0000 F4000
G1 X105.7098 Y880.7997 Z-1.0000 F4000
G1 X103.6547 Y878.3776 Z-1.0000 F4000
G1 X103.6547 Y878.3776 Z10.0000 F9999
G1 X56.9391 Y865.7171 Z10.0000 F9999
G1 X56.9391 Y865.7171 Z-1.0000 F2500
G1 X109.7832 Y835.3318 Z-1.0000 F4000
G1 X56.9391 Y865.7171 Z-1.0000 F4000
G1 X56.9391 Y865.7171 Z10.0000 F9999
G1 X66.3336 Y919.9006 Z10.0000 F9999
G1 X66.3336 Y919.9006 Z-1.0000 F2500
G1 X66.3336 Y914.0841 Z-1.0000 F4000
G1 X66.3336 Y919.9006 Z-1.0000 F4000
G1 X107.4345 Y919.9006 Z-1.0000 F4000
G1 X107.4345 Y919.9006 Z10.0000 F9999
G1 X107.4345 Y981.0382 Z10.0000 F9999
G1 X107.4345 Y981.0382 Z-1.0000 F2500
G1 X84.6272 Y981.0382 Z-1.0000 F4000
G1 X84.6272 Y997.4969 Z-1.0000 F4000
G1 X84.6272 Y981.0382 Z-1.0000 F4000
G1 X66.3336 Y981.0382 Z-1.0000 F4000
G1 X66.3336 Y998.7997 Z-1.0000 F4000
G1 X66.3336 Y981.0382 Z-1.0000 F4000
G1 X107.4345 Y981.0382 Z-1.0000 F4000
G1 X107.4345 Y998.7997 Z-1.0000 F4000
G1 X107.4345 Y998.7997 Z10.0000 F9999
G1 X86.2235 Y1021.2033 Z10.0000 F9999
G1 X86.2235 Y1021.2033 Z-1.0000 F2500
G1 X107.4345 Y1033.1483 Z-1.0000 F4000
G1 X86.2235 Y1021.2033 Z-1.0000 F4000
G1 X66.3336 Y1033.1483 Z-1.0000 F4000
G1 X86.2235 Y1021.2033 Z-1.0000 F4000
G1 X66.3336 Y1009.1299 Z-1.0000 F4000
G1 X86.2235 Y1021.2033 Z-1.0000 F4000
G1 X107.4345 Y1009.1299 Z-1.0000 F4000
G1 X107.4345 Y1009.1299 Z10.0000 F9999
G1 X56.9391 Y965.5336 Z10.0000 F9999
G1 X56.9391 Y965.5336 Z-1.0000 F2500
G1 X109.7832 Y935.1483 Z-1.0000 F4000
G1 X56.9391 Y965.5336 Z-1.0000 F4000
G1 X56.9391 Y965.5336 Z10.0000 F9999
G1 X229.0364 Y961.4952 Z10.0000 F9999
G1 X229.0364 Y961.4952 Z-1.0000 F2500
G1 X281.8804 Y931.1099 Z-1.0000 F4000
G1 X229.0364 Y961.4952 Z-1.0000 F4000
G1 X229.0364 Y961.4952 Z10.0000 F9999
G1 X238.4309 Y915.8622 Z10.0000 F9999
G1 X238.4309 Y915.8622 Z-1.0000 F2500
G1 X238.4309 Y910.0457 Z-1.0000 F4000
G1 X238.4309 Y915.8622 Z-1.0000 F4000
G1 X279.5318 Y915.8622 Z-1.0000 F4000
G1 X279.5318 Y915.8622 Z10.0000 F9999
G1 X272.7061 Y872.3943 Z10.0000 F9999
G1 X272.7061 Y872.3943 Z-1.0000 F2500
G1 X275.7520 Y874.3393 Z-1.0000 F4000
G1 X277.8070 Y876.7613 Z-1.0000 F4000
G1 X279.0547 Y879.8806 Z-1.0000 F4000
G1 X279.5318 Y884.0090 Z-1.0000 F4000
G1 X279.0731 Y888.5044 Z-1.0000 F4000
G1 X277.3299 Y892.3209 Z-1.0000 F4000
G1 X274.3391 Y894.9998 Z-1.0000 F4000
G1 X270.1740 Y896.1191 Z-1.0000 F4000
G1 X266.1740 Y895.5870 Z-1.0000 F4000
G1 X263.4951 Y894.0457 Z-1.0000 F4000
G1 X261.8070 Y892.0090 Z-1.0000 F4000
G1 X260.7061 Y890.1007 Z-1.0000 F4000
G1 X255.9721 Y880.9081 Z-1.0000 F4000
G1 X254.5593 Y878.5411 Z-1.0000 F4000
G1 X252.9079 Y876.6879 Z-1.0000 F4000
G1 X250.7244 Y875.4402 Z-1.0000 F4000
G1 X247.8437 Y874.9264 Z-1.0000 F4000
G1 X244.5593 Y875.4585 Z-1.0000 F4000
G1 X241.5318 Y877.2934 Z-1.0000 F4000
G1 X239.3116 Y880.4310 Z-1.0000 F4000
G1 X238.4309 Y884.7980 Z-1.0000 F4000
G1 X239.1098 Y889.0549 Z-1.0000 F4000
G1 X240.5776 Y891.8989 Z-1.0000 F4000
G1 X242.7244 Y893.9907 Z-1.0000 F4000
G1 X240.5776 Y891.8989 Z-1.0000 F4000
G1 X239.1098 Y889.0549 Z-1.0000 F4000
G1 X238.4309 Y884.7980 Z-1.0000 F4000
G1 X239.3116 Y880.4310 Z-1.0000 F4000
G1 X241.5318 Y877.2934 Z-1.0000 F4000
G1 X244.5593 Y875.4585 Z-1.0000 F4000
G1 X247.8437 Y874.9264 Z-1.0000 F4000
G1 X250.7244 Y875.4402 Z-1.0000 F4000
G1 X252.9079 Y876.6879 Z-1.0000 F4000
G1 X254.5593 Y878.5411 Z-1.0000 F4000
G1 X255.9721 Y880.9081 Z-1.0000 F4000
G1 X260.7061 Y890.1007 Z-1.0000 F4000
G1 X261.8070 Y892.0090 Z-1.0000 F4000
G1 X263.4951 Y894.0457 Z-1.0000 F4000
G1 X266.1740 Y895.5870 Z-1.0000 F4000
G1 X270.1740 Y896.1191 Z-1.0000 F4000
G1 X274.3391 Y894.9998 Z-1.0000 F4000
G1 X277.3299 Y892.3209 Z-1.0000 F4000
G1 X279.0731 Y888.5044 Z-1.0000 F4000
G1 X279.5318 Y884.0090 Z-1.0000 F4000
G1 X279.0547 Y879.8806 Z-1.0000 F4000
G1 X277.8070 Y876.7613 Z-1.0000 F4000
G1 X275.7520 Y874.3393 Z-1.0000 F4000
G1 X275.7520 Y874.3393 Z10.0000 F9999
G1 X229.0364 Y861.6787 Z10.0000 F9999
G1 X229.0364 Y861.6787 Z-1.0000 F2500
G1 X281.8804 Y831.2934 Z-1.0000 F4000
G1 X229.0364 Y861.6787 Z-1.0000 F4000
G1 X229.0364 Y861.6787 Z10.0000 F9999
G1 X238.4309 Y803.8622 Z10.0000 F9999
G1 X238.4309 Y803.8622 Z-1.0000 F2500
G1 X279.5318 Y819.9173 Z-1.0000 F4000
G1 X238.4309 Y803.8622 Z-1.0000 F4000
G1 X279.5318 Y787.8439 Z-1.0000 F4000
G1 X279.5318 Y787.8439 Z10.0000 F9999
G1 X279.5318 Y777.1650 Z10.0000 F9999
G1 X279.5318 Y777.1650 Z-1.0000 F2500
G1 X259.3850 Y763.9356 Z-1.0000 F4000
G1 X279.5318 Y777.1650 Z-1.0000 F4000
G1 X279.5318 Y777.1650 Z10.0000 F9999
G1 X279.5318 Y759.7521 Z10.0000 F9999
G1 X279.5318 Y759.7521 Z-1.0000 F2500
G1 X238.4309 Y759.7521 Z-1.0000 F4000
G1 X238.4309 Y766.9081 Z-1.0000 F4000
G1 X239.0364 Y770.7796 Z-1.0000 F4000
G1 X240.8529 Y773.9907 Z-1.0000 F4000
G1 X244.0088 Y776.2108 Z-1.0000 F4000
G1 X248.6510 Y777.0549 Z-1.0000 F4000
G1 X253.3299 Y775.8989 Z-1.0000 F4000
G1 X256.6510 Y773.1283 Z-1.0000 F4000
G1 X258.6143 Y769.8072 Z-1.0000 F4000
G1 X259.2749 Y766.9081 Z-1.0000 F4000
G1 X259.2749 Y759.7521 Z-1.0000 F4000
G1 X259.2749 Y766.9081 Z-1.0000 F4000
G1 X258.6143 Y769.8072 Z-1.0000 F4000
G1 X256.6510 Y773.1283 Z-1.0000 F4000
G1 X253.3299 Y775.8989 Z-1.0000 F4000
G1 X248.6510 Y777.0549 Z-1.0000 F4000
G1 X244.0088 Y776.2108 Z-1.0000 F4000
G1 X240.8529 Y773.9907 Z-1.0000 F4000
G1 X239.0364 Y770.7796 Z-1.0000 F4000
G1 X238.4309 Y766.9081 Z-1.0000 F4000
G1 X238.4309 Y759.7521 Z-1.0000 F4000
G1 X238.4309 Y759.7521 Z10.0000 F9999
G1 X256.7244 Y729.2200 Z10.0000 F9999
G1 X256.7244 Y729.2200 Z-1.0000 F2500
G1 X256.7244 Y743.6604 Z-1.0000 F4000
G1 X256.7244 Y729.2200 Z-1.0000 F4000
G1 X238.4309 Y729.2200 Z-1.0000 F4000
G1 X238.4309 Y744.3393 Z-1.0000 F4000
G1 X238.4309 Y729.2200 Z-1.0000 F4000
G1 X279.5318 Y729.2200 Z-1.0000 F4000
G1 X279.5318 Y729.2200 Z10.0000 F9999
G1 X264.8345 Y814.1741 Z10.0000 F9999
G1 X264.8345 Y814.1741 Z-1.0000 F2500
G1 X264.8345 Y793.4769 Z-1.0000 F4000
G1 X264.8345 Y814.1741 Z-1.0000 F4000
G1 X264.8345 Y814.1741 Z10.0000 F9999
G1 X398.9668 Y854.4667 Z10.0000 F9999
G1 X398.9668 Y854.4667 Z-1.0000 F2500
G1 X451.8108 Y824.0814 Z-1.0000 F4000
G1 X398.9668 Y854.4667 Z-1.0000 F4000
G1 X398.9668 Y854.4667 Z10.0000 F9999
G1 X442.6365 Y865.1823 Z10.0000 F9999
G1 X442.6365 Y865.1823 Z-1.0000 F2500
G1 X445.6824 Y867.1273 Z-1.0000 F4000
G1 X447.7374 Y869.5493 Z-1.0000 F4000
G1 X448.9852 Y872.6686 Z-1.0000 F4000
G1 X449.4622 Y876.7970 Z-1.0000 F4000
G1 X449.0035 Y881.2924 Z-1.0000 F4000
G1 X447.2604 Y885.1089 Z-1.0000 F4000
G1 X444.2696 Y887.7878 Z-1.0000 F4000
G1 X440.1044 Y888.9071 Z-1.0000 F4000
G1 X436.1044 Y888.3750 Z-1.0000 F4000
G1 X433.4255 Y886.8337 Z-1.0000 F4000
G1 X431.7374 Y884.7970 Z-1.0000 F4000
G1 X430.6365 Y882.8888 Z-1.0000 F4000
G1 X425.9026 Y873.6961 Z-1.0000 F4000
G1 X424.4897 Y871.3291 Z-1.0000 F4000
G1 X422.8384 Y869.4759 Z-1.0000 F4000
G1 X420.6549 Y868.2282 Z-1.0000 F4000
G1 X417.7741 Y867.7144 Z-1.0000 F4000
G1 X414.4897 Y868.2466 Z-1.0000 F4000
G1 X411.4622 Y870.0814 Z-1.0000 F4000
G1 X409.2420 Y873.2190 Z-1.0000 F4000
G1 X408.3613 Y877.5860 Z-1.0000 F4000
G1 X409.0402 Y881.8429 Z-1.0000 F4000
G1 X410.5081 Y884.6869 Z-1.0000 F4000
G1 X412.6549 Y886.7787 Z-1.0000 F4000
G1 X410.5081 Y884.6869 Z-1.0000 F4000
G1 X409.0402 Y881.8429 Z-1.0000 F4000
G1 X408.3613 Y877.5860 Z-1.0000 F4000
G1 X409.2420 Y873.2190 Z-1.0000 F4000
G1 X411.4622 Y870.0814 Z-1.0000 F4000
G1 X414.4897 Y868.2466 Z-1.0000 F4000
G1 X417.7741 Y867.7144 Z-1.0000 F4000
G1 X420.6549 Y868.2282 Z-1.0000 F4000
G1 X422.8384 Y869.4759 Z-1.0000 F4000
G1 X424.4897 Y871.3291 Z-1.0000 F4000
G1 X425.9026 Y873.6961 Z-1.0000 F4000
G1 X430.6365 Y882.8888 Z-1.0000 F4000
G1 X431.7374 Y884.7970 Z-1.0000 F4000
G1 X433.4255 Y886.8337 Z-1.0000 F4000
G1 X436.1044 Y888.3750 Z-1.0000 F4000
G1 X440.1044 Y888.9071 Z-1.0000 F4000
G1 X444.2696 Y887.7878 Z-1.0000 F4000
G1 X447.2604 Y885.1089 Z-1.0000 F4000
G1 X449.0035 Y881.2924 Z-1.0000 F4000
G1 X449.4622 Y876.7970 Z-1.0000 F4000
G1 X448.9852 Y872.6686 Z-1.0000 F4000
G1 X447.7374 Y869.5493 Z-1.0000 F4000
G1 X445.6824 Y867.1273 Z-1.0000 F4000
G1 X445.6824 Y867.1273 Z10.0000 F9999
G1 X408.3613 Y908.6502 Z10.0000 F9999
G1 X408.3613 Y908.6502 Z-1.0000 F2500
G1 X408.3613 Y902.8337 Z-1.0000 F4000
G1 X408.3613 Y908.6502 Z-1.0000 F4000
G1 X449.4622 Y908.6502 Z-1.0000 F4000
G1 X449.4622 Y908.6502 Z10.0000 F9999
G1 X449.4622 Y969.7878 Z10.0000 F9999
G1 X449.4622 Y969.7878 Z-1.0000 F2500
G1 X426.6549 Y969.7878 Z-1.0000 F4000
G1 X426.6549 Y986.2466 Z-1.0000 F4000
G1 X426.6549 Y969.7878 Z-1.0000 F4000
G1 X408.3613 Y969.7878 Z-1.0000 F4000
G1 X408.3613 Y987.5493 Z-1.0000 F4000
G1 X408.3613 Y969.7878 Z-1.0000 F4000
G1 X449.4622 Y969.7878 Z-1.0000 F4000
G1 X449.4622 Y987.5493 Z-1.0000 F4000
G1 X449.4622 Y987.5493 Z10.0000 F9999
G1 X428.2512 Y1009.9530 Z10.0000 F9999
G1 X428.2512 Y1009.9530 Z-1.0000 F2500
G1 X449.4622 Y1021.8979 Z-1.0000 F4000
G1 X428.2512 Y1009.9530 Z-1.0000 F4000
G1 X408.3613 Y1021.8979 Z-1.0000 F4000
G1 X428.2512 Y1009.9530 Z-1.0000 F4000
G1 X408.3613 Y997.8796 Z-1.0000 F4000
G1 X428.2512 Y1009.9530 Z-1.0000 F4000
G1 X449.4622 Y997.8796 Z-1.0000 F4000
G1 X449.4622 Y997.8796 Z10.0000 F9999
G1 X398.9668 Y954.2832 Z10.0000 F9999
G1 X398.9668 Y954.2832 Z-1.0000 F2500
G1 X451.8108 Y923.8979 Z-1.0000 F4000
G1 X398.9668 Y954.2832 Z-1.0000 F4000
G1 X398.9668 Y954.2832 Z10.0000 F9999
G1 X279.5318 Y976.9998 Z10.0000 F9999
G1 X279.5318 Y976.9998 Z-1.0000 F2500
G1 X256.7244 Y976.9998 Z-1.0000 F4000
G1 X256.7244 Y993.4585 Z-1.0000 F4000
G1 X256.7244 Y976.9998 Z-1.0000 F4000
G1 X238.4309 Y976.9998 Z-1.0000 F4000
G1 X238.4309 Y994.7613 Z-1.0000 F4000
G1 X238.4309 Y976.9998 Z-1.0000 F4000
G1 X279.5318 Y976.9998 Z-1.0000 F4000
G1 X279.5318 Y994.7613 Z-1.0000 F4000
G1 X279.5318 Y994.7613 Z10.0000 F9999
G1 X258.3208 Y1017.1650 Z10.0000 F9999
G1 X258.3208 Y1017.1650 Z-1.0000 F2500
G1 X279.5318 Y1029.1099 Z-1.0000 F4000
G1 X258.3208 Y1017.1650 Z-1.0000 F4000
G1 X238.4309 Y1029.1099 Z-1.0000 F4000
G1 X258.3208 Y1017.1650 Z-1.0000 F4000
G1 X238.4309 Y1005.0916 Z-1.0000 F4000
G1 X258.3208 Y1017.1650 Z-1.0000 F4000
G1 X279.5318 Y1005.0916 Z-1.0000 F4000
G1 X279.5318 Y1005.0916 Z10.0000 F9999
G1 X408.3613 Y796.6502 Z10.0000 F9999
G1 X408.3613 Y796.6502 Z-1.0000 F2500
G1 X449.4622 Y812.7053 Z-1.0000 F4000
G1 X408.3613 Y796.6502 Z-1.0000 F4000
G1 X449.4622 Y780.6319 Z-1.0000 F4000
G1 X449.4622 Y780.6319 Z10.0000 F9999
G1 X449.4622 Y769.9530 Z10.0000 F9999
G1 X449.4622 Y769.9530 Z-1.0000 F2500
G1 X429.3154 Y756.7236 Z-1.0000 F4000
G1 X449.4622 Y769.9530 Z-1.0000 F4000
G1 X449.4622 Y769.9530 Z10.0000 F9999
G1 X449.4622 Y752.5401 Z10.0000 F9999
G1 X449.4622 Y752.5401 Z-1.0000 F2500
G1 X408.3613 Y752.5401 Z-1.0000 F4000
G1 X408.3613 Y759.6961 Z-1.0000 F4000
G1 X408.9668 Y763.5677 Z-1.0000 F4000
G1 X410.7833 Y766.7787 Z-1.0000 F4000
G1 X413.9393 Y768.9988 Z-1.0000 F4000
G1 X418.5815 Y769.8429 Z-1.0000 F4000
G1 X423.2604 Y768.6869 Z-1.0000 F4000
G1 X426.5815 Y765.9163 Z-1.0000 F4000
G1 X428.5448 Y762.5952 Z-1.0000 F4000
G1 X429.2053 Y759.6961 Z-1.0000 F4000
G1 X429.2053 Y752.5401 Z-1.0000 F4000
G1 X429.2053 Y759.6961 Z-1.0000 F4000
G1 X428.5448 Y762.5952 Z-1.0000 F4000
G1 X426.5815 Y765.9163 Z-1.0000 F4000
G1 X423.2604 Y768.6869 Z-1.0000 F4000
G1 X418.5815 Y769.8429 Z-1.0000 F4000
G1 X413.9393 Y768.9988 Z-1.0000 F4000
G1 X410.7833 Y766.7787 Z-1.0000 F4000
G1 X408.9668 Y763.5677 Z-1.0000 F4000
G1 X408.3613 Y759.6961 Z-1.0000 F4000
G1 X408.3613 Y752.5401 Z-1.0000 F4000
G1 X408.3613 Y752.5401 Z10.0000 F9999
G1 X426.6549 Y722.0080 Z10.0000 F9999
G1 X426.6549 Y722.0080 Z-1.0000 F2500
G1 X426.6549 Y736.4484 Z-1.0000 F4000
G1 X426.6549 Y722.0080 Z-1.0000 F4000
G1 X408.3613 Y722.0080 Z-1.0000 F4000
G1 X408.3613 Y737.1273 Z-1.0000 F4000
G1 X408.3613 Y722.0080 Z-1.0000 F4000
G1 X449.4622 Y722.0080 Z-1.0000 F4000
G1 X449.4622 Y722.0080 Z10.0000 F9999
G1 X434.7650 Y806.9621 Z10.0000 F9999
G1 X434.7650 Y806.9621 Z-1.0000 F2500
G1 X434.7650 Y786.2649 Z-1.0000 F4000
G1 X434.7650 Y806.9621 Z-1.0000 F4000
G1 X434.7650 Y806.9621 Z10.0000 F9999
G1 X596.1191 Y921.4079 Z10.0000 F9999
G1 X596.1191 Y921.4079 Z-1.0000 F2500
G1 X596.1191 Y935.8483 Z-1.0000 F4000
G1 X596.1191 Y921.4079 Z-1.0000 F4000
G1 X577.8255 Y921.4079 Z-1.0000 F4000
G1 X577.8255 Y936.5272 Z-1.0000 F4000
G1 X577.8255 Y921.4079 Z-1.0000 F4000
G1 X618.9264 Y921.4079 Z-1.0000 F4000
G1 X618.9264 Y921.4079 Z10.0000 F9999
G1 X618.9264 Y951.9400 Z10.0000 F9999
G1 X618.9264 Y951.9400 Z-1.0000 F2500
G1 X577.8255 Y951.9400 Z-1.0000 F4000
G1 X577.8255 Y959.0960 Z-1.0000 F4000
G1 X578.4310 Y962.9676 Z-1.0000 F4000
G1 X580.2475 Y966.1786 Z-1.0000 F4000
G1 X583.4035 Y968.3988 Z-1.0000 F4000
G1 X588.0457 Y969.2428 Z-1.0000 F4000
G1 X592.7246 Y968.0868 Z-1.0000 F4000
G1 X596.0457 Y965.3162 Z-1.0000 F4000
G1 X598.0090 Y961.9951 Z-1.0000 F4000
G1 X598.6695 Y959.0960 Z-1.0000 F4000
G1 X598.6695 Y951.9400 Z-1.0000 F4000
G1 X598.6695 Y959.0960 Z-1.0000 F4000
G1 X598.0090 Y961.9951 Z-1.0000 F4000
G1 X596.0457 Y965.3162 Z-1.0000 F4000
G1 X592.7246 Y968.0868 Z-1.0000 F4000
G1 X588.0457 Y969.2428 Z-1.0000 F4000
G1 X583.4035 Y968.3988 Z-1.0000 F4000
G1 X580.2475 Y966.1786 Z-1.0000 F4000
G1 X578.4310 Y962.9676 Z-1.0000 F4000
G1 X577.8255 Y959.0960 Z-1.0000 F4000
G1 X577.8255 Y951.9400 Z-1.0000 F4000
G1 X577.8255 Y951.9400 Z10.0000 F9999
G1 X577.8255 Y996.0501 Z10.0000 F9999
G1 X577.8255 Y996.0501 Z-1.0000 F2500
G1 X618.9264 Y1012.1052 Z-1.0000 F4000
G1 X577.8255 Y996.0501 Z-1.0000 F4000
G1 X618.9264 Y980.0318 Z-1.0000 F4000
G1 X618.9264 Y980.0318 Z10.0000 F9999
G1 X618.9264 Y969.3529 Z10.0000 F9999
G1 X618.9264 Y969.3529 Z-1.0000 F2500
G1 X598.7796 Y956.1235 Z-1.0000 F4000
G1 X618.9264 Y969.3529 Z-1.0000 F4000
G1 X618.9264 Y969.3529 Z10.0000 F9999
G1 X604.2292 Y1006.3621 Z10.0000 F9999
G1 X604.2292 Y1006.3621 Z-1.0000 F2500
G1 X604.2292 Y985.6648 Z-1.0000 F4000
G1 X604.2292 Y1006.3621 Z-1.0000 F4000
G1 X604.2292 Y1006.3621 Z10.0000 F9999
G1 X594.2658 Y1052.7290 Z10.0000 F9999
G1 X594.2658 Y1052.7290 Z-1.0000 F2500
G1 X594.2658 Y1023.4813 Z-1.0000 F4000
G1 X594.2658 Y1052.7290 Z-1.0000 F4000
G1 X594.2658 Y1052.7290 Z10.0000 F9999
G1 X577.8255 Y1079.4263 Z10.0000 F9999
G1 X577.8255 Y1079.4263 Z-1.0000 F2500
G1 X618.9264 Y1095.4813 Z-1.0000 F4000
G1 X577.8255 Y1079.4263 Z-1.0000 F4000
G1 X618.9264 Y1063.4079 Z-1.0000 F4000
G1 X618.9264 Y1063.4079 Z10.0000 F9999
G1 X604.2292 Y1089.7382 Z10.0000 F9999
G1 X604.2292 Y1089.7382 Z-1.0000 F2500
G1 X604.2292 Y1069.0410 Z-1.0000 F4000
G1 X604.2292 Y1089.7382 Z-1.0000 F4000
G1 X604.2292 Y1089.7382 Z10.0000 F9999
G1 X612.1007 Y1147.9584 Z10.0000 F9999
G1 X612.1007 Y1147.9584 Z-1.0000 F2500
G1 X615.1466 Y1149.9034 Z-1.0000 F4000
G1 X617.2016 Y1152.3254 Z-1.0000 F4000
G1 X618.4493 Y1155.4446 Z-1.0000 F4000
G1 X618.9264 Y1159.5731 Z-1.0000 F4000
G1 X618.4677 Y1164.0685 Z-1.0000 F4000
G1 X616.7246 Y1167.8850 Z-1.0000 F4000
G1 X613.7337 Y1170.5639 Z-1.0000 F4000
G1 X609.5686 Y1171.6832 Z-1.0000 F4000
G1 X605.5686 Y1171.1511 Z-1.0000 F4000
G1 X602.8897 Y1169.6098 Z-1.0000 F4000
G1 X601.2016 Y1167.5731 Z-1.0000 F4000
G1 X600.1007 Y1165.6648 Z-1.0000 F4000
G1 X595.3668 Y1156.4722 Z-1.0000 F4000
G1 X593.9539 Y1154.1052 Z-1.0000 F4000
G1 X592.3025 Y1152.2520 Z-1.0000 F4000
G1 X590.1191 Y1151.0043 Z-1.0000 F4000
G1 X587.2383 Y1150.4905 Z-1.0000 F4000
G1 X583.9539 Y1151.0226 Z-1.0000 F4000
G1 X580.9264 Y1152.8575 Z-1.0000 F4000
G1 X578.7062 Y1155.9951 Z-1.0000 F4000
G1 X577.8255 Y1160.3621 Z-1.0000 F4000
G1 X578.5044 Y1164.6189 Z-1.0000 F4000
G1 X579.9723 Y1167.4630 Z-1.0000 F4000
G1 X582.1191 Y1169.5547 Z-1.0000 F4000
G1 X579.9723 Y1167.4630 Z-1.0000 F4000
G1 X578.5044 Y1164.6189 Z-1.0000 F4000
G1 X577.8255 Y1160.3621 Z-1.0000 F4000
G1 X578.7062 Y1155.9951 Z-1.0000 F4000
G1 X580.9264 Y1152.8575 Z-1.0000 F4000
G1 X583.9539 Y1151.0226 Z-1.0000 F4000
G1 X587.2383 Y1150.4905 Z-1.0000 F4000
G1 X590.1191 Y1151.0043 Z-1.0000 F4000
G1 X592.3025 Y1152.2520 Z-1.0000 F4000
G1 X593.9539 Y1154.1052 Z-1.0000 F4000
G1 X595.3668 Y1156.4722 Z-1.0000 F4000
G1 X600.1007 Y1165.6648 Z-1.0000 F4000
G1 X601.2016 Y1167.5731 Z-1.0000 F4000
G1 X602.8897 Y1169.6098 Z-1.0000 F4000
G1 X605.5686 Y1171.1511 Z-1.0000 F4000
G1 X609.5686 Y1171.6832 Z-1.0000 F4000
G1 X613.7337 Y1170.5639 Z-1.0000 F4000
G1 X616.7246 Y1167.8850 Z-1.0000 F4000
G1 X618.4677 Y1164.0685 Z-1.0000 F4000
G1 X618.9264 Y1159.5731 Z-1.0000 F4000
G1 X618.4493 Y1155.4446 Z-1.0000 F4000
G1 X617.2016 Y1152.3254 Z-1.0000 F4000
G1 X615.1466 Y1149.9034 Z-1.0000 F4000
G1 X615.1466 Y1149.9034 Z10.0000 F9999
G1 X613.4035 Y1183.1878 Z10.0000 F9999
G1 X613.4035 Y1183.1878 Z-1.0000 F2500
G1 X614.6695 Y1184.4355 Z-1.0000 F4000
G1 X616.4860 Y1186.7657 Z-1.0000 F4000
G1 X618.1374 Y1190.2336 Z-1.0000 F4000
G1 X618.9264 Y1194.9676 Z-1.0000 F4000
G1 X617.7337 Y1200.1235 Z-1.0000 F4000
G1 X614.4126 Y1204.4905 Z-1.0000 F4000
G1 X609.4952 Y1207.5364 Z-1.0000 F4000
G1 X603.5503 Y1208.6740 Z-1.0000 F4000
G1 X598.0090 Y1207.3345 Z-1.0000 F4000
G1 X593.9723 Y1204.0868 Z-1.0000 F4000
G1 X591.5503 Y1200.0318 Z-1.0000 F4000
G1 X590.7429 Y1196.2703 Z-1.0000 F4000
G1 X590.7429 Y1194.1235 Z-1.0000 F4000
G1 X591.1466 Y1191.8667 Z-1.0000 F4000
G1 X592.0457 Y1189.2245 Z-1.0000 F4000
G1 X576.6512 Y1194.8575 Z-1.0000 F4000
G1 X576.6512 Y1209.0593 Z-1.0000 F4000
G1 X576.6512 Y1194.8575 Z-1.0000 F4000
G1 X592.0457 Y1189.2245 Z-1.0000 F4000
G1 X591.1466 Y1191.8667 Z-1.0000 F4000
G1 X590.7429 Y1194.1235 Z-1.0000 F4000
G1 X590.7429 Y1196.2703 Z-1.0000 F4000
G1 X591.5503 Y1200.0318 Z-1.0000 F4000
G1 X593.9723 Y1204.0868 Z-1.0000 F4000
G1 X598.0090 Y1207.3345 Z-1.0000 F4000
G1 X603.5503 Y1208.6740 Z-1.0000 F4000
G1 X609.4952 Y1207.5364 Z-1.0000 F4000
G1 X614.4126 Y1204.4905 Z-1.0000 F4000
G1 X617.7337 Y1200.1235 Z-1.0000 F4000
G1 X618.9264 Y1194.9676 Z-1.0000 F4000
G1 X618.1374 Y1190.2336 Z-1.0000 F4000
G1 X616.4860 Y1186.7657 Z-1.0000 F4000
G1 X614.6695 Y1184.4355 Z-1.0000 F4000
G1 X614.6695 Y1184.4355 Z10.0000 F9999
G1 X568.4310 Y1137.2428 Z10.0000 F9999
G1 X568.4310 Y1137.2428 Z-1.0000 F2500
G1 X621.2750 Y1106.8575 Z-1.0000 F4000
G1 X568.4310 Y1137.2428 Z-1.0000 F4000
G1 X568.4310 Y1137.2428 Z10.0000 F9999
G1 X568.4310 Y1249.9767 Z10.0000 F9999
G1 X568.4310 Y1249.9767 Z-1.0000 F2500
G1 X621.2750 Y1219.5914 Z-1.0000 F4000
G1 X568.4310 Y1249.9767 Z-1.0000 F4000
G1 X568.4310 Y1249.9767 Z10.0000 F9999
G1 X577.8255 Y1265.4813 Z10.0000 F9999
G1 X577.8255 Y1265.4813 Z-1.0000 F2500
G1 X618.9264 Y1265.4813 Z-1.0000 F4000
G1 X577.8255 Y1265.4813 Z-1.0000 F4000
G1 X577.8255 Y1265.4813 Z10.0000 F9999
G1 X577.8255 Y1285.4446 Z10.0000 F9999
G1 X577.8255 Y1285.4446 Z-1.0000 F2500
G1 X618.9264 Y1322.5456 Z-1.0000 F4000
G1 X577.8255 Y1322.5456 Z-1.0000 F4000
G1 X618.9264 Y1322.5456 Z-1.0000 F4000
G1 X577.8255 Y1285.4446 Z-1.0000 F4000
G1 X618.9264 Y1285.4446 Z-1.0000 F4000
G1 X618.9264 Y1285.4446 Z10.0000 F9999
G1 X741.5399 Y1250.5089 Z10.0000 F9999
G1 X741.5399 Y1250.5089 Z-1.0000 F2500
G1 X794.3839 Y1220.1235 Z-1.0000 F4000
G1 X741.5399 Y1250.5089 Z-1.0000 F4000
G1 X741.5399 Y1250.5089 Z10.0000 F9999
G1 X750.9344 Y1266.0134 Z10.0000 F9999
G1 X750.9344 Y1266.0134 Z-1.0000 F2500
G1 X792.0353 Y1266.0134 Z-1.0000 F4000
G1 X750.9344 Y1266.0134 Z-1.0000 F4000
G1 X750.9344 Y1266.0134 Z10.0000 F9999
G1 X750.9344 Y1285.9767 Z10.0000 F9999
G1 X750.9344 Y1285.9767 Z-1.0000 F2500
G1 X792.0353 Y1323.0777 Z-1.0000 F4000
G1 X750.9344 Y1323.0777 Z-1.0000 F4000
G1 X792.0353 Y1323.0777 Z-1.0000 F4000
G1 X750.9344 Y1285.9767 Z-1.0000 F4000
G1 X792.0353 Y1285.9767 Z-1.0000 F4000
G1 X792.0353 Y1285.9767 Z10.0000 F9999
G1 X786.5124 Y1183.7199 Z10.0000 F9999
G1 X786.5124 Y1183.7199 Z-1.0000 F2500
G1 X787.7784 Y1184.9676 Z-1.0000 F4000
G1 X789.5949 Y1187.2978 Z-1.0000 F4000
G1 X791.2463 Y1190.7657 Z-1.0000 F4000
G1 X792.0353 Y1195.4997 Z-1.0000 F4000
G1 X790.8426 Y1200.6556 Z-1.0000 F4000
G1 X787.5215 Y1205.0226 Z-1.0000 F4000
G1 X782.6041 Y1208.0685 Z-1.0000 F4000
G1 X776.6592 Y1209.2061 Z-1.0000 F4000
G1 X771.1179 Y1207.8667 Z-1.0000 F4000
G1 X767.0812 Y1204.6189 Z-1.0000 F4000
G1 X764.6592 Y1200.5639 Z-1.0000 F4000
G1 X763.8518 Y1196.8024 Z-1.0000 F4000
G1 X763.8518 Y1194.6556 Z-1.0000 F4000
G1 X764.2555 Y1192.3988 Z-1.0000 F4000
G1 X765.1546 Y1189.7566 Z-1.0000 F4000
G1 X749.7601 Y1195.3896 Z-1.0000 F4000
G1 X749.7601 Y1209.5914 Z-1.0000 F4000
G1 X749.7601 Y1195.3896 Z-1.0000 F4000
G1 X765.1546 Y1189.7566 Z-1.0000 F4000
G1 X764.2555 Y1192.3988 Z-1.0000 F4000
G1 X763.8518 Y1194.6556 Z-1.0000 F4000
G1 X763.8518 Y1196.8024 Z-1.0000 F4000
G1 X764.6592 Y1200.5639 Z-1.0000 F4000
G1 X767.0812 Y1204.6189 Z-1.0000 F4000
G1 X771.1179 Y1207.8667 Z-1.0000 F4000
G1 X776.6592 Y1209.2061 Z-1.0000 F4000
G1 X782.6041 Y1208.0685 Z-1.0000 F4000
G1 X787.5215 Y1205.0226 Z-1.0000 F4000
G1 X790.8426 Y1200.6556 Z-1.0000 F4000
G1 X792.0353 Y1195.4997 Z-1.0000 F4000
G1 X791.2463 Y1190.7657 Z-1.0000 F4000
G1 X789.5949 Y1187.2978 Z-1.0000 F4000
G1 X787.7784 Y1184.9676 Z-1.0000 F4000
G1 X787.7784 Y1184.9676 Z10.0000 F9999
G1 X785.2096 Y1148.4905 Z10.0000 F9999
G1 X785.2096 Y1148.4905 Z-1.0000 F2500
G1 X788.2555 Y1150.4355 Z-1.0000 F4000
G1 X790.3105 Y1152.8575 Z-1.0000 F4000
G1 X791.5582 Y1155.9767 Z-1.0000 F4000
G1 X792.0353 Y1160.1052 Z-1.0000 F4000
G1 X791.5766 Y1164.6006 Z-1.0000 F4000
G1 X789.8335 Y1168.4171 Z-1.0000 F4000
G1 X786.8426 Y1171.0960 Z-1.0000 F4000
G1 X782.6775 Y1172.2153 Z-1.0000 F4000
G1 X778.6775 Y1171.6832 Z-1.0000 F4000
G1 X775.9986 Y1170.1419 Z-1.0000 F4000
G1 X774.3105 Y1168.1052 Z-1.0000 F4000
G1 X773.2096 Y1166.1969 Z-1.0000 F4000
G1 X768.4757 Y1157.0043 Z-1.0000 F4000
G1 X767.0628 Y1154.6373 Z-1.0000 F4000
G1 X765.4115 Y1152.7841 Z-1.0000 F4000
G1 X763.2280 Y1151.5364 Z-1.0000 F4000
G1 X760.3472 Y1151.0226 Z-1.0000 F4000
G1 X757.0628 Y1151.5547 Z-1.0000 F4000
G1 X754.0353 Y1153.3896 Z-1.0000 F4000
G1 X751.8151 Y1156.5272 Z-1.0000 F4000
G1 X750.9344 Y1160.8942 Z-1.0000 F4000
G1 X751.6133 Y1165.1511 Z-1.0000 F4000
G1 X753.0812 Y1167.9951 Z-1.0000 F4000
G1 X755.2280 Y1170.0868 Z-1.0000 F4000
G1 X753.0812 Y1167.9951 Z-1.0000 F4000
G1 X751.6133 Y1165.1511 Z-1.0000 F4000
G1 X750.9344 Y1160.8942 Z-1.0000 F4000
G1 X751.8151 Y1156.5272 Z-1.0000 F4000
G1 X754.0353 Y1153.3896 Z-1.0000 F4000
G1 X757.0628 Y1151.5547 Z-1.0000 F4000
G1 X760.3472 Y1151.0226 Z-1.0000 F4000
G1 X763.2280 Y1151.5364 Z-1.0000 F4000
G1 X765.4115 Y1152.7841 Z-1.0000 F4000
G1 X767.0628 Y1154.6373 Z-1.0000 F4000
G1 X768.4757 Y1157.0043 Z-1.0000 F4000
G1 X773.2096 Y1166.1969 Z-1.0000 F4000
G1 X774.3105 Y1168.1052 Z-1.0000 F4000
G1 X775.9986 Y1170.1419 Z-1.0000 F4000
G1 X778.6775 Y1171.6832 Z-1.0000 F4000
G1 X782.6775 Y1172.2153 Z-1.0000 F4000
G1 X786.8426 Y1171.0960 Z-1.0000 F4000
G1 X789.8335 Y1168.4171 Z-1.0000 F4000
G1 X791.5766 Y1164.6006 Z-1.0000 F4000
G1 X792.0353 Y1160.1052 Z-1.0000 F4000
G1 X791.5582 Y1155.9767 Z-1.0000 F4000
G1 X790.3105 Y1152.8575 Z-1.0000 F4000
G1 X788.2555 Y1150.4355 Z-1.0000 F4000
G1 X788.2555 Y1150.4355 Z10.0000 F9999
G1 X741.5399 Y1137.7749 Z10.0000 F9999
G1 X741.5399 Y1137.7749 Z-1.0000 F2500
G1 X794.3839 Y1107.3896 Z-1.0000 F4000
G1 X741.5399 Y1137.7749 Z-1.0000 F4000
G1 X741.5399 Y1137.7749 Z10.0000 F9999
G1 X750.9344 Y1079.9584 Z10.0000 F9999
G1 X750.9344 Y1079.9584 Z-1.0000 F2500
G1 X792.0353 Y1096.0134 Z-1.0000 F4000
G1 X750.9344 Y1079.9584 Z-1.0000 F4000
G1 X792.0353 Y1063.9400 Z-1.0000 F4000
G1 X792.0353 Y1063.9400 Z10.0000 F9999
G1 X767.3748 Y1053.2611 Z10.0000 F9999
G1 X767.3748 Y1053.2611 Z-1.0000 F2500
G1 X767.3748 Y1024.0134 Z-1.0000 F4000
G1 X767.3748 Y1053.2611 Z-1.0000 F4000
G1 X767.3748 Y1053.2611 Z10.0000 F9999
G1 X777.3381 Y1090.2703 Z10.0000 F9999
G1 X777.3381 Y1090.2703 Z-1.0000 F2500
G1 X777.3381 Y1069.5731 Z-1.0000 F4000
G1 X777.3381 Y1090.2703 Z-1.0000 F4000
G1 X777.3381 Y1090.2703 Z10.0000 F9999
G1 X777.3381 Y1006.8942 Z10.0000 F9999
G1 X777.3381 Y1006.8942 Z-1.0000 F2500
G1 X777.3381 Y986.1969 Z-1.0000 F4000
G1 X777.3381 Y1006.8942 Z-1.0000 F4000
G1 X777.3381 Y1006.8942 Z10.0000 F9999
G1 X750.9344 Y996.5823 Z10.0000 F9999
G1 X750.9344 Y996.5823 Z-1.0000 F2500
G1 X792.0353 Y1012.6373 Z-1.0000 F4000
G1 X750.9344 Y996.5823 Z-1.0000 F4000
G1 X792.0353 Y980.5639 Z-1.0000 F4000
G1 X792.0353 Y980.5639 Z10.0000 F9999
G1 X792.0353 Y969.8850 Z10.0000 F9999
G1 X792.0353 Y969.8850 Z-1.0000 F2500
G1 X771.8885 Y956.6556 Z-1.0000 F4000
G1 X792.0353 Y969.8850 Z-1.0000 F4000
G1 X792.0353 Y969.8850 Z10.0000 F9999
G1 X792.0353 Y952.4722 Z10.0000 F9999
G1 X792.0353 Y952.4722 Z-1.0000 F2500
G1 X750.9344 Y952.4722 Z-1.0000 F4000
G1 X750.9344 Y959.6281 Z-1.0000 F4000
G1 X751.5399 Y963.4997 Z-1.0000 F4000
G1 X753.3564 Y966.7107 Z-1.0000 F4000
G1 X756.5124 Y968.9309 Z-1.0000 F4000
G1 X761.1546 Y969.7749 Z-1.0000 F4000
G1 X765.8335 Y968.6189 Z-1.0000 F4000
G1 X769.1546 Y965.8483 Z-1.0000 F4000
G1 X771.1179 Y962.5272 Z-1.0000 F4000
G1 X771.7784 Y959.6281 Z-1.0000 F4000
G1 X771.7784 Y952.4722 Z-1.0000 F4000
G1 X771.7784 Y959.6281 Z-1.0000 F4000
G1 X771.1179 Y962.5272 Z-1.0000 F4000
G1 X769.1546 Y965.8483 Z-1.0000 F4000
G1 X765.8335 Y968.6189 Z-1.0000 F4000
G1 X761.1546 Y969.7749 Z-1.0000 F4000
G1 X756.5124 Y968.9309 Z-1.0000 F4000
G1 X753.3564 Y966.7107 Z-1.0000 F4000
G1 X751.5399 Y963.4997 Z-1.0000 F4000
G1 X750.9344 Y959.6281 Z-1.0000 F4000
G1 X750.9344 Y952.4722 Z-1.0000 F4000
G1 X750.9344 Y952.4722 Z10.0000 F9999
G1 X769.2280 Y921.9400 Z10.0000 F9999
G1 X769.2280 Y921.9400 Z-1.0000 F2500
G1 X769.2280 Y936.3804 Z-1.0000 F4000
G1 X769.2280 Y921.9400 Z-1.0000 F4000
G1 X750.9344 Y921.9400 Z-1.0000 F4000
G1 X750.9344 Y937.0593 Z-1.0000 F4000
G1 X750.9344 Y921.9400 Z-1.0000 F4000
G1 X792.0353 Y921.9400 Z-1.0000 F4000
G1 X792.0353 Y921.9400 Z10.0000 F9999
G1 X940.6797 Y925.3829 Z10.0000 F9999
G1 X940.6797 Y925.3829 Z-1.0000 F2500
G1 X940.6797 Y939.8232 Z-1.0000 F4000
G1 X940.6797 Y925.3829 Z-1.0000 F4000
G1 X922.3861 Y925.3829 Z-1.0000 F4000
G1 X922.3861 Y940.5021 Z-1.0000 F4000
G1 X922.3861 Y925.3829 Z-1.0000 F4000
G1 X963.4870 Y925.3829 Z-1.0000 F4000
G1 X963.4870 Y925.3829 Z10.0000 F9999
G1 X963.4870 Y955.9150 Z10.0000 F9999
G1 X963.4870 Y955.9150 Z-1.0000 F2500
G1 X922.3861 Y955.9150 Z-1.0000 F4000
G1 X922.3861 Y963.0709 Z-1.0000 F4000
G1 X922.9916 Y966.9425 Z-1.0000 F4000
G1 X924.8081 Y970.1535 Z-1.0000 F4000
G1 X927.9641 Y972.3737 Z-1.0000 F4000
G1 X932.6063 Y973.2177 Z-1.0000 F4000
G1 X937.2852 Y972.0618 Z-1.0000 F4000
G1 X940.6063 Y969.2911 Z-1.0000 F4000
G1 X942.5696 Y965.9700 Z-1.0000 F4000
G1 X943.2301 Y963.0709 Z-1.0000 F4000
G1 X943.2301 Y955.9150 Z-1.0000 F4000
G1 X943.2301 Y963.0709 Z-1.0000 F4000
G1 X942.5696 Y965.9700 Z-1.0000 F4000
G1 X940.6063 Y969.2911 Z-1.0000 F4000
G1 X937.2852 Y972.0618 Z-1.0000 F4000
G1 X932.6063 Y973.2177 Z-1.0000 F4000
G1 X927.9641 Y972.3737 Z-1.0000 F4000
G1 X924.8081 Y970.1535 Z-1.0000 F4000
G1 X922.9916 Y966.9425 Z-1.0000 F4000
G1 X922.3861 Y963.0709 Z-1.0000 F4000
G1 X922.3861 Y955.9150 Z-1.0000 F4000
G1 X922.3861 Y955.9150 Z10.0000 F9999
G1 X922.3861 Y1000.0251 Z10.0000 F9999
G1 X922.3861 Y1000.0251 Z-1.0000 F2500
G1 X963.4870 Y1016.0801 Z-1.0000 F4000
G1 X922.3861 Y1000.0251 Z-1.0000 F4000
G1 X963.4870 Y984.0067 Z-1.0000 F4000
G1 X963.4870 Y984.0067 Z10.0000 F9999
G1 X963.4870 Y973.3278 Z10.0000 F9999
G1 X963.4870 Y973.3278 Z-1.0000 F2500
G1 X943.3402 Y960.0985 Z-1.0000 F4000
G1 X963.4870 Y973.3278 Z-1.0000 F4000
G1 X963.4870 Y973.3278 Z10.0000 F9999
G1 X948.7898 Y1010.3370 Z10.0000 F9999
G1 X948.7898 Y1010.3370 Z-1.0000 F2500
G1 X948.7898 Y989.6397 Z-1.0000 F4000
G1 X948.7898 Y1010.3370 Z-1.0000 F4000
G1 X948.7898 Y1010.3370 Z10.0000 F9999
G1 X938.8265 Y1056.7040 Z10.0000 F9999
G1 X938.8265 Y1056.7040 Z-1.0000 F2500
G1 X938.8265 Y1027.4563 Z-1.0000 F4000
G1 X938.8265 Y1056.7040 Z-1.0000 F4000
G1 X938.8265 Y1056.7040 Z10.0000 F9999
G1 X922.3861 Y1083.4012 Z10.0000 F9999
G1 X922.3861 Y1083.4012 Z-1.0000 F2500
G1 X963.4870 Y1099.4563 Z-1.0000 F4000
G1 X922.3861 Y1083.4012 Z-1.0000 F4000
G1 X963.4870 Y1067.3829 Z-1.0000 F4000
G1 X963.4870 Y1067.3829 Z10.0000 F9999
G1 X948.7898 Y1093.7131 Z10.0000 F9999
G1 X948.7898 Y1093.7131 Z-1.0000 F2500
G1 X948.7898 Y1073.0159 Z-1.0000 F4000
G1 X948.7898 Y1093.7131 Z-1.0000 F4000
G1 X948.7898 Y1093.7131 Z10.0000 F9999
G1 X956.6613 Y1151.9333 Z10.0000 F9999
G1 X956.6613 Y1151.9333 Z-1.0000 F2500
G1 X959.7072 Y1153.8783 Z-1.0000 F4000
G1 X961.7623 Y1156.3003 Z-1.0000 F4000
G1 X963.0100 Y1159.4196 Z-1.0000 F4000
G1 X963.4870 Y1163.5480 Z-1.0000 F4000
G1 X963.0283 Y1168.0434 Z-1.0000 F4000
G1 X961.2852 Y1171.8599 Z-1.0000 F4000
G1 X958.2944 Y1174.5388 Z-1.0000 F4000
G1 X954.1292 Y1175.6581 Z-1.0000 F4000
G1 X950.1292 Y1175.1260 Z-1.0000 F4000
G1 X947.4503 Y1173.5847 Z-1.0000 F4000
G1 X945.7623 Y1171.5480 Z-1.0000 F4000
G1 X944.6613 Y1169.6397 Z-1.0000 F4000
G1 X939.9274 Y1160.4471 Z-1.0000 F4000
G1 X938.5146 Y1158.0801 Z-1.0000 F4000
G1 X936.8632 Y1156.2269 Z-1.0000 F4000
G1 X934.6797 Y1154.9792 Z-1.0000 F4000
G1 X931.7990 Y1154.4654 Z-1.0000 F4000
G1 X928.5146 Y1154.9975 Z-1.0000 F4000
G1 X925.4870 Y1156.8324 Z-1.0000 F4000
G1 X923.2668 Y1159.9700 Z-1.0000 F4000
G1 X922.3861 Y1164.3370 Z-1.0000 F4000
G1 X923.0650 Y1168.5939 Z-1.0000 F4000
G1 X924.5329 Y1171.4379 Z-1.0000 F4000
G1 X926.6797 Y1173.5297 Z-1.0000 F4000
G1 X924.5329 Y1171.4379 Z-1.0000 F4000
G1 X923.0650 Y1168.5939 Z-1.0000 F4000
G1 X922.3861 Y1164.3370 Z-1.0000 F4000
G1 X923.2668 Y1159.9700 Z-1.0000 F4000
G1 X925.4870 Y1156.8324 Z-1.0000 F4000
G1 X928.5146 Y1154.9975 Z-1.0000 F4000
G1 X931.7990 Y1154.4654 Z-1.0000 F4000
G1 X934.6797 Y1154.9792 Z-1.0000 F4000
G1 X936.8632 Y1156.2269 Z-1.0000 F4000
G1 X938.5146 Y1158.0801 Z-1.0000 F4000
G1 X939.9274 Y1160.4471 Z-1.0000 F4000
G1 X944.6613 Y1169.6397 Z-1.0000 F4000
G1 X945.7623 Y1171.5480 Z-1.0000 F4000
G1 X947.4503 Y1173.5847 Z-1.0000 F4000
G1 X950.1292 Y1175.1260 Z-1.0000 F4000
G1 X954.1292 Y1175.6581 Z-1.0000 F4000
G1 X958.2944 Y1174.5388 Z-1.0000 F4000
G1 X961.2852 Y1171.8599 Z-1.0000 F4000
G1 X963.0283 Y1168.0434 Z-1.0000 F4000
G1 X963.4870 Y1163.5480 Z-1.0000 F4000
G1 X963.0100 Y1159.4196 Z-1.0000 F4000
G1 X961.7623 Y1156.3003 Z-1.0000 F4000
G1 X959.7072 Y1153.8783 Z-1.0000 F4000
G1 X959.7072 Y1153.8783 Z10.0000 F9999
G1 X957.9641 Y1187.1627 Z10.0000 F9999
G1 X957.9641 Y1187.1627 Z-1.0000 F2500
G1 X959.2301 Y1188.4104 Z-1.0000 F4000
G1 X961.0467 Y1190.7407 Z-1.0000 F4000
G1 X962.6980 Y1194.2086 Z-1.0000 F4000
G1 X963.4870 Y1198.9425 Z-1.0000 F4000
G1 X962.2944 Y1204.0985 Z-1.0000 F4000
G1 X958.9733 Y1208.4654 Z-1.0000 F4000
G1 X954.0558 Y1211.5113 Z-1.0000 F4000
G1 X948.1109 Y1212.6489 Z-1.0000 F4000
G1 X942.5696 Y1211.3095 Z-1.0000 F4000
G1 X938.5329 Y1208.0618 Z-1.0000 F4000
G1 X936.1109 Y1204.0067 Z-1.0000 F4000
G1 X935.3035 Y1200.2453 Z-1.0000 F4000
G1 X935.3035 Y1198.0985 Z-1.0000 F4000
G1 X935.7072 Y1195.8416 Z-1.0000 F4000
G1 X936.6063 Y1193.1994 Z-1.0000 F4000
G1 X921.2118 Y1198.8324 Z-1.0000 F4000
G1 X921.2118 Y1213.0342 Z-1.0000 F4000
G1 X921.2118 Y1198.8324 Z-1.0000 F4000
G1 X936.6063 Y1193.1994 Z-1.0000 F4000
G1 X935.7072 Y1195.8416 Z-1.0000 F4000
G1 X935.3035 Y1198.0985 Z-1.0000 F4000
G1 X935.3035 Y1200.2453 Z-1.0000 F4000
G1 X936.1109 Y1204.0067 Z-1.0000 F4000
G1 X938.5329 Y1208.0618 Z-1.0000 F4000
G1 X942.5696 Y1211.3095 Z-1.0000 F4000
G1 X948.1109 Y1212.6489 Z-1.0000 F4000
G1 X954.0558 Y1211.5113 Z-1.0000 F4000
G1 X958.9733 Y1208.4654 Z-1.0000 F4000
G1 X962.2944 Y1204.0985 Z-1.0000 F4000
G1 X963.4870 Y1198.9425 Z-1.0000 F4000
G1 X962.6980 Y1194.2086 Z-1.0000 F4000
G1 X961.0467 Y1190.7407 Z-1.0000 F4000
G1 X959.2301 Y1188.4104 Z-1.0000 F4000
G1 X959.2301 Y1188.4104 Z10.0000 F9999
G1 X912.9916 Y1141.2177 Z10.0000 F9999
G1 X912.9916 Y1141.2177 Z-1.0000 F2500
G1 X965.8357 Y1110.8324 Z-1.0000 F4000
G1 X912.9916 Y1141.2177 Z-1.0000 F4000
G1 X912.9916 Y1141.2177 Z10.0000 F9999
G1 X912.9916 Y1253.9517 Z10.0000 F9999
G1 X912.9916 Y1253.9517 Z-1.0000 F2500
G1 X965.8357 Y1223.5664 Z-1.0000 F4000
G1 X912.9916 Y1253.9517 Z-1.0000 F4000
G1 X912.9916 Y1253.9517 Z10.0000 F9999
G1 X922.3861 Y1269.4563 Z10.0000 F9999
G1 X922.3861 Y1269.4563 Z-1.0000 F2500
G1 X963.4870 Y1269.4563 Z-1.0000 F4000
G1 X922.3861 Y1269.4563 Z-1.0000 F4000
G1 X922.3861 Y1269.4563 Z10.0000 F9999
G1 X922.3861 Y1289.4196 Z10.0000 F9999
G1 X922.3861 Y1289.4196 Z-1.0000 F2500
G1 X963.4870 Y1326.5205 Z-1.0000 F4000
G1 X922.3861 Y1326.5205 Z-1.0000 F4000
G1 X963.4870 Y1326.5205 Z-1.0000 F4000
G1 X922.3861 Y1289.4196 Z-1.0000 F4000
G1 X963.4870 Y1289.4196 Z-1.0000 F4000
G1 X963.4870 Y1289.4196 Z10.0000 F9999
G1 X1082.7260 Y1248.6339 Z10.0000 F9999
G1 X1082.7260 Y1248.6339 Z-1.0000 F2500
G1 X1135.5701 Y1218.2486 Z-1.0000 F4000
G1 X1082.7260 Y1248.6339 Z-1.0000 F4000
G1 X1082.7260 Y1248.6339 Z10.0000 F9999
G1 X1092.1205 Y1264.1385 Z10.0000 F9999
G1 X1092.1205 Y1264.1385 Z-1.0000 F2500
G1 X1133.2215 Y1264.1385 Z-1.0000 F4000
G1 X1092.1205 Y1264.1385 Z-1.0000 F4000
G1 X1092.1205 Y1264.1385 Z10.0000 F9999
G1 X1092.1205 Y1284.1018 Z10.0000 F9999
G1 X1092.1205 Y1284.1018 Z-1.0000 F2500
G1 X1133.2215 Y1321.2027 Z-1.0000 F4000
G1 X1092.1205 Y1321.2027 Z-1.0000 F4000
G1 X1133.2215 Y1321.2027 Z-1.0000 F4000
G1 X1092.1205 Y1284.1018 Z-1.0000 F4000
G1 X1133.2215 Y1284.1018 Z-1.0000 F4000
G1 X1133.2215 Y1284.1018 Z10.0000 F9999
G1 X1127.6985 Y1181.8449 Z10.0000 F9999
G1 X1127.6985 Y1181.8449 Z-1.0000 F2500
G1 X1128.9646 Y1183.0926 Z-1.0000 F4000
G1 X1130.7811 Y1185.4229 Z-1.0000 F4000
G1 X1132.4325 Y1188.8908 Z-1.0000 F4000
G1 X1133.2215 Y1193.6247 Z-1.0000 F4000
G1 X1132.0288 Y1198.7807 Z-1.0000 F4000
G1 X1128.7077 Y1203.1477 Z-1.0000 F4000
G1 X1123.7903 Y1206.1935 Z-1.0000 F4000
G1 X1117.8453 Y1207.3311 Z-1.0000 F4000
G1 X1112.3040 Y1205.9917 Z-1.0000 F4000
G1 X1108.2673 Y1202.7440 Z-1.0000 F4000
G1 X1105.8453 Y1198.6889 Z-1.0000 F4000
G1 X1105.0380 Y1194.9275 Z-1.0000 F4000
G1 X1105.0380 Y1192.7807 Z-1.0000 F4000
G1 X1105.4416 Y1190.5238 Z-1.0000 F4000
G1 X1106.3407 Y1187.8816 Z-1.0000 F4000
G1 X1090.9462 Y1193.5146 Z-1.0000 F4000
G1 X1090.9462 Y1207.7165 Z-1.0000 F4000
G1 X1090.9462 Y1193.5146 Z-1.0000 F4000
G1 X1106.3407 Y1187.8816 Z-1.0000 F4000
G1 X1105.4416 Y1190.5238 Z-1.0000 F4000
G1 X1105.0380 Y1192.7807 Z-1.0000 F4000
G1 X1105.0380 Y1194.9275 Z-1.0000 F4000
G1 X1105.8453 Y1198.6889 Z-1.0000 F4000
G1 X1108.2673 Y1202.7440 Z-1.0000 F4000
G1 X1112.3040 Y1205.9917 Z-1.0000 F4000
G1 X1117.8453 Y1207.3311 Z-1.0000 F4000
G1 X1123.7903 Y1206.1935 Z-1.0000 F4000
G1 X1128.7077 Y1203.1477 Z-1.0000 F4000
G1 X1132.0288 Y1198.7807 Z-1.0000 F4000
G1 X1133.2215 Y1193.6247 Z-1.0000 F4000
G1 X1132.4325 Y1188.8908 Z-1.0000 F4000
G1 X1130.7811 Y1185.4229 Z-1.0000 F4000
G1 X1128.9646 Y1183.0926 Z-1.0000 F4000
G1 X1128.9646 Y1183.0926 Z10.0000 F9999
G1 X1126.3958 Y1146.6155 Z10.0000 F9999
G1 X1126.3958 Y1146.6155 Z-1.0000 F2500
G1 X1129.4416 Y1148.5605 Z-1.0000 F4000
G1 X1131.4967 Y1150.9825 Z-1.0000 F4000
G1 X1132.7444 Y1154.1018 Z-1.0000 F4000
G1 X1133.2215 Y1158.2302 Z-1.0000 F4000
G1 X1132.7627 Y1162.7256 Z-1.0000 F4000
G1 X1131.0196 Y1166.5422 Z-1.0000 F4000
G1 X1128.0288 Y1169.2211 Z-1.0000 F4000
G1 X1123.8637 Y1170.3403 Z-1.0000 F4000
G1 X1119.8637 Y1169.8082 Z-1.0000 F4000
G1 X1117.1848 Y1168.2669 Z-1.0000 F4000
G1 X1115.4967 Y1166.2302 Z-1.0000 F4000
G1 X1114.3958 Y1164.3220 Z-1.0000 F4000
G1 X1109.6618 Y1155.1293 Z-1.0000 F4000
G1 X1108.2490 Y1152.7623 Z-1.0000 F4000
G1 X1106.5976 Y1150.9091 Z-1.0000 F4000
G1 X1104.4141 Y1149.6614 Z-1.0000 F4000
G1 X1101.5334 Y1149.1477 Z-1.0000 F4000
G1 X1098.2490 Y1149.6798 Z-1.0000 F4000
G1 X1095.2215 Y1151.5146 Z-1.0000 F4000
G1 X1093.0013 Y1154.6522 Z-1.0000 F4000
G1 X1092.1205 Y1159.0192 Z-1.0000 F4000
G1 X1092.7994 Y1163.2761 Z-1.0000 F4000
G1 X1094.2673 Y1166.1201 Z-1.0000 F4000
G1 X1096.4141 Y1168.2119 Z-1.0000 F4000
G1 X1094.2673 Y1166.1201 Z-1.0000 F4000
G1 X1092.7994 Y1163.2761 Z-1.0000 F4000
G1 X1092.1205 Y1159.0192 Z-1.0000 F4000
G1 X1093.0013 Y1154.6522 Z-1.0000 F4000
G1 X1095.2215 Y1151.5146 Z-1.0000 F4000
G1 X1098.2490 Y1149.6798 Z-1.0000 F4000
G1 X1101.5334 Y1149.1477 Z-1.0000 F4000
G1 X1104.4141 Y1149.6614 Z-1.0000 F4000
G1 X1106.5976 Y1150.9091 Z-1.0000 F4000
G1 X1108.2490 Y1152.7623 Z-1.0000 F4000
G1 X1109.6618 Y1155.1293 Z-1.0000 F4000
G1 X1114.3958 Y1164.3220 Z-1.0000 F4000
G1 X1115.4967 Y1166.2302 Z-1.0000 F4000
G1 X1117.1848 Y1168.2669 Z-1.0000 F4000
G1 X1119.8637 Y1169.8082 Z-1.0000 F4000
G1 X1123.8637 Y1170.3403 Z-1.0000 F4000
G1 X1128.0288 Y1169.2211 Z-1.0000 F4000
G1 X1131.0196 Y1166.5422 Z-1.0000 F4000
G1 X1132.7627 Y1162.7256 Z-1.0000 F4000
G1 X1133.2215 Y1158.2302 Z-1.0000 F4000
G1 X1132.7444 Y1154.1018 Z-1.0000 F4000
G1 X1131.4967 Y1150.9825 Z-1.0000 F4000
G1 X1129.4416 Y1148.5605 Z-1.0000 F4000
G1 X1129.4416 Y1148.5605 Z10.0000 F9999
G1 X1082.7260 Y1135.9000 Z10.0000 F9999
G1 X1082.7260 Y1135.9000 Z-1.0000 F2500
G1 X1135.5701 Y1105.5146 Z-1.0000 F4000
G1 X1082.7260 Y1135.9000 Z-1.0000 F4000
G1 X1082.7260 Y1135.9000 Z10.0000 F9999
G1 X1092.1205 Y1078.0834 Z10.0000 F9999
G1 X1092.1205 Y1078.0834 Z-1.0000 F2500
G1 X1133.2215 Y1094.1385 Z-1.0000 F4000
G1 X1092.1205 Y1078.0834 Z-1.0000 F4000
G1 X1133.2215 Y1062.0651 Z-1.0000 F4000
G1 X1133.2215 Y1062.0651 Z10.0000 F9999
G1 X1108.5609 Y1051.3862 Z10.0000 F9999
G1 X1108.5609 Y1051.3862 Z-1.0000 F2500
G1 X1108.5609 Y1022.1385 Z-1.0000 F4000
G1 X1108.5609 Y1051.3862 Z-1.0000 F4000
G1 X1108.5609 Y1051.3862 Z10.0000 F9999
G1 X1118.5242 Y1088.3954 Z10.0000 F9999
G1 X1118.5242 Y1088.3954 Z-1.0000 F2500
G1 X1118.5242 Y1067.6981 Z-1.0000 F4000
G1 X1118.5242 Y1088.3954 Z-1.0000 F4000
G1 X1118.5242 Y1088.3954 Z10.0000 F9999
G1 X1118.5242 Y1005.0192 Z10.0000 F9999
G1 X1118.5242 Y1005.0192 Z-1.0000 F2500
G1 X1118.5242 Y984.3220 Z-1.0000 F4000
G1 X1118.5242 Y1005.0192 Z-1.0000 F4000
G1 X1118.5242 Y1005.0192 Z10.0000 F9999
G1 X1092.1205 Y994.7073 Z10.0000 F9999
G1 X1092.1205 Y994.7073 Z-1.0000 F2500
G1 X1133.2215 Y1010.7623 Z-1.0000 F4000
G1 X1092.1205 Y994.7073 Z-1.0000 F4000
G1 X1133.2215 Y978.6889 Z-1.0000 F4000
G1 X1133.2215 Y978.6889 Z10.0000 F9999
G1 X1133.2215 Y968.0100 Z10.0000 F9999
G1 X1133.2215 Y968.0100 Z-1.0000 F2500
G1 X1113.0747 Y954.7807 Z-1.0000 F4000
G1 X1133.2215 Y968.0100 Z-1.0000 F4000
G1 X1133.2215 Y968.0100 Z10.0000 F9999
G1 X1133.2215 Y950.5972 Z10.0000 F9999
G1 X1133.2215 Y950.5972 Z-1.0000 F2500
G1 X1092.1205 Y950.5972 Z-1.0000 F4000
G1 X1092.1205 Y957.7532 Z-1.0000 F4000
G1 X1092.7260 Y961.6247 Z-1.0000 F4000
G1 X1094.5426 Y964.8357 Z-1.0000 F4000
G1 X1097.6985 Y967.0559 Z-1.0000 F4000
G1 X1102.3407 Y967.9000 Z-1.0000 F4000
G1 X1107.0196 Y966.7440 Z-1.0000 F4000
G1 X1110.3407 Y963.9733 Z-1.0000 F4000
G1 X1112.3040 Y960.6522 Z-1.0000 F4000
G1 X1112.9646 Y957.7532 Z-1.0000 F4000
G1 X1112.9646 Y950.5972 Z-1.0000 F4000
G1 X1112.9646 Y957.7532 Z-1.0000 F4000
G1 X1112.3040 Y960.6522 Z-1.0000 F4000
G1 X1110.3407 Y963.9733 Z-1.0000 F4000
G1 X1107.0196 Y966.7440 Z-1.0000 F4000
G1 X1102.3407 Y967.9000 Z-1.0000 F4000
G1 X1097.6985 Y967.0559 Z-1.0000 F4000
G1 X1094.5426 Y964.8357 Z-1.0000 F4000
G1 X1092.7260 Y961.6247 Z-1.0000 F4000
G1 X1092.1205 Y957.7532 Z-1.0000 F4000
G1 X1092.1205 Y950.5972 Z-1.0000 F4000
G1 X1092.1205 Y950.5972 Z10.0000 F9999
G1 X1110.4141 Y920.0651 Z10.0000 F9999
G1 X1110.4141 Y920.0651 Z-1.0000 F2500
G1 X1110.4141 Y934.5055 Z-1.0000 F4000
G1 X1110.4141 Y920.0651 Z-1.0000 F4000
G1 X1092.1205 Y920.0651 Z-1.0000 F4000
G1 X1092.1205 Y935.1844 Z-1.0000 F4000
G1 X1092.1205 Y920.0651 Z-1.0000 F4000
G1 X1133.2215 Y920.0651 Z-1.0000 F4000
G1 X1133.2215 Y920.0651 Z10.0000 F9999
(Tool Number:1) (7.998 mm dia. slot drill)
M3 S9000
G1 X0.0000 Y2306.2659 Z10.0000 F9999
G1 X0.0000 Y2306.2659 Z1.0000 F2500
G1 X38.9711 Y2306.2659 Z-9.5000 F2500
G1 X0.0000 Y2306.2659 Z-20.0000 F2500
G1 X1220.0000 Y2306.2659 Z-20.0000 F5000
G1 X1220.0000 Y2306.2659 Z10.0000 F9999
(Tool Number:1) (7.998 mm dia. slot drill)
M3 S9000
G1 X195.9498 Y1379.8971 Z10.0000 F9999
G1 X195.9498 Y1379.8971 Z1.0000 F2500
G1 X195.9498 Y1340.9260 Z-9.5000 F2500
G1 X195.9498 Y1379.8971 Z-20.0000 F2500
G1 X195.9498 Y1265.8983 Z-20.0000 F5000
G1 X200.9498 Y1265.8983 Z-20.0000 F5000
G1 X200.9498 Y1263.8964 Z-20.0000 F5000
G1 X183.2923 Y1263.8964 Z-20.0000 F5000
G1 X177.9498 Y1258.5538 Z-20.0000 F5000
G1 X177.9498 Y1234.8984 Z-20.0000 F5000
G1 X224.9477 Y1234.8984 Z-20.0000 F5000
G1 X224.9477 Y1239.8985 Z-20.0000 F5000
G1 X226.9497 Y1239.8985 Z-20.0000 F5000
G1 X226.9497 Y1219.8965 Z-20.0000 F5000
G1 X224.9477 Y1219.8965 Z-20.0000 F5000
G1 X224.9477 Y1224.8965 Z-20.0000 F5000
G1 X177.9498 Y1224.8965 Z-20.0000 F5000
G1 X177.9498 Y1201.2411 Z-20.0000 F5000
G1 X183.2923 Y1195.8985 Z-20.0000 F5000
G1 X200.9498 Y1195.8985 Z-20.0000 F5000
G1 X200.9498 Y1193.8965 Z-20.0000 F5000
G1 X195.9498 Y1193.8965 Z-20.0000 F5000
G1 X195.9498 Y965.8990 Z-20.0000 F5000
G1 X200.9498 Y965.8990 Z-20.0000 F5000
G1 X200.9498 Y963.8970 Z-20.0000 F5000
G1 X183.2923 Y963.8970 Z-20.0000 F5000
G1 X177.9498 Y958.5545 Z-20.0000 F5000
G1 X177.9498 Y901.2417 Z-20.0000 F5000
G1 X183.2923 Y895.8992 Z-20.0000 F5000
G1 X200.9498 Y895.8992 Z-20.0000 F5000
G1 X200.9498 Y893.8972 Z-20.0000 F5000
G1 X195.9498 Y893.8972 Z-20.0000 F5000
G1 X195.9498 Y665.8996 Z-20.0000 F5000
G1 X200.9498 Y665.8996 Z-20.0000 F5000
G1 X200.9498 Y663.8977 Z-20.0000 F5000
G1 X183.2923 Y663.8977 Z-20.0000 F5000
G1 X177.9498 Y658.5551 Z-20.0000 F5000
G1 X177.9498 Y601.2423 Z-20.0000 F5000
G1 X183.2923 Y595.8998 Z-20.0000 F5000
G1 X200.9498 Y595.8998 Z-20.0000 F5000
G1 X200.9498 Y593.8978 Z-20.0000 F5000
G1 X195.9498 Y593.8978 Z-20.0000 F5000
G1 X195.9498 Y365.9002 Z-20.0000 F5000
G1 X200.9498 Y365.9002 Z-20.0000 F5000
G1 X200.9498 Y363.8983 Z-20.0000 F5000
G1 X183.2923 Y363.8983 Z-20.0000 F5000
G1 X177.9498 Y358.5557 Z-20.0000 F5000
G1 X177.9498 Y336.2946 Z-20.0000 F5000
G1 X177.9498 Y336.2946 Z-10.0000 F9999
G1 X177.9498 Y320.2966 Z-10.0000 F5000
G1 X177.9498 Y320.2966 Z-20.0000 F2500
G1 X177.9498 Y301.2430 Z-20.0000 F5000
G1 X183.2923 Y295.9004 Z-20.0000 F5000
G1 X200.9498 Y295.9004 Z-20.0000 F5000
G1 X200.9498 Y293.8984 Z-20.0000 F5000
G1 X195.9498 Y293.8984 Z-20.0000 F5000
G1 X195.9498 Y65.9009 Z-20.0000 F5000
G1 X200.9498 Y65.9009 Z-20.0000 F5000
G1 X200.9498 Y63.8988 Z-20.0000 F5000
G1 X183.2923 Y63.8988 Z-20.0000 F5000
G1 X177.9498 Y58.5563 Z-20.0000 F5000
G1 X177.9498 Y25.9009 Z-20.0000 F5000
G1 X239.5891 Y25.9009 Z-20.0000 F5000
G1 X240.1367 Y25.8215 Z-20.0000 F5000
G1 X240.3962 Y25.7039 Z-20.0000 F5000
G1 X240.6140 Y25.5101 Z-20.0000 F5000
G1 X240.7610 Y25.2659 Z-20.0000 F5000
G1 X240.8298 Y24.9894 Z-20.0000 F5000
G1 X240.8129 Y24.6983 Z-20.0000 F5000
G1 X240.7126 Y24.4316 Z-20.0000 F5000
G1 X240.3815 Y23.9883 Z-20.0000 F5000
G1 X237.4525 Y21.0591 Z-20.0000 F5000
G1 X236.0665 Y19.2029 Z-20.0000 F5000
G1 X235.1488 Y16.6644 Z-20.0000 F5000
G1 X235.0252 Y13.9681 Z-20.0000 F5000
G1 X235.6671 Y11.4402 Z-20.0000 F5000
G1 X237.0007 Y9.1989 Z-20.0000 F5000
G1 X238.9947 Y7.3797 Z-20.0000 F5000
G1 X241.4385 Y6.2335 Z-20.0000 F5000
G1 X243.7313 Y5.9010 Z-20.0000 F5000
G1 X270.1660 Y5.9010 Z-20.0000 F5000
G1 X272.4587 Y6.2335 Z-20.0000 F5000
G1 X274.9025 Y7.3797 Z-20.0000 F5000
G1 X276.8966 Y9.1989 Z-20.0000 F5000
G1 X278.2302 Y11.4402 Z-20.0000 F5000
G1 X278.8721 Y13.9681 Z-20.0000 F5000
G1 X278.7485 Y16.6644 Z-20.0000 F5000
G1 X277.8308 Y19.2029 Z-20.0000 F5000
G1 X276.4448 Y21.0591 Z-20.0000 F5000
G1 X273.5157 Y23.9883 Z-20.0000 F5000
G1 X273.1847 Y24.4316 Z-20.0000 F5000
G1 X273.0844 Y24.6983 Z-20.0000 F5000
G1 X273.0675 Y24.9894 Z-20.0000 F5000
G1 X273.1363 Y25.2659 Z-20.0000 F5000
G1 X273.2833 Y25.5101 Z-20.0000 F5000
G1 X273.5010 Y25.7039 Z-20.0000 F5000
G1 X273.7606 Y25.8215 Z-20.0000 F5000
G1 X274.3082 Y25.9009 Z-20.0000 F5000
G1 X335.9475 Y25.9009 Z-20.0000 F5000
G1 X335.9475 Y58.5563 Z-20.0000 F5000
G1 X330.6050 Y63.8988 Z-20.0000 F5000
G1 X312.9475 Y63.8988 Z-20.0000 F5000
G1 X312.9475 Y65.9009 Z-20.0000 F5000
G1 X317.9475 Y65.9009 Z-20.0000 F5000
G1 X317.9475 Y293.8984 Z-20.0000 F5000
G1 X312.9475 Y293.8984 Z-20.0000 F5000
G1 X312.9475 Y295.9004 Z-20.0000 F5000
G1 X330.6050 Y295.9004 Z-20.0000 F5000
G1 X335.9475 Y301.2430 Z-20.0000 F5000
G1 X335.9475 Y320.7280 Z-20.0000 F5000
G1 X335.9475 Y320.7280 Z-10.0000 F9999
G1 X335.9475 Y336.7260 Z-10.0000 F5000
G1 X335.9475 Y336.7260 Z-20.0000 F2500
G1 X335.9475 Y358.5557 Z-20.0000 F5000
G1 X330.6050 Y363.8983 Z-20.0000 F5000
G1 X312.9475 Y363.8983 Z-20.0000 F5000
G1 X312.9475 Y365.9002 Z-20.0000 F5000
G1 X317.9475 Y365.9002 Z-20.0000 F5000
G1 X317.9475 Y593.8978 Z-20.0000 F5000
G1 X312.9475 Y593.8978 Z-20.0000 F5000
G1 X312.9475 Y595.8998 Z-20.0000 F5000
G1 X330.6050 Y595.8998 Z-20.0000 F5000
G1 X335.9475 Y601.2423 Z-20.0000 F5000
G1 X335.9475 Y658.5551 Z-20.0000 F5000
G1 X330.6050 Y663.8977 Z-20.0000 F5000
G1 X312.9475 Y663.8977 Z-20.0000 F5000
G1 X312.9475 Y665.8996 Z-20.0000 F5000
G1 X317.9475 Y665.8996 Z-20.0000 F5000
G1 X317.9475 Y893.8972 Z-20.0000 F5000
G1 X312.9475 Y893.8972 Z-20.0000 F5000
G1 X312.9475 Y895.8992 Z-20.0000 F5000
G1 X330.6050 Y895.8992 Z-20.0000 F5000
G1 X335.9475 Y901.2417 Z-20.0000 F5000
G1 X335.9475 Y958.5545 Z-20.0000 F5000
G1 X330.6050 Y963.8970 Z-20.0000 F5000
G1 X312.9475 Y963.8970 Z-20.0000 F5000
G1 X312.9475 Y965.8990 Z-20.0000 F5000
G1 X317.9475 Y965.8990 Z-20.0000 F5000
G1 X317.9475 Y1193.8965 Z-20.0000 F5000
G1 X312.9475 Y1193.8965 Z-20.0000 F5000
G1 X312.9475 Y1195.8985 Z-20.0000 F5000
G1 X330.6050 Y1195.8985 Z-20.0000 F5000
G1 X335.9475 Y1201.2411 Z-20.0000 F5000
G1 X335.9475 Y1224.8965 Z-20.0000 F5000
G1 X288.9496 Y1224.8965 Z-20.0000 F5000
G1 X288.9496 Y1219.8965 Z-20.0000 F5000
G1 X286.9476 Y1219.8965 Z-20.0000 F5000
G1 X286.9476 Y1239.8985 Z-20.0000 F5000
G1 X288.9496 Y1239.8985 Z-20.0000 F5000
G1 X288.9496 Y1234.8984 Z-20.0000 F5000
G1 X335.9475 Y1234.8984 Z-20.0000 F5000
G1 X335.9475 Y1258.5538 Z-20.0000 F5000
G1 X330.6050 Y1263.8964 Z-20.0000 F5000
G1 X312.9475 Y1263.8964 Z-20.0000 F5000
G1 X312.9475 Y1265.8983 Z-20.0000 F5000
G1 X317.9475 Y1265.8983 Z-20.0000 F5000
G1 X317.9475 Y1493.8959 Z-20.0000 F5000
G1 X312.9475 Y1493.8959 Z-20.0000 F5000
G1 X312.9475 Y1495.8979 Z-20.0000 F5000
G1 X330.6050 Y1495.8979 Z-20.0000 F5000
G1 X335.9475 Y1501.2405 Z-20.0000 F5000
G1 X335.9475 Y1558.5532 Z-20.0000 F5000
G1 X330.6050 Y1563.8958 Z-20.0000 F5000
G1 X312.9475 Y1563.8958 Z-20.0000 F5000
G1 X312.9475 Y1565.8978 Z-20.0000 F5000
G1 X317.9475 Y1565.8978 Z-20.0000 F5000
G1 X317.9475 Y1683.8957 Z-20.0000 F5000
G1 X294.9499 Y1683.8957 Z-20.0000 F5000
G1 X294.9499 Y1685.8977 Z-20.0000 F5000
G1 X299.9500 Y1685.8977 Z-20.0000 F5000
G1 X299.9475 Y1793.8953 Z-20.0000 F5000
G1 X294.9476 Y1793.8953 Z-20.0000 F5000
G1 X294.9476 Y1795.8973 Z-20.0000 F5000
G1 X330.6050 Y1795.8973 Z-20.0000 F5000
G1 X335.9475 Y1801.2399 Z-20.0000 F5000
G1 X335.9475 Y1858.5526 Z-20.0000 F5000
G1 X330.6050 Y1863.8952 Z-20.0000 F5000
G1 X294.9476 Y1863.8952 Z-20.0000 F5000
G1 X294.9476 Y1865.8972 Z-20.0000 F5000
G1 X299.9476 Y1865.8972 Z-20.0000 F5000
G1 X299.9476 Y2093.8947 Z-20.0000 F5000
G1 X294.9476 Y2093.8947 Z-20.0000 F5000
G1 X294.9476 Y2095.8967 Z-20.0000 F5000
G1 X330.6050 Y2095.8967 Z-20.0000 F5000
G1 X335.9475 Y2101.2393 Z-20.0000 F5000
G1 X335.9475 Y2120.9614 Z-20.0000 F5000
G1 X335.9475 Y2120.9614 Z-10.0000 F9999
G1 X335.9475 Y2136.9594 Z-10.0000 F5000
G1 X335.9475 Y2136.9594 Z-20.0000 F2500
G1 X335.9475 Y2158.5521 Z-20.0000 F5000
G1 X330.6050 Y2163.8947 Z-20.0000 F5000
G1 X294.9476 Y2163.8947 Z-20.0000 F5000
G1 X294.9476 Y2165.8966 Z-20.0000 F5000
G1 X299.9476 Y2165.8966 Z-20.0000 F5000
G1 X299.9476 Y2281.8945 Z-20.0000 F5000
G1 X213.9497 Y2281.8945 Z-20.0000 F5000
G1 X213.9497 Y2165.8966 Z-20.0000 F5000
G1 X218.9497 Y2165.8966 Z-20.0000 F5000
G1 X218.9497 Y2163.8947 Z-20.0000 F5000
G1 X183.2923 Y2163.8947 Z-20.0000 F5000
G1 X177.9498 Y2158.5521 Z-20.0000 F5000
G1 X177.9498 Y2136.9594 Z-20.0000 F5000
G1 X177.9498 Y2136.9594 Z-10.0000 F9999
G1 X177.9498 Y2120.9614 Z-10.0000 F5000
G1 X177.9498 Y2120.9614 Z-20.0000 F2500
G1 X177.9498 Y2101.2393 Z-20.0000 F5000
G1 X183.2923 Y2095.8967 Z-20.0000 F5000
G1 X218.9497 Y2095.8967 Z-20.0000 F5000
G1 X218.9497 Y2093.8947 Z-20.0000 F5000
G1 X213.9497 Y2093.8947 Z-20.0000 F5000
G1 X213.9497 Y1865.8972 Z-20.0000 F5000
G1 X218.9497 Y1865.8972 Z-20.0000 F5000
G1 X218.9497 Y1863.8952 Z-20.0000 F5000
G1 X183.2923 Y1863.8952 Z-20.0000 F5000
G1 X177.9498 Y1858.5526 Z-20.0000 F5000
G1 X177.9498 Y1801.2399 Z-20.0000 F5000
G1 X183.2923 Y1795.8973 Z-20.0000 F5000
G1 X218.9497 Y1795.8973 Z-20.0000 F5000
G1 X218.9497 Y1793.8953 Z-20.0000 F5000
G1 X213.9497 Y1793.8953 Z-20.0000 F5000
G1 X213.9497 Y1685.8977 Z-20.0000 F5000
G1 X218.9497 Y1685.8977 Z-20.0000 F5000
G1 X218.9497 Y1683.8957 Z-20.0000 F5000
G1 X195.9498 Y1683.8957 Z-20.0000 F5000
G1 X195.9498 Y1565.8978 Z-20.0000 F5000
G1 X200.9498 Y1565.8978 Z-20.0000 F5000
G1 X200.9498 Y1563.8958 Z-20.0000 F5000
G1 X183.2923 Y1563.8958 Z-20.0000 F5000
G1 X177.9498 Y1558.5532 Z-20.0000 F5000
G1 X177.9498 Y1501.2405 Z-20.0000 F5000
G1 X183.2923 Y1495.8979 Z-20.0000 F5000
G1 X200.9498 Y1495.8979 Z-20.0000 F5000
G1 X200.9498 Y1493.8959 Z-20.0000 F5000
G1 X195.9498 Y1493.8959 Z-20.0000 F5000
G1 X195.9498 Y1379.8971 Z-20.0000 F5000
G1 X195.9498 Y1379.8971 Z10.0000 F9999
G1 X653.7837 Y1293.3040 Z10.0000 F9999
G1 X653.7837 Y1293.3040 Z1.0000 F2500
G1 X653.7837 Y1332.2751 Z-9.5000 F2500
G1 X653.7837 Y1293.3040 Z-20.0000 F2500
G1 X653.7837 Y1422.3479 Z-20.0000 F5000
G1 X648.7837 Y1422.3479 Z-20.0000 F5000
G1 X648.7837 Y1424.3507 Z-20.0000 F5000
G1 X666.4411 Y1424.3507 Z-20.0000 F5000
G1 X671.7837 Y1429.6930 Z-20.0000 F5000
G1 X671.7837 Y1453.3487 Z-20.0000 F5000
G1 X624.7858 Y1453.3487 Z-20.0000 F5000
G1 X624.7858 Y1448.3492 Z-20.0000 F5000
G1 X622.7838 Y1448.3492 Z-20.0000 F5000
G1 X622.7838 Y1468.3507 Z-20.0000 F5000
G1 X624.7858 Y1468.3507 Z-20.0000 F5000
G1 X624.7858 Y1463.3512 Z-20.0000 F5000
G1 X671.7837 Y1463.3512 Z-20.0000 F5000
G1 X671.7837 Y1487.0056 Z-20.0000 F5000
G1 X666.4410 Y1492.3476 Z-20.0000 F5000
G1 X648.7837 Y1492.3476 Z-20.0000 F5000
G1 X648.7837 Y1494.3505 Z-20.0000 F5000
G1 X653.7837 Y1494.3505 Z-20.0000 F5000
G1 X653.7837 Y1612.3488 Z-20.0000 F5000
G1 X630.7861 Y1612.3488 Z-20.0000 F5000
G1 X630.7861 Y1614.3515 Z-20.0000 F5000
G1 X635.7862 Y1614.3515 Z-20.0000 F5000
G1 X635.7837 Y1722.3474 Z-20.0000 F5000
G1 X630.7838 Y1722.3474 Z-20.0000 F5000
G1 X630.7838 Y1724.3502 Z-20.0000 F5000
G1 X666.4411 Y1724.3502 Z-20.0000 F5000
G1 X671.7837 Y1729.6925 Z-20.0000 F5000
G1 X671.7837 Y1787.0051 Z-20.0000 F5000
G1 X666.4410 Y1792.3470 Z-20.0000 F5000
G1 X630.7838 Y1792.3470 Z-20.0000 F5000
G1 X630.7838 Y1794.3501 Z-20.0000 F5000
G1 X635.7838 Y1794.3501 Z-20.0000 F5000
G1 X635.7838 Y2022.3475 Z-20.0000 F5000
G1 X630.7838 Y2022.3475 Z-20.0000 F5000
G1 X630.7838 Y2024.3493 Z-20.0000 F5000
G1 X666.4413 Y2024.3493 Z-20.0000 F5000
G1 X671.7837 Y2029.6921 Z-20.0000 F5000
G1 X671.7837 Y2046.3291 Z-20.0000 F5000
G1 X671.7837 Y2046.3291 Z-10.0000 F9999
G1 X671.7837 Y2062.3271 Z-10.0000 F5000
G1 X671.7837 Y2062.3271 Z-20.0000 F2500
G1 X671.7837 Y2087.0046 Z-20.0000 F5000
G1 X666.4412 Y2092.3472 Z-20.0000 F5000
G1 X630.7838 Y2092.3472 Z-20.0000 F5000
G1 X630.7838 Y2094.3493 Z-20.0000 F5000
G1 X635.7838 Y2094.3493 Z-20.0000 F5000
G1 X635.7838 Y2282.7282 Z-20.0000 F5000
G1 X549.7859 Y2282.7282 Z-20.0000 F5000
G1 X549.7859 Y2094.3493 Z-20.0000 F5000
G1 X554.7859 Y2094.3493 Z-20.0000 F5000
G1 X554.7859 Y2092.3472 Z-20.0000 F5000
G1 X519.1285 Y2092.3472 Z-20.0000 F5000
G1 X513.7860 Y2087.0046 Z-20.0000 F5000
G1 X513.7860 Y2062.3271 Z-20.0000 F5000
G1 X513.7860 Y2062.3271 Z-10.0000 F9999
G1 X513.7860 Y2046.3291 Z-10.0000 F5000
G1 X513.7860 Y2046.3291 Z-20.0000 F2500
G1 X513.7860 Y2029.6921 Z-20.0000 F5000
G1 X519.1284 Y2024.3493 Z-20.0000 F5000
G1 X554.7859 Y2024.3493 Z-20.0000 F5000
G1 X554.7859 Y2022.3475 Z-20.0000 F5000
G1 X549.7859 Y2022.3475 Z-20.0000 F5000
G1 X549.7859 Y1794.3501 Z-20.0000 F5000
G1 X554.7859 Y1794.3501 Z-20.0000 F5000
G1 X554.7859 Y1792.3470 Z-20.0000 F5000
G1 X519.1287 Y1792.3470 Z-20.0000 F5000
G1 X513.7860 Y1787.0051 Z-20.0000 F5000
G1 X513.7860 Y1729.6925 Z-20.0000 F5000
G1 X519.1286 Y1724.3502 Z-20.0000 F5000
G1 X554.7859 Y1724.3502 Z-20.0000 F5000
G1 X554.7859 Y1722.3474 Z-20.0000 F5000
G1 X549.7859 Y1722.3474 Z-20.0000 F5000
G1 X549.7859 Y1614.3515 Z-20.0000 F5000
G1 X554.7859 Y1614.3515 Z-20.0000 F5000
G1 X554.7859 Y1612.3488 Z-20.0000 F5000
G1 X531.7860 Y1612.3488 Z-20.0000 F5000
G1 X531.7860 Y1494.3505 Z-20.0000 F5000
G1 X536.7860 Y1494.3505 Z-20.0000 F5000
G1 X536.7860 Y1492.3476 Z-20.0000 F5000
G1 X519.1287 Y1492.3476 Z-20.0000 F5000
G1 X513.7860 Y1487.0056 Z-20.0000 F5000
G1 X513.7860 Y1463.3512 Z-20.0000 F5000
G1 X560.7839 Y1463.3512 Z-20.0000 F5000
G1 X560.7839 Y1468.3507 Z-20.0000 F5000
G1 X562.7859 Y1468.3507 Z-20.0000 F5000
G1 X562.7859 Y1448.3492 Z-20.0000 F5000
G1 X560.7839 Y1448.3492 Z-20.0000 F5000
G1 X560.7839 Y1453.3487 Z-20.0000 F5000
G1 X513.7860 Y1453.3487 Z-20.0000 F5000
G1 X513.7860 Y1429.6930 Z-20.0000 F5000
G1 X519.1286 Y1424.3507 Z-20.0000 F5000
G1 X536.7860 Y1424.3507 Z-20.0000 F5000
G1 X536.7860 Y1422.3479 Z-20.0000 F5000
G1 X531.7860 Y1422.3479 Z-20.0000 F5000
G1 X531.7860 Y1164.2601 Z-20.0000 F5000
G1 X536.7860 Y1164.2601 Z-20.0000 F5000
G1 X536.7860 Y1162.2573 Z-20.0000 F5000
G1 X519.1286 Y1162.2573 Z-20.0000 F5000
G1 X513.7860 Y1156.9149 Z-20.0000 F5000
G1 X513.7860 Y1099.6027 Z-20.0000 F5000
G1 X519.1286 Y1094.2602 Z-20.0000 F5000
G1 X536.7860 Y1094.2602 Z-20.0000 F5000
G1 X536.7860 Y1092.2573 Z-20.0000 F5000
G1 X531.7860 Y1092.2573 Z-20.0000 F5000
G1 X531.7860 Y834.1696 Z-20.0000 F5000
G1 X536.7860 Y834.1696 Z-20.0000 F5000
G1 X536.7860 Y832.1666 Z-20.0000 F5000
G1 X519.1287 Y832.1666 Z-20.0000 F5000
G1 X513.7860 Y826.8246 Z-20.0000 F5000
G1 X513.7860 Y803.1688 Z-20.0000 F5000
G1 X560.7839 Y803.1688 Z-20.0000 F5000
G1 X560.7839 Y808.1683 Z-20.0000 F5000
G1 X562.7859 Y808.1683 Z-20.0000 F5000
G1 X562.7859 Y788.1667 Z-20.0000 F5000
G1 X560.7839 Y788.1667 Z-20.0000 F5000
G1 X560.7839 Y793.1663 Z-20.0000 F5000
G1 X513.7860 Y793.1663 Z-20.0000 F5000
G1 X513.7860 Y769.5119 Z-20.0000 F5000
G1 X519.1287 Y764.1698 Z-20.0000 F5000
G1 X536.7860 Y764.1698 Z-20.0000 F5000
G1 X536.7860 Y762.1669 Z-20.0000 F5000
G1 X531.7860 Y762.1669 Z-20.0000 F5000
G1 X531.7860 Y644.1687 Z-20.0000 F5000
G1 X554.7859 Y644.1687 Z-20.0000 F5000
G1 X554.7859 Y642.1660 Z-20.0000 F5000
G1 X549.7859 Y642.1660 Z-20.0000 F5000
G1 X549.7859 Y534.1701 Z-20.0000 F5000
G1 X554.7859 Y534.1701 Z-20.0000 F5000
G1 X554.7859 Y532.1672 Z-20.0000 F5000
G1 X519.1286 Y532.1672 Z-20.0000 F5000
G1 X513.7860 Y526.8251 Z-20.0000 F5000
G1 X513.7860 Y469.5124 Z-20.0000 F5000
G1 X519.1287 Y464.1704 Z-20.0000 F5000
G1 X554.7859 Y464.1704 Z-20.0000 F5000
G1 X554.7859 Y462.1676 Z-20.0000 F5000
G1 X549.7859 Y462.1676 Z-20.0000 F5000
G1 X549.7859 Y234.1707 Z-20.0000 F5000
G1 X554.7859 Y234.1707 Z-20.0000 F5000
G1 X554.7859 Y232.1676 Z-20.0000 F5000
G1 X519.1287 Y232.1676 Z-20.0000 F5000
G1 X513.7860 Y226.8257 Z-20.0000 F5000
G1 X513.7860 Y206.4431 Z-20.0000 F5000
G1 X513.7860 Y206.4431 Z-10.0000 F9999
G1 X513.7860 Y190.4451 Z-10.0000 F5000
G1 X513.7860 Y190.4451 Z-20.0000 F2500
G1 X513.7860 Y169.5132 Z-20.0000 F5000
G1 X519.1285 Y164.1707 Z-20.0000 F5000
G1 X554.7859 Y164.1707 Z-20.0000 F5000
G1 X554.7859 Y162.1679 Z-20.0000 F5000
G1 X549.7859 Y162.1679 Z-20.0000 F5000
G1 X549.7859 Y5.9010 Z-20.0000 F5000
G1 X635.7838 Y5.9010 Z-20.0000 F5000
G1 X635.7838 Y162.1679 Z-20.0000 F5000
G1 X630.7838 Y162.1679 Z-20.0000 F5000
G1 X630.7838 Y164.1707 Z-20.0000 F5000
G1 X666.4412 Y164.1707 Z-20.0000 F5000
G1 X671.7837 Y169.5132 Z-20.0000 F5000
G1 X671.7837 Y190.4451 Z-20.0000 F5000
G1 X671.7837 Y190.4451 Z-10.0000 F9999
G1 X671.7837 Y206.4431 Z-10.0000 F5000
G1 X671.7837 Y206.4431 Z-20.0000 F2500
G1 X671.7837 Y226.8257 Z-20.0000 F5000
G1 X666.4410 Y232.1676 Z-20.0000 F5000
G1 X630.7838 Y232.1676 Z-20.0000 F5000
G1 X630.7838 Y234.1707 Z-20.0000 F5000
G1 X635.7838 Y234.1707 Z-20.0000 F5000
G1 X635.7838 Y462.1676 Z-20.0000 F5000
G1 X630.7838 Y462.1676 Z-20.0000 F5000
G1 X630.7838 Y464.1704 Z-20.0000 F5000
G1 X666.4410 Y464.1704 Z-20.0000 F5000
G1 X671.7837 Y469.5124 Z-20.0000 F5000
G1 X671.7837 Y526.8251 Z-20.0000 F5000
G1 X666.4411 Y532.1672 Z-20.0000 F5000
G1 X630.7838 Y532.1672 Z-20.0000 F5000
G1 X630.7838 Y534.1701 Z-20.0000 F5000
G1 X635.7837 Y534.1701 Z-20.0000 F5000
G1 X635.7862 Y642.1660 Z-20.0000 F5000
G1 X630.7861 Y642.1660 Z-20.0000 F5000
G1 X630.7861 Y644.1687 Z-20.0000 F5000
G1 X653.7837 Y644.1687 Z-20.0000 F5000
G1 X653.7837 Y762.1669 Z-20.0000 F5000
G1 X648.7837 Y762.1669 Z-20.0000 F5000
G1 X648.7837 Y764.1698 Z-20.0000 F5000
G1 X666.4411 Y764.1698 Z-20.0000 F5000
G1 X671.7837 Y769.5119 Z-20.0000 F5000
G1 X671.7837 Y793.1663 Z-20.0000 F5000
G1 X624.7858 Y793.1663 Z-20.0000 F5000
G1 X624.7858 Y788.1667 Z-20.0000 F5000
G1 X622.7838 Y788.1667 Z-20.0000 F5000
G1 X622.7838 Y808.1683 Z-20.0000 F5000
G1 X624.7858 Y808.1683 Z-20.0000 F5000
G1 X624.7858 Y803.1688 Z-20.0000 F5000
G1 X671.7837 Y803.1688 Z-20.0000 F5000
G1 X671.7837 Y826.8246 Z-20.0000 F5000
G1 X666.4410 Y832.1666 Z-20.0000 F5000
G1 X648.7837 Y832.1666 Z-20.0000 F5000
G1 X648.7837 Y834.1696 Z-20.0000 F5000
G1 X653.7837 Y834.1696 Z-20.0000 F5000
G1 X653.7837 Y1092.2573 Z-20.0000 F5000
G1 X648.7837 Y1092.2573 Z-20.0000 F5000
G1 X648.7837 Y1094.2602 Z-20.0000 F5000
G1 X666.4412 Y1094.2602 Z-20.0000 F5000
G1 X671.7837 Y1099.6027 Z-20.0000 F5000
G1 X671.7837 Y1156.9149 Z-20.0000 F5000
G1 X666.4412 Y1162.2573 Z-20.0000 F5000
G1 X648.7837 Y1162.2573 Z-20.0000 F5000
G1 X648.7837 Y1164.2601 Z-20.0000 F5000
G1 X653.7837 Y1164.2601 Z-20.0000 F5000
G1 X653.7837 Y1293.3040 Z-20.0000 F5000
G1 X653.7837 Y1293.3040 Z10.0000 F9999
G1 X997.8814 Y1293.3040 Z10.0000 F9999
G1 X997.8814 Y1293.3040 Z1.0000 F2500
G1 X997.8814 Y1332.2751 Z-9.5000 F2500
G1 X997.8814 Y1293.3040 Z-20.0000 F2500
G1 X997.8814 Y1422.3479 Z-20.0000 F5000
G1 X992.8814 Y1422.3479 Z-20.0000 F5000
G1 X992.8814 Y1424.3507 Z-20.0000 F5000
G1 X1010.5388 Y1424.3507 Z-20.0000 F5000
G1 X1015.8813 Y1429.6930 Z-20.0000 F5000
G1 X1015.8813 Y1453.3487 Z-20.0000 F5000
G1 X968.8834 Y1453.3487 Z-20.0000 F5000
G1 X968.8834 Y1448.3492 Z-20.0000 F5000
G1 X966.8814 Y1448.3492 Z-20.0000 F5000
G1 X966.8814 Y1468.3507 Z-20.0000 F5000
G1 X968.8834 Y1468.3507 Z-20.0000 F5000
G1 X968.8834 Y1463.3512 Z-20.0000 F5000
G1 X1015.8813 Y1463.3512 Z-20.0000 F5000
G1 X1015.8813 Y1487.0056 Z-20.0000 F5000
G1 X1010.5387 Y1492.3476 Z-20.0000 F5000
G1 X992.8814 Y1492.3476 Z-20.0000 F5000
G1 X992.8814 Y1494.3505 Z-20.0000 F5000
G1 X997.8814 Y1494.3505 Z-20.0000 F5000
G1 X997.8814 Y1612.3488 Z-20.0000 F5000
G1 X974.8838 Y1612.3488 Z-20.0000 F5000
G1 X974.8838 Y1614.3515 Z-20.0000 F5000
G1 X979.8838 Y1614.3515 Z-20.0000 F5000
G1 X979.8813 Y1722.3474 Z-20.0000 F5000
G1 X974.8814 Y1722.3474 Z-20.0000 F5000
G1 X974.8814 Y1724.3502 Z-20.0000 F5000
G1 X1010.5388 Y1724.3502 Z-20.0000 F5000
G1 X1015.8813 Y1729.6925 Z-20.0000 F5000
G1 X1015.8813 Y1787.0051 Z-20.0000 F5000
G1 X1010.5387 Y1792.3470 Z-20.0000 F5000
G1 X974.8814 Y1792.3470 Z-20.0000 F5000
G1 X974.8814 Y1794.3501 Z-20.0000 F5000
G1 X979.8814 Y1794.3501 Z-20.0000 F5000
G1 X979.8814 Y2022.3475 Z-20.0000 F5000
G1 X974.8814 Y2022.3475 Z-20.0000 F5000
G1 X974.8814 Y2024.3493 Z-20.0000 F5000
G1 X1010.5389 Y2024.3493 Z-20.0000 F5000
G1 X1015.8813 Y2029.6921 Z-20.0000 F5000
G1 X1015.8813 Y2047.1919 Z-20.0000 F5000
G1 X1015.8813 Y2047.1919 Z-10.0000 F9999
G1 X1015.8813 Y2063.1899 Z-10.0000 F5000
G1 X1015.8813 Y2063.1899 Z-20.0000 F2500
G1 X1015.8813 Y2087.0046 Z-20.0000 F5000
G1 X1010.5388 Y2092.3472 Z-20.0000 F5000
G1 X974.8814 Y2092.3472 Z-20.0000 F5000
G1 X974.8814 Y2094.3493 Z-20.0000 F5000
G1 X979.8814 Y2094.3493 Z-20.0000 F5000
G1 X979.8814 Y2282.7282 Z-20.0000 F5000
G1 X893.8836 Y2282.7282 Z-20.0000 F5000
G1 X893.8836 Y2094.3493 Z-20.0000 F5000
G1 X898.8836 Y2094.3493 Z-20.0000 F5000
G1 X898.8836 Y2092.3472 Z-20.0000 F5000
G1 X863.2261 Y2092.3472 Z-20.0000 F5000
G1 X857.8837 Y2087.0046 Z-20.0000 F5000
G1 X857.8837 Y2064.9155 Z-20.0000 F5000
G1 X857.8837 Y2064.9155 Z-10.0000 F9999
G1 X857.8837 Y2048.9175 Z-10.0000 F5000
G1 X857.8837 Y2048.9175 Z-20.0000 F2500
G1 X857.8837 Y2029.6921 Z-20.0000 F5000
G1 X863.2261 Y2024.3493 Z-20.0000 F5000
G1 X898.8836 Y2024.3493 Z-20.0000 F5000
G1 X898.8836 Y2022.3475 Z-20.0000 F5000
G1 X893.8836 Y2022.3475 Z-20.0000 F5000
G1 X893.8836 Y1794.3501 Z-20.0000 F5000
G1 X898.8836 Y1794.3501 Z-20.0000 F5000
G1 X898.8836 Y1792.3470 Z-20.0000 F5000
G1 X863.2263 Y1792.3470 Z-20.0000 F5000
G1 X857.8837 Y1787.0051 Z-20.0000 F5000
G1 X857.8837 Y1729.6925 Z-20.0000 F5000
G1 X863.2262 Y1724.3502 Z-20.0000 F5000
G1 X898.8836 Y1724.3502 Z-20.0000 F5000
G1 X898.8836 Y1722.3474 Z-20.0000 F5000
G1 X893.8836 Y1722.3474 Z-20.0000 F5000
G1 X893.8836 Y1614.3515 Z-20.0000 F5000
G1 X898.8836 Y1614.3515 Z-20.0000 F5000
G1 X898.8836 Y1612.3488 Z-20.0000 F5000
G1 X875.8836 Y1612.3488 Z-20.0000 F5000
G1 X875.8836 Y1494.3505 Z-20.0000 F5000
G1 X880.8836 Y1494.3505 Z-20.0000 F5000
G1 X880.8836 Y1492.3476 Z-20.0000 F5000
G1 X863.2263 Y1492.3476 Z-20.0000 F5000
G1 X857.8837 Y1487.0056 Z-20.0000 F5000
G1 X857.8837 Y1463.3512 Z-20.0000 F5000
G1 X904.8816 Y1463.3512 Z-20.0000 F5000
G1 X904.8816 Y1468.3507 Z-20.0000 F5000
G1 X906.8836 Y1468.3507 Z-20.0000 F5000
G1 X906.8836 Y1448.3492 Z-20.0000 F5000
G1 X904.8816 Y1448.3492 Z-20.0000 F5000
G1 X904.8816 Y1453.3487 Z-20.0000 F5000
G1 X857.8837 Y1453.3487 Z-20.0000 F5000
G1 X857.8837 Y1429.6930 Z-20.0000 F5000
G1 X863.2262 Y1424.3507 Z-20.0000 F5000
G1 X880.8836 Y1424.3507 Z-20.0000 F5000
G1 X880.8836 Y1422.3479 Z-20.0000 F5000
G1 X875.8836 Y1422.3479 Z-20.0000 F5000
G1 X875.8836 Y1164.2601 Z-20.0000 F5000
G1 X880.8836 Y1164.2601 Z-20.0000 F5000
G1 X880.8836 Y1162.2573 Z-20.0000 F5000
G1 X863.2262 Y1162.2573 Z-20.0000 F5000
G1 X857.8837 Y1156.9149 Z-20.0000 F5000
G1 X857.8837 Y1099.6027 Z-20.0000 F5000
G1 X863.2262 Y1094.2602 Z-20.0000 F5000
G1 X880.8836 Y1094.2602 Z-20.0000 F5000
G1 X880.8836 Y1092.2573 Z-20.0000 F5000
G1 X875.8836 Y1092.2573 Z-20.0000 F5000
G1 X875.8836 Y834.1696 Z-20.0000 F5000
G1 X880.8836 Y834.1696 Z-20.0000 F5000
G1 X880.8836 Y832.1666 Z-20.0000 F5000
G1 X863.2263 Y832.1666 Z-20.0000 F5000
G1 X857.8837 Y826.8246 Z-20.0000 F5000
G1 X857.8837 Y803.1688 Z-20.0000 F5000
G1 X904.8816 Y803.1688 Z-20.0000 F5000
G1 X904.8816 Y808.1683 Z-20.0000 F5000
G1 X906.8836 Y808.1683 Z-20.0000 F5000
G1 X906.8836 Y788.1667 Z-20.0000 F5000
G1 X904.8816 Y788.1667 Z-20.0000 F5000
G1 X904.8816 Y793.1663 Z-20.0000 F5000
G1 X857.8837 Y793.1663 Z-20.0000 F5000
G1 X857.8837 Y769.5119 Z-20.0000 F5000
G1 X863.2263 Y764.1698 Z-20.0000 F5000
G1 X880.8836 Y764.1698 Z-20.0000 F5000
G1 X880.8836 Y762.1669 Z-20.0000 F5000
G1 X875.8836 Y762.1669 Z-20.0000 F5000
G1 X875.8836 Y644.1687 Z-20.0000 F5000
G1 X898.8836 Y644.1687 Z-20.0000 F5000
G1 X898.8836 Y642.1660 Z-20.0000 F5000
G1 X893.8836 Y642.1660 Z-20.0000 F5000
G1 X893.8836 Y534.1701 Z-20.0000 F5000
G1 X898.8836 Y534.1701 Z-20.0000 F5000
G1 X898.8836 Y532.1672 Z-20.0000 F5000
G1 X863.2263 Y532.1672 Z-20.0000 F5000
G1 X857.8837 Y526.8251 Z-20.0000 F5000
G1 X857.8837 Y469.5124 Z-20.0000 F5000
G1 X863.2263 Y464.1704 Z-20.0000 F5000
G1 X898.8836 Y464.1704 Z-20.0000 F5000
G1 X898.8836 Y462.1676 Z-20.0000 F5000
G1 X893.8836 Y462.1676 Z-20.0000 F5000
G1 X893.8836 Y234.1707 Z-20.0000 F5000
G1 X898.8836 Y234.1707 Z-20.0000 F5000
G1 X898.8836 Y232.1676 Z-20.0000 F5000
G1 X863.2263 Y232.1676 Z-20.0000 F5000
G1 X857.8837 Y226.8257 Z-20.0000 F5000
G1 X857.8837 Y205.3646 Z-20.0000 F5000
G1 X857.8837 Y205.3646 Z-10.0000 F9999
G1 X857.8837 Y189.3666 Z-10.0000 F5000
G1 X857.8837 Y189.3666 Z-20.0000 F2500
G1 X857.8837 Y169.5132 Z-20.0000 F5000
G1 X863.2262 Y164.1707 Z-20.0000 F5000
G1 X898.8836 Y164.1707 Z-20.0000 F5000
G1 X898.8836 Y162.1679 Z-20.0000 F5000
G1 X893.8836 Y162.1679 Z-20.0000 F5000
G1 X893.8836 Y5.9010 Z-20.0000 F5000
G1 X979.8814 Y5.9010 Z-20.0000 F5000
G1 X979.8814 Y162.1679 Z-20.0000 F5000
G1 X974.8814 Y162.1679 Z-20.0000 F5000
G1 X974.8814 Y164.1707 Z-20.0000 F5000
G1 X1010.5388 Y164.1707 Z-20.0000 F5000
G1 X1015.8813 Y169.5132 Z-20.0000 F5000
G1 X1015.8813 Y187.8567 Z-20.0000 F5000
G1 X1015.8813 Y187.8567 Z-10.0000 F9999
G1 X1015.8813 Y203.8547 Z-10.0000 F5000
G1 X1015.8813 Y203.8547 Z-20.0000 F2500
G1 X1015.8813 Y226.8257 Z-20.0000 F5000
G1 X1010.5387 Y232.1676 Z-20.0000 F5000
G1 X974.8814 Y232.1676 Z-20.0000 F5000
G1 X974.8814 Y234.1707 Z-20.0000 F5000
G1 X979.8814 Y234.1707 Z-20.0000 F5000
G1 X979.8814 Y462.1676 Z-20.0000 F5000
G1 X974.8814 Y462.1676 Z-20.0000 F5000
G1 X974.8814 Y464.1704 Z-20.0000 F5000
G1 X1010.5387 Y464.1704 Z-20.0000 F5000
G1 X1015.8813 Y469.5124 Z-20.0000 F5000
G1 X1015.8813 Y526.8251 Z-20.0000 F5000
G1 X1010.5387 Y532.1672 Z-20.0000 F5000
G1 X974.8814 Y532.1672 Z-20.0000 F5000
G1 X974.8814 Y534.1701 Z-20.0000 F5000
G1 X979.8813 Y534.1701 Z-20.0000 F5000
G1 X979.8838 Y642.1660 Z-20.0000 F5000
G1 X974.8838 Y642.1660 Z-20.0000 F5000
G1 X974.8838 Y644.1687 Z-20.0000 F5000
G1 X997.8814 Y644.1687 Z-20.0000 F5000
G1 X997.8814 Y762.1669 Z-20.0000 F5000
G1 X992.8814 Y762.1669 Z-20.0000 F5000
G1 X992.8814 Y764.1698 Z-20.0000 F5000
G1 X1010.5387 Y764.1698 Z-20.0000 F5000
G1 X1015.8813 Y769.5119 Z-20.0000 F5000
G1 X1015.8813 Y793.1663 Z-20.0000 F5000
G1 X968.8834 Y793.1663 Z-20.0000 F5000
G1 X968.8834 Y788.1667 Z-20.0000 F5000
G1 X966.8814 Y788.1667 Z-20.0000 F5000
G1 X966.8814 Y808.1683 Z-20.0000 F5000
G1 X968.8834 Y808.1683 Z-20.0000 F5000
G1 X968.8834 Y803.1688 Z-20.0000 F5000
G1 X1015.8813 Y803.1688 Z-20.0000 F5000
G1 X1015.8813 Y826.8246 Z-20.0000 F5000
G1 X1010.5387 Y832.1666 Z-20.0000 F5000
G1 X992.8814 Y832.1666 Z-20.0000 F5000
G1 X992.8814 Y834.1696 Z-20.0000 F5000
G1 X997.8814 Y834.1696 Z-20.0000 F5000
G1 X997.8814 Y1092.2573 Z-20.0000 F5000
G1 X992.8814 Y1092.2573 Z-20.0000 F5000
G1 X992.8814 Y1094.2602 Z-20.0000 F5000
G1 X1010.5388 Y1094.2602 Z-20.0000 F5000
G1 X1015.8813 Y1099.6027 Z-20.0000 F5000
G1 X1015.8813 Y1156.9149 Z-20.0000 F5000
G1 X1010.5388 Y1162.2573 Z-20.0000 F5000
G1 X992.8814 Y1162.2573 Z-20.0000 F5000
G1 X992.8814 Y1164.2601 Z-20.0000 F5000
G1 X997.8814 Y1164.2601 Z-20.0000 F5000
G1 X997.8814 Y1293.3040 Z-20.0000 F5000
G1 X997.8814 Y1293.3040 Z10.0000 F9999
G1 X1169.9302 Y1293.3040 Z10.0000 F9999
G1 X1169.9302 Y1293.3040 Z1.0000 F2500
G1 X1169.9302 Y1332.2751 Z-9.5000 F2500
G1 X1169.9302 Y1293.3040 Z-20.0000 F2500
G1 X1169.9302 Y1422.3479 Z-20.0000 F5000
G1 X1164.9302 Y1422.3479 Z-20.0000 F5000
G1 X1164.9302 Y1424.3507 Z-20.0000 F5000
G1 X1182.5876 Y1424.3507 Z-20.0000 F5000
G1 X1187.9301 Y1429.6930 Z-20.0000 F5000
G1 X1187.9301 Y1453.3487 Z-20.0000 F5000
G1 X1140.9323 Y1453.3487 Z-20.0000 F5000
G1 X1140.9323 Y1448.3492 Z-20.0000 F5000
G1 X1138.9303 Y1448.3492 Z-20.0000 F5000
G1 X1138.9303 Y1468.3507 Z-20.0000 F5000
G1 X1140.9323 Y1468.3507 Z-20.0000 F5000
G1 X1140.9323 Y1463.3512 Z-20.0000 F5000
G1 X1187.9301 Y1463.3512 Z-20.0000 F5000
G1 X1187.9301 Y1487.0056 Z-20.0000 F5000
G1 X1182.5875 Y1492.3476 Z-20.0000 F5000
G1 X1164.9302 Y1492.3476 Z-20.0000 F5000
G1 X1164.9302 Y1494.3505 Z-20.0000 F5000
G1 X1169.9302 Y1494.3505 Z-20.0000 F5000
G1 X1169.9302 Y1612.3488 Z-20.0000 F5000
G1 X1146.9326 Y1612.3488 Z-20.0000 F5000
G1 X1146.9326 Y1614.3515 Z-20.0000 F5000
G1 X1151.9327 Y1614.3515 Z-20.0000 F5000
G1 X1151.9302 Y1722.3474 Z-20.0000 F5000
G1 X1146.9303 Y1722.3474 Z-20.0000 F5000
G1 X1146.9303 Y1724.3502 Z-20.0000 F5000
G1 X1182.5876 Y1724.3502 Z-20.0000 F5000
G1 X1187.9301 Y1729.6925 Z-20.0000 F5000
G1 X1187.9301 Y1787.0051 Z-20.0000 F5000
G1 X1182.5875 Y1792.3470 Z-20.0000 F5000
G1 X1146.9303 Y1792.3470 Z-20.0000 F5000
G1 X1146.9303 Y1794.3501 Z-20.0000 F5000
G1 X1151.9303 Y1794.3501 Z-20.0000 F5000
G1 X1151.9303 Y2022.3475 Z-20.0000 F5000
G1 X1146.9303 Y2022.3475 Z-20.0000 F5000
G1 X1146.9303 Y2024.3493 Z-20.0000 F5000
G1 X1182.5877 Y2024.3493 Z-20.0000 F5000
G1 X1187.9301 Y2029.6921 Z-20.0000 F5000
G1 X1187.9301 Y2087.0046 Z-20.0000 F5000
G1 X1182.5877 Y2092.3472 Z-20.0000 F5000
G1 X1146.9303 Y2092.3472 Z-20.0000 F5000
G1 X1146.9303 Y2094.3493 Z-20.0000 F5000
G1 X1151.9303 Y2094.3493 Z-20.0000 F5000
G1 X1151.9303 Y2282.7282 Z-20.0000 F5000
G1 X1065.9324 Y2282.7282 Z-20.0000 F5000
G1 X1065.9324 Y2094.3493 Z-20.0000 F5000
G1 X1070.9324 Y2094.3493 Z-20.0000 F5000
G1 X1070.9324 Y2092.3472 Z-20.0000 F5000
G1 X1035.2750 Y2092.3472 Z-20.0000 F5000
G1 X1029.9325 Y2087.0046 Z-20.0000 F5000
G1 X1029.9325 Y2029.6921 Z-20.0000 F5000
G1 X1035.2749 Y2024.3493 Z-20.0000 F5000
G1 X1070.9324 Y2024.3493 Z-20.0000 F5000
G1 X1070.9324 Y2022.3475 Z-20.0000 F5000
G1 X1065.9324 Y2022.3475 Z-20.0000 F5000
G1 X1065.9324 Y1794.3501 Z-20.0000 F5000
G1 X1070.9324 Y1794.3501 Z-20.0000 F5000
G1 X1070.9324 Y1792.3470 Z-20.0000 F5000
G1 X1035.2752 Y1792.3470 Z-20.0000 F5000
G1 X1029.9325 Y1787.0051 Z-20.0000 F5000
G1 X1029.9325 Y1729.6925 Z-20.0000 F5000
G1 X1035.2750 Y1724.3502 Z-20.0000 F5000
G1 X1070.9324 Y1724.3502 Z-20.0000 F5000
G1 X1070.9324 Y1722.3474 Z-20.0000 F5000
G1 X1065.9324 Y1722.3474 Z-20.0000 F5000
G1 X1065.9324 Y1614.3515 Z-20.0000 F5000
G1 X1070.9324 Y1614.3515 Z-20.0000 F5000
G1 X1070.9324 Y1612.3488 Z-20.0000 F5000
G1 X1047.9324 Y1612.3488 Z-20.0000 F5000
G1 X1047.9324 Y1494.3505 Z-20.0000 F5000
G1 X1052.9324 Y1494.3505 Z-20.0000 F5000
G1 X1052.9324 Y1492.3476 Z-20.0000 F5000
G1 X1035.2752 Y1492.3476 Z-20.0000 F5000
G1 X1029.9325 Y1487.0056 Z-20.0000 F5000
G1 X1029.9325 Y1463.3512 Z-20.0000 F5000
G1 X1076.9304 Y1463.3512 Z-20.0000 F5000
G1 X1076.9304 Y1468.3507 Z-20.0000 F5000
G1 X1078.9324 Y1468.3507 Z-20.0000 F5000
G1 X1078.9324 Y1448.3492 Z-20.0000 F5000
G1 X1076.9304 Y1448.3492 Z-20.0000 F5000
G1 X1076.9304 Y1453.3487 Z-20.0000 F5000
G1 X1029.9325 Y1453.3487 Z-20.0000 F5000
G1 X1029.9325 Y1429.6930 Z-20.0000 F5000
G1 X1035.2750 Y1424.3507 Z-20.0000 F5000
G1 X1052.9324 Y1424.3507 Z-20.0000 F5000
G1 X1052.9324 Y1422.3479 Z-20.0000 F5000
G1 X1047.9324 Y1422.3479 Z-20.0000 F5000
G1 X1047.9324 Y1164.2601 Z-20.0000 F5000
G1 X1052.9324 Y1164.2601 Z-20.0000 F5000
G1 X1052.9324 Y1162.2573 Z-20.0000 F5000
G1 X1035.2750 Y1162.2573 Z-20.0000 F5000
G1 X1029.9325 Y1156.9149 Z-20.0000 F5000
G1 X1029.9325 Y1099.6027 Z-20.0000 F5000
G1 X1035.2750 Y1094.2602 Z-20.0000 F5000
G1 X1052.9324 Y1094.2602 Z-20.0000 F5000
G1 X1052.9324 Y1092.2573 Z-20.0000 F5000
G1 X1047.9324 Y1092.2573 Z-20.0000 F5000
G1 X1047.9324 Y834.1696 Z-20.0000 F5000
G1 X1052.9324 Y834.1696 Z-20.0000 F5000
G1 X1052.9324 Y832.1666 Z-20.0000 F5000
G1 X1035.2752 Y832.1666 Z-20.0000 F5000
G1 X1029.9325 Y826.8246 Z-20.0000 F5000
G1 X1029.9325 Y803.1688 Z-20.0000 F5000
G1 X1076.9304 Y803.1688 Z-20.0000 F5000
G1 X1076.9304 Y808.1683 Z-20.0000 F5000
G1 X1078.9324 Y808.1683 Z-20.0000 F5000
G1 X1078.9324 Y788.1667 Z-20.0000 F5000
G1 X1076.9304 Y788.1667 Z-20.0000 F5000
G1 X1076.9304 Y793.1663 Z-20.0000 F5000
G1 X1029.9325 Y793.1663 Z-20.0000 F5000
G1 X1029.9325 Y769.5119 Z-20.0000 F5000
G1 X1035.2751 Y764.1698 Z-20.0000 F5000
G1 X1052.9324 Y764.1698 Z-20.0000 F5000
G1 X1052.9324 Y762.1669 Z-20.0000 F5000
G1 X1047.9324 Y762.1669 Z-20.0000 F5000
G1 X1047.9324 Y644.1687 Z-20.0000 F5000
G1 X1070.9324 Y644.1687 Z-20.0000 F5000
G1 X1070.9324 Y642.1660 Z-20.0000 F5000
G1 X1065.9324 Y642.1660 Z-20.0000 F5000
G1 X1065.9324 Y534.1701 Z-20.0000 F5000
G1 X1070.9324 Y534.1701 Z-20.0000 F5000
G1 X1070.9324 Y532.1672 Z-20.0000 F5000
G1 X1035.2751 Y532.1672 Z-20.0000 F5000
G1 X1029.9325 Y526.8251 Z-20.0000 F5000
G1 X1029.9325 Y469.5124 Z-20.0000 F5000
G1 X1035.2751 Y464.1704 Z-20.0000 F5000
G1 X1070.9324 Y464.1704 Z-20.0000 F5000
G1 X1070.9324 Y462.1676 Z-20.0000 F5000
G1 X1065.9324 Y462.1676 Z-20.0000 F5000
G1 X1065.9324 Y234.1707 Z-20.0000 F5000
G1 X1070.9324 Y234.1707 Z-20.0000 F5000
G1 X1070.9324 Y232.1676 Z-20.0000 F5000
G1 X1035.2752 Y232.1676 Z-20.0000 F5000
G1 X1029.9325 Y226.8257 Z-20.0000 F5000
G1 X1029.9325 Y169.5132 Z-20.0000 F5000
G1 X1035.2750 Y164.1707 Z-20.0000 F5000
G1 X1070.9324 Y164.1707 Z-20.0000 F5000
G1 X1070.9324 Y162.1679 Z-20.0000 F5000
G1 X1065.9324 Y162.1679 Z-20.0000 F5000
G1 X1065.9324 Y5.9010 Z-20.0000 F5000
G1 X1151.9303 Y5.9010 Z-20.0000 F5000
G1 X1151.9303 Y162.1679 Z-20.0000 F5000
G1 X1146.9303 Y162.1679 Z-20.0000 F5000
G1 X1146.9303 Y164.1707 Z-20.0000 F5000
G1 X1182.5876 Y164.1707 Z-20.0000 F5000
G1 X1187.9301 Y169.5132 Z-20.0000 F5000
G1 X1187.9301 Y226.8257 Z-20.0000 F5000
G1 X1182.5875 Y232.1676 Z-20.0000 F5000
G1 X1146.9303 Y232.1676 Z-20.0000 F5000
G1 X1146.9303 Y234.1707 Z-20.0000 F5000
G1 X1151.9303 Y234.1707 Z-20.0000 F5000
G1 X1151.9303 Y462.1676 Z-20.0000 F5000
G1 X1146.9303 Y462.1676 Z-20.0000 F5000
G1 X1146.9303 Y464.1704 Z-20.0000 F5000
G1 X1182.5875 Y464.1704 Z-20.0000 F5000
G1 X1187.9301 Y469.5124 Z-20.0000 F5000
G1 X1187.9301 Y526.8251 Z-20.0000 F5000
G1 X1182.5875 Y532.1672 Z-20.0000 F5000
G1 X1146.9303 Y532.1672 Z-20.0000 F5000
G1 X1146.9303 Y534.1701 Z-20.0000 F5000
G1 X1151.9302 Y534.1701 Z-20.0000 F5000
G1 X1151.9327 Y642.1660 Z-20.0000 F5000
G1 X1146.9326 Y642.1660 Z-20.0000 F5000
G1 X1146.9326 Y644.1687 Z-20.0000 F5000
G1 X1169.9302 Y644.1687 Z-20.0000 F5000
G1 X1169.9302 Y762.1669 Z-20.0000 F5000
G1 X1164.9302 Y762.1669 Z-20.0000 F5000
G1 X1164.9302 Y764.1698 Z-20.0000 F5000
G1 X1182.5875 Y764.1698 Z-20.0000 F5000
G1 X1187.9301 Y769.5119 Z-20.0000 F5000
G1 X1187.9301 Y793.1663 Z-20.0000 F5000
G1 X1140.9323 Y793.1663 Z-20.0000 F5000
G1 X1140.9323 Y788.1667 Z-20.0000 F5000
G1 X1138.9303 Y788.1667 Z-20.0000 F5000
G1 X1138.9303 Y808.1683 Z-20.0000 F5000
G1 X1140.9323 Y808.1683 Z-20.0000 F5000
G1 X1140.9323 Y803.1688 Z-20.0000 F5000
G1 X1187.9301 Y803.1688 Z-20.0000 F5000
G1 X1187.9301 Y826.8246 Z-20.0000 F5000
G1 X1182.5875 Y832.1666 Z-20.0000 F5000
G1 X1164.9302 Y832.1666 Z-20.0000 F5000
G1 X1164.9302 Y834.1696 Z-20.0000 F5000
G1 X1169.9302 Y834.1696 Z-20.0000 F5000
G1 X1169.9302 Y1092.2573 Z-20.0000 F5000
G1 X1164.9302 Y1092.2573 Z-20.0000 F5000
G1 X1164.9302 Y1094.2602 Z-20.0000 F5000
G1 X1182.5876 Y1094.2602 Z-20.0000 F5000
G1 X1187.9301 Y1099.6027 Z-20.0000 F5000
G1 X1187.9301 Y1156.9149 Z-20.0000 F5000
G1 X1182.5876 Y1162.2573 Z-20.0000 F5000
G1 X1164.9302 Y1162.2573 Z-20.0000 F5000
G1 X1164.9302 Y1164.2601 Z-20.0000 F5000
G1 X1169.9302 Y1164.2601 Z-20.0000 F5000
G1 X1169.9302 Y1293.3040 Z-20.0000 F5000
G1 X1169.9302 Y1293.3040 Z10.0000 F9999
G1 X825.8326 Y1293.3040 Z10.0000 F9999
G1 X825.8326 Y1293.3040 Z1.0000 F2500
G1 X825.8326 Y1332.2751 Z-9.5000 F2500
G1 X825.8326 Y1293.3040 Z-20.0000 F2500
G1 X825.8326 Y1422.3479 Z-20.0000 F5000
G1 X820.8326 Y1422.3479 Z-20.0000 F5000
G1 X820.8326 Y1424.3507 Z-20.0000 F5000
G1 X838.4900 Y1424.3507 Z-20.0000 F5000
G1 X843.8325 Y1429.6930 Z-20.0000 F5000
G1 X843.8325 Y1453.3487 Z-20.0000 F5000
G1 X796.8346 Y1453.3487 Z-20.0000 F5000
G1 X796.8346 Y1448.3492 Z-20.0000 F5000
G1 X794.8326 Y1448.3492 Z-20.0000 F5000
G1 X794.8326 Y1468.3507 Z-20.0000 F5000
G1 X796.8346 Y1468.3507 Z-20.0000 F5000
G1 X796.8346 Y1463.3512 Z-20.0000 F5000
G1 X843.8325 Y1463.3512 Z-20.0000 F5000
G1 X843.8325 Y1487.0056 Z-20.0000 F5000
G1 X838.4898 Y1492.3476 Z-20.0000 F5000
G1 X820.8326 Y1492.3476 Z-20.0000 F5000
G1 X820.8326 Y1494.3505 Z-20.0000 F5000
G1 X825.8326 Y1494.3505 Z-20.0000 F5000
G1 X825.8326 Y1612.3488 Z-20.0000 F5000
G1 X802.8349 Y1612.3488 Z-20.0000 F5000
G1 X802.8349 Y1614.3515 Z-20.0000 F5000
G1 X807.8350 Y1614.3515 Z-20.0000 F5000
G1 X807.8325 Y1722.3474 Z-20.0000 F5000
G1 X802.8326 Y1722.3474 Z-20.0000 F5000
G1 X802.8326 Y1724.3502 Z-20.0000 F5000
G1 X838.4899 Y1724.3502 Z-20.0000 F5000
G1 X843.8325 Y1729.6925 Z-20.0000 F5000
G1 X843.8325 Y1787.0051 Z-20.0000 F5000
G1 X838.4898 Y1792.3470 Z-20.0000 F5000
G1 X802.8326 Y1792.3470 Z-20.0000 F5000
G1 X802.8326 Y1794.3501 Z-20.0000 F5000
G1 X807.8326 Y1794.3501 Z-20.0000 F5000
G1 X807.8326 Y2022.3475 Z-20.0000 F5000
G1 X802.8326 Y2022.3475 Z-20.0000 F5000
G1 X802.8326 Y2024.3493 Z-20.0000 F5000
G1 X838.4901 Y2024.3493 Z-20.0000 F5000
G1 X843.8325 Y2029.6921 Z-20.0000 F5000
G1 X843.8325 Y2087.0046 Z-20.0000 F5000
G1 X838.4900 Y2092.3472 Z-20.0000 F5000
G1 X802.8326 Y2092.3472 Z-20.0000 F5000
G1 X802.8326 Y2094.3493 Z-20.0000 F5000
G1 X807.8326 Y2094.3493 Z-20.0000 F5000
G1 X807.8326 Y2282.7282 Z-20.0000 F5000
G1 X721.8347 Y2282.7282 Z-20.0000 F5000
G1 X721.8347 Y2094.3493 Z-20.0000 F5000
G1 X726.8347 Y2094.3493 Z-20.0000 F5000
G1 X726.8347 Y2092.3472 Z-20.0000 F5000
G1 X691.1773 Y2092.3472 Z-20.0000 F5000
G1 X685.8349 Y2087.0046 Z-20.0000 F5000
G1 X685.8349 Y2029.6921 Z-20.0000 F5000
G1 X691.1773 Y2024.3493 Z-20.0000 F5000
G1 X726.8347 Y2024.3493 Z-20.0000 F5000
G1 X726.8347 Y2022.3475 Z-20.0000 F5000
G1 X721.8347 Y2022.3475 Z-20.0000 F5000
G1 X721.8347 Y1794.3501 Z-20.0000 F5000
G1 X726.8347 Y1794.3501 Z-20.0000 F5000
G1 X726.8347 Y1792.3470 Z-20.0000 F5000
G1 X691.1775 Y1792.3470 Z-20.0000 F5000
G1 X685.8349 Y1787.0051 Z-20.0000 F5000
G1 X685.8349 Y1729.6925 Z-20.0000 F5000
G1 X691.1774 Y1724.3502 Z-20.0000 F5000
G1 X726.8347 Y1724.3502 Z-20.0000 F5000
G1 X726.8347 Y1722.3474 Z-20.0000 F5000
G1 X721.8347 Y1722.3474 Z-20.0000 F5000
G1 X721.8347 Y1614.3515 Z-20.0000 F5000
G1 X726.8347 Y1614.3515 Z-20.0000 F5000
G1 X726.8347 Y1612.3488 Z-20.0000 F5000
G1 X703.8348 Y1612.3488 Z-20.0000 F5000
G1 X703.8348 Y1494.3505 Z-20.0000 F5000
G1 X708.8348 Y1494.3505 Z-20.0000 F5000
G1 X708.8348 Y1492.3476 Z-20.0000 F5000
G1 X691.1775 Y1492.3476 Z-20.0000 F5000
G1 X685.8349 Y1487.0056 Z-20.0000 F5000
G1 X685.8349 Y1463.3512 Z-20.0000 F5000
G1 X732.8327 Y1463.3512 Z-20.0000 F5000
G1 X732.8327 Y1468.3507 Z-20.0000 F5000
G1 X734.8347 Y1468.3507 Z-20.0000 F5000
G1 X734.8347 Y1448.3492 Z-20.0000 F5000
G1 X732.8327 Y1448.3492 Z-20.0000 F5000
G1 X732.8327 Y1453.3487 Z-20.0000 F5000
G1 X685.8349 Y1453.3487 Z-20.0000 F5000
G1 X685.8349 Y1429.6930 Z-20.0000 F5000
G1 X691.1774 Y1424.3507 Z-20.0000 F5000
G1 X708.8348 Y1424.3507 Z-20.0000 F5000
G1 X708.8348 Y1422.3479 Z-20.0000 F5000
G1 X703.8348 Y1422.3479 Z-20.0000 F5000
G1 X703.8348 Y1164.2601 Z-20.0000 F5000
G1 X708.8348 Y1164.2601 Z-20.0000 F5000
G1 X708.8348 Y1162.2573 Z-20.0000 F5000
G1 X691.1774 Y1162.2573 Z-20.0000 F5000
G1 X685.8349 Y1156.9149 Z-20.0000 F5000
G1 X685.8349 Y1099.6027 Z-20.0000 F5000
G1 X691.1774 Y1094.2602 Z-20.0000 F5000
G1 X708.8348 Y1094.2602 Z-20.0000 F5000
G1 X708.8348 Y1092.2573 Z-20.0000 F5000
G1 X703.8348 Y1092.2573 Z-20.0000 F5000
G1 X703.8348 Y834.1696 Z-20.0000 F5000
G1 X708.8348 Y834.1696 Z-20.0000 F5000
G1 X708.8348 Y832.1666 Z-20.0000 F5000
G1 X691.1775 Y832.1666 Z-20.0000 F5000
G1 X685.8349 Y826.8246 Z-20.0000 F5000
G1 X685.8349 Y803.1688 Z-20.0000 F5000
G1 X732.8327 Y803.1688 Z-20.0000 F5000
G1 X732.8327 Y808.1683 Z-20.0000 F5000
G1 X734.8347 Y808.1683 Z-20.0000 F5000
G1 X734.8347 Y788.1667 Z-20.0000 F5000
G1 X732.8327 Y788.1667 Z-20.0000 F5000
G1 X732.8327 Y793.1663 Z-20.0000 F5000
G1 X685.8349 Y793.1663 Z-20.0000 F5000
G1 X685.8349 Y769.5119 Z-20.0000 F5000
G1 X691.1775 Y764.1698 Z-20.0000 F5000
G1 X708.8348 Y764.1698 Z-20.0000 F5000
G1 X708.8348 Y762.1669 Z-20.0000 F5000
G1 X703.8348 Y762.1669 Z-20.0000 F5000
G1 X703.8348 Y644.1687 Z-20.0000 F5000
G1 X726.8347 Y644.1687 Z-20.0000 F5000
G1 X726.8347 Y642.1660 Z-20.0000 F5000
G1 X721.8347 Y642.1660 Z-20.0000 F5000
G1 X721.8347 Y534.1701 Z-20.0000 F5000
G1 X726.8347 Y534.1701 Z-20.0000 F5000
G1 X726.8347 Y532.1672 Z-20.0000 F5000
G1 X691.1775 Y532.1672 Z-20.0000 F5000
G1 X685.8349 Y526.8251 Z-20.0000 F5000
G1 X685.8349 Y469.5124 Z-20.0000 F5000
G1 X691.1775 Y464.1704 Z-20.0000 F5000
G1 X726.8347 Y464.1704 Z-20.0000 F5000
G1 X726.8347 Y462.1676 Z-20.0000 F5000
G1 X721.8347 Y462.1676 Z-20.0000 F5000
G1 X721.8347 Y234.1707 Z-20.0000 F5000
G1 X726.8347 Y234.1707 Z-20.0000 F5000
G1 X726.8347 Y232.1676 Z-20.0000 F5000
G1 X691.1775 Y232.1676 Z-20.0000 F5000
G1 X685.8349 Y226.8257 Z-20.0000 F5000
G1 X685.8349 Y169.5132 Z-20.0000 F5000
G1 X691.1773 Y164.1707 Z-20.0000 F5000
G1 X726.8347 Y164.1707 Z-20.0000 F5000
G1 X726.8347 Y162.1679 Z-20.0000 F5000
G1 X721.8347 Y162.1679 Z-20.0000 F5000
G1 X721.8347 Y5.9010 Z-20.0000 F5000
G1 X807.8326 Y5.9010 Z-20.0000 F5000
G1 X807.8326 Y162.1679 Z-20.0000 F5000
G1 X802.8326 Y162.1679 Z-20.0000 F5000
G1 X802.8326 Y164.1707 Z-20.0000 F5000
G1 X838.4900 Y164.1707 Z-20.0000 F5000
G1 X843.8325 Y169.5132 Z-20.0000 F5000
G1 X843.8325 Y226.8257 Z-20.0000 F5000
G1 X838.4898 Y232.1676 Z-20.0000 F5000
G1 X802.8326 Y232.1676 Z-20.0000 F5000
G1 X802.8326 Y234.1707 Z-20.0000 F5000
G1 X807.8326 Y234.1707 Z-20.0000 F5000
G1 X807.8326 Y462.1676 Z-20.0000 F5000
G1 X802.8326 Y462.1676 Z-20.0000 F5000
G1 X802.8326 Y464.1704 Z-20.0000 F5000
G1 X838.4898 Y464.1704 Z-20.0000 F5000
G1 X843.8325 Y469.5124 Z-20.0000 F5000
G1 X843.8325 Y526.8251 Z-20.0000 F5000
G1 X838.4899 Y532.1672 Z-20.0000 F5000
G1 X802.8326 Y532.1672 Z-20.0000 F5000
G1 X802.8326 Y534.1701 Z-20.0000 F5000
G1 X807.8325 Y534.1701 Z-20.0000 F5000
G1 X807.8350 Y642.1660 Z-20.0000 F5000
G1 X802.8349 Y642.1660 Z-20.0000 F5000
G1 X802.8349 Y644.1687 Z-20.0000 F5000
G1 X825.8326 Y644.1687 Z-20.0000 F5000
G1 X825.8326 Y762.1669 Z-20.0000 F5000
G1 X820.8326 Y762.1669 Z-20.0000 F5000
G1 X820.8326 Y764.1698 Z-20.0000 F5000
G1 X838.4899 Y764.1698 Z-20.0000 F5000
G1 X843.8325 Y769.5119 Z-20.0000 F5000
G1 X843.8325 Y793.1663 Z-20.0000 F5000
G1 X796.8346 Y793.1663 Z-20.0000 F5000
G1 X796.8346 Y788.1667 Z-20.0000 F5000
G1 X794.8326 Y788.1667 Z-20.0000 F5000
G1 X794.8326 Y808.1683 Z-20.0000 F5000
G1 X796.8346 Y808.1683 Z-20.0000 F5000
G1 X796.8346 Y803.1688 Z-20.0000 F5000
G1 X843.8325 Y803.1688 Z-20.0000 F5000
G1 X843.8325 Y826.8246 Z-20.0000 F5000
G1 X838.4898 Y832.1666 Z-20.0000 F5000
G1 X820.8326 Y832.1666 Z-20.0000 F5000
G1 X820.8326 Y834.1696 Z-20.0000 F5000
G1 X825.8326 Y834.1696 Z-20.0000 F5000
G1 X825.8326 Y1092.2573 Z-20.0000 F5000
G1 X820.8326 Y1092.2573 Z-20.0000 F5000
G1 X820.8326 Y1094.2602 Z-20.0000 F5000
G1 X838.4900 Y1094.2602 Z-20.0000 F5000
G1 X843.8325 Y1099.6027 Z-20.0000 F5000
G1 X843.8325 Y1156.9149 Z-20.0000 F5000
G1 X838.4900 Y1162.2573 Z-20.0000 F5000
G1 X820.8326 Y1162.2573 Z-20.0000 F5000
G1 X820.8326 Y1164.2601 Z-20.0000 F5000
G1 X825.8326 Y1164.2601 Z-20.0000 F5000
G1 X825.8326 Y1293.3040 Z-20.0000 F5000
G1 X825.8326 Y1293.3040 Z10.0000 F9999
G1 X23.9009 Y1379.8971 Z10.0000 F9999
G1 X23.9009 Y1379.8971 Z1.0000 F2500
G1 X23.9009 Y1340.9260 Z-9.5000 F2500
G1 X23.9009 Y1379.8971 Z-20.0000 F2500
G1 X23.9009 Y1265.8983 Z-20.0000 F5000
G1 X28.9009 Y1265.8983 Z-20.0000 F5000
G1 X28.9009 Y1263.8964 Z-20.0000 F5000
G1 X11.2435 Y1263.8964 Z-20.0000 F5000
G1 X5.9010 Y1258.5538 Z-20.0000 F5000
G1 X5.9010 Y1234.8984 Z-20.0000 F5000
G1 X52.8989 Y1234.8984 Z-20.0000 F5000
G1 X52.8989 Y1239.8985 Z-20.0000 F5000
G1 X54.9009 Y1239.8985 Z-20.0000 F5000
G1 X54.9009 Y1219.8965 Z-20.0000 F5000
G1 X52.8989 Y1219.8965 Z-20.0000 F5000
G1 X52.8989 Y1224.8965 Z-20.0000 F5000
G1 X5.9010 Y1224.8965 Z-20.0000 F5000
G1 X5.9010 Y1201.2411 Z-20.0000 F5000
G1 X11.2435 Y1195.8985 Z-20.0000 F5000
G1 X28.9009 Y1195.8985 Z-20.0000 F5000
G1 X28.9009 Y1193.8965 Z-20.0000 F5000
G1 X23.9009 Y1193.8965 Z-20.0000 F5000
G1 X23.9009 Y965.8990 Z-20.0000 F5000
G1 X28.9009 Y965.8990 Z-20.0000 F5000
G1 X28.9009 Y963.8970 Z-20.0000 F5000
G1 X11.2435 Y963.8970 Z-20.0000 F5000
G1 X5.9010 Y958.5545 Z-20.0000 F5000
G1 X5.9010 Y901.2417 Z-20.0000 F5000
G1 X11.2435 Y895.8992 Z-20.0000 F5000
G1 X28.9009 Y895.8992 Z-20.0000 F5000
G1 X28.9009 Y893.8972 Z-20.0000 F5000
G1 X23.9009 Y893.8972 Z-20.0000 F5000
G1 X23.9009 Y665.8996 Z-20.0000 F5000
G1 X28.9009 Y665.8996 Z-20.0000 F5000
G1 X28.9009 Y663.8977 Z-20.0000 F5000
G1 X11.2435 Y663.8977 Z-20.0000 F5000
G1 X5.9010 Y658.5551 Z-20.0000 F5000
G1 X5.9010 Y601.2423 Z-20.0000 F5000
G1 X11.2435 Y595.8998 Z-20.0000 F5000
G1 X28.9009 Y595.8998 Z-20.0000 F5000
G1 X28.9009 Y593.8978 Z-20.0000 F5000
G1 X23.9009 Y593.8978 Z-20.0000 F5000
G1 X23.9009 Y365.9002 Z-20.0000 F5000
G1 X28.9009 Y365.9002 Z-20.0000 F5000
G1 X28.9009 Y363.8983 Z-20.0000 F5000
G1 X11.2435 Y363.8983 Z-20.0000 F5000
G1 X5.9010 Y358.5557 Z-20.0000 F5000
G1 X5.9010 Y301.2430 Z-20.0000 F5000
G1 X11.2435 Y295.9004 Z-20.0000 F5000
G1 X28.9009 Y295.9004 Z-20.0000 F5000
G1 X28.9009 Y293.8984 Z-20.0000 F5000
G1 X23.9009 Y293.8984 Z-20.0000 F5000
G1 X23.9009 Y65.9009 Z-20.0000 F5000
G1 X28.9009 Y65.9009 Z-20.0000 F5000
G1 X28.9009 Y63.8988 Z-20.0000 F5000
G1 X11.2435 Y63.8988 Z-20.0000 F5000
G1 X5.9010 Y58.5563 Z-20.0000 F5000
G1 X5.9010 Y25.9009 Z-20.0000 F5000
G1 X67.5403 Y25.9009 Z-20.0000 F5000
G1 X68.0879 Y25.8215 Z-20.0000 F5000
G1 X68.3474 Y25.7039 Z-20.0000 F5000
G1 X68.5652 Y25.5101 Z-20.0000 F5000
G1 X68.7122 Y25.2659 Z-20.0000 F5000
G1 X68.7809 Y24.9894 Z-20.0000 F5000
G1 X68.7640 Y24.6983 Z-20.0000 F5000
G1 X68.6637 Y24.4316 Z-20.0000 F5000
G1 X68.3327 Y23.9883 Z-20.0000 F5000
G1 X65.4037 Y21.0591 Z-20.0000 F5000
G1 X64.0177 Y19.2029 Z-20.0000 F5000
G1 X63.1000 Y16.6644 Z-20.0000 F5000
G1 X62.9764 Y13.9681 Z-20.0000 F5000
G1 X63.6183 Y11.4402 Z-20.0000 F5000
G1 X64.9518 Y9.1989 Z-20.0000 F5000
G1 X66.9459 Y7.3797 Z-20.0000 F5000
G1 X69.3897 Y6.2335 Z-20.0000 F5000
G1 X71.6824 Y5.9010 Z-20.0000 F5000
G1 X98.1172 Y5.9010 Z-20.0000 F5000
G1 X100.4099 Y6.2335 Z-20.0000 F5000
G1 X102.8537 Y7.3797 Z-20.0000 F5000
G1 X104.8478 Y9.1989 Z-20.0000 F5000
G1 X106.1813 Y11.4402 Z-20.0000 F5000
G1 X106.8233 Y13.9681 Z-20.0000 F5000
G1 X106.6997 Y16.6644 Z-20.0000 F5000
G1 X105.7820 Y19.2029 Z-20.0000 F5000
G1 X104.3960 Y21.0591 Z-20.0000 F5000
G1 X101.4669 Y23.9883 Z-20.0000 F5000
G1 X101.1359 Y24.4316 Z-20.0000 F5000
G1 X101.0356 Y24.6983 Z-20.0000 F5000
G1 X101.0187 Y24.9894 Z-20.0000 F5000
G1 X101.0875 Y25.2659 Z-20.0000 F5000
G1 X101.2344 Y25.5101 Z-20.0000 F5000
G1 X101.4522 Y25.7039 Z-20.0000 F5000
G1 X101.7118 Y25.8215 Z-20.0000 F5000
G1 X102.2594 Y25.9009 Z-20.0000 F5000
G1 X163.8986 Y25.9009 Z-20.0000 F5000
G1 X163.8986 Y58.5563 Z-20.0000 F5000
G1 X158.5561 Y63.8988 Z-20.0000 F5000
G1 X140.8987 Y63.8988 Z-20.0000 F5000
G1 X140.8987 Y65.9009 Z-20.0000 F5000
G1 X145.8987 Y65.9009 Z-20.0000 F5000
G1 X145.8987 Y293.8984 Z-20.0000 F5000
G1 X140.8987 Y293.8984 Z-20.0000 F5000
G1 X140.8987 Y295.9004 Z-20.0000 F5000
G1 X158.5562 Y295.9004 Z-20.0000 F5000
G1 X163.8986 Y301.2430 Z-20.0000 F5000
G1 X163.8986 Y358.5557 Z-20.0000 F5000
G1 X158.5562 Y363.8983 Z-20.0000 F5000
G1 X140.8987 Y363.8983 Z-20.0000 F5000
G1 X140.8987 Y365.9002 Z-20.0000 F5000
G1 X145.8987 Y365.9002 Z-20.0000 F5000
G1 X145.8987 Y593.8978 Z-20.0000 F5000
G1 X140.8987 Y593.8978 Z-20.0000 F5000
G1 X140.8987 Y595.8998 Z-20.0000 F5000
G1 X158.5562 Y595.8998 Z-20.0000 F5000
G1 X163.8986 Y601.2423 Z-20.0000 F5000
G1 X163.8986 Y658.5551 Z-20.0000 F5000
G1 X158.5562 Y663.8977 Z-20.0000 F5000
G1 X140.8987 Y663.8977 Z-20.0000 F5000
G1 X140.8987 Y665.8996 Z-20.0000 F5000
G1 X145.8987 Y665.8996 Z-20.0000 F5000
G1 X145.8987 Y893.8972 Z-20.0000 F5000
G1 X140.8987 Y893.8972 Z-20.0000 F5000
G1 X140.8987 Y895.8992 Z-20.0000 F5000
G1 X158.5561 Y895.8992 Z-20.0000 F5000
G1 X163.8986 Y901.2417 Z-20.0000 F5000
G1 X163.8986 Y958.5545 Z-20.0000 F5000
G1 X158.5562 Y963.8970 Z-20.0000 F5000
G1 X140.8987 Y963.8970 Z-20.0000 F5000
G1 X140.8987 Y965.8990 Z-20.0000 F5000
G1 X145.8987 Y965.8990 Z-20.0000 F5000
G1 X145.8987 Y1193.8965 Z-20.0000 F5000
G1 X140.8987 Y1193.8965 Z-20.0000 F5000
G1 X140.8987 Y1195.8985 Z-20.0000 F5000
G1 X158.5562 Y1195.8985 Z-20.0000 F5000
G1 X163.8986 Y1201.2411 Z-20.0000 F5000
G1 X163.8986 Y1224.8965 Z-20.0000 F5000
G1 X116.9008 Y1224.8965 Z-20.0000 F5000
G1 X116.9008 Y1219.8965 Z-20.0000 F5000
G1 X114.8988 Y1219.8965 Z-20.0000 F5000
G1 X114.8988 Y1239.8985 Z-20.0000 F5000
G1 X116.9008 Y1239.8985 Z-20.0000 F5000
G1 X116.9008 Y1234.8984 Z-20.0000 F5000
G1 X163.8986 Y1234.8984 Z-20.0000 F5000
G1 X163.8986 Y1258.5538 Z-20.0000 F5000
G1 X158.5562 Y1263.8964 Z-20.0000 F5000
G1 X140.8987 Y1263.8964 Z-20.0000 F5000
G1 X140.8987 Y1265.8983 Z-20.0000 F5000
G1 X145.8987 Y1265.8983 Z-20.0000 F5000
G1 X145.8987 Y1493.8959 Z-20.0000 F5000
G1 X140.8987 Y1493.8959 Z-20.0000 F5000
G1 X140.8987 Y1495.8979 Z-20.0000 F5000
G1 X158.5562 Y1495.8979 Z-20.0000 F5000
G1 X163.8986 Y1501.2405 Z-20.0000 F5000
G1 X163.8986 Y1558.5532 Z-20.0000 F5000
G1 X158.5562 Y1563.8958 Z-20.0000 F5000
G1 X140.8987 Y1563.8958 Z-20.0000 F5000
G1 X140.8987 Y1565.8978 Z-20.0000 F5000
G1 X145.8987 Y1565.8978 Z-20.0000 F5000
G1 X145.8987 Y1683.8957 Z-20.0000 F5000
G1 X122.9011 Y1683.8957 Z-20.0000 F5000
G1 X122.9011 Y1685.8977 Z-20.0000 F5000
G1 X127.9012 Y1685.8977 Z-20.0000 F5000
G1 X127.8987 Y1793.8953 Z-20.0000 F5000
G1 X122.8988 Y1793.8953 Z-20.0000 F5000
G1 X122.8988 Y1795.8973 Z-20.0000 F5000
G1 X158.5562 Y1795.8973 Z-20.0000 F5000
G1 X163.8986 Y1801.2399 Z-20.0000 F5000
G1 X163.8986 Y1858.5526 Z-20.0000 F5000
G1 X158.5562 Y1863.8952 Z-20.0000 F5000
G1 X122.8988 Y1863.8952 Z-20.0000 F5000
G1 X122.8988 Y1865.8972 Z-20.0000 F5000
G1 X127.8988 Y1865.8972 Z-20.0000 F5000
G1 X127.8988 Y2093.8947 Z-20.0000 F5000
G1 X122.8988 Y2093.8947 Z-20.0000 F5000
G1 X122.8988 Y2095.8967 Z-20.0000 F5000
G1 X158.5562 Y2095.8967 Z-20.0000 F5000
G1 X163.8986 Y2101.2393 Z-20.0000 F5000
G1 X163.8986 Y2158.5521 Z-20.0000 F5000
G1 X158.5562 Y2163.8947 Z-20.0000 F5000
G1 X122.8988 Y2163.8947 Z-20.0000 F5000
G1 X122.8988 Y2165.8966 Z-20.0000 F5000
G1 X127.8988 Y2165.8966 Z-20.0000 F5000
G1 X127.8988 Y2281.8945 Z-20.0000 F5000
G1 X41.9009 Y2281.8945 Z-20.0000 F5000
G1 X41.9009 Y2165.8966 Z-20.0000 F5000
G1 X46.9009 Y2165.8966 Z-20.0000 F5000
G1 X46.9009 Y2163.8947 Z-20.0000 F5000
G1 X11.2435 Y2163.8947 Z-20.0000 F5000
G1 X5.9010 Y2158.5521 Z-20.0000 F5000
G1 X5.9010 Y2101.2393 Z-20.0000 F5000
G1 X11.2435 Y2095.8967 Z-20.0000 F5000
G1 X46.9009 Y2095.8967 Z-20.0000 F5000
G1 X46.9009 Y2093.8947 Z-20.0000 F5000
G1 X41.9009 Y2093.8947 Z-20.0000 F5000
G1 X41.9009 Y1865.8972 Z-20.0000 F5000
G1 X46.9009 Y1865.8972 Z-20.0000 F5000
G1 X46.9009 Y1863.8952 Z-20.0000 F5000
G1 X11.2435 Y1863.8952 Z-20.0000 F5000
G1 X5.9010 Y1858.5526 Z-20.0000 F5000
G1 X5.9010 Y1801.2399 Z-20.0000 F5000
G1 X11.2435 Y1795.8973 Z-20.0000 F5000
G1 X46.9009 Y1795.8973 Z-20.0000 F5000
G1 X46.9009 Y1793.8953 Z-20.0000 F5000
G1 X41.9009 Y1793.8953 Z-20.0000 F5000
G1 X41.9009 Y1685.8977 Z-20.0000 F5000
G1 X46.9009 Y1685.8977 Z-20.0000 F5000
G1 X46.9009 Y1683.8957 Z-20.0000 F5000
G1 X23.9009 Y1683.8957 Z-20.0000 F5000
G1 X23.9009 Y1565.8978 Z-20.0000 F5000
G1 X28.9009 Y1565.8978 Z-20.0000 F5000
G1 X28.9009 Y1563.8958 Z-20.0000 F5000
G1 X11.2435 Y1563.8958 Z-20.0000 F5000
G1 X5.9010 Y1558.5532 Z-20.0000 F5000
G1 X5.9010 Y1501.2405 Z-20.0000 F5000
G1 X11.2435 Y1495.8979 Z-20.0000 F5000
G1 X28.9009 Y1495.8979 Z-20.0000 F5000
G1 X28.9009 Y1493.8959 Z-20.0000 F5000
G1 X23.9009 Y1493.8959 Z-20.0000 F5000
G1 X23.9009 Y1379.8971 Z-20.0000 F5000
G1 X23.9009 Y1379.8971 Z10.0000 F9999
G1 X367.9986 Y1379.8971 Z10.0000 F9999
G1 X367.9986 Y1379.8971 Z1.0000 F2500
G1 X367.9986 Y1340.9260 Z-9.5000 F2500
G1 X367.9986 Y1379.8971 Z-20.0000 F2500
G1 X367.9986 Y1265.8983 Z-20.0000 F5000
G1 X372.9986 Y1265.8983 Z-20.0000 F5000
G1 X372.9986 Y1263.8964 Z-20.0000 F5000
G1 X355.3411 Y1263.8964 Z-20.0000 F5000
G1 X349.9986 Y1258.5538 Z-20.0000 F5000
G1 X349.9986 Y1234.8984 Z-20.0000 F5000
G1 X396.9965 Y1234.8984 Z-20.0000 F5000
G1 X396.9965 Y1239.8985 Z-20.0000 F5000
G1 X398.9985 Y1239.8985 Z-20.0000 F5000
G1 X398.9985 Y1219.8965 Z-20.0000 F5000
G1 X396.9965 Y1219.8965 Z-20.0000 F5000
G1 X396.9965 Y1224.8965 Z-20.0000 F5000
G1 X349.9986 Y1224.8965 Z-20.0000 F5000
G1 X349.9986 Y1201.2411 Z-20.0000 F5000
G1 X355.3411 Y1195.8985 Z-20.0000 F5000
G1 X372.9986 Y1195.8985 Z-20.0000 F5000
G1 X372.9986 Y1193.8965 Z-20.0000 F5000
G1 X367.9986 Y1193.8965 Z-20.0000 F5000
G1 X367.9986 Y965.8990 Z-20.0000 F5000
G1 X372.9986 Y965.8990 Z-20.0000 F5000
G1 X372.9986 Y963.8970 Z-20.0000 F5000
G1 X355.3411 Y963.8970 Z-20.0000 F5000
G1 X349.9986 Y958.5545 Z-20.0000 F5000
G1 X349.9986 Y901.2417 Z-20.0000 F5000
G1 X355.3411 Y895.8992 Z-20.0000 F5000
G1 X372.9986 Y895.8992 Z-20.0000 F5000
G1 X372.9986 Y893.8972 Z-20.0000 F5000
G1 X367.9986 Y893.8972 Z-20.0000 F5000
G1 X367.9986 Y665.8996 Z-20.0000 F5000
G1 X372.9986 Y665.8996 Z-20.0000 F5000
G1 X372.9986 Y663.8977 Z-20.0000 F5000
G1 X355.3411 Y663.8977 Z-20.0000 F5000
G1 X349.9986 Y658.5551 Z-20.0000 F5000
G1 X349.9986 Y601.2423 Z-20.0000 F5000
G1 X355.3411 Y595.8998 Z-20.0000 F5000
G1 X372.9986 Y595.8998 Z-20.0000 F5000
G1 X372.9986 Y593.8978 Z-20.0000 F5000
G1 X367.9986 Y593.8978 Z-20.0000 F5000
G1 X367.9986 Y365.9002 Z-20.0000 F5000
G1 X372.9986 Y365.9002 Z-20.0000 F5000
G1 X372.9986 Y363.8983 Z-20.0000 F5000
G1 X355.3411 Y363.8983 Z-20.0000 F5000
G1 X349.9986 Y358.5557 Z-20.0000 F5000
G1 X349.9986 Y301.2430 Z-20.0000 F5000
G1 X355.3411 Y295.9004 Z-20.0000 F5000
G1 X372.9986 Y295.9004 Z-20.0000 F5000
G1 X372.9986 Y293.8984 Z-20.0000 F5000
G1 X367.9986 Y293.8984 Z-20.0000 F5000
G1 X367.9986 Y65.9009 Z-20.0000 F5000
G1 X372.9986 Y65.9009 Z-20.0000 F5000
G1 X372.9986 Y63.8988 Z-20.0000 F5000
G1 X355.3411 Y63.8988 Z-20.0000 F5000
G1 X349.9986 Y58.5563 Z-20.0000 F5000
G1 X349.9986 Y25.9009 Z-20.0000 F5000
G1 X411.6379 Y25.9009 Z-20.0000 F5000
G1 X412.1855 Y25.8215 Z-20.0000 F5000
G1 X412.4451 Y25.7039 Z-20.0000 F5000
G1 X412.6628 Y25.5101 Z-20.0000 F5000
G1 X412.8098 Y25.2659 Z-20.0000 F5000
G1 X412.8786 Y24.9894 Z-20.0000 F5000
G1 X412.8617 Y24.6983 Z-20.0000 F5000
G1 X412.7614 Y24.4316 Z-20.0000 F5000
G1 X412.4303 Y23.9883 Z-20.0000 F5000
G1 X409.5013 Y21.0591 Z-20.0000 F5000
G1 X408.1153 Y19.2029 Z-20.0000 F5000
G1 X407.1976 Y16.6644 Z-20.0000 F5000
G1 X407.0740 Y13.9681 Z-20.0000 F5000
G1 X407.7159 Y11.4402 Z-20.0000 F5000
G1 X409.0495 Y9.1989 Z-20.0000 F5000
G1 X411.0436 Y7.3797 Z-20.0000 F5000
G1 X413.4874 Y6.2335 Z-20.0000 F5000
G1 X415.7801 Y5.9010 Z-20.0000 F5000
G1 X442.2148 Y5.9010 Z-20.0000 F5000
G1 X444.5076 Y6.2335 Z-20.0000 F5000
G1 X446.9514 Y7.3797 Z-20.0000 F5000
G1 X448.9454 Y9.1989 Z-20.0000 F5000
G1 X450.2790 Y11.4402 Z-20.0000 F5000
G1 X450.9209 Y13.9681 Z-20.0000 F5000
G1 X450.7973 Y16.6644 Z-20.0000 F5000
G1 X449.8796 Y19.2029 Z-20.0000 F5000
G1 X448.4936 Y21.0591 Z-20.0000 F5000
G1 X445.5646 Y23.9883 Z-20.0000 F5000
G1 X445.2335 Y24.4316 Z-20.0000 F5000
G1 X445.1332 Y24.6983 Z-20.0000 F5000
G1 X445.1163 Y24.9894 Z-20.0000 F5000
G1 X445.1851 Y25.2659 Z-20.0000 F5000
G1 X445.3321 Y25.5101 Z-20.0000 F5000
G1 X445.5499 Y25.7039 Z-20.0000 F5000
G1 X445.8094 Y25.8215 Z-20.0000 F5000
G1 X446.3570 Y25.9009 Z-20.0000 F5000
G1 X507.9963 Y25.9009 Z-20.0000 F5000
G1 X507.9963 Y58.5563 Z-20.0000 F5000
G1 X502.6538 Y63.8988 Z-20.0000 F5000
G1 X484.9963 Y63.8988 Z-20.0000 F5000
G1 X484.9963 Y65.9009 Z-20.0000 F5000
G1 X489.9963 Y65.9009 Z-20.0000 F5000
G1 X489.9963 Y293.8984 Z-20.0000 F5000
G1 X484.9963 Y293.8984 Z-20.0000 F5000
G1 X484.9963 Y295.9004 Z-20.0000 F5000
G1 X502.6538 Y295.9004 Z-20.0000 F5000
G1 X507.9963 Y301.2430 Z-20.0000 F5000
G1 X507.9963 Y358.5557 Z-20.0000 F5000
G1 X502.6538 Y363.8983 Z-20.0000 F5000
G1 X484.9963 Y363.8983 Z-20.0000 F5000
G1 X484.9963 Y365.9002 Z-20.0000 F5000
G1 X489.9963 Y365.9002 Z-20.0000 F5000
G1 X489.9963 Y593.8978 Z-20.0000 F5000
G1 X484.9963 Y593.8978 Z-20.0000 F5000
G1 X484.9963 Y595.8998 Z-20.0000 F5000
G1 X502.6538 Y595.8998 Z-20.0000 F5000
G1 X507.9963 Y601.2423 Z-20.0000 F5000
G1 X507.9963 Y658.5551 Z-20.0000 F5000
G1 X502.6538 Y663.8977 Z-20.0000 F5000
G1 X484.9963 Y663.8977 Z-20.0000 F5000
G1 X484.9963 Y665.8996 Z-20.0000 F5000
G1 X489.9963 Y665.8996 Z-20.0000 F5000
G1 X489.9963 Y893.8972 Z-20.0000 F5000
G1 X484.9963 Y893.8972 Z-20.0000 F5000
G1 X484.9963 Y895.8992 Z-20.0000 F5000
G1 X502.6538 Y895.8992 Z-20.0000 F5000
G1 X507.9963 Y901.2417 Z-20.0000 F5000
G1 X507.9963 Y958.5545 Z-20.0000 F5000
G1 X502.6538 Y963.8970 Z-20.0000 F5000
G1 X484.9963 Y963.8970 Z-20.0000 F5000
G1 X484.9963 Y965.8990 Z-20.0000 F5000
G1 X489.9963 Y965.8990 Z-20.0000 F5000
G1 X489.9963 Y1193.8965 Z-20.0000 F5000
G1 X484.9963 Y1193.8965 Z-20.0000 F5000
G1 X484.9963 Y1195.8985 Z-20.0000 F5000
G1 X502.6538 Y1195.8985 Z-20.0000 F5000
G1 X507.9963 Y1201.2411 Z-20.0000 F5000
G1 X507.9963 Y1224.8965 Z-20.0000 F5000
G1 X460.9984 Y1224.8965 Z-20.0000 F5000
G1 X460.9984 Y1219.8965 Z-20.0000 F5000
G1 X458.9964 Y1219.8965 Z-20.0000 F5000
G1 X458.9964 Y1239.8985 Z-20.0000 F5000
G1 X460.9984 Y1239.8985 Z-20.0000 F5000
G1 X460.9984 Y1234.8984 Z-20.0000 F5000
G1 X507.9963 Y1234.8984 Z-20.0000 F5000
G1 X507.9963 Y1258.5538 Z-20.0000 F5000
G1 X502.6538 Y1263.8964 Z-20.0000 F5000
G1 X484.9963 Y1263.8964 Z-20.0000 F5000
G1 X484.9963 Y1265.8983 Z-20.0000 F5000
G1 X489.9963 Y1265.8983 Z-20.0000 F5000
G1 X489.9963 Y1493.8959 Z-20.0000 F5000
G1 X484.9963 Y1493.8959 Z-20.0000 F5000
G1 X484.9963 Y1495.8979 Z-20.0000 F5000
G1 X502.6538 Y1495.8979 Z-20.0000 F5000
G1 X507.9963 Y1501.2405 Z-20.0000 F5000
G1 X507.9963 Y1558.5532 Z-20.0000 F5000
G1 X502.6538 Y1563.8958 Z-20.0000 F5000
G1 X484.9963 Y1563.8958 Z-20.0000 F5000
G1 X484.9963 Y1565.8978 Z-20.0000 F5000
G1 X489.9963 Y1565.8978 Z-20.0000 F5000
G1 X489.9963 Y1683.8957 Z-20.0000 F5000
