(plotsheet 2n3_nested_153 sheets_final v1_0_sheet 114 to 116a_S114.0_10 screws_CC8 - stepover 1mm)
(Material Size) (X=1220.000, Y=2440.000, Z=21.000)
(LinuxCNC_NoArcs_MM_TC_medium_50um_G1_verbose.con)
G90 G80 G21 G49
G64 P0.050
M6 T1
(Tool Number:1) (7.998 mm dia. slot drill)
G43 H1 G0Z80.0000
M3 S9000
G04 P10
G1 X70.7496 Y157.1853 Z10.0000 F9999
G1 X70.7496 Y157.1853 Z2.0000 F9999
G1 X70.7496 Y157.1853 Z-1.0000 F2500
G1 X70.7496 Y157.1853 Z10.0000 F9999
G1 X547.0156 Y152.0085 Z10.0000 F9999
G1 X547.0156 Y152.0085 Z2.0000 F9999
G1 X547.0156 Y152.0085 Z-1.0000 F2500
G1 X547.0156 Y152.0085 Z10.0000 F9999
G1 X1059.5190 Y417.7511 Z10.0000 F9999
G1 X1059.5190 Y417.7511 Z2.0000 F9999
G1 X1059.5190 Y417.7511 Z-1.0000 F2500
G1 X1059.5190 Y417.7511 Z10.0000 F9999
G1 X372.7299 Y1061.4003 Z10.0000 F9999
G1 X372.7299 Y1061.4003 Z2.0000 F9999
G1 X372.7299 Y1061.4003 Z-1.0000 F2500
G1 X372.7299 Y1061.4003 Z10.0000 F9999
G1 X548.7089 Y1377.7318 Z10.0000 F9999
G1 X548.7089 Y1377.7318 Z2.0000 F9999
G1 X548.7089 Y1377.7318 Z-1.0000 F2500
G1 X548.7089 Y1377.7318 Z10.0000 F9999
G1 X65.5728 Y1378.9109 Z10.0000 F9999
G1 X65.5728 Y1378.9109 Z2.0000 F9999
G1 X65.5728 Y1378.9109 Z-1.0000 F2500
G1 X65.5728 Y1378.9109 Z10.0000 F9999
G1 X96.0886 Y1971.6257 Z10.0000 F9999
G1 X96.0886 Y1971.6257 Z2.0000 F9999
G1 X96.0886 Y1971.6257 Z-1.0000 F2500
G1 X96.0886 Y1971.6257 Z10.0000 F9999
G1 X70.7496 Y2293.4795 Z10.0000 F9999
G1 X70.7496 Y2293.4795 Z2.0000 F9999
G1 X70.7496 Y2293.4795 Z-1.0000 F2500
G1 X70.7496 Y2293.4795 Z10.0000 F9999
G1 X716.8317 Y2301.0891 Z10.0000 F9999
G1 X716.8317 Y2301.0891 Z2.0000 F9999
G1 X716.8317 Y2301.0891 Z-1.0000 F2500
G1 X716.8317 Y2301.0891 Z10.0000 F9999
G1 X1123.3663 Y1967.3408 Z10.0000 F9999
G1 X1123.3663 Y1967.3408 Z2.0000 F9999
G1 X1123.3663 Y1967.3408 Z-1.0000 F2500
G1 X1123.3663 Y1967.3408 Z10.0000 F9999
G1 X1900.0000 Y2800.0000 Z80.0000 F9999
G1 Z80.0000 F9999
G1 X1900.0000 Y2800.0000 F9999
M5
M30
