(plotsheet 2n3_nested_153 sheets_final v1_0_sheet 122a_S122.1_text_CC8 - stepover 1mm)
(Material Size) (X=1220.000, Y=2440.000, Z=21.000)
(LinuxCNC_NoArcs_MM_TC_medium_50um_G1_verbose.con)
G90 G80 G21 G49
G64 P0.050
M6 T1
(Tool Number:1) (7.998 mm dia. slot drill)
G43 H1 G0Z80.0000
M3 S18000
G04 P10
G1 X222.5642 Y139.3809 Z10.0000 F9999
G1 X222.5642 Y139.3809 Z-1.0000 F2500
G1 X228.3807 Y139.3809 Z-1.0000 F4000
G1 X222.5642 Y139.3809 Z-1.0000 F4000
G1 X222.5642 Y180.4818 Z-1.0000 F4000
G1 X222.5642 Y180.4818 Z10.0000 F9999
G1 X241.4817 Y180.4818 Z10.0000 F9999
G1 X241.4817 Y180.4818 Z-1.0000 F2500
G1 X254.7110 Y160.3351 Z-1.0000 F4000
G1 X241.4817 Y180.4818 Z-1.0000 F4000
G1 X241.4817 Y180.4818 Z10.0000 F9999
G1 X258.8945 Y180.4818 Z10.0000 F9999
G1 X258.8945 Y180.4818 Z-1.0000 F2500
G1 X258.8945 Y139.3809 Z-1.0000 F4000
G1 X251.7385 Y139.3809 Z-1.0000 F4000
G1 X247.8670 Y139.9864 Z-1.0000 F4000
G1 X244.6560 Y141.8029 Z-1.0000 F4000
G1 X242.4358 Y144.9589 Z-1.0000 F4000
G1 X241.5917 Y149.6011 Z-1.0000 F4000
G1 X242.7477 Y154.2800 Z-1.0000 F4000
G1 X245.5184 Y157.6011 Z-1.0000 F4000
G1 X248.8395 Y159.5644 Z-1.0000 F4000
G1 X251.7385 Y160.2250 Z-1.0000 F4000
G1 X258.8945 Y160.2250 Z-1.0000 F4000
G1 X251.7385 Y160.2250 Z-1.0000 F4000
G1 X248.8395 Y159.5644 Z-1.0000 F4000
G1 X245.5184 Y157.6011 Z-1.0000 F4000
G1 X242.7477 Y154.2800 Z-1.0000 F4000
G1 X241.5917 Y149.6011 Z-1.0000 F4000
G1 X242.4358 Y144.9589 Z-1.0000 F4000
G1 X244.6560 Y141.8029 Z-1.0000 F4000
G1 X247.8670 Y139.9864 Z-1.0000 F4000
G1 X251.7385 Y139.3809 Z-1.0000 F4000
G1 X258.8945 Y139.3809 Z-1.0000 F4000
G1 X258.8945 Y139.3809 Z10.0000 F9999
G1 X274.3991 Y129.9864 Z10.0000 F9999
G1 X274.3991 Y129.9864 Z-1.0000 F2500
G1 X304.7844 Y182.8305 Z-1.0000 F4000
G1 X274.3991 Y129.9864 Z-1.0000 F4000
G1 X274.3991 Y129.9864 Z10.0000 F9999
G1 X332.2156 Y139.3809 Z10.0000 F9999
G1 X332.2156 Y139.3809 Z-1.0000 F2500
G1 X316.1606 Y180.4818 Z-1.0000 F4000
G1 X332.2156 Y139.3809 Z-1.0000 F4000
G1 X348.2339 Y180.4818 Z-1.0000 F4000
G1 X348.2339 Y180.4818 Z10.0000 F9999
G1 X358.9128 Y155.8213 Z10.0000 F9999
G1 X358.9128 Y155.8213 Z-1.0000 F2500
G1 X388.1606 Y155.8213 Z-1.0000 F4000
G1 X358.9128 Y155.8213 Z-1.0000 F4000
G1 X358.9128 Y155.8213 Z10.0000 F9999
G1 X321.9037 Y165.7846 Z10.0000 F9999
G1 X321.9037 Y165.7846 Z-1.0000 F2500
G1 X342.6009 Y165.7846 Z-1.0000 F4000
G1 X321.9037 Y165.7846 Z-1.0000 F4000
G1 X321.9037 Y165.7846 Z10.0000 F9999
G1 X405.2798 Y165.7846 Z10.0000 F9999
G1 X405.2798 Y165.7846 Z-1.0000 F2500
G1 X425.9771 Y165.7846 Z-1.0000 F4000
G1 X405.2798 Y165.7846 Z-1.0000 F4000
G1 X405.2798 Y165.7846 Z10.0000 F9999
G1 X415.5917 Y139.3809 Z10.0000 F9999
G1 X415.5917 Y139.3809 Z-1.0000 F2500
G1 X399.5367 Y180.4818 Z-1.0000 F4000
G1 X415.5917 Y139.3809 Z-1.0000 F4000
G1 X431.6101 Y180.4818 Z-1.0000 F4000
G1 X431.6101 Y180.4818 Z10.0000 F9999
G1 X442.2890 Y180.4818 Z10.0000 F9999
G1 X442.2890 Y180.4818 Z-1.0000 F2500
G1 X455.5184 Y160.3351 Z-1.0000 F4000
G1 X442.2890 Y180.4818 Z-1.0000 F4000
G1 X442.2890 Y180.4818 Z10.0000 F9999
G1 X459.7018 Y180.4818 Z10.0000 F9999
G1 X459.7018 Y180.4818 Z-1.0000 F2500
G1 X459.7018 Y139.3809 Z-1.0000 F4000
G1 X452.5459 Y139.3809 Z-1.0000 F4000
G1 X448.6743 Y139.9864 Z-1.0000 F4000
G1 X445.4633 Y141.8029 Z-1.0000 F4000
G1 X443.2431 Y144.9589 Z-1.0000 F4000
G1 X442.3991 Y149.6011 Z-1.0000 F4000
G1 X443.5550 Y154.2800 Z-1.0000 F4000
G1 X446.3257 Y157.6011 Z-1.0000 F4000
G1 X449.6468 Y159.5644 Z-1.0000 F4000
G1 X452.5459 Y160.2250 Z-1.0000 F4000
G1 X459.7018 Y160.2250 Z-1.0000 F4000
G1 X452.5459 Y160.2250 Z-1.0000 F4000
G1 X449.6468 Y159.5644 Z-1.0000 F4000
G1 X446.3257 Y157.6011 Z-1.0000 F4000
G1 X443.5550 Y154.2800 Z-1.0000 F4000
G1 X442.3991 Y149.6011 Z-1.0000 F4000
G1 X443.2431 Y144.9589 Z-1.0000 F4000
G1 X445.4633 Y141.8029 Z-1.0000 F4000
G1 X448.6743 Y139.9864 Z-1.0000 F4000
G1 X452.5459 Y139.3809 Z-1.0000 F4000
G1 X459.7018 Y139.3809 Z-1.0000 F4000
G1 X459.7018 Y139.3809 Z10.0000 F9999
G1 X490.2339 Y157.6745 Z10.0000 F9999
G1 X490.2339 Y157.6745 Z-1.0000 F2500
G1 X475.7936 Y157.6745 Z-1.0000 F4000
G1 X490.2339 Y157.6745 Z-1.0000 F4000
G1 X490.2339 Y139.3809 Z-1.0000 F4000
G1 X475.1147 Y139.3809 Z-1.0000 F4000
G1 X490.2339 Y139.3809 Z-1.0000 F4000
G1 X490.2339 Y180.4818 Z-1.0000 F4000
G1 X490.2339 Y180.4818 Z10.0000 F9999
G1 X1037.2944 Y514.0365 Z10.0000 F9999
G1 X1037.2944 Y514.0365 Z-1.0000 F2500
G1 X1034.6155 Y513.2843 Z-1.0000 F4000
G1 X1032.0467 Y511.5595 Z-1.0000 F4000
G1 X1030.1018 Y508.6054 Z-1.0000 F4000
G1 X1029.3495 Y504.0549 Z-1.0000 F4000
G1 X1031.9733 Y495.5411 Z-1.0000 F4000
G1 X1039.9550 Y492.4402 Z-1.0000 F4000
G1 X1044.6889 Y493.3210 Z-1.0000 F4000
G1 X1048.0467 Y495.6329 Z-1.0000 F4000
G1 X1050.0467 Y498.8439 Z-1.0000 F4000
G1 X1050.7256 Y502.4219 Z-1.0000 F4000
G1 X1051.4596 Y498.9540 Z-1.0000 F4000
G1 X1053.6798 Y495.9998 Z-1.0000 F4000
G1 X1057.0559 Y493.9081 Z-1.0000 F4000
G1 X1061.2577 Y493.1191 Z-1.0000 F4000
G1 X1062.8357 Y493.1558 Z-1.0000 F4000
G1 X1064.8174 Y493.4310 Z-1.0000 F4000
G1 X1066.8357 Y494.2200 Z-1.0000 F4000
G1 X1068.6706 Y495.7430 Z-1.0000 F4000
G1 X1069.9733 Y498.2934 Z-1.0000 F4000
G1 X1070.4504 Y502.0365 Z-1.0000 F4000
G1 X1069.6247 Y507.4127 Z-1.0000 F4000
G1 X1067.6064 Y510.5136 Z-1.0000 F4000
G1 X1064.9458 Y512.0365 Z-1.0000 F4000
G1 X1062.2119 Y512.6237 Z-1.0000 F4000
G1 X1064.9458 Y512.0365 Z-1.0000 F4000
G1 X1067.6064 Y510.5136 Z-1.0000 F4000
G1 X1069.6247 Y507.4127 Z-1.0000 F4000
G1 X1070.4504 Y502.0365 Z-1.0000 F4000
G1 X1069.9733 Y498.2934 Z-1.0000 F4000
G1 X1068.6706 Y495.7430 Z-1.0000 F4000
G1 X1066.8357 Y494.2200 Z-1.0000 F4000
G1 X1064.8174 Y493.4310 Z-1.0000 F4000
G1 X1062.8724 Y493.1558 Z-1.0000 F4000
G1 X1061.2577 Y493.1191 Z-1.0000 F4000
G1 X1057.0559 Y493.9081 Z-1.0000 F4000
G1 X1053.6798 Y495.9998 Z-1.0000 F4000
G1 X1051.4596 Y498.9540 Z-1.0000 F4000
G1 X1050.7256 Y502.4219 Z-1.0000 F4000
G1 X1050.0467 Y498.8439 Z-1.0000 F4000
G1 X1048.0467 Y495.6329 Z-1.0000 F4000
G1 X1044.6889 Y493.3210 Z-1.0000 F4000
G1 X1039.9550 Y492.4402 Z-1.0000 F4000
G1 X1031.9733 Y495.5411 Z-1.0000 F4000
G1 X1029.3495 Y504.0549 Z-1.0000 F4000
G1 X1030.1018 Y508.6054 Z-1.0000 F4000
G1 X1032.0467 Y511.5595 Z-1.0000 F4000
G1 X1034.6155 Y513.2843 Z-1.0000 F4000
G1 X1034.6155 Y513.2843 Z10.0000 F9999
G1 X1070.4504 Y531.7613 Z10.0000 F9999
G1 X1070.4504 Y531.7613 Z-1.0000 F2500
G1 X1037.0559 Y553.9632 Z-1.0000 F4000
G1 X1037.0559 Y525.1558 Z-1.0000 F4000
G1 X1037.0559 Y553.9632 Z-1.0000 F4000
G1 X1070.4504 Y531.7613 Z-1.0000 F4000
G1 X1029.3495 Y531.7613 Z-1.0000 F4000
G1 X1029.3495 Y531.7613 Z10.0000 F9999
G1 X1029.3495 Y564.7338 Z10.0000 F9999
G1 X1029.3495 Y564.7338 Z-1.0000 F2500
G1 X1029.3495 Y577.3576 Z-1.0000 F4000
G1 X1070.4504 Y577.3576 Z-1.0000 F4000
G1 X1029.3495 Y577.3576 Z-1.0000 F4000
G1 X1029.3495 Y577.3576 Z10.0000 F9999
G1 X671.3165 Y1040.3901 Z10.0000 F9999
G1 X671.3165 Y1040.3901 Z-1.0000 F2500
G1 X658.0872 Y1060.5369 Z-1.0000 F4000
G1 X671.3165 Y1040.3901 Z-1.0000 F4000
G1 X671.3165 Y1040.3901 Z10.0000 F9999
G1 X653.9037 Y1040.3901 Z10.0000 F9999
G1 X653.9037 Y1040.3901 Z-1.0000 F2500
G1 X653.9037 Y1081.4910 Z-1.0000 F4000
G1 X661.0596 Y1081.4910 Z-1.0000 F4000
G1 X664.9312 Y1080.8855 Z-1.0000 F4000
G1 X668.1422 Y1079.0690 Z-1.0000 F4000
G1 X670.3624 Y1075.9130 Z-1.0000 F4000
G1 X671.2064 Y1071.2708 Z-1.0000 F4000
G1 X670.0505 Y1066.5919 Z-1.0000 F4000
G1 X667.2798 Y1063.2708 Z-1.0000 F4000
G1 X663.9587 Y1061.3075 Z-1.0000 F4000
G1 X661.0596 Y1060.6470 Z-1.0000 F4000
G1 X653.9037 Y1060.6470 Z-1.0000 F4000
G1 X661.0596 Y1060.6470 Z-1.0000 F4000
G1 X663.9587 Y1061.3075 Z-1.0000 F4000
G1 X667.2798 Y1063.2708 Z-1.0000 F4000
G1 X670.0505 Y1066.5919 Z-1.0000 F4000
G1 X671.2064 Y1071.2708 Z-1.0000 F4000
G1 X670.3624 Y1075.9130 Z-1.0000 F4000
G1 X668.1422 Y1079.0690 Z-1.0000 F4000
G1 X664.9312 Y1080.8855 Z-1.0000 F4000
G1 X661.0596 Y1081.4910 Z-1.0000 F4000
G1 X653.9037 Y1081.4910 Z-1.0000 F4000
G1 X653.9037 Y1081.4910 Z10.0000 F9999
G1 X638.3991 Y1090.8855 Z10.0000 F9999
G1 X638.3991 Y1090.8855 Z-1.0000 F2500
G1 X608.0138 Y1038.0415 Z-1.0000 F4000
G1 X638.3991 Y1090.8855 Z-1.0000 F4000
G1 X638.3991 Y1090.8855 Z10.0000 F9999
G1 X690.2339 Y1081.4910 Z10.0000 F9999
G1 X690.2339 Y1081.4910 Z-1.0000 F2500
G1 X684.4174 Y1081.4910 Z-1.0000 F4000
G1 X690.2339 Y1081.4910 Z-1.0000 F4000
G1 X690.2339 Y1040.3901 Z-1.0000 F4000
G1 X690.2339 Y1040.3901 Z10.0000 F9999
G1 X590.8945 Y1055.0873 Z10.0000 F9999
G1 X590.8945 Y1055.0873 Z-1.0000 F2500
G1 X570.1972 Y1055.0873 Z-1.0000 F4000
G1 X590.8945 Y1055.0873 Z-1.0000 F4000
G1 X590.8945 Y1055.0873 Z10.0000 F9999
G1 X580.5826 Y1081.4910 Z10.0000 F9999
G1 X580.5826 Y1081.4910 Z-1.0000 F2500
G1 X596.6376 Y1040.3901 Z-1.0000 F4000
G1 X580.5826 Y1081.4910 Z-1.0000 F4000
G1 X564.5642 Y1040.3901 Z-1.0000 F4000
G1 X564.5642 Y1040.3901 Z10.0000 F9999
G1 X553.8853 Y1065.0507 Z10.0000 F9999
G1 X553.8853 Y1065.0507 Z-1.0000 F2500
G1 X524.6376 Y1065.0507 Z-1.0000 F4000
G1 X553.8853 Y1065.0507 Z-1.0000 F4000
G1 X553.8853 Y1065.0507 Z10.0000 F9999
G1 X507.5184 Y1055.0873 Z10.0000 F9999
G1 X507.5184 Y1055.0873 Z-1.0000 F2500
G1 X486.8211 Y1055.0873 Z-1.0000 F4000
G1 X507.5184 Y1055.0873 Z-1.0000 F4000
G1 X507.5184 Y1055.0873 Z10.0000 F9999
G1 X497.2064 Y1081.4910 Z10.0000 F9999
G1 X497.2064 Y1081.4910 Z-1.0000 F2500
G1 X513.2615 Y1040.3901 Z-1.0000 F4000
G1 X497.2064 Y1081.4910 Z-1.0000 F4000
G1 X481.1881 Y1040.3901 Z-1.0000 F4000
G1 X481.1881 Y1040.3901 Z10.0000 F9999
G1 X470.5092 Y1040.3901 Z10.0000 F9999
G1 X470.5092 Y1040.3901 Z-1.0000 F2500
G1 X457.2798 Y1060.5369 Z-1.0000 F4000
G1 X470.5092 Y1040.3901 Z-1.0000 F4000
G1 X470.5092 Y1040.3901 Z10.0000 F9999
G1 X453.0963 Y1040.3901 Z10.0000 F9999
G1 X453.0963 Y1040.3901 Z-1.0000 F2500
G1 X453.0963 Y1081.4910 Z-1.0000 F4000
G1 X460.2523 Y1081.4910 Z-1.0000 F4000
G1 X464.1239 Y1080.8855 Z-1.0000 F4000
G1 X467.3349 Y1079.0690 Z-1.0000 F4000
G1 X469.5550 Y1075.9130 Z-1.0000 F4000
G1 X470.3991 Y1071.2708 Z-1.0000 F4000
G1 X469.2431 Y1066.5919 Z-1.0000 F4000
G1 X466.4725 Y1063.2708 Z-1.0000 F4000
G1 X463.1514 Y1061.3075 Z-1.0000 F4000
G1 X460.2523 Y1060.6470 Z-1.0000 F4000
G1 X453.0963 Y1060.6470 Z-1.0000 F4000
G1 X460.2523 Y1060.6470 Z-1.0000 F4000
G1 X463.1514 Y1061.3075 Z-1.0000 F4000
G1 X466.4725 Y1063.2708 Z-1.0000 F4000
G1 X469.2431 Y1066.5919 Z-1.0000 F4000
G1 X470.3991 Y1071.2708 Z-1.0000 F4000
G1 X469.5550 Y1075.9130 Z-1.0000 F4000
G1 X467.3349 Y1079.0690 Z-1.0000 F4000
G1 X464.1239 Y1080.8855 Z-1.0000 F4000
G1 X460.2523 Y1081.4910 Z-1.0000 F4000
G1 X453.0963 Y1081.4910 Z-1.0000 F4000
G1 X453.0963 Y1081.4910 Z10.0000 F9999
G1 X422.5642 Y1063.1974 Z10.0000 F9999
G1 X422.5642 Y1063.1974 Z-1.0000 F2500
G1 X437.0046 Y1063.1974 Z-1.0000 F4000
G1 X422.5642 Y1063.1974 Z-1.0000 F4000
G1 X422.5642 Y1081.4910 Z-1.0000 F4000
G1 X437.6835 Y1081.4910 Z-1.0000 F4000
G1 X422.5642 Y1081.4910 Z-1.0000 F4000
G1 X422.5642 Y1040.3901 Z-1.0000 F4000
G1 X422.5642 Y1040.3901 Z10.0000 F9999
G1 X383.5926 Y1391.0162 Z10.0000 F9999
G1 X383.5926 Y1391.0162 Z-1.0000 F2500
G1 X373.3818 Y1401.2271 Z-1.0000 F4000
G1 X383.5926 Y1391.0162 Z-1.0000 F4000
G1 X370.6571 Y1378.0807 Z-1.0000 F4000
G1 X359.9662 Y1388.7716 Z-1.0000 F4000
G1 X370.6571 Y1378.0807 Z-1.0000 F4000
G1 X399.7199 Y1407.1434 Z-1.0000 F4000
G1 X399.7199 Y1407.1434 Z10.0000 F9999
G1 X378.1304 Y1428.7329 Z10.0000 F9999
G1 X378.1304 Y1428.7329 Z-1.0000 F2500
G1 X349.0677 Y1399.6702 Z-1.0000 F4000
G1 X344.0076 Y1404.7302 Z-1.0000 F4000
G1 X341.6982 Y1407.8960 Z-1.0000 F4000
G1 X340.7121 Y1411.4510 Z-1.0000 F4000
G1 X341.3738 Y1415.2525 Z-1.0000 F4000
G1 X344.0595 Y1419.1318 Z-1.0000 F4000
G1 X348.1854 Y1421.6229 Z-1.0000 F4000
G1 X352.4929 Y1422.0122 Z-1.0000 F4000
G1 X356.2295 Y1421.0520 Z-1.0000 F4000
G1 X358.7466 Y1419.4692 Z-1.0000 F4000
G1 X363.8066 Y1414.4091 Z-1.0000 F4000
G1 X358.7466 Y1419.4692 Z-1.0000 F4000
G1 X356.2295 Y1421.0520 Z-1.0000 F4000
G1 X352.4929 Y1422.0122 Z-1.0000 F4000
G1 X348.1854 Y1421.6229 Z-1.0000 F4000
G1 X344.0595 Y1419.1318 Z-1.0000 F4000
G1 X341.3738 Y1415.2525 Z-1.0000 F4000
G1 X340.7121 Y1411.4510 Z-1.0000 F4000
G1 X341.6982 Y1407.8960 Z-1.0000 F4000
G1 X344.0076 Y1404.7302 Z-1.0000 F4000
G1 X349.0677 Y1399.6702 Z-1.0000 F4000
G1 X349.0677 Y1399.6702 Z10.0000 F9999
G1 X317.8771 Y1430.8607 Z10.0000 F9999
G1 X317.8771 Y1430.8607 Z-1.0000 F2500
G1 X335.5872 Y1471.2761 Z-1.0000 F4000
G1 X317.8771 Y1430.8607 Z-1.0000 F4000
G1 X358.2665 Y1448.5968 Z-1.0000 F4000
G1 X358.2665 Y1448.5968 Z10.0000 F9999
G1 X365.8177 Y1441.0456 Z10.0000 F9999
G1 X365.8177 Y1441.0456 Z-1.0000 F2500
G1 X360.9263 Y1417.4451 Z-1.0000 F4000
G1 X365.8177 Y1441.0456 Z-1.0000 F4000
G1 X365.8177 Y1441.0456 Z10.0000 F9999
G1 X329.2557 Y1456.8226 Z10.0000 F9999
G1 X329.2557 Y1456.8226 Z-1.0000 F2500
G1 X343.8909 Y1442.1874 Z-1.0000 F4000
G1 X329.2557 Y1456.8226 Z-1.0000 F4000
G1 X329.2557 Y1456.8226 Z10.0000 F9999
G1 X289.4242 Y1482.5638 Z10.0000 F9999
G1 X289.4242 Y1482.5638 Z-1.0000 F2500
G1 X310.1054 Y1461.8826 Z-1.0000 F4000
G1 X289.4242 Y1482.5638 Z-1.0000 F4000
G1 X289.4242 Y1482.5638 Z10.0000 F9999
G1 X258.9213 Y1489.8166 Z10.0000 F9999
G1 X258.9213 Y1489.8166 Z-1.0000 F2500
G1 X276.6314 Y1530.2319 Z-1.0000 F4000
G1 X258.9213 Y1489.8166 Z-1.0000 F4000
G1 X299.3107 Y1507.5526 Z-1.0000 F4000
G1 X299.3107 Y1507.5526 Z10.0000 F9999
G1 X270.2999 Y1515.7784 Z10.0000 F9999
G1 X270.2999 Y1515.7784 Z-1.0000 F2500
G1 X284.9350 Y1501.1432 Z-1.0000 F4000
G1 X270.2999 Y1515.7784 Z-1.0000 F4000
G1 X270.2999 Y1515.7784 Z10.0000 F9999
G1 X211.3959 Y1524.0561 Z10.0000 F9999
G1 X211.3959 Y1524.0561 Z-1.0000 F2500
G1 X270.2480 Y1539.9368 Z-1.0000 F4000
G1 X211.3959 Y1524.0561 Z-1.0000 F4000
G1 X211.3959 Y1524.0561 Z10.0000 F9999
G1 X236.1382 Y1570.7251 Z10.0000 F9999
G1 X236.1382 Y1570.7251 Z-1.0000 F2500
G1 X207.0754 Y1541.6624 Z-1.0000 F4000
G1 X202.0154 Y1546.7224 Z-1.0000 F4000
G1 X199.7059 Y1549.8882 Z-1.0000 F4000
G1 X198.7199 Y1553.4432 Z-1.0000 F4000
G1 X199.3816 Y1557.2447 Z-1.0000 F4000
G1 X202.0673 Y1561.1241 Z-1.0000 F4000
G1 X206.1932 Y1563.6151 Z-1.0000 F4000
G1 X210.5007 Y1564.0044 Z-1.0000 F4000
G1 X214.2373 Y1563.0443 Z-1.0000 F4000
G1 X216.7544 Y1561.4614 Z-1.0000 F4000
G1 X221.8144 Y1556.4014 Z-1.0000 F4000
G1 X216.7544 Y1561.4614 Z-1.0000 F4000
G1 X214.2373 Y1563.0443 Z-1.0000 F4000
G1 X210.5007 Y1564.0044 Z-1.0000 F4000
G1 X206.1932 Y1563.6151 Z-1.0000 F4000
G1 X202.0673 Y1561.1241 Z-1.0000 F4000
G1 X199.3816 Y1557.2447 Z-1.0000 F4000
G1 X198.7199 Y1553.4432 Z-1.0000 F4000
G1 X199.7059 Y1549.8882 Z-1.0000 F4000
G1 X202.0154 Y1546.7224 Z-1.0000 F4000
G1 X207.0754 Y1541.6624 Z-1.0000 F4000
G1 X207.0754 Y1541.6624 Z10.0000 F9999
G1 X223.8254 Y1583.0379 Z10.0000 F9999
G1 X223.8254 Y1583.0379 Z-1.0000 F2500
G1 X218.9341 Y1559.4374 Z-1.0000 F4000
G1 X223.8254 Y1583.0379 Z-1.0000 F4000
G1 X223.8254 Y1583.0379 Z10.0000 F9999
G1 X171.5125 Y1577.2253 Z10.0000 F9999
G1 X171.5125 Y1577.2253 Z-1.0000 F2500
G1 X210.8250 Y1585.1397 Z-1.0000 F4000
G1 X190.4552 Y1605.5096 Z-1.0000 F4000
G1 X210.8250 Y1585.1397 Z-1.0000 F4000
G1 X171.5125 Y1577.2253 Z-1.0000 F4000
G1 X200.5752 Y1606.2881 Z-1.0000 F4000
G1 X200.5752 Y1606.2881 Z10.0000 F9999
(Tool Number:1) (7.998 mm dia. slot drill)
M3 S9000
G1 X158.8992 Y31.8988 Z10.0000 F9999
G1 X158.8992 Y31.8988 Z1.0000 F2500
G1 X127.8988 Y31.8988 Z-7.3524 F2500
G1 X133.8988 Y31.9008 Z-8.9690 F2500
G1 X133.8988 Y33.8715 Z-9.5000 F2500
G1 X133.8988 Y31.9008 Z-10.0310 F2500
G1 X127.8988 Y31.8988 Z-11.6476 F2500
G1 X158.8992 Y31.8988 Z-20.0000 F2500
G1 X127.8988 Y31.8988 Z-20.0000 F4000
G1 X133.8988 Y31.9008 Z-20.0000 F4000
G1 X133.8988 Y47.9007 Z-20.0000 F4000
G1 X133.9008 Y41.9007 Z-20.0000 F4000
G1 X185.8986 Y41.9007 Z-20.0000 F4000
G1 X185.8986 Y47.9007 Z-20.0000 F4000
G1 X185.9006 Y31.9008 Z-20.0000 F4000
G1 X191.9006 Y31.9008 Z-20.0000 F4000
G1 X175.3999 Y31.8915 Z-20.0000 F4000
G1 X158.8992 Y31.8988 Z-20.0000 F4000
G1 X158.8992 Y31.8988 Z10.0000 F9999
G1 X160.9002 Y273.9002 Z10.0000 F9999
G1 X160.9002 Y273.9002 Z1.0000 F2500
G1 X191.9006 Y273.9002 Z-7.3524 F2500
G1 X185.9006 Y273.8982 Z-8.9690 F2500
G1 X185.9006 Y271.9275 Z-9.5000 F2500
G1 X185.9006 Y273.8982 Z-10.0310 F2500
G1 X191.9006 Y273.9002 Z-11.6476 F2500
G1 X160.9002 Y273.9002 Z-20.0000 F2500
G1 X191.9006 Y273.9002 Z-20.0000 F4000
G1 X185.9006 Y273.8982 Z-20.0000 F4000
G1 X185.9006 Y257.8983 Z-20.0000 F4000
G1 X185.8986 Y263.8983 Z-20.0000 F4000
G1 X133.9008 Y263.8983 Z-20.0000 F4000
G1 X133.9008 Y257.8983 Z-20.0000 F4000
G1 X133.8988 Y273.8982 Z-20.0000 F4000
G1 X127.8988 Y273.8982 Z-20.0000 F4000
G1 X144.3995 Y273.9075 Z-20.0000 F4000
G1 X160.9002 Y273.9002 Z-20.0000 F4000
G1 X160.9002 Y273.9002 Z10.0000 F9999
G1 X273.9005 Y466.9731 Z10.0000 F9999
G1 X273.9005 Y466.9731 Z1.0000 F2500
G1 X273.9005 Y435.9727 Z-7.3524 F2500
G1 X273.8985 Y441.9727 Z-8.9690 F2500
G1 X271.9277 Y441.9727 Z-9.5000 F2500
G1 X273.8985 Y441.9727 Z-10.0310 F2500
G1 X273.9005 Y435.9727 Z-11.6476 F2500
G1 X273.9005 Y466.9731 Z-20.0000 F2500
G1 X273.9005 Y435.9727 Z-20.0000 F4000
G1 X273.8985 Y441.9727 Z-20.0000 F4000
G1 X257.8985 Y441.9727 Z-20.0000 F4000
G1 X263.8985 Y441.9747 Z-20.0000 F4000
G1 X263.8985 Y493.9725 Z-20.0000 F4000
G1 X257.8985 Y493.9725 Z-20.0000 F4000
G1 X273.8985 Y493.9745 Z-20.0000 F4000
G1 X273.8985 Y499.9745 Z-20.0000 F4000
G1 X273.9077 Y483.4738 Z-20.0000 F4000
G1 X273.9005 Y466.9731 Z-20.0000 F4000
G1 X273.9005 Y466.9731 Z10.0000 F9999
G1 X31.8990 Y468.9741 Z10.0000 F9999
G1 X31.8990 Y468.9741 Z1.0000 F2500
G1 X31.8990 Y499.9745 Z-7.3524 F2500
G1 X31.9010 Y493.9745 Z-8.9690 F2500
G1 X33.8717 Y493.9745 Z-9.5000 F2500
G1 X31.9010 Y493.9745 Z-10.0310 F2500
G1 X31.8990 Y499.9745 Z-11.6476 F2500
G1 X31.8990 Y468.9741 Z-20.0000 F2500
G1 X31.8990 Y499.9745 Z-20.0000 F4000
G1 X31.9010 Y493.9745 Z-20.0000 F4000
G1 X47.9009 Y493.9745 Z-20.0000 F4000
G1 X41.9009 Y493.9725 Z-20.0000 F4000
G1 X41.9009 Y441.9747 Z-20.0000 F4000
G1 X47.9009 Y441.9747 Z-20.0000 F4000
G1 X31.9010 Y441.9727 Z-20.0000 F4000
G1 X31.9010 Y435.9727 Z-20.0000 F4000
G1 X31.8917 Y452.4734 Z-20.0000 F4000
G1 X31.8990 Y468.9741 Z-20.0000 F4000
G1 X31.8990 Y468.9741 Z10.0000 F9999
G1 X31.8990 Y768.9735 Z10.0000 F9999
G1 X31.8990 Y768.9735 Z1.0000 F2500
G1 X31.8990 Y799.9739 Z-7.3524 F2500
G1 X31.9010 Y793.9739 Z-8.9690 F2500
G1 X33.8717 Y793.9739 Z-9.5000 F2500
G1 X31.9010 Y793.9739 Z-10.0310 F2500
G1 X31.8990 Y799.9739 Z-11.6476 F2500
G1 X31.8990 Y768.9735 Z-20.0000 F2500
G1 X31.8990 Y799.9739 Z-20.0000 F4000
G1 X31.9010 Y793.9739 Z-20.0000 F4000
G1 X47.9009 Y793.9739 Z-20.0000 F4000
G1 X41.9009 Y793.9719 Z-20.0000 F4000
G1 X41.9009 Y741.9742 Z-20.0000 F4000
G1 X47.9009 Y741.9742 Z-20.0000 F4000
G1 X31.9010 Y741.9722 Z-20.0000 F4000
G1 X31.9010 Y735.9722 Z-20.0000 F4000
G1 X31.8917 Y752.4728 Z-20.0000 F4000
G1 X31.8990 Y768.9735 Z-20.0000 F4000
G1 X31.8990 Y768.9735 Z10.0000 F9999
G1 X152.8997 Y762.9720 Z10.0000 F9999
G1 X152.8997 Y762.9720 Z1.0000 F2500
G1 X122.9008 Y762.9720 Z-7.0826 F2500
G1 X122.9008 Y757.9719 Z-8.4298 F2500
G1 X120.8988 Y757.9719 Z-8.9692 F2500
G1 X120.8988 Y759.9420 Z-9.5000 F2500
G1 X120.8988 Y757.9719 Z-10.0308 F2500
G1 X122.9008 Y757.9719 Z-10.5702 F2500
G1 X122.9008 Y762.9720 Z-11.9174 F2500
G1 X152.8997 Y762.9720 Z-20.0000 F2500
G1 X122.9008 Y762.9720 Z-20.0000 F4000
G1 X122.9008 Y757.9719 Z-20.0000 F4000
G1 X120.8988 Y757.9719 Z-20.0000 F4000
G1 X120.8988 Y777.9740 Z-20.0000 F4000
G1 X122.9008 Y777.9740 Z-20.0000 F4000
G1 X122.9008 Y772.9739 Z-20.0000 F4000
G1 X182.8987 Y772.9739 Z-20.0000 F4000
G1 X182.8987 Y777.9740 Z-20.0000 F4000
G1 X184.9006 Y777.9740 Z-20.0000 F4000
G1 X184.9006 Y757.9719 Z-20.0000 F4000
G1 X182.8987 Y757.9719 Z-20.0000 F4000
G1 X182.8987 Y762.9720 Z-20.0000 F4000
G1 X152.8997 Y762.9720 Z-20.0000 F4000
G1 X152.8997 Y762.9720 Z10.0000 F9999
G1 X273.9005 Y766.9725 Z10.0000 F9999
G1 X273.9005 Y766.9725 Z1.0000 F2500
G1 X273.9005 Y735.9722 Z-7.3524 F2500
G1 X273.8985 Y741.9722 Z-8.9690 F2500
G1 X271.9277 Y741.9722 Z-9.5000 F2500
G1 X273.8985 Y741.9722 Z-10.0310 F2500
G1 X273.9005 Y735.9722 Z-11.6476 F2500
G1 X273.9005 Y766.9725 Z-20.0000 F2500
G1 X273.9005 Y735.9722 Z-20.0000 F4000
G1 X273.8985 Y741.9722 Z-20.0000 F4000
G1 X257.8985 Y741.9722 Z-20.0000 F4000
G1 X263.8985 Y741.9742 Z-20.0000 F4000
G1 X263.8985 Y793.9719 Z-20.0000 F4000
G1 X257.8985 Y793.9719 Z-20.0000 F4000
G1 X273.8985 Y793.9739 Z-20.0000 F4000
G1 X273.8985 Y799.9739 Z-20.0000 F4000
G1 X273.9077 Y783.4732 Z-20.0000 F4000
G1 X273.9005 Y766.9725 Z-20.0000 F4000
G1 X273.9005 Y766.9725 Z10.0000 F9999
G1 X451.8986 Y946.9717 Z10.0000 F9999
G1 X451.8986 Y946.9717 Z1.0000 F2500
G1 X420.8982 Y946.9717 Z-7.3524 F2500
G1 X426.8982 Y946.9737 Z-8.9690 F2500
G1 X426.8982 Y948.9445 Z-9.5000 F2500
G1 X426.8982 Y946.9737 Z-10.0310 F2500
G1 X420.8982 Y946.9717 Z-11.6476 F2500
G1 X451.8986 Y946.9717 Z-20.0000 F2500
G1 X420.8982 Y946.9717 Z-20.0000 F4000
G1 X426.8982 Y946.9737 Z-20.0000 F4000
G1 X426.8982 Y962.9737 Z-20.0000 F4000
G1 X426.9002 Y956.9737 Z-20.0000 F4000
G1 X478.8980 Y956.9737 Z-20.0000 F4000
G1 X478.8980 Y962.9737 Z-20.0000 F4000
G1 X478.9000 Y946.9737 Z-20.0000 F4000
G1 X484.9000 Y946.9737 Z-20.0000 F4000
G1 X468.3993 Y946.9644 Z-20.0000 F4000
G1 X451.8986 Y946.9717 Z-20.0000 F4000
G1 X451.8986 Y946.9717 Z10.0000 F9999
G1 X453.8996 Y1188.9732 Z10.0000 F9999
G1 X453.8996 Y1188.9732 Z1.0000 F2500
G1 X484.9000 Y1188.9732 Z-7.3524 F2500
G1 X478.9000 Y1188.9712 Z-8.9690 F2500
G1 X478.9000 Y1187.0004 Z-9.5000 F2500
G1 X478.9000 Y1188.9712 Z-10.0310 F2500
G1 X484.9000 Y1188.9732 Z-11.6476 F2500
G1 X453.8996 Y1188.9732 Z-20.0000 F2500
G1 X484.9000 Y1188.9732 Z-20.0000 F4000
G1 X478.9000 Y1188.9712 Z-20.0000 F4000
G1 X478.9000 Y1172.9712 Z-20.0000 F4000
G1 X478.8980 Y1178.9712 Z-20.0000 F4000
G1 X426.9002 Y1178.9712 Z-20.0000 F4000
G1 X426.9002 Y1172.9712 Z-20.0000 F4000
G1 X426.8982 Y1188.9712 Z-20.0000 F4000
G1 X420.8982 Y1188.9712 Z-20.0000 F4000
G1 X437.3989 Y1188.9804 Z-20.0000 F4000
G1 X453.8996 Y1188.9732 Z-20.0000 F4000
G1 X453.8996 Y1188.9732 Z10.0000 F9999
G1 X532.9051 Y1296.7307 Z10.0000 F9999
G1 X532.9051 Y1296.7307 Z1.0000 F2500
G1 X500.1809 Y1300.9988 Z-7.8916 F2500
G1 X506.1008 Y1300.2285 Z-9.5000 F2500
G1 X500.1809 Y1300.9988 Z-11.1084 F2500
G1 X532.9051 Y1296.7307 Z-20.0000 F2500
G1 X500.1809 Y1300.9988 Z-20.0000 F4000
G1 X506.1307 Y1300.2246 Z-20.0000 F4000
G1 X508.2005 Y1316.0901 Z-20.0000 F4000
G1 X507.4263 Y1310.1403 Z-20.0000 F4000
G1 X558.9872 Y1303.4139 Z-20.0000 F4000
G1 X559.7633 Y1309.3635 Z-20.0000 F4000
G1 X557.6956 Y1293.4977 Z-20.0000 F4000
G1 X563.6452 Y1292.7216 Z-20.0000 F4000
G1 X532.9051 Y1296.7307 Z-20.0000 F4000
G1 X532.9051 Y1296.7307 Z10.0000 F9999
G1 X562.2258 Y1536.9558 Z10.0000 F9999
G1 X562.2258 Y1536.9558 Z1.0000 F2500
G1 X594.9500 Y1532.6877 Z-7.8916 F2500
G1 X589.0301 Y1533.4580 Z-9.5000 F2500
G1 X594.9500 Y1532.6877 Z-11.1084 F2500
G1 X562.2258 Y1536.9558 Z-20.0000 F2500
G1 X594.9500 Y1532.6877 Z-20.0000 F4000
G1 X589.0001 Y1533.4619 Z-20.0000 F4000
G1 X586.9304 Y1517.5964 Z-20.0000 F4000
G1 X587.7046 Y1523.5462 Z-20.0000 F4000
G1 X536.1437 Y1530.2726 Z-20.0000 F4000
G1 X535.3676 Y1524.3230 Z-20.0000 F4000
G1 X537.4353 Y1540.1888 Z-20.0000 F4000
G1 X531.4857 Y1540.9650 Z-20.0000 F4000
G1 X562.2258 Y1536.9558 Z-20.0000 F4000
G1 X562.2258 Y1536.9558 Z10.0000 F9999
G1 X859.7056 Y1498.1545 Z10.0000 F9999
G1 X859.7056 Y1498.1545 Z1.0000 F2500
G1 X892.4298 Y1493.8864 Z-7.8916 F2500
G1 X886.5100 Y1494.6567 Z-9.5000 F2500
G1 X892.4298 Y1493.8864 Z-11.1084 F2500
G1 X859.7056 Y1498.1545 Z-20.0000 F2500
G1 X892.4298 Y1493.8864 Z-20.0000 F4000
G1 X886.4800 Y1494.6606 Z-20.0000 F4000
G1 X884.4102 Y1478.7951 Z-20.0000 F4000
G1 X885.1844 Y1484.7449 Z-20.0000 F4000
G1 X833.6235 Y1491.4713 Z-20.0000 F4000
G1 X832.8474 Y1485.5217 Z-20.0000 F4000
G1 X834.9151 Y1501.3875 Z-20.0000 F4000
G1 X828.9656 Y1502.1637 Z-20.0000 F4000
G1 X859.7056 Y1498.1545 Z-20.0000 F4000
G1 X859.7056 Y1498.1545 Z10.0000 F9999
G1 X830.3850 Y1257.9294 Z10.0000 F9999
G1 X830.3850 Y1257.9294 Z1.0000 F2500
G1 X797.6607 Y1262.1975 Z-7.8916 F2500
G1 X803.5806 Y1261.4272 Z-9.5000 F2500
G1 X797.6607 Y1262.1975 Z-11.1084 F2500
G1 X830.3850 Y1257.9294 Z-20.0000 F2500
G1 X797.6607 Y1262.1975 Z-20.0000 F4000
G1 X803.6106 Y1261.4233 Z-20.0000 F4000
G1 X805.6803 Y1277.2888 Z-20.0000 F4000
G1 X804.9061 Y1271.3390 Z-20.0000 F4000
G1 X856.4670 Y1264.6126 Z-20.0000 F4000
G1 X857.2432 Y1270.5622 Z-20.0000 F4000
G1 X855.1754 Y1254.6964 Z-20.0000 F4000
G1 X861.1250 Y1253.9202 Z-20.0000 F4000
G1 X830.3850 Y1257.9294 Z-20.0000 F4000
G1 X830.3850 Y1257.9294 Z10.0000 F9999
G1 X753.8990 Y1188.9732 Z10.0000 F9999
G1 X753.8990 Y1188.9732 Z1.0000 F2500
G1 X784.8994 Y1188.9732 Z-7.3524 F2500
G1 X778.8994 Y1188.9712 Z-8.9690 F2500
G1 X778.8994 Y1187.0004 Z-9.5000 F2500
G1 X778.8994 Y1188.9712 Z-10.0310 F2500
G1 X784.8994 Y1188.9732 Z-11.6476 F2500
G1 X753.8990 Y1188.9732 Z-20.0000 F2500
G1 X784.8994 Y1188.9732 Z-20.0000 F4000
G1 X778.8994 Y1188.9712 Z-20.0000 F4000
G1 X778.8994 Y1172.9712 Z-20.0000 F4000
G1 X778.8974 Y1178.9712 Z-20.0000 F4000
G1 X726.8996 Y1178.9712 Z-20.0000 F4000
G1 X726.8996 Y1172.9712 Z-20.0000 F4000
G1 X726.8976 Y1188.9712 Z-20.0000 F4000
G1 X720.8976 Y1188.9712 Z-20.0000 F4000
G1 X737.3983 Y1188.9804 Z-20.0000 F4000
G1 X753.8990 Y1188.9732 Z-20.0000 F4000
G1 X753.8990 Y1188.9732 Z10.0000 F9999
G1 X751.8980 Y946.9717 Z10.0000 F9999
G1 X751.8980 Y946.9717 Z1.0000 F2500
G1 X720.8976 Y946.9717 Z-7.3524 F2500
G1 X726.8976 Y946.9737 Z-8.9690 F2500
G1 X726.8976 Y948.9445 Z-9.5000 F2500
G1 X726.8976 Y946.9737 Z-10.0310 F2500
G1 X720.8976 Y946.9717 Z-11.6476 F2500
G1 X751.8980 Y946.9717 Z-20.0000 F2500
G1 X720.8976 Y946.9717 Z-20.0000 F4000
G1 X726.8976 Y946.9737 Z-20.0000 F4000
G1 X726.8976 Y962.9737 Z-20.0000 F4000
G1 X726.8996 Y956.9737 Z-20.0000 F4000
G1 X778.8974 Y956.9737 Z-20.0000 F4000
G1 X778.8974 Y962.9737 Z-20.0000 F4000
G1 X778.8994 Y946.9737 Z-20.0000 F4000
G1 X784.8994 Y946.9737 Z-20.0000 F4000
G1 X768.3987 Y946.9644 Z-20.0000 F4000
G1 X751.8980 Y946.9717 Z-20.0000 F4000
G1 X751.8980 Y946.9717 Z10.0000 F9999
G1 X638.8977 Y753.8989 Z10.0000 F9999
G1 X638.8977 Y753.8989 Z1.0000 F2500
G1 X638.8977 Y784.8992 Z-7.3524 F2500
G1 X638.8997 Y778.8992 Z-8.9690 F2500
G1 X640.8705 Y778.8992 Z-9.5000 F2500
G1 X638.8997 Y778.8992 Z-10.0310 F2500
G1 X638.8977 Y784.8992 Z-11.6476 F2500
G1 X638.8977 Y753.8989 Z-20.0000 F2500
G1 X638.8977 Y784.8992 Z-20.0000 F4000
G1 X638.8997 Y778.8992 Z-20.0000 F4000
G1 X654.8997 Y778.8992 Z-20.0000 F4000
G1 X648.8997 Y778.8972 Z-20.0000 F4000
G1 X648.8997 Y726.8995 Z-20.0000 F4000
G1 X654.8997 Y726.8995 Z-20.0000 F4000
G1 X638.8997 Y726.8975 Z-20.0000 F4000
G1 X638.8997 Y720.8975 Z-20.0000 F4000
G1 X638.8905 Y737.3982 Z-20.0000 F4000
G1 X638.8977 Y753.8989 Z-20.0000 F4000
G1 X638.8977 Y753.8989 Z10.0000 F9999
G1 X880.8992 Y751.8979 Z10.0000 F9999
G1 X880.8992 Y751.8979 Z1.0000 F2500
G1 X880.8992 Y720.8975 Z-7.3524 F2500
G1 X880.8972 Y726.8975 Z-8.9690 F2500
G1 X878.9264 Y726.8975 Z-9.5000 F2500
G1 X880.8972 Y726.8975 Z-10.0310 F2500
G1 X880.8992 Y720.8975 Z-11.6476 F2500
G1 X880.8992 Y751.8979 Z-20.0000 F2500
G1 X880.8992 Y720.8975 Z-20.0000 F4000
G1 X880.8972 Y726.8975 Z-20.0000 F4000
G1 X864.8972 Y726.8975 Z-20.0000 F4000
G1 X870.8972 Y726.8995 Z-20.0000 F4000
G1 X870.8972 Y778.8972 Z-20.0000 F4000
G1 X864.8972 Y778.8972 Z-20.0000 F4000
G1 X880.8972 Y778.8992 Z-20.0000 F4000
G1 X880.8972 Y784.8992 Z-20.0000 F4000
G1 X880.9065 Y768.3985 Z-20.0000 F4000
G1 X880.8992 Y751.8979 Z-20.0000 F4000
G1 X880.8992 Y751.8979 Z10.0000 F9999
G1 X880.8992 Y451.8984 Z10.0000 F9999
G1 X880.8992 Y451.8984 Z1.0000 F2500
G1 X880.8992 Y420.8980 Z-7.3524 F2500
G1 X880.8972 Y426.8980 Z-8.9690 F2500
G1 X878.9264 Y426.8980 Z-9.5000 F2500
G1 X880.8972 Y426.8980 Z-10.0310 F2500
G1 X880.8992 Y420.8980 Z-11.6476 F2500
G1 X880.8992 Y451.8984 Z-20.0000 F2500
G1 X880.8992 Y420.8980 Z-20.0000 F4000
G1 X880.8972 Y426.8980 Z-20.0000 F4000
G1 X864.8972 Y426.8980 Z-20.0000 F4000
G1 X870.8972 Y426.9000 Z-20.0000 F4000
G1 X870.8972 Y478.8978 Z-20.0000 F4000
G1 X864.8972 Y478.8978 Z-20.0000 F4000
G1 X880.8972 Y478.8998 Z-20.0000 F4000
G1 X880.8972 Y484.8998 Z-20.0000 F4000
G1 X880.9065 Y468.3991 Z-20.0000 F4000
G1 X880.8992 Y451.8984 Z-20.0000 F4000
G1 X880.8992 Y451.8984 Z10.0000 F9999
G1 X759.8985 Y457.8999 Z10.0000 F9999
G1 X759.8985 Y457.8999 Z1.0000 F2500
G1 X789.8974 Y457.8999 Z-7.0826 F2500
G1 X789.8974 Y462.9000 Z-8.4298 F2500
G1 X791.8994 Y462.9000 Z-8.9692 F2500
G1 X791.8994 Y460.9299 Z-9.5000 F2500
G1 X791.8994 Y462.9000 Z-10.0308 F2500
G1 X789.8974 Y462.9000 Z-10.5702 F2500
G1 X789.8974 Y457.8999 Z-11.9174 F2500
G1 X759.8985 Y457.8999 Z-20.0000 F2500
G1 X789.8974 Y457.8999 Z-20.0000 F4000
G1 X789.8974 Y462.9000 Z-20.0000 F4000
G1 X791.8994 Y462.9000 Z-20.0000 F4000
G1 X791.8994 Y442.8979 Z-20.0000 F4000
G1 X789.8974 Y442.8979 Z-20.0000 F4000
G1 X789.8974 Y447.8980 Z-20.0000 F4000
G1 X729.8995 Y447.8980 Z-20.0000 F4000
G1 X729.8995 Y442.8979 Z-20.0000 F4000
G1 X727.8975 Y442.8979 Z-20.0000 F4000
G1 X727.8975 Y462.9000 Z-20.0000 F4000
G1 X729.8995 Y462.9000 Z-20.0000 F4000
G1 X729.8995 Y457.8999 Z-20.0000 F4000
G1 X759.8985 Y457.8999 Z-20.0000 F4000
G1 X759.8985 Y457.8999 Z10.0000 F9999
G1 X638.8977 Y453.8994 Z10.0000 F9999
G1 X638.8977 Y453.8994 Z1.0000 F2500
G1 X638.8977 Y484.8998 Z-7.3524 F2500
G1 X638.8997 Y478.8998 Z-8.9690 F2500
G1 X640.8705 Y478.8998 Z-9.5000 F2500
G1 X638.8997 Y478.8998 Z-10.0310 F2500
G1 X638.8977 Y484.8998 Z-11.6476 F2500
G1 X638.8977 Y453.8994 Z-20.0000 F2500
G1 X638.8977 Y484.8998 Z-20.0000 F4000
G1 X638.8997 Y478.8998 Z-20.0000 F4000
G1 X654.8997 Y478.8998 Z-20.0000 F4000
G1 X648.8997 Y478.8978 Z-20.0000 F4000
G1 X648.8997 Y426.9000 Z-20.0000 F4000
G1 X654.8997 Y426.9000 Z-20.0000 F4000
G1 X638.8997 Y426.8980 Z-20.0000 F4000
G1 X638.8997 Y420.8980 Z-20.0000 F4000
G1 X638.8905 Y437.3987 Z-20.0000 F4000
G1 X638.8977 Y453.8994 Z-20.0000 F4000
G1 X638.8977 Y453.8994 Z10.0000 F9999
G1 X460.8996 Y273.9002 Z10.0000 F9999
G1 X460.8996 Y273.9002 Z1.0000 F2500
G1 X491.9000 Y273.9002 Z-7.3524 F2500
G1 X485.9000 Y273.8982 Z-8.9690 F2500
G1 X485.9000 Y271.9275 Z-9.5000 F2500
G1 X485.9000 Y273.8982 Z-10.0310 F2500
G1 X491.9000 Y273.9002 Z-11.6476 F2500
G1 X460.8996 Y273.9002 Z-20.0000 F2500
G1 X491.9000 Y273.9002 Z-20.0000 F4000
G1 X485.9000 Y273.8982 Z-20.0000 F4000
G1 X485.9000 Y257.8983 Z-20.0000 F4000
G1 X485.8980 Y263.8983 Z-20.0000 F4000
G1 X433.9002 Y263.8983 Z-20.0000 F4000
G1 X433.9002 Y257.8983 Z-20.0000 F4000
G1 X433.8982 Y273.8982 Z-20.0000 F4000
G1 X427.8982 Y273.8982 Z-20.0000 F4000
G1 X444.3989 Y273.9075 Z-20.0000 F4000
G1 X460.8996 Y273.9002 Z-20.0000 F4000
G1 X460.8996 Y273.9002 Z10.0000 F9999
G1 X458.8986 Y31.8988 Z10.0000 F9999
G1 X458.8986 Y31.8988 Z1.0000 F2500
G1 X427.8982 Y31.8988 Z-7.3524 F2500
G1 X433.8982 Y31.9008 Z-8.9690 F2500
G1 X433.8982 Y33.8715 Z-9.5000 F2500
G1 X433.8982 Y31.9008 Z-10.0310 F2500
G1 X427.8982 Y31.8988 Z-11.6476 F2500
G1 X458.8986 Y31.8988 Z-20.0000 F2500
G1 X427.8982 Y31.8988 Z-20.0000 F4000
G1 X433.8982 Y31.9008 Z-20.0000 F4000
G1 X433.8982 Y47.9007 Z-20.0000 F4000
G1 X433.9002 Y41.9007 Z-20.0000 F4000
G1 X485.8980 Y41.9007 Z-20.0000 F4000
G1 X485.8980 Y47.9007 Z-20.0000 F4000
G1 X485.9000 Y31.9008 Z-20.0000 F4000
G1 X491.9000 Y31.9008 Z-20.0000 F4000
G1 X475.3993 Y31.8915 Z-20.0000 F4000
G1 X458.8986 Y31.8988 Z-20.0000 F4000
G1 X458.8986 Y31.8988 Z10.0000 F9999
G1 X680.3986 Y147.8985 Z10.0000 F9999
G1 X680.3986 Y147.8985 Z1.0000 F2500
G1 X641.4275 Y147.8985 Z-9.5000 F2500
G1 X680.3986 Y147.8985 Z-20.0000 F2500
G1 X605.8998 Y147.8985 Z-20.0000 F4000
G1 X605.8998 Y141.8985 Z-20.0000 F4000
G1 X605.8978 Y163.9006 Z-20.0000 F4000
G1 X605.8998 Y157.9006 Z-20.0000 F4000
G1 X754.8975 Y157.9006 Z-20.0000 F4000
G1 X754.8975 Y182.8985 Z-20.0000 F4000
G1 X749.8975 Y182.8985 Z-20.0000 F4000
G1 X749.8975 Y184.9005 Z-20.0000 F4000
G1 X769.8994 Y184.9005 Z-20.0000 F4000
G1 X769.8994 Y182.8985 Z-20.0000 F4000
G1 X764.8994 Y182.8985 Z-20.0000 F4000
G1 X764.8994 Y157.9006 Z-20.0000 F4000
G1 X823.8973 Y157.9006 Z-20.0000 F4000
G1 X823.8973 Y162.9005 Z-20.0000 F4000
G1 X825.8993 Y162.9005 Z-20.0000 F4000
G1 X825.8993 Y142.8986 Z-20.0000 F4000
G1 X823.8973 Y142.8986 Z-20.0000 F4000
G1 X823.8973 Y147.8985 Z-20.0000 F4000
G1 X764.8994 Y147.8985 Z-20.0000 F4000
G1 X764.8994 Y122.9006 Z-20.0000 F4000
G1 X769.8994 Y122.9006 Z-20.0000 F4000
G1 X769.8994 Y120.8986 Z-20.0000 F4000
G1 X749.8975 Y120.8986 Z-20.0000 F4000
G1 X749.8975 Y122.9006 Z-20.0000 F4000
G1 X754.8975 Y122.9006 Z-20.0000 F4000
G1 X754.8975 Y147.8985 Z-20.0000 F4000
G1 X680.3986 Y147.8985 Z-20.0000 F4000
G1 X680.3986 Y147.8985 Z10.0000 F9999
G1 X758.8980 Y31.8988 Z10.0000 F9999
G1 X758.8980 Y31.8988 Z1.0000 F2500
G1 X727.8976 Y31.8988 Z-7.3524 F2500
G1 X733.8976 Y31.9008 Z-8.9690 F2500
G1 X733.8976 Y33.8715 Z-9.5000 F2500
G1 X733.8976 Y31.9008 Z-10.0310 F2500
G1 X727.8976 Y31.8988 Z-11.6476 F2500
G1 X758.8980 Y31.8988 Z-20.0000 F2500
G1 X727.8976 Y31.8988 Z-20.0000 F4000
G1 X733.8976 Y31.9008 Z-20.0000 F4000
G1 X733.8976 Y47.9007 Z-20.0000 F4000
G1 X733.8996 Y41.9007 Z-20.0000 F4000
G1 X785.8973 Y41.9007 Z-20.0000 F4000
G1 X785.8973 Y47.9007 Z-20.0000 F4000
G1 X785.8993 Y31.9008 Z-20.0000 F4000
G1 X791.8993 Y31.9008 Z-20.0000 F4000
G1 X775.3986 Y31.8915 Z-20.0000 F4000
G1 X758.8980 Y31.8988 Z-20.0000 F4000
G1 X758.8980 Y31.8988 Z10.0000 F9999
G1 X232.3995 Y1072.9734 Z10.0000 F9999
G1 X232.3995 Y1072.9734 Z1.0000 F2500
G1 X271.3707 Y1072.9734 Z-9.5000 F2500
G1 X232.3995 Y1072.9734 Z-20.0000 F2500
G1 X306.8984 Y1072.9734 Z-20.0000 F4000
G1 X306.8984 Y1078.9734 Z-20.0000 F4000
G1 X306.9004 Y1056.9713 Z-20.0000 F4000
G1 X306.8984 Y1062.9713 Z-20.0000 F4000
G1 X157.9007 Y1062.9713 Z-20.0000 F4000
G1 X157.9007 Y1037.9734 Z-20.0000 F4000
G1 X162.9007 Y1037.9734 Z-20.0000 F4000
G1 X162.9007 Y1035.9714 Z-20.0000 F4000
G1 X142.8987 Y1035.9714 Z-20.0000 F4000
G1 X142.8987 Y1037.9734 Z-20.0000 F4000
G1 X147.8987 Y1037.9734 Z-20.0000 F4000
G1 X147.8987 Y1062.9713 Z-20.0000 F4000
G1 X88.9008 Y1062.9713 Z-20.0000 F4000
G1 X88.9008 Y1057.9714 Z-20.0000 F4000
G1 X86.8989 Y1057.9714 Z-20.0000 F4000
G1 X86.8989 Y1077.9733 Z-20.0000 F4000
G1 X88.9008 Y1077.9733 Z-20.0000 F4000
G1 X88.9008 Y1072.9734 Z-20.0000 F4000
G1 X147.8987 Y1072.9734 Z-20.0000 F4000
G1 X147.8987 Y1097.9713 Z-20.0000 F4000
G1 X142.8987 Y1097.9713 Z-20.0000 F4000
G1 X142.8987 Y1099.9733 Z-20.0000 F4000
G1 X162.9007 Y1099.9733 Z-20.0000 F4000
G1 X162.9007 Y1097.9713 Z-20.0000 F4000
G1 X157.9007 Y1097.9713 Z-20.0000 F4000
G1 X157.9007 Y1072.9734 Z-20.0000 F4000
G1 X232.3995 Y1072.9734 Z-20.0000 F4000
G1 X232.3995 Y1072.9734 Z10.0000 F9999
G1 X153.9002 Y1188.9732 Z10.0000 F9999
G1 X153.9002 Y1188.9732 Z1.0000 F2500
G1 X184.9006 Y1188.9732 Z-7.3524 F2500
G1 X178.9006 Y1188.9712 Z-8.9690 F2500
G1 X178.9006 Y1187.0004 Z-9.5000 F2500
G1 X178.9006 Y1188.9712 Z-10.0310 F2500
G1 X184.9006 Y1188.9732 Z-11.6476 F2500
G1 X153.9002 Y1188.9732 Z-20.0000 F2500
G1 X184.9006 Y1188.9732 Z-20.0000 F4000
G1 X178.9006 Y1188.9712 Z-20.0000 F4000
G1 X178.9006 Y1172.9712 Z-20.0000 F4000
G1 X178.8986 Y1178.9712 Z-20.0000 F4000
G1 X126.9008 Y1178.9712 Z-20.0000 F4000
G1 X126.9008 Y1172.9712 Z-20.0000 F4000
G1 X126.8988 Y1188.9712 Z-20.0000 F4000
G1 X120.8988 Y1188.9712 Z-20.0000 F4000
G1 X137.3995 Y1188.9804 Z-20.0000 F4000
G1 X153.9002 Y1188.9732 Z-20.0000 F4000
G1 X153.9002 Y1188.9732 Z10.0000 F9999
G1 X91.4328 Y1736.4815 Z10.0000 F9999
G1 X91.4328 Y1736.4815 Z1.0000 F2500
G1 X87.1633 Y1769.2055 Z-7.8916 F2500
G1 X87.9375 Y1763.2862 Z-9.5000 F2500
G1 X87.1633 Y1769.2055 Z-11.1084 F2500
G1 X91.4328 Y1736.4815 Z-20.0000 F2500
G1 X87.1633 Y1769.2055 Z-20.0000 F4000
G1 X87.9414 Y1763.2562 Z-20.0000 F4000
G1 X103.8070 Y1765.3257 Z-20.0000 F4000
G1 X97.8576 Y1764.5476 Z-20.0000 F4000
G1 X104.5831 Y1712.9866 Z-20.0000 F4000
G1 X110.5327 Y1713.7627 Z-20.0000 F4000
G1 X94.6674 Y1711.6913 Z-20.0000 F4000
G1 X95.4434 Y1705.7417 Z-20.0000 F4000
G1 X91.4328 Y1736.4815 Z-20.0000 F4000
G1 X91.4328 Y1736.4815 Z10.0000 F9999
G1 X331.1407 Y1769.7662 Z10.0000 F9999
G1 X331.1407 Y1769.7662 Z1.0000 F2500
G1 X335.4102 Y1737.0422 Z-7.8916 F2500
G1 X334.6360 Y1742.9616 Z-9.5000 F2500
G1 X335.4102 Y1737.0422 Z-11.1084 F2500
G1 X331.1407 Y1769.7662 Z-20.0000 F2500
G1 X335.4102 Y1737.0422 Z-20.0000 F4000
G1 X334.6321 Y1742.9915 Z-20.0000 F4000
G1 X318.7665 Y1740.9221 Z-20.0000 F4000
G1 X324.7159 Y1741.7001 Z-20.0000 F4000
G1 X317.9904 Y1793.2611 Z-20.0000 F4000
G1 X312.0408 Y1792.4851 Z-20.0000 F4000
G1 X327.9061 Y1794.5565 Z-20.0000 F4000
G1 X327.1301 Y1800.5061 Z-20.0000 F4000
G1 X331.1407 Y1769.7662 Z-20.0000 F4000
G1 X331.1407 Y1769.7662 Z10.0000 F9999
G1 X292.3394 Y2067.2461 Z10.0000 F9999
G1 X292.3394 Y2067.2461 Z1.0000 F2500
G1 X296.6088 Y2034.5221 Z-7.8916 F2500
G1 X295.8347 Y2040.4414 Z-9.5000 F2500
G1 X296.6088 Y2034.5221 Z-11.1084 F2500
G1 X292.3394 Y2067.2461 Z-20.0000 F2500
G1 X296.6088 Y2034.5221 Z-20.0000 F4000
G1 X295.8308 Y2040.4714 Z-20.0000 F4000
G1 X279.9652 Y2038.4019 Z-20.0000 F4000
G1 X285.9146 Y2039.1800 Z-20.0000 F4000
G1 X279.1891 Y2090.7410 Z-20.0000 F4000
G1 X273.2395 Y2089.9649 Z-20.0000 F4000
G1 X289.1048 Y2092.0363 Z-20.0000 F4000
G1 X288.3288 Y2097.9860 Z-20.0000 F4000
G1 X292.3394 Y2067.2461 Z-20.0000 F4000
G1 X292.3394 Y2067.2461 Z10.0000 F9999
G1 X52.6314 Y2033.9614 Z10.0000 F9999
G1 X52.6314 Y2033.9614 Z1.0000 F2500
G1 X48.3620 Y2066.6854 Z-7.8916 F2500
G1 X49.1361 Y2060.7660 Z-9.5000 F2500
G1 X48.3620 Y2066.6854 Z-11.1084 F2500
G1 X52.6314 Y2033.9614 Z-20.0000 F2500
G1 X48.3620 Y2066.6854 Z-20.0000 F4000
G1 X49.1400 Y2060.7361 Z-20.0000 F4000
G1 X65.0056 Y2062.8055 Z-20.0000 F4000
G1 X59.0563 Y2062.0275 Z-20.0000 F4000
G1 X65.7817 Y2010.4665 Z-20.0000 F4000
G1 X71.7313 Y2011.2425 Z-20.0000 F4000
G1 X55.8660 Y2009.1711 Z-20.0000 F4000
G1 X56.6421 Y2003.2215 Z-20.0000 F4000
G1 X52.6314 Y2033.9614 Z-20.0000 F4000
G1 X52.6314 Y2033.9614 Z10.0000 F9999
(Tool Number:1) (7.998 mm dia. slot drill)
M3 S9000
G1 X920.9012 Y534.8989 Z10.0000 F9999
G1 X920.9012 Y534.8989 Z1.0000 F2500
G1 X920.9012 Y495.9278 Z-9.5000 F2500
G1 X920.9012 Y534.8989 Z-20.0000 F2500
G1 X920.9014 Y5.9010 Z-20.0000 F4000
G1 X1178.8989 Y5.9011 Z-20.0000 F4000
G1 X1178.8984 Y1063.8969 Z-20.0000 F4000
G1 X1155.9552 Y1063.8969 Z-20.0000 F4000
G1 X1155.9552 Y1063.8969 Z-10.0000 F9999
G1 X1139.9572 Y1063.8969 Z-10.0000 F4000
G1 X1139.9572 Y1063.8969 Z-20.0000 F2500
G1 X965.2762 Y1063.8969 Z-20.0000 F4000
G1 X965.2762 Y1063.8969 Z-10.0000 F9999
G1 X949.2782 Y1063.8969 Z-10.0000 F4000
G1 X949.2782 Y1063.8969 Z-20.0000 F2500
G1 X920.9010 Y1063.8969 Z-20.0000 F4000
G1 X920.9012 Y534.8989 Z-20.0000 F4000
G1 X920.9012 Y534.8989 Z10.0000 F9999
G1 X114.9905 Y1494.0336 Z10.0000 F9999
G1 X114.9905 Y1494.0336 Z1.0000 F2500
G1 X120.0310 Y1455.3898 Z-9.5000 F2500
G1 X114.9905 Y1494.0336 Z-20.0000 F2500
G1 X134.1922 Y1346.8209 Z-20.0000 F4000
G1 X167.5107 Y1380.1393 Z-20.0000 F4000
G1 X163.9751 Y1383.6749 Z-20.0000 F4000
G1 X165.3908 Y1385.0905 Z-20.0000 F4000
G1 X179.5343 Y1370.9470 Z-20.0000 F4000
G1 X178.1186 Y1369.5314 Z-20.0000 F4000
G1 X174.5831 Y1373.0669 Z-20.0000 F4000
G1 X141.2646 Y1339.7484 Z-20.0000 F4000
G1 X435.6901 Y1301.3451 Z-20.0000 F4000
G1 X436.3361 Y1306.3021 Z-20.0000 F4000
G1 X438.3203 Y1306.0432 Z-20.0000 F4000
G1 X435.3461 Y1283.2367 Z-20.0000 F4000
G1 X621.7650 Y1258.9217 Z-20.0000 F4000
G1 X624.7391 Y1281.7283 Z-20.0000 F4000
G1 X626.7242 Y1281.4696 Z-20.0000 F4000
G1 X626.0760 Y1276.5106 Z-20.0000 F4000
G1 X733.1696 Y1262.5437 Z-20.0000 F4000
G1 X733.8158 Y1267.5006 Z-20.0000 F4000
G1 X735.7999 Y1267.2416 Z-20.0000 F4000
G1 X732.8256 Y1244.4350 Z-20.0000 F4000
G1 X884.9495 Y1224.5931 Z-20.0000 F4000
G1 X884.9495 Y1224.5931 Z-10.0000 F9999
G1 X900.8131 Y1222.5239 Z-10.0000 F4000
G1 X900.8131 Y1222.5239 Z-20.0000 F2500
G1 X919.2446 Y1220.1199 Z-20.0000 F4000
G1 X922.2189 Y1242.9266 Z-20.0000 F4000
G1 X924.2041 Y1242.6679 Z-20.0000 F4000
G1 X923.5564 Y1237.7091 Z-20.0000 F4000
G1 X981.0676 Y1230.2077 Z-20.0000 F4000
G1 X1014.4366 Y1486.0377 Z-20.0000 F4000
G1 X956.9262 Y1493.5396 Z-20.0000 F4000
G1 X956.2797 Y1488.5816 Z-20.0000 F4000
G1 X954.2941 Y1488.8404 Z-20.0000 F4000
G1 X957.2701 Y1511.6481 Z-20.0000 F4000
G1 X941.5680 Y1513.6962 Z-20.0000 F4000
G1 X941.5680 Y1513.6962 Z-10.0000 F9999
G1 X925.7044 Y1515.7653 Z-10.0000 F4000
G1 X925.7044 Y1515.7653 Z-20.0000 F2500
G1 X770.8509 Y1535.9632 Z-20.0000 F4000
G1 X767.8766 Y1513.1564 Z-20.0000 F4000
G1 X765.8900 Y1513.4152 Z-20.0000 F4000
G1 X766.5360 Y1518.3722 Z-20.0000 F4000
G1 X659.4460 Y1532.3411 Z-20.0000 F4000
G1 X658.8000 Y1527.3840 Z-20.0000 F4000
G1 X656.8158 Y1527.6430 Z-20.0000 F4000
G1 X659.7900 Y1550.4494 Z-20.0000 F4000
G1 X473.3711 Y1574.7645 Z-20.0000 F4000
G1 X470.3968 Y1551.9579 Z-20.0000 F4000
G1 X468.4117 Y1552.2166 Z-20.0000 F4000
G1 X469.0596 Y1557.1755 Z-20.0000 F4000
G1 X365.1692 Y1570.7254 Z-20.0000 F4000
G1 X351.6192 Y1674.6158 Z-20.0000 F4000
G1 X346.6604 Y1673.9680 Z-20.0000 F4000
G1 X346.4017 Y1675.9530 Z-20.0000 F4000
G1 X369.2082 Y1678.9273 Z-20.0000 F4000
G1 X344.8932 Y1865.3462 Z-20.0000 F4000
G1 X322.0867 Y1862.3720 Z-20.0000 F4000
G1 X321.8278 Y1864.3562 Z-20.0000 F4000
G1 X326.7848 Y1865.0022 Z-20.0000 F4000
G1 X312.8160 Y1972.0922 Z-20.0000 F4000
G1 X307.8590 Y1971.4463 Z-20.0000 F4000
G1 X307.6002 Y1973.4328 Z-20.0000 F4000
G1 X330.4069 Y1976.4071 Z-20.0000 F4000
G1 X306.0919 Y2162.8263 Z-20.0000 F4000
G1 X283.2841 Y2159.8503 Z-20.0000 F4000
G1 X283.0253 Y2161.8360 Z-20.0000 F4000
G1 X287.9834 Y2162.4824 Z-20.0000 F4000
G1 X280.4815 Y2219.9929 Z-20.0000 F4000
G1 X24.6515 Y2186.6238 Z-20.0000 F4000
G1 X32.1529 Y2129.1126 Z-20.0000 F4000
G1 X37.1117 Y2129.7603 Z-20.0000 F4000
G1 X37.3704 Y2127.7751 Z-20.0000 F4000
G1 X14.5637 Y2124.8008 Z-20.0000 F4000
G1 X38.8787 Y1938.3819 Z-20.0000 F4000
G1 X61.6854 Y1941.3562 Z-20.0000 F4000
G1 X61.9444 Y1939.3720 Z-20.0000 F4000
G1 X56.9875 Y1938.7259 Z-20.0000 F4000
G1 X70.9543 Y1831.6322 Z-20.0000 F4000
G1 X75.9134 Y1832.2805 Z-20.0000 F4000
G1 X76.1720 Y1830.2953 Z-20.0000 F4000
G1 X53.3655 Y1827.3212 Z-20.0000 F4000
G1 X77.6805 Y1640.9023 Z-20.0000 F4000
G1 X100.4869 Y1643.8766 Z-20.0000 F4000
G1 X100.7459 Y1641.8923 Z-20.0000 F4000
G1 X95.7888 Y1641.2464 Z-20.0000 F4000
G1 X114.9905 Y1494.0336 Z-20.0000 F4000
G1 X114.9905 Y1494.0336 Z10.0000 F9999
G1 X906.8972 Y1067.9724 Z10.0000 F9999
G1 X906.8972 Y1067.9724 Z1.0000 F2500
G1 X906.8972 Y1106.9436 Z-9.5000 F2500
G1 X906.8972 Y1067.9724 Z-20.0000 F2500
G1 X906.8972 Y1196.9712 Z-20.0000 F4000
G1 X848.8994 Y1196.9712 Z-20.0000 F4000
G1 X848.8994 Y1191.9709 Z-20.0000 F4000
G1 X846.8973 Y1191.9709 Z-20.0000 F4000
G1 X846.8973 Y1214.9709 Z-20.0000 F4000
G1 X826.3653 Y1214.9709 Z-20.0000 F4000
G1 X826.3653 Y1214.9709 Z-10.0000 F9999
G1 X810.3673 Y1214.9709 Z-10.0000 F4000
G1 X810.3673 Y1214.9709 Z-20.0000 F2500
G1 X658.8997 Y1214.9709 Z-20.0000 F4000
G1 X658.8997 Y1191.9709 Z-20.0000 F4000
G1 X656.8977 Y1191.9709 Z-20.0000 F4000
G1 X656.8977 Y1196.9712 Z-20.0000 F4000
G1 X548.9000 Y1196.9712 Z-20.0000 F4000
G1 X548.9000 Y1191.9709 Z-20.0000 F4000
G1 X546.8979 Y1191.9709 Z-20.0000 F4000
G1 X546.8979 Y1214.9709 Z-20.0000 F4000
G1 X358.9003 Y1214.9709 Z-20.0000 F4000
G1 X358.9003 Y1191.9709 Z-20.0000 F4000
G1 X356.8983 Y1191.9709 Z-20.0000 F4000
G1 X356.8983 Y1196.9712 Z-20.0000 F4000
G1 X248.9005 Y1196.9712 Z-20.0000 F4000
G1 X248.9005 Y1191.9709 Z-20.0000 F4000
G1 X246.8985 Y1191.9709 Z-20.0000 F4000
G1 X246.8985 Y1214.9709 Z-20.0000 F4000
G1 X58.9009 Y1214.9709 Z-20.0000 F4000
G1 X58.9009 Y1191.9709 Z-20.0000 F4000
G1 X56.8989 Y1191.9709 Z-20.0000 F4000
G1 X56.8989 Y1196.9712 Z-20.0000 F4000
G1 X23.9010 Y1196.9712 Z-20.0000 F4000
G1 X23.9010 Y1144.9731 Z-20.0000 F4000
G1 X28.9010 Y1144.9731 Z-20.0000 F4000
G1 X28.9010 Y1142.9712 Z-20.0000 F4000
G1 X5.9010 Y1142.9712 Z-20.0000 F4000
G1 X5.9010 Y1104.9732 Z-20.0000 F4000
G1 X57.8989 Y1104.9732 Z-20.0000 F4000
G1 X57.8989 Y1109.9733 Z-20.0000 F4000
G1 X59.9009 Y1109.9733 Z-20.0000 F4000
G1 X59.9009 Y1025.9716 Z-20.0000 F4000
G1 X57.8989 Y1025.9716 Z-20.0000 F4000
G1 X57.8989 Y1030.9714 Z-20.0000 F4000
G1 X23.9010 Y1030.9714 Z-20.0000 F4000
G1 X23.9010 Y863.9738 Z-20.0000 F4000
G1 X28.9010 Y863.9738 Z-20.0000 F4000
G1 X28.9010 Y861.9718 Z-20.0000 F4000
G1 X5.9010 Y861.9718 Z-20.0000 F4000
G1 X5.9010 Y673.9742 Z-20.0000 F4000
G1 X28.9010 Y673.9742 Z-20.0000 F4000
G1 X28.9010 Y671.9722 Z-20.0000 F4000
G1 X23.9010 Y671.9722 Z-20.0000 F4000
G1 X23.9010 Y563.9744 Z-20.0000 F4000
G1 X28.9010 Y563.9744 Z-20.0000 F4000
G1 X28.9010 Y561.9724 Z-20.0000 F4000
G1 X5.9010 Y561.9724 Z-20.0000 F4000
G1 X5.9010 Y373.9748 Z-20.0000 F4000
G1 X28.9010 Y373.9748 Z-20.0000 F4000
G1 X28.9010 Y371.9728 Z-20.0000 F4000
G1 X23.9010 Y371.9728 Z-20.0000 F4000
G1 X23.9010 Y313.9750 Z-20.0000 F4000
G1 X281.8985 Y313.9750 Z-20.0000 F4000
G1 X281.8985 Y371.9728 Z-20.0000 F4000
G1 X276.8985 Y371.9728 Z-20.0000 F4000
G1 X276.8985 Y373.9748 Z-20.0000 F4000
G1 X299.8984 Y373.9748 Z-20.0000 F4000
G1 X299.8984 Y561.9724 Z-20.0000 F4000
G1 X276.8985 Y561.9724 Z-20.0000 F4000
G1 X276.8985 Y563.9744 Z-20.0000 F4000
G1 X281.8985 Y563.9744 Z-20.0000 F4000
G1 X281.8985 Y671.9722 Z-20.0000 F4000
G1 X276.8985 Y671.9722 Z-20.0000 F4000
G1 X276.8985 Y673.9742 Z-20.0000 F4000
G1 X299.8984 Y673.9742 Z-20.0000 F4000
G1 X299.8984 Y861.9718 Z-20.0000 F4000
G1 X276.8985 Y861.9718 Z-20.0000 F4000
G1 X276.8985 Y863.9738 Z-20.0000 F4000
G1 X281.8985 Y863.9738 Z-20.0000 F4000
G1 X281.8985 Y938.9717 Z-20.0000 F4000
G1 X275.8985 Y938.9737 Z-20.0000 F4000
G1 X356.8983 Y938.9737 Z-20.0000 F4000
G1 X356.8983 Y943.9736 Z-20.0000 F4000
G1 X358.9003 Y943.9736 Z-20.0000 F4000
G1 X358.9003 Y920.9736 Z-20.0000 F4000
G1 X546.8979 Y920.9736 Z-20.0000 F4000
G1 X546.8979 Y943.9736 Z-20.0000 F4000
G1 X548.9000 Y943.9736 Z-20.0000 F4000
G1 X548.9000 Y938.9737 Z-20.0000 F4000
G1 X656.8977 Y938.9737 Z-20.0000 F4000
G1 X656.8977 Y943.9736 Z-20.0000 F4000
G1 X658.8997 Y943.9736 Z-20.0000 F4000
G1 X658.8997 Y920.9736 Z-20.0000 F4000
G1 X811.2301 Y920.9736 Z-20.0000 F4000
G1 X811.2301 Y920.9736 Z-10.0000 F9999
G1 X827.2281 Y920.9736 Z-10.0000 F4000
G1 X827.2281 Y920.9736 Z-20.0000 F2500
G1 X846.8973 Y920.9736 Z-20.0000 F4000
G1 X846.8973 Y943.9736 Z-20.0000 F4000
G1 X848.8994 Y943.9736 Z-20.0000 F4000
G1 X848.8994 Y938.9737 Z-20.0000 F4000
G1 X906.8972 Y938.9737 Z-20.0000 F4000
G1 X906.8972 Y1067.9724 Z-20.0000 F4000
G1 X906.8972 Y1067.9724 Z10.0000 F9999
G1 X5.9010 Y152.8995 Z10.0000 F9999
G1 X5.9010 Y152.8995 Z1.0000 F2500
G1 X5.9010 Y113.9284 Z-9.5000 F2500
G1 X5.9010 Y152.8995 Z-20.0000 F2500
G1 X5.9010 Y23.9008 Z-20.0000 F4000
G1 X63.8988 Y23.9008 Z-20.0000 F4000
G1 X63.8988 Y28.9010 Z-20.0000 F4000
G1 X65.9009 Y28.9010 Z-20.0000 F4000
G1 X65.9009 Y5.9010 Z-20.0000 F4000
G1 X253.8985 Y5.9010 Z-20.0000 F4000
G1 X253.8985 Y28.9010 Z-20.0000 F4000
G1 X255.9005 Y28.9010 Z-20.0000 F4000
G1 X255.9005 Y23.9008 Z-20.0000 F4000
G1 X363.8982 Y23.9008 Z-20.0000 F4000
G1 X363.8982 Y28.9010 Z-20.0000 F4000
G1 X365.9003 Y28.9010 Z-20.0000 F4000
G1 X365.9003 Y5.9010 Z-20.0000 F4000
G1 X553.8979 Y5.9010 Z-20.0000 F4000
G1 X553.8979 Y28.9010 Z-20.0000 F4000
G1 X555.8998 Y28.9010 Z-20.0000 F4000
G1 X555.8998 Y23.9008 Z-20.0000 F4000
G1 X663.8977 Y23.9008 Z-20.0000 F4000
G1 X663.8977 Y28.9010 Z-20.0000 F4000
G1 X665.8996 Y28.9010 Z-20.0000 F4000
G1 X665.8996 Y5.9010 Z-20.0000 F4000
G1 X853.8973 Y5.9010 Z-20.0000 F4000
G1 X853.8973 Y28.9010 Z-20.0000 F4000
G1 X855.8993 Y28.9010 Z-20.0000 F4000
G1 X855.8993 Y23.9008 Z-20.0000 F4000
G1 X888.8972 Y23.9008 Z-20.0000 F4000
G1 X888.8972 Y75.8989 Z-20.0000 F4000
G1 X883.8972 Y75.8989 Z-20.0000 F4000
G1 X883.8972 Y77.9008 Z-20.0000 F4000
G1 X906.8972 Y77.9008 Z-20.0000 F4000
G1 X906.8972 Y115.8988 Z-20.0000 F4000
G1 X854.8993 Y115.8988 Z-20.0000 F4000
G1 X854.8993 Y110.8986 Z-20.0000 F4000
G1 X852.8973 Y110.8986 Z-20.0000 F4000
G1 X852.8973 Y194.9004 Z-20.0000 F4000
G1 X854.8993 Y194.9004 Z-20.0000 F4000
G1 X854.8993 Y189.9005 Z-20.0000 F4000
G1 X888.8972 Y189.9005 Z-20.0000 F4000
G1 X888.8972 Y356.8981 Z-20.0000 F4000
G1 X883.8972 Y356.8981 Z-20.0000 F4000
G1 X883.8972 Y358.9001 Z-20.0000 F4000
G1 X906.8972 Y358.9001 Z-20.0000 F4000
G1 X906.8972 Y546.8978 Z-20.0000 F4000
G1 X883.8972 Y546.8978 Z-20.0000 F4000
G1 X883.8972 Y548.8998 Z-20.0000 F4000
G1 X888.8972 Y548.8998 Z-20.0000 F4000
G1 X888.8972 Y656.8975 Z-20.0000 F4000
G1 X883.8972 Y656.8975 Z-20.0000 F4000
G1 X883.8972 Y658.8995 Z-20.0000 F4000
G1 X906.8972 Y658.8995 Z-20.0000 F4000
G1 X906.8972 Y846.8972 Z-20.0000 F4000
G1 X883.8972 Y846.8972 Z-20.0000 F4000
G1 X883.8972 Y848.8992 Z-20.0000 F4000
G1 X888.8972 Y848.8992 Z-20.0000 F4000
G1 X888.8972 Y906.8969 Z-20.0000 F4000
G1 X630.8997 Y906.8969 Z-20.0000 F4000
G1 X630.8997 Y848.8992 Z-20.0000 F4000
G1 X635.8997 Y848.8992 Z-20.0000 F4000
G1 X635.8997 Y846.8972 Z-20.0000 F4000
G1 X612.8997 Y846.8972 Z-20.0000 F4000
G1 X612.8997 Y658.8995 Z-20.0000 F4000
G1 X635.8997 Y658.8995 Z-20.0000 F4000
G1 X635.8997 Y656.8975 Z-20.0000 F4000
G1 X630.8997 Y656.8975 Z-20.0000 F4000
G1 X630.8997 Y548.8998 Z-20.0000 F4000
G1 X635.8997 Y548.8998 Z-20.0000 F4000
G1 X635.8997 Y546.8978 Z-20.0000 F4000
G1 X612.8997 Y546.8978 Z-20.0000 F4000
G1 X612.8997 Y358.9001 Z-20.0000 F4000
G1 X635.8997 Y358.9001 Z-20.0000 F4000
G1 X635.8997 Y356.8981 Z-20.0000 F4000
G1 X630.8997 Y356.8981 Z-20.0000 F4000
G1 X630.8997 Y281.9003 Z-20.0000 F4000
G1 X636.8997 Y281.8983 Z-20.0000 F4000
G1 X555.8998 Y281.8983 Z-20.0000 F4000
G1 X555.8998 Y276.8984 Z-20.0000 F4000
G1 X553.8979 Y276.8984 Z-20.0000 F4000
G1 X553.8979 Y299.8984 Z-20.0000 F4000
G1 X365.9003 Y299.8984 Z-20.0000 F4000
G1 X365.9003 Y276.8984 Z-20.0000 F4000
G1 X363.8982 Y276.8984 Z-20.0000 F4000
G1 X363.8982 Y281.8983 Z-20.0000 F4000
G1 X255.9005 Y281.8983 Z-20.0000 F4000
G1 X255.9005 Y276.8984 Z-20.0000 F4000
G1 X253.8985 Y276.8984 Z-20.0000 F4000
G1 X253.8985 Y299.8984 Z-20.0000 F4000
G1 X65.9009 Y299.8984 Z-20.0000 F4000
G1 X65.9009 Y276.8984 Z-20.0000 F4000
G1 X63.8988 Y276.8984 Z-20.0000 F4000
G1 X63.8988 Y281.8983 Z-20.0000 F4000
G1 X5.9010 Y281.8983 Z-20.0000 F4000
G1 X5.9010 Y152.8995 Z-20.0000 F4000
G1 X5.9010 Y152.8995 Z10.0000 F9999
G1 X1900.0000 Y2800.0000 Z80.0000 F9999
G1 Z80.0000 F9999
G1 X1900.0000 Y2800.0000 F9999
M5
M30
