(plotsheet 2n3_nested_153 sheets_final v1_0_sheet 100_S100.1_text_CC8 - stepover 1mm)
(Material Size) (X=1220.000, Y=2440.000, Z=21.000)
(LinuxCNC_NoArcs_MM_TC_medium_50um_G1_verbose.con)
G90 G80 G21 G49
G64 P0.050
M6 T1
(Tool Number:1) (7.998 mm dia. slot drill)
G43 H1 G0Z80.0000
M3 S19000
G04 P10
G1 X576.9906 Y261.2492 Z10.0000 F9999
G1 X576.9906 Y261.2492 Z1.0000 F2000
G1 X564.3667 Y261.2492 Z0.6761 F2000
G1 X564.3667 Y287.5965 Z0.0000 F2000
G1 X564.3667 Y261.2492 Z-0.6761 F2000
G1 X576.9906 Y261.2492 Z-1.0000 F2000
G1 X564.3667 Y261.2492 Z-1.0000 F2750
G1 X564.3667 Y302.3501 Z-1.0000 F2750
G1 X564.3667 Y261.2492 Z-1.0000 F2750
G1 X564.3667 Y261.2492 Z10.0000 F9999
G1 X609.9631 Y302.3501 Z10.0000 F9999
G1 X609.9631 Y302.3501 Z1.0000 F2000
G1 X588.3869 Y269.8968 Z0.0000 F2000
G1 X609.9631 Y302.3501 Z-1.0000 F2000
G1 X587.7612 Y268.9556 Z-1.0000 F2750
G1 X616.5686 Y268.9556 Z-1.0000 F2750
G1 X587.7612 Y268.9556 Z-1.0000 F2750
G1 X609.9631 Y302.3501 Z-1.0000 F2750
G1 X609.9631 Y261.2492 Z-1.0000 F2750
G1 X609.9631 Y261.2492 Z10.0000 F9999
G1 X643.6328 Y302.3501 Z10.0000 F9999
G1 X643.6328 Y302.3501 Z1.0000 F2000
G1 X632.3300 Y286.3868 Z0.4981 F2000
G1 X630.9434 Y284.4249 Z0.4365 F2000
G1 X629.6144 Y282.4235 Z0.3748 F2000
G1 X627.6878 Y275.2125 Z0.1833 F2000
G1 X628.7887 Y269.7813 Z0.0411 F2000
G1 X629.6781 Y268.4500 Z0.0000 F2000
G1 X628.7887 Y269.7813 Z-0.0411 F2000
G1 X627.6878 Y275.2125 Z-0.1833 F2000
G1 X629.6144 Y282.4235 Z-0.3748 F2000
G1 X630.9434 Y284.4249 Z-0.4365 F2000
G1 X632.3300 Y286.3868 Z-0.4981 F2000
G1 X643.6328 Y302.3501 Z-1.0000 F2000
G1 X632.3300 Y286.3868 Z-1.0000 F2750
G1 X630.9434 Y284.4249 Z-1.0000 F2750
G1 X629.6144 Y282.4235 Z-1.0000 F2750
G1 X627.6878 Y275.2125 Z-1.0000 F2750
G1 X628.7887 Y269.7813 Z-1.0000 F2750
G1 X631.7429 Y265.3593 Z-1.0000 F2750
G1 X636.1098 Y262.3501 Z-1.0000 F2750
G1 X641.5043 Y261.2492 Z-1.0000 F2750
G1 X646.8988 Y262.3501 Z-1.0000 F2750
G1 X651.3392 Y265.3593 Z-1.0000 F2750
G1 X654.3300 Y269.7813 Z-1.0000 F2750
G1 X655.4310 Y275.2125 Z-1.0000 F2750
G1 X654.3300 Y280.6253 Z-1.0000 F2750
G1 X651.3392 Y285.0474 Z-1.0000 F2750
G1 X646.8988 Y288.0198 Z-1.0000 F2750
G1 X641.5043 Y289.1208 Z-1.0000 F2750
G1 X634.5869 Y287.2675 Z-1.0000 F2750
G1 X629.6144 Y282.4235 Z-1.0000 F2750
G1 X634.5869 Y287.2675 Z-1.0000 F2750
G1 X641.5043 Y289.1208 Z-1.0000 F2750
G1 X646.8988 Y288.0198 Z-1.0000 F2750
G1 X651.3392 Y285.0474 Z-1.0000 F2750
G1 X654.3300 Y280.6253 Z-1.0000 F2750
G1 X655.4310 Y275.2125 Z-1.0000 F2750
G1 X654.3300 Y269.7813 Z-1.0000 F2750
G1 X651.3392 Y265.3593 Z-1.0000 F2750
G1 X646.8988 Y262.3501 Z-1.0000 F2750
G1 X641.5043 Y261.2492 Z-1.0000 F2750
G1 X636.1098 Y262.3501 Z-1.0000 F2750
G1 X631.7429 Y265.3593 Z-1.0000 F2750
G1 X628.7887 Y269.7813 Z-1.0000 F2750
G1 X627.6878 Y275.2125 Z-1.0000 F2750
G1 X629.6144 Y282.4235 Z-1.0000 F2750
G1 X630.5686 Y283.8731 Z-1.0000 F2750
G1 X637.1007 Y293.1575 Z-1.0000 F2750
G1 X637.1007 Y293.1575 Z10.0000 F9999
G1 X576.9906 Y827.0602 Z10.0000 F9999
G1 X576.9906 Y827.0602 Z1.0000 F2000
G1 X564.3667 Y827.0602 Z0.6761 F2000
G1 X564.3667 Y853.4075 Z0.0000 F2000
G1 X564.3667 Y827.0602 Z-0.6761 F2000
G1 X576.9906 Y827.0602 Z-1.0000 F2000
G1 X564.3667 Y827.0602 Z-1.0000 F2750
G1 X564.3667 Y868.1611 Z-1.0000 F2750
G1 X564.3667 Y827.0602 Z-1.0000 F2750
G1 X564.3667 Y827.0602 Z10.0000 F9999
G1 X609.9631 Y868.1611 Z10.0000 F9999
G1 X609.9631 Y868.1611 Z1.0000 F2000
G1 X588.3869 Y835.7078 Z0.0000 F2000
G1 X609.9631 Y868.1611 Z-1.0000 F2000
G1 X587.7612 Y834.7666 Z-1.0000 F2750
G1 X616.5686 Y834.7666 Z-1.0000 F2750
G1 X587.7612 Y834.7666 Z-1.0000 F2750
G1 X609.9631 Y868.1611 Z-1.0000 F2750
G1 X609.9631 Y827.0602 Z-1.0000 F2750
G1 X609.9631 Y827.0602 Z10.0000 F9999
G1 X643.6328 Y868.1611 Z10.0000 F9999
G1 X643.6328 Y868.1611 Z1.0000 F2000
G1 X632.3300 Y852.1978 Z0.4981 F2000
G1 X630.9434 Y850.2359 Z0.4365 F2000
G1 X629.6144 Y848.2345 Z0.3748 F2000
G1 X627.6878 Y841.0235 Z0.1833 F2000
G1 X628.7887 Y835.5923 Z0.0411 F2000
G1 X629.6781 Y834.2611 Z0.0000 F2000
G1 X628.7887 Y835.5923 Z-0.0411 F2000
G1 X627.6878 Y841.0235 Z-0.1833 F2000
G1 X629.6144 Y848.2345 Z-0.3748 F2000
G1 X630.9434 Y850.2359 Z-0.4365 F2000
G1 X632.3300 Y852.1978 Z-0.4981 F2000
G1 X643.6328 Y868.1611 Z-1.0000 F2000
G1 X632.3300 Y852.1978 Z-1.0000 F2750
G1 X630.9434 Y850.2359 Z-1.0000 F2750
G1 X629.6144 Y848.2345 Z-1.0000 F2750
G1 X627.6878 Y841.0235 Z-1.0000 F2750
G1 X628.7887 Y835.5923 Z-1.0000 F2750
G1 X631.7429 Y831.1703 Z-1.0000 F2750
G1 X636.1098 Y828.1611 Z-1.0000 F2750
G1 X641.5043 Y827.0602 Z-1.0000 F2750
G1 X646.8988 Y828.1611 Z-1.0000 F2750
G1 X651.3392 Y831.1703 Z-1.0000 F2750
G1 X654.3300 Y835.5923 Z-1.0000 F2750
G1 X655.4310 Y841.0235 Z-1.0000 F2750
G1 X654.3300 Y846.4364 Z-1.0000 F2750
G1 X651.3392 Y850.8584 Z-1.0000 F2750
G1 X646.8988 Y853.8309 Z-1.0000 F2750
G1 X641.5043 Y854.9318 Z-1.0000 F2750
G1 X634.5869 Y853.0786 Z-1.0000 F2750
G1 X629.6144 Y848.2345 Z-1.0000 F2750
G1 X634.5869 Y853.0786 Z-1.0000 F2750
G1 X641.5043 Y854.9318 Z-1.0000 F2750
G1 X646.8988 Y853.8309 Z-1.0000 F2750
G1 X651.3392 Y850.8584 Z-1.0000 F2750
G1 X654.3300 Y846.4364 Z-1.0000 F2750
G1 X655.4310 Y841.0235 Z-1.0000 F2750
G1 X654.3300 Y835.5923 Z-1.0000 F2750
G1 X651.3392 Y831.1703 Z-1.0000 F2750
G1 X646.8988 Y828.1611 Z-1.0000 F2750
G1 X641.5043 Y827.0602 Z-1.0000 F2750
G1 X636.1098 Y828.1611 Z-1.0000 F2750
G1 X631.7429 Y831.1703 Z-1.0000 F2750
G1 X628.7887 Y835.5923 Z-1.0000 F2750
G1 X627.6878 Y841.0235 Z-1.0000 F2750
G1 X629.6144 Y848.2345 Z-1.0000 F2750
G1 X630.5686 Y849.6841 Z-1.0000 F2750
G1 X637.1007 Y858.9685 Z-1.0000 F2750
G1 X637.1007 Y858.9685 Z10.0000 F9999
G1 X578.0916 Y1408.4489 Z10.0000 F9999
G1 X578.0916 Y1408.4489 Z1.0000 F2000
G1 X564.8623 Y1428.5957 Z0.3815 F2000
G1 X573.0237 Y1416.1667 Z0.0000 F2000
G1 X564.8623 Y1428.5957 Z-0.3815 F2000
G1 X578.0916 Y1408.4489 Z-1.0000 F2000
G1 X564.8623 Y1428.5957 Z-1.0000 F2750
G1 X578.0916 Y1408.4489 Z-1.0000 F2750
G1 X578.0916 Y1408.4489 Z10.0000 F9999
G1 X560.6788 Y1408.4489 Z10.0000 F9999
G1 X560.6788 Y1408.4489 Z1.0000 F2000
G1 X560.6788 Y1447.4200 Z0.0000 F2000
G1 X560.6788 Y1408.4489 Z-1.0000 F2000
G1 X560.6788 Y1449.5498 Z-1.0000 F2750
G1 X567.8347 Y1449.5498 Z-1.0000 F2750
G1 X571.7063 Y1448.9443 Z-1.0000 F2750
G1 X574.9173 Y1447.1278 Z-1.0000 F2750
G1 X577.1375 Y1443.9718 Z-1.0000 F2750
G1 X577.9815 Y1439.3296 Z-1.0000 F2750
G1 X576.8256 Y1434.6507 Z-1.0000 F2750
G1 X574.0549 Y1431.3296 Z-1.0000 F2750
G1 X570.7338 Y1429.3663 Z-1.0000 F2750
G1 X567.8347 Y1428.7058 Z-1.0000 F2750
G1 X560.6788 Y1428.7058 Z-1.0000 F2750
G1 X567.8347 Y1428.7058 Z-1.0000 F2750
G1 X570.7338 Y1429.3663 Z-1.0000 F2750
G1 X574.0549 Y1431.3296 Z-1.0000 F2750
G1 X576.8256 Y1434.6507 Z-1.0000 F2750
G1 X577.9815 Y1439.3296 Z-1.0000 F2750
G1 X577.1375 Y1443.9718 Z-1.0000 F2750
G1 X574.9173 Y1447.1278 Z-1.0000 F2750
G1 X571.7063 Y1448.9443 Z-1.0000 F2750
G1 X567.8347 Y1449.5498 Z-1.0000 F2750
G1 X560.6788 Y1449.5498 Z-1.0000 F2750
G1 X560.6788 Y1449.5498 Z10.0000 F9999
G1 X523.0641 Y1408.4489 Z10.0000 F9999
G1 X523.0641 Y1408.4489 Z1.0000 F2000
G1 X514.8623 Y1410.0452 Z0.7856 F2000
G1 X508.1283 Y1414.4489 Z0.5791 F2000
G1 X503.5595 Y1420.9810 Z0.3746 F2000
G1 X501.8714 Y1428.9627 Z0.1652 F2000
G1 X503.2040 Y1435.2631 Z0.0000 F2000
G1 X501.8714 Y1428.9627 Z-0.1652 F2000
G1 X503.5595 Y1420.9810 Z-0.3746 F2000
G1 X508.1283 Y1414.4489 Z-0.5791 F2000
G1 X514.8623 Y1410.0452 Z-0.7856 F2000
G1 X523.0641 Y1408.4489 Z-1.0000 F2000
G1 X514.8623 Y1410.0452 Z-1.0000 F2750
G1 X508.1283 Y1414.4489 Z-1.0000 F2750
G1 X503.5595 Y1420.9810 Z-1.0000 F2750
G1 X501.8714 Y1428.9627 Z-1.0000 F2750
G1 X503.5595 Y1436.9443 Z-1.0000 F2750
G1 X508.1283 Y1443.4948 Z-1.0000 F2750
G1 X514.8623 Y1447.9168 Z-1.0000 F2750
G1 X523.0641 Y1449.5498 Z-1.0000 F2750
G1 X531.3210 Y1447.9168 Z-1.0000 F2750
G1 X538.0549 Y1443.4948 Z-1.0000 F2750
G1 X542.5870 Y1436.9443 Z-1.0000 F2750
G1 X544.2568 Y1428.9627 Z-1.0000 F2750
G1 X542.5870 Y1420.9810 Z-1.0000 F2750
G1 X538.0549 Y1414.4489 Z-1.0000 F2750
G1 X531.3210 Y1410.0452 Z-1.0000 F2750
G1 X523.0641 Y1408.4489 Z-1.0000 F2750
G1 X514.8623 Y1410.0452 Z-1.0000 F2750
G1 X508.1283 Y1414.4489 Z-1.0000 F2750
G1 X503.5595 Y1420.9810 Z-1.0000 F2750
G1 X501.8714 Y1428.9627 Z-1.0000 F2750
G1 X503.5595 Y1436.9443 Z-1.0000 F2750
G1 X508.1283 Y1443.4948 Z-1.0000 F2750
G1 X514.8623 Y1447.9168 Z-1.0000 F2750
G1 X523.0641 Y1449.5498 Z-1.0000 F2750
G1 X531.3210 Y1447.9168 Z-1.0000 F2750
G1 X538.0549 Y1443.4948 Z-1.0000 F2750
G1 X542.5870 Y1436.9443 Z-1.0000 F2750
G1 X544.2568 Y1428.9627 Z-1.0000 F2750
G1 X542.5870 Y1420.9810 Z-1.0000 F2750
G1 X538.0549 Y1414.4489 Z-1.0000 F2750
G1 X531.3210 Y1410.0452 Z-1.0000 F2750
G1 X523.0641 Y1408.4489 Z-1.0000 F2750
G1 X523.0641 Y1408.4489 Z10.0000 F9999
G1 X469.0458 Y1408.4489 Z10.0000 F9999
G1 X469.0458 Y1408.4489 Z1.0000 F2000
G1 X460.8439 Y1410.0452 Z0.7856 F2000
G1 X454.1100 Y1414.4489 Z0.5791 F2000
G1 X449.5412 Y1420.9810 Z0.3746 F2000
G1 X447.8531 Y1428.9627 Z0.1652 F2000
G1 X449.1856 Y1435.2631 Z0.0000 F2000
G1 X447.8531 Y1428.9627 Z-0.1652 F2000
G1 X449.5412 Y1420.9810 Z-0.3746 F2000
G1 X454.1100 Y1414.4489 Z-0.5791 F2000
G1 X460.8439 Y1410.0452 Z-0.7856 F2000
G1 X469.0458 Y1408.4489 Z-1.0000 F2000
G1 X460.8439 Y1410.0452 Z-1.0000 F2750
G1 X454.1100 Y1414.4489 Z-1.0000 F2750
G1 X449.5412 Y1420.9810 Z-1.0000 F2750
G1 X447.8531 Y1428.9627 Z-1.0000 F2750
G1 X449.5412 Y1436.9443 Z-1.0000 F2750
G1 X454.1100 Y1443.4948 Z-1.0000 F2750
G1 X460.8439 Y1447.9168 Z-1.0000 F2750
G1 X469.0458 Y1449.5498 Z-1.0000 F2750
G1 X477.3026 Y1447.9168 Z-1.0000 F2750
G1 X484.0366 Y1443.4948 Z-1.0000 F2750
G1 X488.5687 Y1436.9443 Z-1.0000 F2750
G1 X490.2384 Y1428.9627 Z-1.0000 F2750
G1 X488.5687 Y1420.9810 Z-1.0000 F2750
G1 X484.0366 Y1414.4489 Z-1.0000 F2750
G1 X477.3026 Y1410.0452 Z-1.0000 F2750
G1 X469.0458 Y1408.4489 Z-1.0000 F2750
G1 X460.8439 Y1410.0452 Z-1.0000 F2750
G1 X454.1100 Y1414.4489 Z-1.0000 F2750
G1 X449.5412 Y1420.9810 Z-1.0000 F2750
G1 X447.8531 Y1428.9627 Z-1.0000 F2750
G1 X449.5412 Y1436.9443 Z-1.0000 F2750
G1 X454.1100 Y1443.4948 Z-1.0000 F2750
G1 X460.8439 Y1447.9168 Z-1.0000 F2750
G1 X469.0458 Y1449.5498 Z-1.0000 F2750
G1 X477.3026 Y1447.9168 Z-1.0000 F2750
G1 X484.0366 Y1443.4948 Z-1.0000 F2750
G1 X488.5687 Y1436.9443 Z-1.0000 F2750
G1 X490.2384 Y1428.9627 Z-1.0000 F2750
G1 X488.5687 Y1420.9810 Z-1.0000 F2750
G1 X484.0366 Y1414.4489 Z-1.0000 F2750
G1 X477.3026 Y1410.0452 Z-1.0000 F2750
G1 X469.0458 Y1408.4489 Z-1.0000 F2750
G1 X469.0458 Y1408.4489 Z10.0000 F9999
G1 X437.0824 Y1408.4489 Z10.0000 F9999
G1 X437.0824 Y1408.4489 Z1.0000 F2000
G1 X424.4586 Y1408.4489 Z0.6761 F2000
G1 X424.4586 Y1434.7962 Z0.0000 F2000
G1 X424.4586 Y1408.4489 Z-0.6761 F2000
G1 X437.0824 Y1408.4489 Z-1.0000 F2000
G1 X424.4586 Y1408.4489 Z-1.0000 F2750
G1 X424.4586 Y1449.5498 Z-1.0000 F2750
G1 X424.4586 Y1408.4489 Z-1.0000 F2750
G1 X424.4586 Y1408.4489 Z10.0000 F9999
G1 X393.9265 Y1431.2562 Z10.0000 F9999
G1 X393.9265 Y1431.2562 Z1.0000 F2000
G1 X408.3669 Y1431.2562 Z0.6295 F2000
G1 X393.9265 Y1431.2562 Z0.2589 F2000
G1 X393.9265 Y1441.3466 Z0.0000 F2000
G1 X393.9265 Y1431.2562 Z-0.2589 F2000
G1 X408.3669 Y1431.2562 Z-0.6295 F2000
G1 X393.9265 Y1431.2562 Z-1.0000 F2000
G1 X408.3669 Y1431.2562 Z-1.0000 F2750
G1 X393.9265 Y1431.2562 Z-1.0000 F2750
G1 X393.9265 Y1449.5498 Z-1.0000 F2750
G1 X409.0458 Y1449.5498 Z-1.0000 F2750
G1 X393.9265 Y1449.5498 Z-1.0000 F2750
G1 X393.9265 Y1408.4489 Z-1.0000 F2750
G1 X393.9265 Y1408.4489 Z10.0000 F9999
G1 X619.1558 Y1458.9443 Z10.0000 F9999
G1 X619.1558 Y1458.9443 Z1.0000 F2000
G1 X599.7299 Y1425.1600 Z0.0000 F2000
G1 X619.1558 Y1458.9443 Z-1.0000 F2000
G1 X588.7705 Y1406.1003 Z-1.0000 F2750
G1 X619.1558 Y1458.9443 Z-1.0000 F2750
G1 X619.1558 Y1458.9443 Z10.0000 F9999
G1 X635.7980 Y1449.5498 Z10.0000 F9999
G1 X635.7980 Y1449.5498 Z1.0000 F2000
G1 X651.6183 Y1413.9343 Z0.0000 F2000
G1 X635.7980 Y1449.5498 Z-1.0000 F2000
G1 X654.0549 Y1408.4489 Z-1.0000 F2750
G1 X672.3118 Y1449.5498 Z-1.0000 F2750
G1 X675.8714 Y1408.4489 Z-1.0000 F2750
G1 X672.3118 Y1449.5498 Z-1.0000 F2750
G1 X654.0549 Y1408.4489 Z-1.0000 F2750
G1 X635.7980 Y1449.5498 Z-1.0000 F2750
G1 X632.2935 Y1408.4489 Z-1.0000 F2750
G1 X632.2935 Y1408.4489 Z10.0000 F9999
G1 X578.0916 Y2012.4930 Z10.0000 F9999
G1 X578.0916 Y2012.4930 Z1.0000 F2000
G1 X564.8623 Y2032.6398 Z0.3815 F2000
G1 X573.0237 Y2020.2108 Z0.0000 F2000
G1 X564.8623 Y2032.6398 Z-0.3815 F2000
G1 X578.0916 Y2012.4930 Z-1.0000 F2000
G1 X564.8623 Y2032.6398 Z-1.0000 F2750
G1 X578.0916 Y2012.4930 Z-1.0000 F2750
G1 X578.0916 Y2012.4930 Z10.0000 F9999
G1 X560.6788 Y2012.4930 Z10.0000 F9999
G1 X560.6788 Y2012.4930 Z1.0000 F2000
G1 X560.6788 Y2051.4641 Z0.0000 F2000
G1 X560.6788 Y2012.4930 Z-1.0000 F2000
G1 X560.6788 Y2053.5939 Z-1.0000 F2750
G1 X567.8347 Y2053.5939 Z-1.0000 F2750
G1 X571.7063 Y2052.9884 Z-1.0000 F2750
G1 X574.9173 Y2051.1719 Z-1.0000 F2750
G1 X577.1375 Y2048.0159 Z-1.0000 F2750
G1 X577.9815 Y2043.3737 Z-1.0000 F2750
G1 X576.8256 Y2038.6948 Z-1.0000 F2750
G1 X574.0549 Y2035.3737 Z-1.0000 F2750
G1 X570.7338 Y2033.4104 Z-1.0000 F2750
G1 X567.8347 Y2032.7499 Z-1.0000 F2750
G1 X560.6788 Y2032.7499 Z-1.0000 F2750
G1 X567.8347 Y2032.7499 Z-1.0000 F2750
G1 X570.7338 Y2033.4104 Z-1.0000 F2750
G1 X574.0549 Y2035.3737 Z-1.0000 F2750
G1 X576.8256 Y2038.6948 Z-1.0000 F2750
G1 X577.9815 Y2043.3737 Z-1.0000 F2750
G1 X577.1375 Y2048.0159 Z-1.0000 F2750
G1 X574.9173 Y2051.1719 Z-1.0000 F2750
G1 X571.7063 Y2052.9884 Z-1.0000 F2750
G1 X567.8347 Y2053.5939 Z-1.0000 F2750
G1 X560.6788 Y2053.5939 Z-1.0000 F2750
G1 X560.6788 Y2053.5939 Z10.0000 F9999
G1 X523.0641 Y2012.4930 Z10.0000 F9999
G1 X523.0641 Y2012.4930 Z1.0000 F2000
G1 X514.8623 Y2014.0893 Z0.7856 F2000
G1 X508.1283 Y2018.4930 Z0.5791 F2000
G1 X503.5595 Y2025.0251 Z0.3746 F2000
G1 X501.8714 Y2033.0068 Z0.1652 F2000
G1 X503.2040 Y2039.3072 Z0.0000 F2000
G1 X501.8714 Y2033.0068 Z-0.1652 F2000
G1 X503.5595 Y2025.0251 Z-0.3746 F2000
G1 X508.1283 Y2018.4930 Z-0.5791 F2000
G1 X514.8623 Y2014.0893 Z-0.7856 F2000
G1 X523.0641 Y2012.4930 Z-1.0000 F2000
G1 X514.8623 Y2014.0893 Z-1.0000 F2750
G1 X508.1283 Y2018.4930 Z-1.0000 F2750
G1 X503.5595 Y2025.0251 Z-1.0000 F2750
G1 X501.8714 Y2033.0068 Z-1.0000 F2750
G1 X503.5595 Y2040.9884 Z-1.0000 F2750
G1 X508.1283 Y2047.5389 Z-1.0000 F2750
G1 X514.8623 Y2051.9609 Z-1.0000 F2750
G1 X523.0641 Y2053.5939 Z-1.0000 F2750
G1 X531.3210 Y2051.9609 Z-1.0000 F2750
G1 X538.0549 Y2047.5389 Z-1.0000 F2750
G1 X542.5870 Y2040.9884 Z-1.0000 F2750
G1 X544.2568 Y2033.0068 Z-1.0000 F2750
G1 X542.5870 Y2025.0251 Z-1.0000 F2750
G1 X538.0549 Y2018.4930 Z-1.0000 F2750
G1 X531.3210 Y2014.0893 Z-1.0000 F2750
G1 X523.0641 Y2012.4930 Z-1.0000 F2750
G1 X514.8623 Y2014.0893 Z-1.0000 F2750
G1 X508.1283 Y2018.4930 Z-1.0000 F2750
G1 X503.5595 Y2025.0251 Z-1.0000 F2750
G1 X501.8714 Y2033.0068 Z-1.0000 F2750
G1 X503.5595 Y2040.9884 Z-1.0000 F2750
G1 X508.1283 Y2047.5389 Z-1.0000 F2750
G1 X514.8623 Y2051.9609 Z-1.0000 F2750
G1 X523.0641 Y2053.5939 Z-1.0000 F2750
G1 X531.3210 Y2051.9609 Z-1.0000 F2750
G1 X538.0549 Y2047.5389 Z-1.0000 F2750
G1 X542.5870 Y2040.9884 Z-1.0000 F2750
G1 X544.2568 Y2033.0068 Z-1.0000 F2750
G1 X542.5870 Y2025.0251 Z-1.0000 F2750
G1 X538.0549 Y2018.4930 Z-1.0000 F2750
G1 X531.3210 Y2014.0893 Z-1.0000 F2750
G1 X523.0641 Y2012.4930 Z-1.0000 F2750
G1 X523.0641 Y2012.4930 Z10.0000 F9999
G1 X469.0458 Y2012.4930 Z10.0000 F9999
G1 X469.0458 Y2012.4930 Z1.0000 F2000
G1 X460.8439 Y2014.0893 Z0.7856 F2000
G1 X454.1100 Y2018.4930 Z0.5791 F2000
G1 X449.5412 Y2025.0251 Z0.3746 F2000
G1 X447.8531 Y2033.0068 Z0.1652 F2000
G1 X449.1856 Y2039.3072 Z0.0000 F2000
G1 X447.8531 Y2033.0068 Z-0.1652 F2000
G1 X449.5412 Y2025.0251 Z-0.3746 F2000
G1 X454.1100 Y2018.4930 Z-0.5791 F2000
G1 X460.8439 Y2014.0893 Z-0.7856 F2000
G1 X469.0458 Y2012.4930 Z-1.0000 F2000
G1 X460.8439 Y2014.0893 Z-1.0000 F2750
G1 X454.1100 Y2018.4930 Z-1.0000 F2750
G1 X449.5412 Y2025.0251 Z-1.0000 F2750
G1 X447.8531 Y2033.0068 Z-1.0000 F2750
G1 X449.5412 Y2040.9884 Z-1.0000 F2750
G1 X454.1100 Y2047.5389 Z-1.0000 F2750
G1 X460.8439 Y2051.9609 Z-1.0000 F2750
G1 X469.0458 Y2053.5939 Z-1.0000 F2750
G1 X477.3026 Y2051.9609 Z-1.0000 F2750
G1 X484.0366 Y2047.5389 Z-1.0000 F2750
G1 X488.5687 Y2040.9884 Z-1.0000 F2750
G1 X490.2384 Y2033.0068 Z-1.0000 F2750
G1 X488.5687 Y2025.0251 Z-1.0000 F2750
G1 X484.0366 Y2018.4930 Z-1.0000 F2750
G1 X477.3026 Y2014.0893 Z-1.0000 F2750
G1 X469.0458 Y2012.4930 Z-1.0000 F2750
G1 X460.8439 Y2014.0893 Z-1.0000 F2750
G1 X454.1100 Y2018.4930 Z-1.0000 F2750
G1 X449.5412 Y2025.0251 Z-1.0000 F2750
G1 X447.8531 Y2033.0068 Z-1.0000 F2750
G1 X449.5412 Y2040.9884 Z-1.0000 F2750
G1 X454.1100 Y2047.5389 Z-1.0000 F2750
G1 X460.8439 Y2051.9609 Z-1.0000 F2750
G1 X469.0458 Y2053.5939 Z-1.0000 F2750
G1 X477.3026 Y2051.9609 Z-1.0000 F2750
G1 X484.0366 Y2047.5389 Z-1.0000 F2750
G1 X488.5687 Y2040.9884 Z-1.0000 F2750
G1 X490.2384 Y2033.0068 Z-1.0000 F2750
G1 X488.5687 Y2025.0251 Z-1.0000 F2750
G1 X484.0366 Y2018.4930 Z-1.0000 F2750
G1 X477.3026 Y2014.0893 Z-1.0000 F2750
G1 X469.0458 Y2012.4930 Z-1.0000 F2750
G1 X469.0458 Y2012.4930 Z10.0000 F9999
G1 X437.0824 Y2012.4930 Z10.0000 F9999
G1 X437.0824 Y2012.4930 Z1.0000 F2000
G1 X424.4586 Y2012.4930 Z0.6761 F2000
G1 X424.4586 Y2038.8403 Z0.0000 F2000
G1 X424.4586 Y2012.4930 Z-0.6761 F2000
G1 X437.0824 Y2012.4930 Z-1.0000 F2000
G1 X424.4586 Y2012.4930 Z-1.0000 F2750
G1 X424.4586 Y2053.5939 Z-1.0000 F2750
G1 X424.4586 Y2012.4930 Z-1.0000 F2750
G1 X424.4586 Y2012.4930 Z10.0000 F9999
G1 X393.9265 Y2035.3003 Z10.0000 F9999
G1 X393.9265 Y2035.3003 Z1.0000 F2000
G1 X408.3669 Y2035.3003 Z0.6295 F2000
G1 X393.9265 Y2035.3003 Z0.2589 F2000
G1 X393.9265 Y2045.3907 Z0.0000 F2000
G1 X393.9265 Y2035.3003 Z-0.2589 F2000
G1 X408.3669 Y2035.3003 Z-0.6295 F2000
G1 X393.9265 Y2035.3003 Z-1.0000 F2000
G1 X408.3669 Y2035.3003 Z-1.0000 F2750
G1 X393.9265 Y2035.3003 Z-1.0000 F2750
G1 X393.9265 Y2053.5939 Z-1.0000 F2750
G1 X409.0458 Y2053.5939 Z-1.0000 F2750
G1 X393.9265 Y2053.5939 Z-1.0000 F2750
G1 X393.9265 Y2012.4930 Z-1.0000 F2750
G1 X393.9265 Y2012.4930 Z10.0000 F9999
G1 X619.1558 Y2062.9884 Z10.0000 F9999
G1 X619.1558 Y2062.9884 Z1.0000 F2000
G1 X599.7299 Y2029.2041 Z0.0000 F2000
G1 X619.1558 Y2062.9884 Z-1.0000 F2000
G1 X588.7705 Y2010.1444 Z-1.0000 F2750
G1 X619.1558 Y2062.9884 Z-1.0000 F2750
G1 X619.1558 Y2062.9884 Z10.0000 F9999
G1 X635.7980 Y2053.5939 Z10.0000 F9999
G1 X635.7980 Y2053.5939 Z1.0000 F2000
G1 X651.6183 Y2017.9784 Z0.0000 F2000
G1 X635.7980 Y2053.5939 Z-1.0000 F2000
G1 X654.0549 Y2012.4930 Z-1.0000 F2750
G1 X672.3118 Y2053.5939 Z-1.0000 F2750
G1 X675.8714 Y2012.4930 Z-1.0000 F2750
G1 X672.3118 Y2053.5939 Z-1.0000 F2750
G1 X654.0549 Y2012.4930 Z-1.0000 F2750
G1 X635.7980 Y2053.5939 Z-1.0000 F2750
G1 X632.2935 Y2012.4930 Z-1.0000 F2750
G1 X632.2935 Y2012.4930 Z10.0000 F9999
(Tool Number:1) (7.998 mm dia. slot drill)
M3 S19000
G1 X80.9009 Y371.4497 Z10.0000 F9999
G1 X80.9009 Y371.4497 Z1.0000 F2000
G1 X80.9009 Y332.4785 Z-9.0000 F2000
G1 X80.9009 Y371.4497 Z-19.0000 F2000
G1 X80.9009 Y291.4498 Z-19.0000 F2750
G1 X80.9366 Y290.9162 Z-19.0000 F2750
G1 X81.0492 Y290.3708 Z-19.0000 F2750
G1 X81.2437 Y289.8299 Z-19.0000 F2750
G1 X81.5204 Y289.3118 Z-19.0000 F2750
G1 X81.8742 Y288.8350 Z-19.0000 F2750
G1 X82.2947 Y288.4158 Z-19.0000 F2750
G1 X82.7672 Y288.0670 Z-19.0000 F2750
G1 X83.2742 Y287.7962 Z-19.0000 F2750
G1 X83.7975 Y287.6057 Z-19.0000 F2750
G1 X84.3203 Y287.4930 Z-19.0000 F2750
G1 X85.1098 Y287.4432 Z-19.0000 F2750
G1 X85.9008 Y287.4508 Z-19.0000 F2750
G1 X85.9008 Y285.4488 Z-19.0000 F2750
G1 X47.8989 Y285.4488 Z-19.0000 F2750
G1 X47.8989 Y287.4508 Z-19.0000 F2750
G1 X48.6900 Y287.4432 Z-19.0000 F2750
G1 X49.4795 Y287.4930 Z-19.0000 F2750
G1 X50.0023 Y287.6057 Z-19.0000 F2750
G1 X50.5256 Y287.7962 Z-19.0000 F2750
G1 X51.0326 Y288.0670 Z-19.0000 F2750
G1 X51.5051 Y288.4158 Z-19.0000 F2750
G1 X51.9256 Y288.8350 Z-19.0000 F2750
G1 X52.2795 Y289.3118 Z-19.0000 F2750
G1 X52.5561 Y289.8299 Z-19.0000 F2750
G1 X52.7506 Y290.3708 Z-19.0000 F2750
G1 X52.8632 Y290.9162 Z-19.0000 F2750
G1 X52.8989 Y291.4498 Z-19.0000 F2750
G1 X52.8989 Y451.4496 Z-19.0000 F2750
G1 X52.8632 Y451.9832 Z-19.0000 F2750
G1 X52.7506 Y452.5286 Z-19.0000 F2750
G1 X52.5561 Y453.0695 Z-19.0000 F2750
G1 X52.2795 Y453.5875 Z-19.0000 F2750
G1 X51.9256 Y454.0644 Z-19.0000 F2750
G1 X51.5051 Y454.4836 Z-19.0000 F2750
G1 X51.0326 Y454.8324 Z-19.0000 F2750
G1 X50.5256 Y455.1032 Z-19.0000 F2750
G1 X50.0023 Y455.2936 Z-19.0000 F2750
G1 X49.4795 Y455.4063 Z-19.0000 F2750
G1 X48.6900 Y455.4562 Z-19.0000 F2750
G1 X47.8989 Y455.4486 Z-19.0000 F2750
G1 X47.8989 Y457.4506 Z-19.0000 F2750
G1 X85.9008 Y457.4506 Z-19.0000 F2750
G1 X85.9008 Y455.4486 Z-19.0000 F2750
G1 X85.1098 Y455.4562 Z-19.0000 F2750
G1 X84.3203 Y455.4063 Z-19.0000 F2750
G1 X83.7975 Y455.2936 Z-19.0000 F2750
G1 X83.2742 Y455.1032 Z-19.0000 F2750
G1 X82.7672 Y454.8324 Z-19.0000 F2750
G1 X82.2947 Y454.4836 Z-19.0000 F2750
G1 X81.8742 Y454.0644 Z-19.0000 F2750
G1 X81.5204 Y453.5875 Z-19.0000 F2750
G1 X81.2437 Y453.0695 Z-19.0000 F2750
G1 X81.0492 Y452.5286 Z-19.0000 F2750
G1 X80.9366 Y451.9832 Z-19.0000 F2750
G1 X80.9009 Y451.4496 Z-19.0000 F2750
G1 X80.9009 Y371.4497 Z-19.0000 F2750
G1 X80.9009 Y371.4497 Z10.0000 F9999
G1 X80.9009 Y937.2607 Z10.0000 F9999
G1 X80.9009 Y937.2607 Z1.0000 F2000
G1 X80.9009 Y898.2896 Z-9.0000 F2000
G1 X80.9009 Y937.2607 Z-19.0000 F2000
G1 X80.9009 Y857.2608 Z-19.0000 F2750
G1 X80.9366 Y856.7272 Z-19.0000 F2750
G1 X81.0492 Y856.1818 Z-19.0000 F2750
G1 X81.2437 Y855.6409 Z-19.0000 F2750
G1 X81.5204 Y855.1229 Z-19.0000 F2750
G1 X81.8742 Y854.6460 Z-19.0000 F2750
G1 X82.2947 Y854.2268 Z-19.0000 F2750
G1 X82.7672 Y853.8780 Z-19.0000 F2750
G1 X83.2742 Y853.6072 Z-19.0000 F2750
G1 X83.7975 Y853.4168 Z-19.0000 F2750
G1 X84.3203 Y853.3040 Z-19.0000 F2750
G1 X85.1098 Y853.2542 Z-19.0000 F2750
G1 X85.9008 Y853.2618 Z-19.0000 F2750
G1 X85.9008 Y851.2598 Z-19.0000 F2750
G1 X47.8989 Y851.2598 Z-19.0000 F2750
G1 X47.8989 Y853.2618 Z-19.0000 F2750
G1 X48.6900 Y853.2542 Z-19.0000 F2750
G1 X49.4795 Y853.3040 Z-19.0000 F2750
G1 X50.0023 Y853.4168 Z-19.0000 F2750
G1 X50.5256 Y853.6072 Z-19.0000 F2750
G1 X51.0326 Y853.8780 Z-19.0000 F2750
G1 X51.5051 Y854.2268 Z-19.0000 F2750
G1 X51.9256 Y854.6460 Z-19.0000 F2750
G1 X52.2795 Y855.1229 Z-19.0000 F2750
G1 X52.5561 Y855.6409 Z-19.0000 F2750
G1 X52.7506 Y856.1818 Z-19.0000 F2750
G1 X52.8632 Y856.7272 Z-19.0000 F2750
G1 X52.8989 Y857.2608 Z-19.0000 F2750
G1 X52.8989 Y1017.2606 Z-19.0000 F2750
G1 X52.8632 Y1017.7942 Z-19.0000 F2750
G1 X52.7506 Y1018.3396 Z-19.0000 F2750
G1 X52.5561 Y1018.8805 Z-19.0000 F2750
G1 X52.2795 Y1019.3985 Z-19.0000 F2750
G1 X51.9256 Y1019.8754 Z-19.0000 F2750
G1 X51.5051 Y1020.2946 Z-19.0000 F2750
G1 X51.0326 Y1020.6434 Z-19.0000 F2750
G1 X50.5256 Y1020.9142 Z-19.0000 F2750
G1 X50.0023 Y1021.1047 Z-19.0000 F2750
G1 X49.4795 Y1021.2174 Z-19.0000 F2750
G1 X48.6900 Y1021.2672 Z-19.0000 F2750
G1 X47.8989 Y1021.2596 Z-19.0000 F2750
G1 X47.8989 Y1023.2616 Z-19.0000 F2750
G1 X85.9008 Y1023.2616 Z-19.0000 F2750
G1 X85.9008 Y1021.2596 Z-19.0000 F2750
G1 X85.1098 Y1021.2672 Z-19.0000 F2750
G1 X84.3203 Y1021.2174 Z-19.0000 F2750
G1 X83.7975 Y1021.1047 Z-19.0000 F2750
G1 X83.2742 Y1020.9142 Z-19.0000 F2750
G1 X82.7672 Y1020.6434 Z-19.0000 F2750
G1 X82.2947 Y1020.2946 Z-19.0000 F2750
G1 X81.8742 Y1019.8754 Z-19.0000 F2750
G1 X81.5204 Y1019.3985 Z-19.0000 F2750
G1 X81.2437 Y1018.8805 Z-19.0000 F2750
G1 X81.0492 Y1018.3396 Z-19.0000 F2750
G1 X80.9366 Y1017.7942 Z-19.0000 F2750
G1 X80.9009 Y1017.2606 Z-19.0000 F2750
G1 X80.9009 Y937.2607 Z-19.0000 F2750
G1 X80.9009 Y937.2607 Z10.0000 F9999
G1 X609.8988 Y702.8104 Z10.0000 F9999
G1 X609.8988 Y702.8104 Z1.0000 F2000
G1 X570.9276 Y702.8104 Z-9.0000 F2000
G1 X609.8988 Y702.8104 Z-19.0000 F2000
G1 X568.8978 Y702.8104 Z-19.0000 F2750
G1 X568.8978 Y704.8124 Z-19.0000 F2750
G1 X569.6889 Y704.8047 Z-19.0000 F2750
G1 X570.4784 Y704.8546 Z-19.0000 F2750
G1 X571.0012 Y704.9673 Z-19.0000 F2750
G1 X571.5245 Y705.1577 Z-19.0000 F2750
G1 X572.0315 Y705.4285 Z-19.0000 F2750
G1 X572.5040 Y705.7774 Z-19.0000 F2750
G1 X572.9245 Y706.1966 Z-19.0000 F2750
G1 X573.2784 Y706.6734 Z-19.0000 F2750
G1 X573.5550 Y707.1914 Z-19.0000 F2750
G1 X573.7495 Y707.7323 Z-19.0000 F2750
G1 X573.8621 Y708.2778 Z-19.0000 F2750
G1 X573.8978 Y708.8114 Z-19.0000 F2750
G1 X573.8978 Y717.8124 Z-19.0000 F2750
G1 X575.8998 Y717.8124 Z-19.0000 F2750
G1 X575.8922 Y717.0213 Z-19.0000 F2750
G1 X575.9421 Y716.2318 Z-19.0000 F2750
G1 X576.0548 Y715.7090 Z-19.0000 F2750
G1 X576.2452 Y715.1857 Z-19.0000 F2750
G1 X576.5160 Y714.6787 Z-19.0000 F2750
G1 X576.8648 Y714.2062 Z-19.0000 F2750
G1 X577.2840 Y713.7857 Z-19.0000 F2750
G1 X577.7609 Y713.4319 Z-19.0000 F2750
G1 X578.2789 Y713.1552 Z-19.0000 F2750
G1 X578.8198 Y712.9607 Z-19.0000 F2750
G1 X579.3652 Y712.8481 Z-19.0000 F2750
G1 X579.8988 Y712.8124 Z-19.0000 F2750
G1 X639.8987 Y712.8124 Z-19.0000 F2750
G1 X640.4323 Y712.8481 Z-19.0000 F2750
G1 X640.9778 Y712.9607 Z-19.0000 F2750
G1 X641.5186 Y713.1552 Z-19.0000 F2750
G1 X642.0367 Y713.4319 Z-19.0000 F2750
G1 X642.5135 Y713.7857 Z-19.0000 F2750
G1 X642.9327 Y714.2062 Z-19.0000 F2750
G1 X643.2816 Y714.6787 Z-19.0000 F2750
G1 X643.5524 Y715.1857 Z-19.0000 F2750
G1 X643.7428 Y715.7090 Z-19.0000 F2750
G1 X643.8555 Y716.2318 Z-19.0000 F2750
G1 X643.9054 Y717.0213 Z-19.0000 F2750
G1 X643.8977 Y717.8124 Z-19.0000 F2750
G1 X645.8997 Y717.8124 Z-19.0000 F2750
G1 X645.8997 Y708.8114 Z-19.0000 F2750
G1 X645.9355 Y708.2778 Z-19.0000 F2750
G1 X646.0480 Y707.7323 Z-19.0000 F2750
G1 X646.2425 Y707.1914 Z-19.0000 F2750
G1 X646.5192 Y706.6734 Z-19.0000 F2750
G1 X646.8730 Y706.1966 Z-19.0000 F2750
G1 X647.2936 Y705.7774 Z-19.0000 F2750
G1 X647.7660 Y705.4285 Z-19.0000 F2750
G1 X648.2730 Y705.1577 Z-19.0000 F2750
G1 X648.7964 Y704.9673 Z-19.0000 F2750
G1 X649.3192 Y704.8546 Z-19.0000 F2750
G1 X650.1087 Y704.8047 Z-19.0000 F2750
G1 X650.8997 Y704.8124 Z-19.0000 F2750
G1 X650.8997 Y702.8104 Z-19.0000 F2750
G1 X609.8988 Y702.8104 Z-19.0000 F2750
G1 X609.8988 Y702.8104 Z10.0000 F9999
G1 X609.8988 Y136.9993 Z10.0000 F9999
G1 X609.8988 Y136.9993 Z1.0000 F2000
G1 X570.9276 Y136.9993 Z-9.0000 F2000
G1 X609.8988 Y136.9993 Z-19.0000 F2000
G1 X568.8978 Y136.9993 Z-19.0000 F2750
G1 X568.8978 Y139.0013 Z-19.0000 F2750
G1 X569.6889 Y138.9937 Z-19.0000 F2750
G1 X570.4784 Y139.0436 Z-19.0000 F2750
G1 X571.0012 Y139.1563 Z-19.0000 F2750
G1 X571.5245 Y139.3467 Z-19.0000 F2750
G1 X572.0315 Y139.6175 Z-19.0000 F2750
G1 X572.5040 Y139.9663 Z-19.0000 F2750
G1 X572.9245 Y140.3855 Z-19.0000 F2750
G1 X573.2784 Y140.8624 Z-19.0000 F2750
G1 X573.5550 Y141.3804 Z-19.0000 F2750
G1 X573.7495 Y141.9213 Z-19.0000 F2750
G1 X573.8621 Y142.4667 Z-19.0000 F2750
G1 X573.8978 Y143.0003 Z-19.0000 F2750
G1 X573.8978 Y152.0013 Z-19.0000 F2750
G1 X575.8998 Y152.0013 Z-19.0000 F2750
G1 X575.8922 Y151.2103 Z-19.0000 F2750
G1 X575.9421 Y150.4208 Z-19.0000 F2750
G1 X576.0548 Y149.8980 Z-19.0000 F2750
G1 X576.2452 Y149.3746 Z-19.0000 F2750
G1 X576.5160 Y148.8677 Z-19.0000 F2750
G1 X576.8648 Y148.3952 Z-19.0000 F2750
G1 X577.2840 Y147.9747 Z-19.0000 F2750
G1 X577.7609 Y147.6208 Z-19.0000 F2750
G1 X578.2789 Y147.3441 Z-19.0000 F2750
G1 X578.8198 Y147.1497 Z-19.0000 F2750
G1 X579.3652 Y147.0371 Z-19.0000 F2750
G1 X579.8988 Y147.0013 Z-19.0000 F2750
G1 X639.8987 Y147.0013 Z-19.0000 F2750
G1 X640.4323 Y147.0371 Z-19.0000 F2750
G1 X640.9778 Y147.1497 Z-19.0000 F2750
G1 X641.5186 Y147.3441 Z-19.0000 F2750
G1 X642.0367 Y147.6208 Z-19.0000 F2750
G1 X642.5135 Y147.9747 Z-19.0000 F2750
G1 X642.9327 Y148.3952 Z-19.0000 F2750
G1 X643.2816 Y148.8677 Z-19.0000 F2750
G1 X643.5524 Y149.3746 Z-19.0000 F2750
G1 X643.7428 Y149.8980 Z-19.0000 F2750
G1 X643.8555 Y150.4208 Z-19.0000 F2750
G1 X643.9054 Y151.2103 Z-19.0000 F2750
G1 X643.8977 Y152.0013 Z-19.0000 F2750
G1 X645.8997 Y152.0013 Z-19.0000 F2750
G1 X645.8997 Y143.0003 Z-19.0000 F2750
G1 X645.9355 Y142.4667 Z-19.0000 F2750
G1 X646.0480 Y141.9213 Z-19.0000 F2750
G1 X646.2425 Y141.3804 Z-19.0000 F2750
G1 X646.5192 Y140.8624 Z-19.0000 F2750
G1 X646.8730 Y140.3855 Z-19.0000 F2750
G1 X647.2936 Y139.9663 Z-19.0000 F2750
G1 X647.7660 Y139.6175 Z-19.0000 F2750
G1 X648.2730 Y139.3467 Z-19.0000 F2750
G1 X648.7964 Y139.1563 Z-19.0000 F2750
G1 X649.3192 Y139.0436 Z-19.0000 F2750
G1 X650.1087 Y138.9937 Z-19.0000 F2750
G1 X650.8997 Y139.0013 Z-19.0000 F2750
G1 X650.8997 Y136.9993 Z-19.0000 F2750
G1 X609.8988 Y136.9993 Z-19.0000 F2750
G1 X609.8988 Y136.9993 Z10.0000 F9999
G1 X1166.8987 Y371.4497 Z10.0000 F9999
G1 X1166.8987 Y371.4497 Z1.0000 F2000
G1 X1166.8987 Y332.4785 Z-9.0000 F2000
G1 X1166.8987 Y371.4497 Z-19.0000 F2000
G1 X1166.8987 Y291.4498 Z-19.0000 F2750
G1 X1166.9344 Y290.9162 Z-19.0000 F2750
G1 X1167.0470 Y290.3708 Z-19.0000 F2750
G1 X1167.2415 Y289.8299 Z-19.0000 F2750
G1 X1167.5182 Y289.3118 Z-19.0000 F2750
G1 X1167.8720 Y288.8350 Z-19.0000 F2750
G1 X1168.2925 Y288.4158 Z-19.0000 F2750
G1 X1168.7650 Y288.0670 Z-19.0000 F2750
G1 X1169.2720 Y287.7962 Z-19.0000 F2750
G1 X1169.7954 Y287.6057 Z-19.0000 F2750
G1 X1170.3181 Y287.4930 Z-19.0000 F2750
G1 X1171.1076 Y287.4432 Z-19.0000 F2750
G1 X1171.8986 Y287.4508 Z-19.0000 F2750
G1 X1171.8986 Y285.4488 Z-19.0000 F2750
G1 X1133.8967 Y285.4488 Z-19.0000 F2750
G1 X1133.8967 Y287.4508 Z-19.0000 F2750
G1 X1134.6877 Y287.4432 Z-19.0000 F2750
G1 X1135.4772 Y287.4930 Z-19.0000 F2750
G1 X1136.0000 Y287.6057 Z-19.0000 F2750
G1 X1136.5234 Y287.7962 Z-19.0000 F2750
G1 X1137.0304 Y288.0670 Z-19.0000 F2750
G1 X1137.5028 Y288.4158 Z-19.0000 F2750
G1 X1137.9234 Y288.8350 Z-19.0000 F2750
G1 X1138.2772 Y289.3118 Z-19.0000 F2750
G1 X1138.5539 Y289.8299 Z-19.0000 F2750
G1 X1138.7483 Y290.3708 Z-19.0000 F2750
G1 X1138.8609 Y290.9162 Z-19.0000 F2750
G1 X1138.8967 Y291.4498 Z-19.0000 F2750
G1 X1138.8967 Y451.4496 Z-19.0000 F2750
G1 X1138.8609 Y451.9832 Z-19.0000 F2750
G1 X1138.7483 Y452.5286 Z-19.0000 F2750
G1 X1138.5539 Y453.0695 Z-19.0000 F2750
G1 X1138.2772 Y453.5875 Z-19.0000 F2750
G1 X1137.9234 Y454.0644 Z-19.0000 F2750
G1 X1137.5028 Y454.4836 Z-19.0000 F2750
G1 X1137.0304 Y454.8324 Z-19.0000 F2750
G1 X1136.5234 Y455.1032 Z-19.0000 F2750
G1 X1136.0000 Y455.2936 Z-19.0000 F2750
G1 X1135.4772 Y455.4063 Z-19.0000 F2750
G1 X1134.6877 Y455.4562 Z-19.0000 F2750
G1 X1133.8967 Y455.4486 Z-19.0000 F2750
G1 X1133.8967 Y457.4506 Z-19.0000 F2750
G1 X1171.8986 Y457.4506 Z-19.0000 F2750
G1 X1171.8986 Y455.4486 Z-19.0000 F2750
G1 X1171.1076 Y455.4562 Z-19.0000 F2750
G1 X1170.3181 Y455.4063 Z-19.0000 F2750
G1 X1169.7954 Y455.2936 Z-19.0000 F2750
G1 X1169.2720 Y455.1032 Z-19.0000 F2750
G1 X1168.7650 Y454.8324 Z-19.0000 F2750
G1 X1168.2925 Y454.4836 Z-19.0000 F2750
G1 X1167.8720 Y454.0644 Z-19.0000 F2750
G1 X1167.5182 Y453.5875 Z-19.0000 F2750
G1 X1167.2415 Y453.0695 Z-19.0000 F2750
G1 X1167.0470 Y452.5286 Z-19.0000 F2750
G1 X1166.9344 Y451.9832 Z-19.0000 F2750
G1 X1166.8987 Y451.4496 Z-19.0000 F2750
G1 X1166.8987 Y371.4497 Z-19.0000 F2750
G1 X1166.8987 Y371.4497 Z10.0000 F9999
G1 X1166.8987 Y937.2607 Z10.0000 F9999
G1 X1166.8987 Y937.2607 Z1.0000 F2000
G1 X1166.8987 Y898.2896 Z-9.0000 F2000
G1 X1166.8987 Y937.2607 Z-19.0000 F2000
G1 X1166.8987 Y857.2608 Z-19.0000 F2750
G1 X1166.9344 Y856.7272 Z-19.0000 F2750
G1 X1167.0470 Y856.1818 Z-19.0000 F2750
G1 X1167.2415 Y855.6409 Z-19.0000 F2750
G1 X1167.5182 Y855.1229 Z-19.0000 F2750
G1 X1167.8720 Y854.6460 Z-19.0000 F2750
G1 X1168.2925 Y854.2268 Z-19.0000 F2750
G1 X1168.7650 Y853.8780 Z-19.0000 F2750
G1 X1169.2720 Y853.6072 Z-19.0000 F2750
G1 X1169.7954 Y853.4168 Z-19.0000 F2750
G1 X1170.3181 Y853.3040 Z-19.0000 F2750
G1 X1171.1076 Y853.2542 Z-19.0000 F2750
G1 X1171.8986 Y853.2618 Z-19.0000 F2750
G1 X1171.8986 Y851.2598 Z-19.0000 F2750
G1 X1133.8967 Y851.2598 Z-19.0000 F2750
G1 X1133.8967 Y853.2618 Z-19.0000 F2750
G1 X1134.6877 Y853.2542 Z-19.0000 F2750
G1 X1135.4772 Y853.3040 Z-19.0000 F2750
G1 X1136.0000 Y853.4168 Z-19.0000 F2750
G1 X1136.5234 Y853.6072 Z-19.0000 F2750
G1 X1137.0304 Y853.8780 Z-19.0000 F2750
G1 X1137.5028 Y854.2268 Z-19.0000 F2750
G1 X1137.9234 Y854.6460 Z-19.0000 F2750
G1 X1138.2772 Y855.1229 Z-19.0000 F2750
G1 X1138.5539 Y855.6409 Z-19.0000 F2750
G1 X1138.7483 Y856.1818 Z-19.0000 F2750
G1 X1138.8609 Y856.7272 Z-19.0000 F2750
G1 X1138.8967 Y857.2608 Z-19.0000 F2750
G1 X1138.8967 Y1017.2606 Z-19.0000 F2750
G1 X1138.8609 Y1017.7942 Z-19.0000 F2750
G1 X1138.7483 Y1018.3396 Z-19.0000 F2750
G1 X1138.5539 Y1018.8805 Z-19.0000 F2750
G1 X1138.2772 Y1019.3985 Z-19.0000 F2750
G1 X1137.9234 Y1019.8754 Z-19.0000 F2750
G1 X1137.5028 Y1020.2946 Z-19.0000 F2750
G1 X1137.0304 Y1020.6434 Z-19.0000 F2750
G1 X1136.5234 Y1020.9142 Z-19.0000 F2750
G1 X1136.0000 Y1021.1047 Z-19.0000 F2750
G1 X1135.4772 Y1021.2174 Z-19.0000 F2750
G1 X1134.6877 Y1021.2672 Z-19.0000 F2750
G1 X1133.8967 Y1021.2596 Z-19.0000 F2750
G1 X1133.8967 Y1023.2616 Z-19.0000 F2750
G1 X1171.8986 Y1023.2616 Z-19.0000 F2750
G1 X1171.8986 Y1021.2596 Z-19.0000 F2750
G1 X1171.1076 Y1021.2672 Z-19.0000 F2750
G1 X1170.3181 Y1021.2174 Z-19.0000 F2750
G1 X1169.7954 Y1021.1047 Z-19.0000 F2750
G1 X1169.2720 Y1020.9142 Z-19.0000 F2750
G1 X1168.7650 Y1020.6434 Z-19.0000 F2750
G1 X1168.2925 Y1020.2946 Z-19.0000 F2750
G1 X1167.8720 Y1019.8754 Z-19.0000 F2750
G1 X1167.5182 Y1019.3985 Z-19.0000 F2750
G1 X1167.2415 Y1018.8805 Z-19.0000 F2750
G1 X1167.0470 Y1018.3396 Z-19.0000 F2750
G1 X1166.9344 Y1017.7942 Z-19.0000 F2750
G1 X1166.8987 Y1017.2606 Z-19.0000 F2750
G1 X1166.8987 Y937.2607 Z-19.0000 F2750
G1 X1166.8987 Y937.2607 Z10.0000 F9999
(Tool Number:1) (7.998 mm dia. slot drill)
M3 S19000
G1 X534.8989 Y2331.5654 Z10.0000 F9999
G1 X534.8989 Y2331.5654 Z1.0000 F2000
G1 X495.9277 Y2331.5654 Z-9.0000 F2000
G1 X534.8989 Y2331.5654 Z-19.0000 F2000
G1 X9.9000 Y2331.5651 Z-19.0000 F2750
G1 X9.3205 Y2331.5229 Z-19.0000 F2750
G1 X8.7250 Y2331.3886 Z-19.0000 F2750
G1 X8.1354 Y2331.1547 Z-19.0000 F2750
G1 X7.5761 Y2330.8206 Z-19.0000 F2750
G1 X7.0723 Y2330.3939 Z-19.0000 F2750
G1 X6.6455 Y2329.8900 Z-19.0000 F2750
G1 X6.3114 Y2329.3308 Z-19.0000 F2750
G1 X6.0775 Y2328.7411 Z-19.0000 F2750
G1 X5.9432 Y2328.1457 Z-19.0000 F2750
G1 X5.9010 Y2327.5661 Z-19.0000 F2750
G1 X5.9011 Y1745.5661 Z-19.0000 F2750
G1 X5.9491 Y1744.9483 Z-19.0000 F2750
G1 X6.0956 Y1744.3341 Z-19.0000 F2750
G1 X6.3388 Y1743.7471 Z-19.0000 F2750
G1 X6.6695 Y1743.2093 Z-19.0000 F2750
G1 X7.0724 Y1742.7384 Z-19.0000 F2750
G1 X7.5433 Y1742.3355 Z-19.0000 F2750
G1 X8.0811 Y1742.0048 Z-19.0000 F2750
G1 X8.6681 Y1741.7617 Z-19.0000 F2750
G1 X9.2823 Y1741.6152 Z-19.0000 F2750
G1 X9.9001 Y1741.5671 Z-19.0000 F2750
G1 X80.0463 Y1741.5672 Z-19.0000 F2750
G1 X80.0463 Y1741.5672 Z-13.0000 F9999
G1 X108.0443 Y1741.5672 Z-13.0000 F2750
G1 X108.0443 Y1741.5672 Z-19.0000 F2000
G1 X996.3405 Y1741.5675 Z-19.0000 F2750
G1 X996.3405 Y1741.5675 Z-13.0000 F9999
G1 X1024.3385 Y1741.5675 Z-13.0000 F2750
G1 X1024.3385 Y1741.5675 Z-19.0000 F2000
G1 X1059.8979 Y1741.5675 Z-19.0000 F2750
G1 X1060.4775 Y1741.6097 Z-19.0000 F2750
G1 X1061.0729 Y1741.7440 Z-19.0000 F2750
G1 X1061.6626 Y1741.9779 Z-19.0000 F2750
G1 X1062.2218 Y1742.3120 Z-19.0000 F2750
G1 X1062.7256 Y1742.7388 Z-19.0000 F2750
G1 X1063.1524 Y1743.2427 Z-19.0000 F2750
G1 X1063.4865 Y1743.8019 Z-19.0000 F2750
G1 X1063.7204 Y1744.3916 Z-19.0000 F2750
G1 X1063.8547 Y1744.9870 Z-19.0000 F2750
G1 X1063.8969 Y1745.5665 Z-19.0000 F2750
G1 X1063.8967 Y2327.5666 Z-19.0000 F2750
G1 X1063.8487 Y2328.1845 Z-19.0000 F2750
G1 X1063.7022 Y2328.7987 Z-19.0000 F2750
G1 X1063.4591 Y2329.3856 Z-19.0000 F2750
G1 X1063.1284 Y2329.9235 Z-19.0000 F2750
G1 X1062.7255 Y2330.3944 Z-19.0000 F2750
G1 X1062.2546 Y2330.7973 Z-19.0000 F2750
G1 X1061.7168 Y2331.1280 Z-19.0000 F2750
G1 X1061.1298 Y2331.3711 Z-19.0000 F2750
G1 X1060.5156 Y2331.5176 Z-19.0000 F2750
G1 X1059.8977 Y2331.5656 Z-19.0000 F2750
G1 X534.8989 Y2331.5654 Z-19.0000 F2750
G1 X534.8989 Y2331.5654 Z10.0000 F9999
G1 X534.8989 Y1727.5213 Z10.0000 F9999
G1 X534.8989 Y1727.5213 Z1.0000 F2000
G1 X495.9277 Y1727.5213 Z-9.0000 F2000
G1 X534.8989 Y1727.5213 Z-19.0000 F2000
G1 X9.9000 Y1727.5210 Z-19.0000 F2750
G1 X9.3205 Y1727.4788 Z-19.0000 F2750
G1 X8.7250 Y1727.3445 Z-19.0000 F2750
G1 X8.1354 Y1727.1107 Z-19.0000 F2750
G1 X7.5761 Y1726.7765 Z-19.0000 F2750
G1 X7.0723 Y1726.3498 Z-19.0000 F2750
G1 X6.6455 Y1725.8459 Z-19.0000 F2750
G1 X6.3114 Y1725.2867 Z-19.0000 F2750
G1 X6.0775 Y1724.6970 Z-19.0000 F2750
G1 X5.9432 Y1724.1016 Z-19.0000 F2750
G1 X5.9010 Y1723.5220 Z-19.0000 F2750
G1 X5.9011 Y1141.5220 Z-19.0000 F2750
G1 X5.9491 Y1140.9042 Z-19.0000 F2750
G1 X6.0956 Y1140.2900 Z-19.0000 F2750
G1 X6.3388 Y1139.7030 Z-19.0000 F2750
G1 X6.6695 Y1139.1652 Z-19.0000 F2750
G1 X7.0724 Y1138.6943 Z-19.0000 F2750
G1 X7.5433 Y1138.2914 Z-19.0000 F2750
G1 X8.0811 Y1137.9607 Z-19.0000 F2750
G1 X8.6681 Y1137.7176 Z-19.0000 F2750
G1 X9.2823 Y1137.5711 Z-19.0000 F2750
G1 X9.9001 Y1137.5230 Z-19.0000 F2750
G1 X87.8115 Y1137.5231 Z-19.0000 F2750
G1 X87.8115 Y1137.5231 Z-13.0000 F9999
G1 X115.8095 Y1137.5231 Z-13.0000 F2750
G1 X115.8095 Y1137.5231 Z-19.0000 F2000
G1 X997.2033 Y1137.5234 Z-19.0000 F2750
G1 X997.2033 Y1137.5234 Z-13.0000 F9999
G1 X1025.2013 Y1137.5234 Z-13.0000 F2750
G1 X1025.2013 Y1137.5234 Z-19.0000 F2000
G1 X1059.8979 Y1137.5234 Z-19.0000 F2750
G1 X1060.4775 Y1137.5656 Z-19.0000 F2750
G1 X1061.0729 Y1137.6999 Z-19.0000 F2750
G1 X1061.6626 Y1137.9338 Z-19.0000 F2750
G1 X1062.2218 Y1138.2679 Z-19.0000 F2750
G1 X1062.7256 Y1138.6947 Z-19.0000 F2750
G1 X1063.1524 Y1139.1986 Z-19.0000 F2750
G1 X1063.4865 Y1139.7578 Z-19.0000 F2750
G1 X1063.7204 Y1140.3475 Z-19.0000 F2750
G1 X1063.8547 Y1140.9429 Z-19.0000 F2750
G1 X1063.8969 Y1141.5224 Z-19.0000 F2750
G1 X1063.8967 Y1723.5225 Z-19.0000 F2750
G1 X1063.8487 Y1724.1404 Z-19.0000 F2750
G1 X1063.7022 Y1724.7546 Z-19.0000 F2750
G1 X1063.4591 Y1725.3415 Z-19.0000 F2750
G1 X1063.1284 Y1725.8794 Z-19.0000 F2750
G1 X1062.7255 Y1726.3503 Z-19.0000 F2750
G1 X1062.2546 Y1726.7532 Z-19.0000 F2750
G1 X1061.7168 Y1727.0839 Z-19.0000 F2750
G1 X1061.1298 Y1727.3270 Z-19.0000 F2750
G1 X1060.5156 Y1727.4735 Z-19.0000 F2750
G1 X1059.8977 Y1727.5215 Z-19.0000 F2750
G1 X534.8989 Y1727.5213 Z-19.0000 F2750
G1 X534.8989 Y1727.5213 Z10.0000 F9999
G1 X603.9604 Y571.7120 Z10.0000 F9999
G1 X603.9604 Y571.7120 Z1.0000 F2000
G1 X642.9315 Y571.7120 Z-9.0000 F2000
G1 X603.9604 Y571.7120 Z-19.0000 F2000
G1 X1092.9741 Y571.7120 Z-19.0000 F2750
G1 X1092.9741 Y571.7120 Z-13.0000 F9999
G1 X1120.9721 Y571.7120 Z-13.0000 F2750
G1 X1120.9721 Y571.7120 Z-19.0000 F2000
G1 X1209.8977 Y571.7120 Z-19.0000 F2750
G1 X1210.5156 Y571.7600 Z-19.0000 F2750
G1 X1211.1297 Y571.9065 Z-19.0000 F2750
G1 X1211.7167 Y572.1497 Z-19.0000 F2750
G1 X1212.2545 Y572.4804 Z-19.0000 F2750
G1 X1212.7254 Y572.8833 Z-19.0000 F2750
G1 X1213.1283 Y573.3542 Z-19.0000 F2750
G1 X1213.4590 Y573.8920 Z-19.0000 F2750
G1 X1213.7022 Y574.4790 Z-19.0000 F2750
G1 X1213.8487 Y575.0932 Z-19.0000 F2750
G1 X1213.8967 Y575.7110 Z-19.0000 F2750
G1 X1213.8967 Y1054.5106 Z-19.0000 F2750
G1 X1213.8545 Y1055.0901 Z-19.0000 F2750
G1 X1213.7202 Y1055.6855 Z-19.0000 F2750
G1 X1213.4863 Y1056.2752 Z-19.0000 F2750
G1 X1213.1522 Y1056.8344 Z-19.0000 F2750
G1 X1212.7254 Y1057.3383 Z-19.0000 F2750
G1 X1212.2215 Y1057.7651 Z-19.0000 F2750
G1 X1211.6623 Y1058.0992 Z-19.0000 F2750
G1 X1211.0726 Y1058.3331 Z-19.0000 F2750
G1 X1210.4772 Y1058.4674 Z-19.0000 F2750
G1 X1209.8977 Y1058.5096 Z-19.0000 F2750
G1 X1157.1368 Y1058.5096 Z-19.0000 F2750
G1 X1156.1543 Y1058.7433 Z-19.0000 F2750
G1 X1155.7512 Y1059.0836 Z-19.0000 F2750
G1 X1155.5445 Y1059.5691 Z-19.0000 F2750
G1 X1155.6100 Y1060.5771 Z-19.0000 F2750
G1 X1171.4900 Y1112.1876 Z-19.0000 F2750
G1 X1171.6010 Y1112.6413 Z-19.0000 F2750
G1 X1171.6584 Y1113.1048 Z-19.0000 F2750
G1 X1171.8008 Y1115.2999 Z-19.0000 F2750
G1 X1171.7927 Y1115.9208 Z-19.0000 F2750
G1 X1171.6878 Y1116.5365 Z-19.0000 F2750
G1 X1171.4897 Y1117.1250 Z-19.0000 F2750
G1 X1170.6282 Y1119.1487 Z-19.0000 F2750
G1 X1170.3413 Y1119.6995 Z-19.0000 F2750
G1 X1169.9700 Y1120.2022 Z-19.0000 F2750
G1 X1169.5279 Y1120.6385 Z-19.0000 F2750
G1 X1167.8469 Y1122.0572 Z-19.0000 F2750
G1 X1167.3426 Y1122.4196 Z-19.0000 F2750
G1 X1166.7848 Y1122.7011 Z-19.0000 F2750
G1 X1166.1936 Y1122.8914 Z-19.0000 F2750
G1 X1164.0540 Y1123.4007 Z-19.0000 F2750
G1 X1163.5942 Y1123.4821 Z-19.0000 F2750
G1 X1163.1280 Y1123.5093 Z-19.0000 F2750
G1 X1056.6678 Y1123.5093 Z-19.0000 F2750
G1 X1056.2017 Y1123.4821 Z-19.0000 F2750
G1 X1055.7420 Y1123.4007 Z-19.0000 F2750
G1 X1053.6020 Y1122.8914 Z-19.0000 F2750
G1 X1053.0108 Y1122.7011 Z-19.0000 F2750
G1 X1052.4529 Y1122.4197 Z-19.0000 F2750
G1 X1051.9486 Y1122.0572 Z-19.0000 F2750
G1 X1050.2676 Y1120.6385 Z-19.0000 F2750
G1 X1049.8255 Y1120.2023 Z-19.0000 F2750
G1 X1049.4543 Y1119.6997 Z-19.0000 F2750
G1 X1049.1674 Y1119.1489 Z-19.0000 F2750
G1 X1048.3058 Y1117.1252 Z-19.0000 F2750
G1 X1048.1076 Y1116.5365 Z-19.0000 F2750
G1 X1048.0026 Y1115.9205 Z-19.0000 F2750
G1 X1047.9946 Y1115.2995 Z-19.0000 F2750
G1 X1048.1372 Y1113.1044 Z-19.0000 F2750
G1 X1048.1946 Y1112.6411 Z-19.0000 F2750
G1 X1048.3056 Y1112.1876 Z-19.0000 F2750
G1 X1064.1858 Y1060.5771 Z-19.0000 F2750
G1 X1064.2512 Y1059.5691 Z-19.0000 F2750
G1 X1064.0445 Y1059.0837 Z-19.0000 F2750
G1 X1063.6413 Y1058.7433 Z-19.0000 F2750
G1 X1062.6590 Y1058.5096 Z-19.0000 F2750
G1 X957.1371 Y1058.5096 Z-19.0000 F2750
G1 X956.1548 Y1058.7433 Z-19.0000 F2750
G1 X955.7515 Y1059.0837 Z-19.0000 F2750
G1 X955.5447 Y1059.5694 Z-19.0000 F2750
G1 X955.6101 Y1060.5771 Z-19.0000 F2750
G1 X971.4903 Y1112.1876 Z-19.0000 F2750
G1 X971.6014 Y1112.6411 Z-19.0000 F2750
G1 X971.6588 Y1113.1045 Z-19.0000 F2750
G1 X971.8013 Y1115.2996 Z-19.0000 F2750
G1 X971.7933 Y1115.9206 Z-19.0000 F2750
G1 X971.6883 Y1116.5366 Z-19.0000 F2750
G1 X971.4901 Y1117.1252 Z-19.0000 F2750
G1 X970.6285 Y1119.1489 Z-19.0000 F2750
G1 X970.3416 Y1119.6997 Z-19.0000 F2750
G1 X969.9704 Y1120.2023 Z-19.0000 F2750
G1 X969.5283 Y1120.6385 Z-19.0000 F2750
G1 X967.8473 Y1122.0572 Z-19.0000 F2750
G1 X967.3430 Y1122.4196 Z-19.0000 F2750
G1 X966.7852 Y1122.7011 Z-19.0000 F2750
G1 X966.1941 Y1122.8914 Z-19.0000 F2750
G1 X964.0544 Y1123.4007 Z-19.0000 F2750
G1 X963.5946 Y1123.4821 Z-19.0000 F2750
G1 X963.1285 Y1123.5093 Z-19.0000 F2750
G1 X856.6682 Y1123.5093 Z-19.0000 F2750
G1 X856.2021 Y1123.4821 Z-19.0000 F2750
G1 X855.7424 Y1123.4007 Z-19.0000 F2750
G1 X853.6024 Y1122.8914 Z-19.0000 F2750
G1 X853.0111 Y1122.7011 Z-19.0000 F2750
G1 X852.4532 Y1122.4196 Z-19.0000 F2750
G1 X851.9489 Y1122.0571 Z-19.0000 F2750
G1 X850.2680 Y1120.6384 Z-19.0000 F2750
G1 X849.8259 Y1120.2022 Z-19.0000 F2750
G1 X849.4547 Y1119.6996 Z-19.0000 F2750
G1 X849.1677 Y1119.1488 Z-19.0000 F2750
G1 X848.3062 Y1117.1251 Z-19.0000 F2750
G1 X848.1081 Y1116.5365 Z-19.0000 F2750
G1 X848.0031 Y1115.9206 Z-19.0000 F2750
G1 X847.9951 Y1115.2997 Z-19.0000 F2750
G1 X848.1375 Y1113.1046 Z-19.0000 F2750
G1 X848.1949 Y1112.6412 Z-19.0000 F2750
G1 X848.3060 Y1112.1876 Z-19.0000 F2750
G1 X864.1862 Y1060.5772 Z-19.0000 F2750
G1 X864.2516 Y1059.5694 Z-19.0000 F2750
G1 X864.0448 Y1059.0837 Z-19.0000 F2750
G1 X863.6416 Y1058.7433 Z-19.0000 F2750
G1 X862.6593 Y1058.5096 Z-19.0000 F2750
G1 X757.1375 Y1058.5096 Z-19.0000 F2750
G1 X756.1551 Y1058.7433 Z-19.0000 F2750
G1 X755.7519 Y1059.0837 Z-19.0000 F2750
G1 X755.5451 Y1059.5694 Z-19.0000 F2750
G1 X755.6105 Y1060.5771 Z-19.0000 F2750
G1 X771.4907 Y1112.1876 Z-19.0000 F2750
G1 X771.6017 Y1112.6411 Z-19.0000 F2750
G1 X771.6592 Y1113.1045 Z-19.0000 F2750
G1 X771.8017 Y1115.2996 Z-19.0000 F2750
G1 X771.7937 Y1115.9206 Z-19.0000 F2750
G1 X771.6887 Y1116.5366 Z-19.0000 F2750
G1 X771.4905 Y1117.1252 Z-19.0000 F2750
G1 X770.6289 Y1119.1489 Z-19.0000 F2750
G1 X770.3420 Y1119.6996 Z-19.0000 F2750
G1 X769.9708 Y1120.2022 Z-19.0000 F2750
G1 X769.5287 Y1120.6384 Z-19.0000 F2750
G1 X767.8478 Y1122.0571 Z-19.0000 F2750
G1 X767.3435 Y1122.4196 Z-19.0000 F2750
G1 X766.7856 Y1122.7011 Z-19.0000 F2750
G1 X766.1944 Y1122.8914 Z-19.0000 F2750
G1 X764.0544 Y1123.4007 Z-19.0000 F2750
G1 X763.5947 Y1123.4821 Z-19.0000 F2750
G1 X763.1286 Y1123.5093 Z-19.0000 F2750
G1 X656.6686 Y1123.5093 Z-19.0000 F2750
G1 X656.2025 Y1123.4821 Z-19.0000 F2750
G1 X655.7427 Y1123.4007 Z-19.0000 F2750
G1 X653.6028 Y1122.8914 Z-19.0000 F2750
G1 X653.0115 Y1122.7011 Z-19.0000 F2750
G1 X652.4537 Y1122.4196 Z-19.0000 F2750
G1 X651.9494 Y1122.0571 Z-19.0000 F2750
G1 X650.2684 Y1120.6384 Z-19.0000 F2750
G1 X649.8263 Y1120.2022 Z-19.0000 F2750
G1 X649.4551 Y1119.6996 Z-19.0000 F2750
G1 X649.1682 Y1119.1489 Z-19.0000 F2750
G1 X648.3066 Y1117.1252 Z-19.0000 F2750
G1 X648.1085 Y1116.5366 Z-19.0000 F2750
G1 X648.0035 Y1115.9206 Z-19.0000 F2750
G1 X647.9955 Y1115.2996 Z-19.0000 F2750
G1 X648.1380 Y1113.1045 Z-19.0000 F2750
G1 X648.1954 Y1112.6411 Z-19.0000 F2750
G1 X648.3064 Y1112.1876 Z-19.0000 F2750
G1 X664.1866 Y1060.5771 Z-19.0000 F2750
G1 X664.2520 Y1059.5694 Z-19.0000 F2750
G1 X664.0452 Y1059.0837 Z-19.0000 F2750
G1 X663.6420 Y1058.7433 Z-19.0000 F2750
G1 X662.6596 Y1058.5096 Z-19.0000 F2750
G1 X557.1379 Y1058.5096 Z-19.0000 F2750
G1 X556.1556 Y1058.7433 Z-19.0000 F2750
G1 X555.7524 Y1059.0837 Z-19.0000 F2750
G1 X555.5456 Y1059.5692 Z-19.0000 F2750
G1 X555.6111 Y1060.5769 Z-19.0000 F2750
G1 X571.4911 Y1112.1876 Z-19.0000 F2750
G1 X571.6022 Y1112.6411 Z-19.0000 F2750
G1 X571.6596 Y1113.1045 Z-19.0000 F2750
G1 X571.8021 Y1115.2996 Z-19.0000 F2750
G1 X571.7941 Y1115.9206 Z-19.0000 F2750
G1 X571.6891 Y1116.5366 Z-19.0000 F2750
G1 X571.4909 Y1117.1252 Z-19.0000 F2750
G1 X570.6293 Y1119.1489 Z-19.0000 F2750
G1 X570.3424 Y1119.6996 Z-19.0000 F2750
G1 X569.9712 Y1120.2022 Z-19.0000 F2750
G1 X569.5292 Y1120.6384 Z-19.0000 F2750
G1 X567.8482 Y1122.0571 Z-19.0000 F2750
G1 X567.3439 Y1122.4196 Z-19.0000 F2750
G1 X566.7860 Y1122.7011 Z-19.0000 F2750
G1 X566.1948 Y1122.8914 Z-19.0000 F2750
G1 X564.0548 Y1123.4007 Z-19.0000 F2750
G1 X563.5951 Y1123.4821 Z-19.0000 F2750
G1 X563.1290 Y1123.5093 Z-19.0000 F2750
G1 X456.6690 Y1123.5093 Z-19.0000 F2750
G1 X456.2029 Y1123.4821 Z-19.0000 F2750
G1 X455.7431 Y1123.4007 Z-19.0000 F2750
G1 X453.6032 Y1122.8914 Z-19.0000 F2750
G1 X453.0119 Y1122.7011 Z-19.0000 F2750
G1 X452.4540 Y1122.4196 Z-19.0000 F2750
G1 X451.9497 Y1122.0571 Z-19.0000 F2750
G1 X450.2688 Y1120.6384 Z-19.0000 F2750
G1 X449.8267 Y1120.2022 Z-19.0000 F2750
G1 X449.4555 Y1119.6996 Z-19.0000 F2750
G1 X449.1686 Y1119.1489 Z-19.0000 F2750
G1 X448.3071 Y1117.1252 Z-19.0000 F2750
G1 X448.1089 Y1116.5366 Z-19.0000 F2750
G1 X448.0039 Y1115.9206 Z-19.0000 F2750
G1 X447.9959 Y1115.2996 Z-19.0000 F2750
G1 X448.1384 Y1113.1046 Z-19.0000 F2750
G1 X448.1958 Y1112.6411 Z-19.0000 F2750
G1 X448.3068 Y1112.1876 Z-19.0000 F2750
G1 X464.1870 Y1060.5771 Z-19.0000 F2750
G1 X464.2525 Y1059.5692 Z-19.0000 F2750
G1 X464.0458 Y1059.0837 Z-19.0000 F2750
G1 X463.6426 Y1058.7433 Z-19.0000 F2750
G1 X462.6600 Y1058.5096 Z-19.0000 F2750
G1 X357.1383 Y1058.5096 Z-19.0000 F2750
G1 X356.1560 Y1058.7433 Z-19.0000 F2750
G1 X355.7528 Y1059.0837 Z-19.0000 F2750
G1 X355.5459 Y1059.5694 Z-19.0000 F2750
G1 X355.6114 Y1060.5771 Z-19.0000 F2750
G1 X371.4916 Y1112.1876 Z-19.0000 F2750
G1 X371.6026 Y1112.6411 Z-19.0000 F2750
G1 X371.6600 Y1113.1046 Z-19.0000 F2750
G1 X371.8025 Y1115.2996 Z-19.0000 F2750
G1 X371.7945 Y1115.9206 Z-19.0000 F2750
G1 X371.6895 Y1116.5366 Z-19.0000 F2750
G1 X371.4913 Y1117.1252 Z-19.0000 F2750
G1 X370.6297 Y1119.1489 Z-19.0000 F2750
G1 X370.3428 Y1119.6996 Z-19.0000 F2750
G1 X369.9716 Y1120.2022 Z-19.0000 F2750
G1 X369.5296 Y1120.6384 Z-19.0000 F2750
G1 X367.8486 Y1122.0571 Z-19.0000 F2750
G1 X367.3443 Y1122.4196 Z-19.0000 F2750
G1 X366.7864 Y1122.7011 Z-19.0000 F2750
G1 X366.1952 Y1122.8914 Z-19.0000 F2750
G1 X364.0552 Y1123.4007 Z-19.0000 F2750
G1 X363.5955 Y1123.4821 Z-19.0000 F2750
G1 X363.1294 Y1123.5093 Z-19.0000 F2750
G1 X256.6693 Y1123.5093 Z-19.0000 F2750
G1 X256.2032 Y1123.4821 Z-19.0000 F2750
G1 X255.7434 Y1123.4007 Z-19.0000 F2750
G1 X253.6036 Y1122.8914 Z-19.0000 F2750
G1 X253.0124 Y1122.7011 Z-19.0000 F2750
G1 X252.4545 Y1122.4197 Z-19.0000 F2750
G1 X251.9503 Y1122.0572 Z-19.0000 F2750
G1 X250.2692 Y1120.6385 Z-19.0000 F2750
G1 X249.8272 Y1120.2023 Z-19.0000 F2750
G1 X249.4559 Y1119.6997 Z-19.0000 F2750
G1 X249.1690 Y1119.1489 Z-19.0000 F2750
G1 X248.3074 Y1117.1252 Z-19.0000 F2750
G1 X248.1093 Y1116.5366 Z-19.0000 F2750
G1 X248.0043 Y1115.9206 Z-19.0000 F2750
G1 X247.9963 Y1115.2996 Z-19.0000 F2750
G1 X248.1388 Y1113.1045 Z-19.0000 F2750
G1 X248.1962 Y1112.6411 Z-19.0000 F2750
G1 X248.3072 Y1112.1876 Z-19.0000 F2750
G1 X264.1874 Y1060.5771 Z-19.0000 F2750
G1 X264.2528 Y1059.5694 Z-19.0000 F2750
G1 X264.0460 Y1059.0837 Z-19.0000 F2750
G1 X263.6428 Y1058.7433 Z-19.0000 F2750
G1 X262.6605 Y1058.5096 Z-19.0000 F2750
G1 X157.1387 Y1058.5096 Z-19.0000 F2750
G1 X156.1563 Y1058.7433 Z-19.0000 F2750
G1 X155.7531 Y1059.0837 Z-19.0000 F2750
G1 X155.5464 Y1059.5692 Z-19.0000 F2750
G1 X155.6118 Y1060.5771 Z-19.0000 F2750
G1 X171.4920 Y1112.1876 Z-19.0000 F2750
G1 X171.6030 Y1112.6411 Z-19.0000 F2750
G1 X171.6604 Y1113.1045 Z-19.0000 F2750
G1 X171.8030 Y1115.2996 Z-19.0000 F2750
G1 X171.7949 Y1115.9206 Z-19.0000 F2750
G1 X171.6899 Y1116.5366 Z-19.0000 F2750
G1 X171.4917 Y1117.1253 Z-19.0000 F2750
G1 X170.6301 Y1119.1489 Z-19.0000 F2750
G1 X170.3432 Y1119.6997 Z-19.0000 F2750
G1 X169.9720 Y1120.2023 Z-19.0000 F2750
G1 X169.5300 Y1120.6384 Z-19.0000 F2750
G1 X167.8490 Y1122.0571 Z-19.0000 F2750
G1 X167.3447 Y1122.4196 Z-19.0000 F2750
G1 X166.7868 Y1122.7011 Z-19.0000 F2750
G1 X166.1956 Y1122.8914 Z-19.0000 F2750
G1 X164.0558 Y1123.4007 Z-19.0000 F2750
G1 X163.5960 Y1123.4821 Z-19.0000 F2750
G1 X163.1299 Y1123.5093 Z-19.0000 F2750
G1 X56.6697 Y1123.5093 Z-19.0000 F2750
G1 X56.2036 Y1123.4821 Z-19.0000 F2750
G1 X55.7438 Y1123.4007 Z-19.0000 F2750
G1 X53.6040 Y1122.8914 Z-19.0000 F2750
G1 X53.0127 Y1122.7011 Z-19.0000 F2750
G1 X52.4549 Y1122.4196 Z-19.0000 F2750
G1 X51.9506 Y1122.0571 Z-19.0000 F2750
G1 X50.2696 Y1120.6384 Z-19.0000 F2750
G1 X49.8276 Y1120.2023 Z-19.0000 F2750
G1 X49.4564 Y1119.6997 Z-19.0000 F2750
G1 X49.1695 Y1119.1489 Z-19.0000 F2750
G1 X48.3078 Y1117.1253 Z-19.0000 F2750
G1 X48.1096 Y1116.5366 Z-19.0000 F2750
G1 X48.0046 Y1115.9206 Z-19.0000 F2750
G1 X47.9966 Y1115.2996 Z-19.0000 F2750
G1 X48.1391 Y1113.1045 Z-19.0000 F2750
G1 X48.1965 Y1112.6411 Z-19.0000 F2750
G1 X48.3076 Y1112.1876 Z-19.0000 F2750
G1 X64.1877 Y1060.5771 Z-19.0000 F2750
G1 X64.2532 Y1059.5692 Z-19.0000 F2750
G1 X64.0465 Y1059.0837 Z-19.0000 F2750
G1 X63.6432 Y1058.7433 Z-19.0000 F2750
G1 X62.6609 Y1058.5096 Z-19.0000 F2750
G1 X9.9000 Y1058.5096 Z-19.0000 F2750
G1 X9.3205 Y1058.4674 Z-19.0000 F2750
G1 X8.7250 Y1058.3331 Z-19.0000 F2750
G1 X8.1354 Y1058.0992 Z-19.0000 F2750
G1 X7.5761 Y1057.7651 Z-19.0000 F2750
G1 X7.0723 Y1057.3383 Z-19.0000 F2750
G1 X6.6455 Y1056.8344 Z-19.0000 F2750
G1 X6.3114 Y1056.2752 Z-19.0000 F2750
G1 X6.0775 Y1055.6855 Z-19.0000 F2750
G1 X5.9432 Y1055.0901 Z-19.0000 F2750
G1 X5.9010 Y1054.5106 Z-19.0000 F2750
G1 X5.9010 Y575.7110 Z-19.0000 F2750
G1 X5.9432 Y575.1315 Z-19.0000 F2750
G1 X6.0775 Y574.5361 Z-19.0000 F2750
G1 X6.3114 Y573.9464 Z-19.0000 F2750
G1 X6.6455 Y573.3872 Z-19.0000 F2750
G1 X7.0723 Y572.8833 Z-19.0000 F2750
G1 X7.5761 Y572.4565 Z-19.0000 F2750
G1 X8.1354 Y572.1224 Z-19.0000 F2750
G1 X8.7250 Y571.8885 Z-19.0000 F2750
G1 X9.3205 Y571.7542 Z-19.0000 F2750
G1 X9.9000 Y571.7120 Z-19.0000 F2750
G1 X86.9487 Y571.7120 Z-19.0000 F2750
G1 X86.9487 Y571.7120 Z-13.0000 F9999
G1 X114.9467 Y571.7120 Z-13.0000 F2750
G1 X114.9467 Y571.7120 Z-19.0000 F2000
G1 X603.9604 Y571.7120 Z-19.0000 F2750
G1 X603.9604 Y571.7120 Z10.0000 F9999
G1 X609.8988 Y5.9010 Z10.0000 F9999
G1 X609.8988 Y5.9010 Z1.0000 F2000
G1 X648.8700 Y5.9010 Z-9.0000 F2000
G1 X609.8988 Y5.9010 Z-19.0000 F2000
G1 X1209.8977 Y5.9010 Z-19.0000 F2750
G1 X1210.5156 Y5.9490 Z-19.0000 F2750
G1 X1211.1297 Y6.0955 Z-19.0000 F2750
G1 X1211.7167 Y6.3387 Z-19.0000 F2750
G1 X1212.2545 Y6.6693 Z-19.0000 F2750
G1 X1212.7254 Y7.0723 Z-19.0000 F2750
G1 X1213.1283 Y7.5431 Z-19.0000 F2750
G1 X1213.4590 Y8.0810 Z-19.0000 F2750
G1 X1213.7022 Y8.6680 Z-19.0000 F2750
G1 X1213.8487 Y9.2821 Z-19.0000 F2750
G1 X1213.8967 Y9.9000 Z-19.0000 F2750
G1 X1213.8967 Y488.6996 Z-19.0000 F2750
G1 X1213.8545 Y489.2791 Z-19.0000 F2750
G1 X1213.7202 Y489.8745 Z-19.0000 F2750
G1 X1213.4863 Y490.4642 Z-19.0000 F2750
G1 X1213.1522 Y491.0234 Z-19.0000 F2750
G1 X1212.7254 Y491.5273 Z-19.0000 F2750
G1 X1212.2215 Y491.9541 Z-19.0000 F2750
G1 X1211.6623 Y492.2882 Z-19.0000 F2750
G1 X1211.0726 Y492.5221 Z-19.0000 F2750
G1 X1210.4772 Y492.6563 Z-19.0000 F2750
G1 X1209.8977 Y492.6986 Z-19.0000 F2750
G1 X1157.1368 Y492.6986 Z-19.0000 F2750
G1 X1156.1543 Y492.9323 Z-19.0000 F2750
G1 X1155.7512 Y493.2726 Z-19.0000 F2750
G1 X1155.5445 Y493.7581 Z-19.0000 F2750
G1 X1155.6100 Y494.7661 Z-19.0000 F2750
G1 X1171.4900 Y546.3765 Z-19.0000 F2750
G1 X1171.6010 Y546.8303 Z-19.0000 F2750
G1 X1171.6584 Y547.2938 Z-19.0000 F2750
G1 X1171.8008 Y549.4889 Z-19.0000 F2750
G1 X1171.7927 Y550.1097 Z-19.0000 F2750
G1 X1171.6878 Y550.7255 Z-19.0000 F2750
G1 X1171.4897 Y551.3140 Z-19.0000 F2750
G1 X1170.6282 Y553.3376 Z-19.0000 F2750
G1 X1170.3413 Y553.8885 Z-19.0000 F2750
G1 X1169.9700 Y554.3912 Z-19.0000 F2750
G1 X1169.5279 Y554.8274 Z-19.0000 F2750
G1 X1167.8469 Y556.2461 Z-19.0000 F2750
G1 X1167.3426 Y556.6086 Z-19.0000 F2750
G1 X1166.7848 Y556.8901 Z-19.0000 F2750
G1 X1166.1936 Y557.0804 Z-19.0000 F2750
G1 X1164.0540 Y557.5896 Z-19.0000 F2750
G1 X1163.5942 Y557.6711 Z-19.0000 F2750
G1 X1163.1280 Y557.6983 Z-19.0000 F2750
G1 X1056.6678 Y557.6983 Z-19.0000 F2750
G1 X1056.2017 Y557.6711 Z-19.0000 F2750
G1 X1055.7420 Y557.5897 Z-19.0000 F2750
G1 X1053.6020 Y557.0804 Z-19.0000 F2750
G1 X1053.0108 Y556.8901 Z-19.0000 F2750
G1 X1052.4529 Y556.6086 Z-19.0000 F2750
G1 X1051.9486 Y556.2461 Z-19.0000 F2750
G1 X1050.2676 Y554.8274 Z-19.0000 F2750
G1 X1049.8255 Y554.3912 Z-19.0000 F2750
G1 X1049.4543 Y553.8886 Z-19.0000 F2750
G1 X1049.1674 Y553.3378 Z-19.0000 F2750
G1 X1048.3058 Y551.3141 Z-19.0000 F2750
G1 X1048.1076 Y550.7255 Z-19.0000 F2750
G1 X1048.0026 Y550.1095 Z-19.0000 F2750
G1 X1047.9946 Y549.4885 Z-19.0000 F2750
G1 X1048.1372 Y547.2934 Z-19.0000 F2750
G1 X1048.1946 Y546.8300 Z-19.0000 F2750
G1 X1048.3056 Y546.3765 Z-19.0000 F2750
G1 X1064.1858 Y494.7661 Z-19.0000 F2750
G1 X1064.2512 Y493.7581 Z-19.0000 F2750
G1 X1064.0445 Y493.2726 Z-19.0000 F2750
G1 X1063.6413 Y492.9323 Z-19.0000 F2750
G1 X1062.6590 Y492.6986 Z-19.0000 F2750
G1 X957.1371 Y492.6986 Z-19.0000 F2750
G1 X956.1548 Y492.9323 Z-19.0000 F2750
G1 X955.7515 Y493.2727 Z-19.0000 F2750
G1 X955.5447 Y493.7584 Z-19.0000 F2750
G1 X955.6101 Y494.7660 Z-19.0000 F2750
G1 X971.4903 Y546.3765 Z-19.0000 F2750
G1 X971.6014 Y546.8301 Z-19.0000 F2750
G1 X971.6588 Y547.2935 Z-19.0000 F2750
G1 X971.8013 Y549.4886 Z-19.0000 F2750
G1 X971.7933 Y550.1096 Z-19.0000 F2750
G1 X971.6883 Y550.7255 Z-19.0000 F2750
G1 X971.4901 Y551.3141 Z-19.0000 F2750
G1 X970.6285 Y553.3378 Z-19.0000 F2750
G1 X970.3416 Y553.8886 Z-19.0000 F2750
G1 X969.9704 Y554.3912 Z-19.0000 F2750
G1 X969.5283 Y554.8274 Z-19.0000 F2750
G1 X967.8473 Y556.2461 Z-19.0000 F2750
G1 X967.3430 Y556.6086 Z-19.0000 F2750
G1 X966.7852 Y556.8901 Z-19.0000 F2750
G1 X966.1941 Y557.0804 Z-19.0000 F2750
G1 X964.0544 Y557.5896 Z-19.0000 F2750
G1 X963.5946 Y557.6711 Z-19.0000 F2750
G1 X963.1285 Y557.6983 Z-19.0000 F2750
G1 X856.6682 Y557.6983 Z-19.0000 F2750
G1 X856.2021 Y557.6711 Z-19.0000 F2750
G1 X855.7424 Y557.5897 Z-19.0000 F2750
G1 X853.6024 Y557.0804 Z-19.0000 F2750
G1 X853.0111 Y556.8901 Z-19.0000 F2750
G1 X852.4532 Y556.6086 Z-19.0000 F2750
G1 X851.9489 Y556.2461 Z-19.0000 F2750
G1 X850.2680 Y554.8274 Z-19.0000 F2750
G1 X849.8259 Y554.3912 Z-19.0000 F2750
G1 X849.4547 Y553.8886 Z-19.0000 F2750
G1 X849.1677 Y553.3377 Z-19.0000 F2750
G1 X848.3062 Y551.3141 Z-19.0000 F2750
G1 X848.1081 Y550.7255 Z-19.0000 F2750
G1 X848.0031 Y550.1096 Z-19.0000 F2750
G1 X847.9951 Y549.4887 Z-19.0000 F2750
G1 X848.1375 Y547.2936 Z-19.0000 F2750
G1 X848.1949 Y546.8301 Z-19.0000 F2750
G1 X848.3060 Y546.3765 Z-19.0000 F2750
G1 X864.1862 Y494.7661 Z-19.0000 F2750
G1 X864.2516 Y493.7584 Z-19.0000 F2750
G1 X864.0448 Y493.2727 Z-19.0000 F2750
G1 X863.6416 Y492.9323 Z-19.0000 F2750
G1 X862.6593 Y492.6986 Z-19.0000 F2750
G1 X757.1375 Y492.6986 Z-19.0000 F2750
G1 X756.1551 Y492.9323 Z-19.0000 F2750
G1 X755.7519 Y493.2727 Z-19.0000 F2750
G1 X755.5451 Y493.7584 Z-19.0000 F2750
G1 X755.6105 Y494.7661 Z-19.0000 F2750
G1 X771.4907 Y546.3765 Z-19.0000 F2750
G1 X771.6017 Y546.8301 Z-19.0000 F2750
G1 X771.6592 Y547.2935 Z-19.0000 F2750
G1 X771.8017 Y549.4886 Z-19.0000 F2750
G1 X771.7937 Y550.1096 Z-19.0000 F2750
G1 X771.6887 Y550.7255 Z-19.0000 F2750
G1 X771.4905 Y551.3141 Z-19.0000 F2750
G1 X770.6289 Y553.3378 Z-19.0000 F2750
G1 X770.3420 Y553.8886 Z-19.0000 F2750
G1 X769.9708 Y554.3912 Z-19.0000 F2750
G1 X769.5287 Y554.8274 Z-19.0000 F2750
G1 X767.8478 Y556.2461 Z-19.0000 F2750
G1 X767.3435 Y556.6086 Z-19.0000 F2750
G1 X766.7856 Y556.8901 Z-19.0000 F2750
G1 X766.1944 Y557.0804 Z-19.0000 F2750
G1 X764.0544 Y557.5897 Z-19.0000 F2750
G1 X763.5947 Y557.6711 Z-19.0000 F2750
G1 X763.1286 Y557.6983 Z-19.0000 F2750
G1 X656.6686 Y557.6983 Z-19.0000 F2750
G1 X656.2025 Y557.6711 Z-19.0000 F2750
G1 X655.7427 Y557.5897 Z-19.0000 F2750
G1 X653.6028 Y557.0804 Z-19.0000 F2750
G1 X653.0115 Y556.8901 Z-19.0000 F2750
G1 X652.4537 Y556.6086 Z-19.0000 F2750
G1 X651.9494 Y556.2461 Z-19.0000 F2750
G1 X650.2684 Y554.8274 Z-19.0000 F2750
G1 X649.8263 Y554.3912 Z-19.0000 F2750
G1 X649.4551 Y553.8886 Z-19.0000 F2750
G1 X649.1682 Y553.3378 Z-19.0000 F2750
G1 X648.3066 Y551.3141 Z-19.0000 F2750
G1 X648.1085 Y550.7255 Z-19.0000 F2750
G1 X648.0035 Y550.1096 Z-19.0000 F2750
G1 X647.9955 Y549.4886 Z-19.0000 F2750
G1 X648.1380 Y547.2935 Z-19.0000 F2750
G1 X648.1954 Y546.8301 Z-19.0000 F2750
G1 X648.3064 Y546.3765 Z-19.0000 F2750
G1 X664.1866 Y494.7661 Z-19.0000 F2750
G1 X664.2520 Y493.7584 Z-19.0000 F2750
G1 X664.0452 Y493.2727 Z-19.0000 F2750
G1 X663.6420 Y492.9323 Z-19.0000 F2750
G1 X662.6596 Y492.6986 Z-19.0000 F2750
G1 X557.1379 Y492.6986 Z-19.0000 F2750
G1 X556.1556 Y492.9323 Z-19.0000 F2750
G1 X555.7524 Y493.2727 Z-19.0000 F2750
G1 X555.5456 Y493.7582 Z-19.0000 F2750
G1 X555.6111 Y494.7659 Z-19.0000 F2750
G1 X571.4911 Y546.3766 Z-19.0000 F2750
G1 X571.6022 Y546.8301 Z-19.0000 F2750
G1 X571.6596 Y547.2935 Z-19.0000 F2750
G1 X571.8021 Y549.4886 Z-19.0000 F2750
G1 X571.7941 Y550.1096 Z-19.0000 F2750
G1 X571.6891 Y550.7255 Z-19.0000 F2750
G1 X571.4909 Y551.3141 Z-19.0000 F2750
G1 X570.6293 Y553.3378 Z-19.0000 F2750
G1 X570.3424 Y553.8886 Z-19.0000 F2750
G1 X569.9712 Y554.3912 Z-19.0000 F2750
G1 X569.5292 Y554.8274 Z-19.0000 F2750
G1 X567.8482 Y556.2461 Z-19.0000 F2750
G1 X567.3439 Y556.6086 Z-19.0000 F2750
G1 X566.7860 Y556.8901 Z-19.0000 F2750
G1 X566.1948 Y557.0804 Z-19.0000 F2750
G1 X564.0548 Y557.5897 Z-19.0000 F2750
G1 X563.5951 Y557.6711 Z-19.0000 F2750
G1 X563.1290 Y557.6983 Z-19.0000 F2750
G1 X456.6690 Y557.6983 Z-19.0000 F2750
G1 X456.2029 Y557.6711 Z-19.0000 F2750
G1 X455.7431 Y557.5897 Z-19.0000 F2750
G1 X453.6032 Y557.0804 Z-19.0000 F2750
G1 X453.0119 Y556.8901 Z-19.0000 F2750
G1 X452.4540 Y556.6086 Z-19.0000 F2750
G1 X451.9497 Y556.2461 Z-19.0000 F2750
G1 X450.2688 Y554.8274 Z-19.0000 F2750
G1 X449.8267 Y554.3912 Z-19.0000 F2750
G1 X449.4555 Y553.8886 Z-19.0000 F2750
G1 X449.1686 Y553.3378 Z-19.0000 F2750
G1 X448.3071 Y551.3141 Z-19.0000 F2750
G1 X448.1089 Y550.7256 Z-19.0000 F2750
G1 X448.0039 Y550.1096 Z-19.0000 F2750
G1 X447.9959 Y549.4886 Z-19.0000 F2750
G1 X448.1384 Y547.2935 Z-19.0000 F2750
G1 X448.1958 Y546.8301 Z-19.0000 F2750
G1 X448.3068 Y546.3765 Z-19.0000 F2750
G1 X464.1870 Y494.7661 Z-19.0000 F2750
G1 X464.2525 Y493.7582 Z-19.0000 F2750
G1 X464.0458 Y493.2727 Z-19.0000 F2750
G1 X463.6426 Y492.9323 Z-19.0000 F2750
G1 X462.6600 Y492.6986 Z-19.0000 F2750
G1 X357.1383 Y492.6986 Z-19.0000 F2750
G1 X356.1560 Y492.9323 Z-19.0000 F2750
G1 X355.7528 Y493.2727 Z-19.0000 F2750
G1 X355.5459 Y493.7584 Z-19.0000 F2750
G1 X355.6114 Y494.7661 Z-19.0000 F2750
G1 X371.4916 Y546.3765 Z-19.0000 F2750
G1 X371.6026 Y546.8301 Z-19.0000 F2750
G1 X371.6600 Y547.2935 Z-19.0000 F2750
G1 X371.8025 Y549.4886 Z-19.0000 F2750
G1 X371.7945 Y550.1096 Z-19.0000 F2750
G1 X371.6895 Y550.7256 Z-19.0000 F2750
G1 X371.4913 Y551.3141 Z-19.0000 F2750
G1 X370.6297 Y553.3378 Z-19.0000 F2750
G1 X370.3428 Y553.8886 Z-19.0000 F2750
G1 X369.9716 Y554.3912 Z-19.0000 F2750
G1 X369.5296 Y554.8274 Z-19.0000 F2750
G1 X367.8486 Y556.2461 Z-19.0000 F2750
G1 X367.3443 Y556.6086 Z-19.0000 F2750
G1 X366.7864 Y556.8901 Z-19.0000 F2750
G1 X366.1952 Y557.0804 Z-19.0000 F2750
G1 X364.0552 Y557.5897 Z-19.0000 F2750
G1 X363.5955 Y557.6711 Z-19.0000 F2750
G1 X363.1294 Y557.6983 Z-19.0000 F2750
G1 X256.6693 Y557.6983 Z-19.0000 F2750
G1 X256.2032 Y557.6711 Z-19.0000 F2750
G1 X255.7434 Y557.5897 Z-19.0000 F2750
G1 X253.6036 Y557.0804 Z-19.0000 F2750
G1 X253.0124 Y556.8901 Z-19.0000 F2750
G1 X252.4545 Y556.6086 Z-19.0000 F2750
G1 X251.9503 Y556.2461 Z-19.0000 F2750
G1 X250.2692 Y554.8274 Z-19.0000 F2750
G1 X249.8272 Y554.3912 Z-19.0000 F2750
G1 X249.4559 Y553.8886 Z-19.0000 F2750
G1 X249.1690 Y553.3378 Z-19.0000 F2750
G1 X248.3074 Y551.3141 Z-19.0000 F2750
G1 X248.1093 Y550.7255 Z-19.0000 F2750
G1 X248.0043 Y550.1096 Z-19.0000 F2750
G1 X247.9963 Y549.4886 Z-19.0000 F2750
G1 X248.1388 Y547.2935 Z-19.0000 F2750
G1 X248.1962 Y546.8301 Z-19.0000 F2750
G1 X248.3072 Y546.3765 Z-19.0000 F2750
G1 X264.1874 Y494.7661 Z-19.0000 F2750
G1 X264.2528 Y493.7584 Z-19.0000 F2750
G1 X264.0460 Y493.2727 Z-19.0000 F2750
G1 X263.6428 Y492.9323 Z-19.0000 F2750
G1 X262.6605 Y492.6986 Z-19.0000 F2750
G1 X157.1387 Y492.6986 Z-19.0000 F2750
G1 X156.1563 Y492.9323 Z-19.0000 F2750
G1 X155.7531 Y493.2727 Z-19.0000 F2750
G1 X155.5464 Y493.7582 Z-19.0000 F2750
G1 X155.6118 Y494.7661 Z-19.0000 F2750
G1 X171.4920 Y546.3765 Z-19.0000 F2750
G1 X171.6030 Y546.8301 Z-19.0000 F2750
G1 X171.6604 Y547.2935 Z-19.0000 F2750
G1 X171.8030 Y549.4886 Z-19.0000 F2750
G1 X171.7949 Y550.1096 Z-19.0000 F2750
G1 X171.6899 Y550.7256 Z-19.0000 F2750
G1 X171.4917 Y551.3142 Z-19.0000 F2750
G1 X170.6301 Y553.3379 Z-19.0000 F2750
G1 X170.3432 Y553.8887 Z-19.0000 F2750
G1 X169.9720 Y554.3912 Z-19.0000 F2750
G1 X169.5300 Y554.8274 Z-19.0000 F2750
G1 X167.8490 Y556.2461 Z-19.0000 F2750
G1 X167.3447 Y556.6086 Z-19.0000 F2750
G1 X166.7868 Y556.8901 Z-19.0000 F2750
G1 X166.1956 Y557.0804 Z-19.0000 F2750
G1 X164.0558 Y557.5897 Z-19.0000 F2750
G1 X163.5960 Y557.6711 Z-19.0000 F2750
G1 X163.1299 Y557.6983 Z-19.0000 F2750
G1 X56.6697 Y557.6983 Z-19.0000 F2750
G1 X56.2036 Y557.6711 Z-19.0000 F2750
G1 X55.7438 Y557.5897 Z-19.0000 F2750
G1 X53.6040 Y557.0804 Z-19.0000 F2750
G1 X53.0127 Y556.8901 Z-19.0000 F2750
G1 X52.4549 Y556.6086 Z-19.0000 F2750
G1 X51.9506 Y556.2461 Z-19.0000 F2750
G1 X50.2696 Y554.8274 Z-19.0000 F2750
G1 X49.8276 Y554.3912 Z-19.0000 F2750
G1 X49.4564 Y553.8887 Z-19.0000 F2750
G1 X49.1695 Y553.3379 Z-19.0000 F2750
G1 X48.3078 Y551.3142 Z-19.0000 F2750
G1 X48.1096 Y550.7256 Z-19.0000 F2750
G1 X48.0046 Y550.1096 Z-19.0000 F2750
G1 X47.9966 Y549.4886 Z-19.0000 F2750
G1 X48.1391 Y547.2935 Z-19.0000 F2750
G1 X48.1965 Y546.8301 Z-19.0000 F2750
G1 X48.3076 Y546.3765 Z-19.0000 F2750
G1 X64.1877 Y494.7660 Z-19.0000 F2750
G1 X64.2532 Y493.7582 Z-19.0000 F2750
G1 X64.0465 Y493.2727 Z-19.0000 F2750
G1 X63.6432 Y492.9323 Z-19.0000 F2750
G1 X62.6609 Y492.6986 Z-19.0000 F2750
G1 X9.9000 Y492.6986 Z-19.0000 F2750
G1 X9.3205 Y492.6563 Z-19.0000 F2750
G1 X8.7250 Y492.5221 Z-19.0000 F2750
G1 X8.1354 Y492.2882 Z-19.0000 F2750
G1 X7.5761 Y491.9541 Z-19.0000 F2750
G1 X7.0723 Y491.5273 Z-19.0000 F2750
G1 X6.6455 Y491.0234 Z-19.0000 F2750
G1 X6.3114 Y490.4642 Z-19.0000 F2750
G1 X6.0775 Y489.8745 Z-19.0000 F2750
G1 X5.9432 Y489.2791 Z-19.0000 F2750
G1 X5.9010 Y488.6996 Z-19.0000 F2750
G1 X5.9010 Y9.9000 Z-19.0000 F2750
G1 X5.9432 Y9.3205 Z-19.0000 F2750
G1 X6.0775 Y8.7250 Z-19.0000 F2750
G1 X6.3114 Y8.1354 Z-19.0000 F2750
G1 X6.6455 Y7.5761 Z-19.0000 F2750
G1 X7.0723 Y7.0723 Z-19.0000 F2750
G1 X7.5761 Y6.6455 Z-19.0000 F2750
G1 X8.1354 Y6.3114 Z-19.0000 F2750
G1 X8.7250 Y6.0775 Z-19.0000 F2750
G1 X9.3205 Y5.9432 Z-19.0000 F2750
G1 X9.9000 Y5.9010 Z-19.0000 F2750
G1 X609.8988 Y5.9010 Z-19.0000 F2750
G1 X609.8988 Y5.9010 Z10.0000 F9999
G1 X1900.0000 Y2800.0000 Z80.0000 F9999
G1 Z80.0000 F9999
G1 X1900.0000 Y2800.0000 F9999
M5
M30
