(plotsheet 2n3_nested_153 sheets_final v1_0_sheet 63 to 64_S63.0_6 screws_CC8 - stepover 1mm)
(Material Size) (X=1220.000, Y=2440.000, Z=21.000)
(LinuxCNC_NoArcs_MM_TC_medium_50um_G1_verbose.con)
G90 G80 G21 G49
G64 P0.050
M6 T1
(Tool Number:1) (7.998 mm dia. slot drill)
G43 H1 G0Z30.0000
M3 S19000
G04 P10
G1 X82.8289 Y93.3381 Z10.0000 F9999
G1 X82.8289 Y93.3381 Z2.0000 F9999
G1 X82.8289 Y93.3381 Z-2.0000 F2000
G1 X82.8289 Y93.3381 Z10.0000 F9999
G1 X84.5545 Y807.7369 Z10.0000 F9999
G1 X84.5545 Y807.7369 Z2.0000 F9999
G1 X84.5545 Y807.7369 Z-2.0000 F2000
G1 X84.5545 Y807.7369 Z10.0000 F9999
G1 X91.4569 Y1710.2263 Z10.0000 F9999
G1 X91.4569 Y1710.2263 Z2.0000 F9999
G1 X91.4569 Y1710.2263 Z-2.0000 F2000
G1 X91.4569 Y1710.2263 Z10.0000 F9999
G1 X162.5468 Y2261.0659 Z10.0000 F9999
G1 X162.5468 Y2261.0659 Z2.0000 F9999
G1 X162.5468 Y2261.0659 Z-2.0000 F2000
G1 X162.5468 Y2261.0659 Z10.0000 F9999
G1 X999.1230 Y2253.7908 Z10.0000 F9999
G1 X999.1230 Y2253.7908 Z2.0000 F9999
G1 X999.1230 Y2253.7908 Z-2.0000 F2000
G1 X999.1230 Y2253.7908 Z10.0000 F9999
G1 X981.9438 Y75.5328 Z10.0000 F9999
G1 X981.9438 Y75.5328 Z2.0000 F9999
G1 X981.9438 Y75.5328 Z-2.0000 F2000
G1 X981.9438 Y75.5328 Z10.0000 F9999
G1 X1900.0000 Y2800.0000 Z80.0000 F9999
G1 Z80.0000 F9999
G1 X1900.0000 Y2800.0000 F9999
M5
M30
