(plotsheet 2n3_nested_153 sheets_final v1_0_sheet 1 to 14__S1.1_text_CC8 - stepover 1mm)
(Material Size) (X=1220.000, Y=2440.000, Z=21.000)
(LinuxCNC_NoArcs_MM_TC_medium_50um_G1_verbose.con)
G90 G80 G21 G49
G64 P0.050
M6 T1
(Tool Number:1) (7.998 mm dia. slot drill)
G43 H1 G0Z30.0000
M3 S19000
G04 P10
G1 X577.0456 Y1129.2317 Z10.0000 F9999
G1 X577.0456 Y1129.2317 Z-1.5000 F2000
G1 X564.4218 Y1129.2317 Z-1.5000 F4000
G1 X564.4218 Y1170.3326 Z-1.5000 F4000
G1 X564.4218 Y1129.2317 Z-1.5000 F4000
G1 X564.4218 Y1129.2317 Z10.0000 F9999
G1 X603.7612 Y1170.3326 Z10.0000 F9999
G1 X603.7612 Y1170.3326 Z-1.5000 F2000
G1 X592.4585 Y1154.3693 Z-1.5000 F4000
G1 X591.0719 Y1152.4074 Z-1.5000 F4000
G1 X589.7429 Y1150.4060 Z-1.5000 F4000
G1 X587.8163 Y1143.1950 Z-1.5000 F4000
G1 X588.9172 Y1137.7638 Z-1.5000 F4000
G1 X591.8713 Y1133.3418 Z-1.5000 F4000
G1 X596.2383 Y1130.3326 Z-1.5000 F4000
G1 X601.6328 Y1129.2317 Z-1.5000 F4000
G1 X607.0273 Y1130.3326 Z-1.5000 F4000
G1 X611.4676 Y1133.3418 Z-1.5000 F4000
G1 X614.4585 Y1137.7638 Z-1.5000 F4000
G1 X615.5594 Y1143.1950 Z-1.5000 F4000
G1 X614.4585 Y1148.6078 Z-1.5000 F4000
G1 X611.4676 Y1153.0298 Z-1.5000 F4000
G1 X607.0273 Y1156.0023 Z-1.5000 F4000
G1 X601.6328 Y1157.1032 Z-1.5000 F4000
G1 X594.7154 Y1155.2500 Z-1.5000 F4000
G1 X589.7429 Y1150.4060 Z-1.5000 F4000
G1 X594.7154 Y1155.2500 Z-1.5000 F4000
G1 X601.6328 Y1157.1032 Z-1.5000 F4000
G1 X607.0273 Y1156.0023 Z-1.5000 F4000
G1 X611.4676 Y1153.0298 Z-1.5000 F4000
G1 X614.4585 Y1148.6078 Z-1.5000 F4000
G1 X615.5594 Y1143.1950 Z-1.5000 F4000
G1 X614.4585 Y1137.7638 Z-1.5000 F4000
G1 X611.4676 Y1133.3418 Z-1.5000 F4000
G1 X607.0273 Y1130.3326 Z-1.5000 F4000
G1 X601.6328 Y1129.2317 Z-1.5000 F4000
G1 X596.2383 Y1130.3326 Z-1.5000 F4000
G1 X591.8713 Y1133.3418 Z-1.5000 F4000
G1 X588.9172 Y1137.7638 Z-1.5000 F4000
G1 X587.8163 Y1143.1950 Z-1.5000 F4000
G1 X589.7429 Y1150.4060 Z-1.5000 F4000
G1 X590.6970 Y1151.8555 Z-1.5000 F4000
G1 X597.2291 Y1161.1399 Z-1.5000 F4000
G1 X597.2291 Y1161.1399 Z10.0000 F9999
G1 X648.7704 Y1170.3326 Z10.0000 F9999
G1 X648.7704 Y1170.3326 Z-1.5000 F2000
G1 X626.5686 Y1136.9381 Z-1.5000 F4000
G1 X655.3759 Y1136.9381 Z-1.5000 F4000
G1 X626.5686 Y1136.9381 Z-1.5000 F4000
G1 X648.7704 Y1170.3326 Z-1.5000 F4000
G1 X648.7704 Y1129.2317 Z-1.5000 F4000
G1 X648.7704 Y1129.2317 Z10.0000 F9999
G1 X695.3764 Y2343.7760 Z10.0000 F9999
G1 X695.3764 Y2343.7760 Z-1.5000 F2000
G1 X688.7525 Y2339.6109 Z-1.5000 F4000
G1 X680.7709 Y2338.0879 Z-1.5000 F4000
G1 X672.4956 Y2339.7210 Z-1.5000 F4000
G1 X665.7250 Y2344.1430 Z-1.5000 F4000
G1 X661.1562 Y2350.6751 Z-1.5000 F4000
G1 X659.4681 Y2358.6751 Z-1.5000 F4000
G1 X661.1562 Y2366.6200 Z-1.5000 F4000
G1 X665.7250 Y2373.1338 Z-1.5000 F4000
G1 X672.4956 Y2377.5558 Z-1.5000 F4000
G1 X680.7709 Y2379.1888 Z-1.5000 F4000
G1 X688.5507 Y2377.7760 Z-1.5000 F4000
G1 X695.1011 Y2373.8311 Z-1.5000 F4000
G1 X688.5507 Y2377.7760 Z-1.5000 F4000
G1 X680.7709 Y2379.1888 Z-1.5000 F4000
G1 X672.4956 Y2377.5558 Z-1.5000 F4000
G1 X665.7250 Y2373.1338 Z-1.5000 F4000
G1 X661.1562 Y2366.6200 Z-1.5000 F4000
G1 X659.4681 Y2358.6751 Z-1.5000 F4000
G1 X661.1562 Y2350.6751 Z-1.5000 F4000
G1 X665.7250 Y2344.1430 Z-1.5000 F4000
G1 X672.4956 Y2339.7210 Z-1.5000 F4000
G1 X680.7709 Y2338.0879 Z-1.5000 F4000
G1 X688.7525 Y2339.6109 Z-1.5000 F4000
G1 X688.7525 Y2339.6109 Z10.0000 F9999
G1 X648.7525 Y2388.5833 Z10.0000 F9999
G1 X648.7525 Y2388.5833 Z-1.5000 F2000
G1 X618.3672 Y2335.7393 Z-1.5000 F4000
G1 X648.7525 Y2388.5833 Z-1.5000 F4000
G1 X648.7525 Y2388.5833 Z10.0000 F9999
G1 X603.1929 Y2379.1888 Z10.0000 F9999
G1 X603.1929 Y2379.1888 Z-1.5000 F2000
G1 X603.1929 Y2338.0879 Z-1.5000 F4000
G1 X603.1929 Y2379.1888 Z-1.5000 F4000
G1 X603.1929 Y2379.1888 Z10.0000 F9999
G1 X564.4406 Y2358.9503 Z10.0000 F9999
G1 X564.4406 Y2358.9503 Z-1.5000 F2000
G1 X587.1011 Y2338.0879 Z-1.5000 F4000
G1 X564.4406 Y2358.9503 Z-1.5000 F4000
G1 X586.9910 Y2379.1888 Z-1.5000 F4000
G1 X564.4406 Y2358.9503 Z-1.5000 F4000
G1 X564.4406 Y2379.1888 Z-1.5000 F4000
G1 X564.4406 Y2338.0879 Z-1.5000 F4000
G1 X564.4406 Y2338.0879 Z10.0000 F9999
G1 X524.4222 Y2344.9136 Z10.0000 F9999
G1 X524.4222 Y2344.9136 Z-1.5000 F2000
G1 X526.3672 Y2341.8677 Z-1.5000 F4000
G1 X528.7892 Y2339.8127 Z-1.5000 F4000
G1 X531.9085 Y2338.5650 Z-1.5000 F4000
G1 X536.0369 Y2338.0879 Z-1.5000 F4000
G1 X540.5323 Y2338.5466 Z-1.5000 F4000
G1 X544.3488 Y2340.2898 Z-1.5000 F4000
G1 X547.0277 Y2343.2806 Z-1.5000 F4000
G1 X548.1470 Y2347.4457 Z-1.5000 F4000
G1 X547.6149 Y2351.4457 Z-1.5000 F4000
G1 X546.0736 Y2354.1246 Z-1.5000 F4000
G1 X544.0369 Y2355.8127 Z-1.5000 F4000
G1 X542.1287 Y2356.9136 Z-1.5000 F4000
G1 X532.9360 Y2361.6476 Z-1.5000 F4000
G1 X530.5690 Y2363.0604 Z-1.5000 F4000
G1 X528.7158 Y2364.7118 Z-1.5000 F4000
G1 X527.4681 Y2366.8953 Z-1.5000 F4000
G1 X526.9543 Y2369.7760 Z-1.5000 F4000
G1 X527.4865 Y2373.0604 Z-1.5000 F4000
G1 X529.3213 Y2376.0879 Z-1.5000 F4000
G1 X532.4589 Y2378.3081 Z-1.5000 F4000
G1 X536.8259 Y2379.1888 Z-1.5000 F4000
G1 X541.0828 Y2378.5099 Z-1.5000 F4000
G1 X543.9268 Y2377.0421 Z-1.5000 F4000
G1 X546.0186 Y2374.8953 Z-1.5000 F4000
G1 X543.9268 Y2377.0421 Z-1.5000 F4000
G1 X541.0828 Y2378.5099 Z-1.5000 F4000
G1 X536.8259 Y2379.1888 Z-1.5000 F4000
G1 X532.4589 Y2378.3081 Z-1.5000 F4000
G1 X529.3213 Y2376.0879 Z-1.5000 F4000
G1 X527.4865 Y2373.0604 Z-1.5000 F4000
G1 X526.9543 Y2369.7760 Z-1.5000 F4000
G1 X527.4681 Y2366.8953 Z-1.5000 F4000
G1 X528.7158 Y2364.7118 Z-1.5000 F4000
G1 X530.5690 Y2363.0604 Z-1.5000 F4000
G1 X532.9360 Y2361.6476 Z-1.5000 F4000
G1 X542.1287 Y2356.9136 Z-1.5000 F4000
G1 X544.0369 Y2355.8127 Z-1.5000 F4000
G1 X546.0736 Y2354.1246 Z-1.5000 F4000
G1 X547.6149 Y2351.4457 Z-1.5000 F4000
G1 X548.1470 Y2347.4457 Z-1.5000 F4000
G1 X547.0277 Y2343.2806 Z-1.5000 F4000
G1 X544.3488 Y2340.2898 Z-1.5000 F4000
G1 X540.5323 Y2338.5466 Z-1.5000 F4000
G1 X536.0369 Y2338.0879 Z-1.5000 F4000
G1 X531.9085 Y2338.5650 Z-1.5000 F4000
G1 X528.7892 Y2339.8127 Z-1.5000 F4000
G1 X526.3672 Y2341.8677 Z-1.5000 F4000
G1 X526.3672 Y2341.8677 Z10.0000 F9999
(Tool Number:1) (7.998 mm dia. slot drill)
M3 S19000
G1 X52.8989 Y199.8985 Z10.0000 F9999
G1 X52.8989 Y199.8985 Z1.0000 F2000
G1 X52.8989 Y238.8697 Z-10.0000 F2000
G1 X52.8989 Y199.8985 Z-21.0000 F2000
G1 X52.8989 Y283.8974 Z-21.0000 F2750
G1 X47.8989 Y283.8974 Z-21.0000 F2750
G1 X47.8989 Y285.9002 Z-21.0000 F2750
G1 X85.9008 Y285.9002 Z-21.0000 F2750
G1 X85.9008 Y283.8974 Z-21.0000 F2750
G1 X80.9009 Y283.8974 Z-21.0000 F2750
G1 X80.9009 Y115.8996 Z-21.0000 F2750
G1 X85.9008 Y115.8996 Z-21.0000 F2750
G1 X85.9008 Y113.8982 Z-21.0000 F2750
G1 X47.8989 Y113.8982 Z-21.0000 F2750
G1 X47.8989 Y115.8996 Z-21.0000 F2750
G1 X52.8989 Y115.8996 Z-21.0000 F2750
G1 X52.8989 Y199.8985 Z-21.0000 F2750
G1 X52.8989 Y199.8985 Z10.0000 F9999
G1 X80.9009 Y499.8981 Z10.0000 F9999
G1 X80.9009 Y499.8981 Z1.0000 F2000
G1 X80.9009 Y460.9270 Z-10.0000 F2000
G1 X80.9009 Y499.8981 Z-21.0000 F2000
G1 X80.9009 Y415.8990 Z-21.0000 F2750
G1 X85.9008 Y415.8990 Z-21.0000 F2750
G1 X85.9008 Y413.8978 Z-21.0000 F2750
G1 X47.8989 Y413.8978 Z-21.0000 F2750
G1 X47.8989 Y415.8990 Z-21.0000 F2750
G1 X52.8989 Y415.8990 Z-21.0000 F2750
G1 X52.8989 Y583.8972 Z-21.0000 F2750
G1 X47.8989 Y583.8972 Z-21.0000 F2750
G1 X47.8989 Y585.8998 Z-21.0000 F2750
G1 X85.9008 Y585.8998 Z-21.0000 F2750
G1 X85.9008 Y583.8972 Z-21.0000 F2750
G1 X80.9009 Y583.8972 Z-21.0000 F2750
G1 X80.9009 Y499.8981 Z-21.0000 F2750
G1 X80.9009 Y499.8981 Z10.0000 F9999
G1 X80.9009 Y799.8976 Z10.0000 F9999
G1 X80.9009 Y799.8976 Z1.0000 F2000
G1 X80.9009 Y760.9264 Z-10.0000 F2000
G1 X80.9009 Y799.8976 Z-21.0000 F2000
G1 X80.9009 Y715.8986 Z-21.0000 F2750
G1 X85.9008 Y715.8986 Z-21.0000 F2750
G1 X85.9008 Y713.8974 Z-21.0000 F2750
G1 X65.8989 Y713.8974 Z-21.0000 F2750
G1 X65.8989 Y715.8986 Z-21.0000 F2750
G1 X70.8989 Y715.8986 Z-21.0000 F2750
G1 X70.8989 Y794.8964 Z-21.0000 F2750
G1 X41.9009 Y794.8964 Z-21.0000 F2750
G1 X41.9009 Y789.8966 Z-21.0000 F2750
G1 X39.8989 Y789.8966 Z-21.0000 F2750
G1 X39.8989 Y809.8984 Z-21.0000 F2750
G1 X41.9009 Y809.8984 Z-21.0000 F2750
G1 X41.9009 Y804.8987 Z-21.0000 F2750
G1 X70.8989 Y804.8987 Z-21.0000 F2750
G1 X70.8989 Y883.8965 Z-21.0000 F2750
G1 X65.8989 Y883.8965 Z-21.0000 F2750
G1 X65.8989 Y885.8992 Z-21.0000 F2750
G1 X85.9008 Y885.8992 Z-21.0000 F2750
G1 X85.9008 Y883.8965 Z-21.0000 F2750
G1 X80.9009 Y883.8965 Z-21.0000 F2750
G1 X80.9009 Y799.8976 Z-21.0000 F2750
G1 X80.9009 Y799.8976 Z10.0000 F9999
G1 X80.9009 Y1129.9886 Z10.0000 F9999
G1 X80.9009 Y1129.9886 Z1.0000 F2000
G1 X80.9009 Y1091.0175 Z-10.0000 F2000
G1 X80.9009 Y1129.9886 Z-21.0000 F2000
G1 X80.9009 Y1045.9905 Z-21.0000 F2750
G1 X85.9008 Y1045.9905 Z-21.0000 F2750
G1 X85.9008 Y1043.9878 Z-21.0000 F2750
G1 X65.8989 Y1043.9878 Z-21.0000 F2750
G1 X65.8989 Y1045.9905 Z-21.0000 F2750
G1 X70.8989 Y1045.9905 Z-21.0000 F2750
G1 X70.8989 Y1213.9868 Z-21.0000 F2750
G1 X65.8989 Y1213.9868 Z-21.0000 F2750
G1 X65.8989 Y1215.9897 Z-21.0000 F2750
G1 X85.9008 Y1215.9897 Z-21.0000 F2750
G1 X85.9008 Y1213.9868 Z-21.0000 F2750
G1 X80.9009 Y1213.9868 Z-21.0000 F2750
G1 X80.9009 Y1129.9886 Z-21.0000 F2750
G1 X80.9009 Y1129.9886 Z10.0000 F9999
G1 X80.9009 Y1460.0801 Z10.0000 F9999
G1 X80.9009 Y1460.0801 Z1.0000 F2000
G1 X80.9009 Y1421.1089 Z-10.0000 F2000
G1 X80.9009 Y1460.0801 Z-21.0000 F2000
G1 X80.9009 Y1376.0812 Z-21.0000 F2750
G1 X85.9008 Y1376.0812 Z-21.0000 F2750
G1 X85.9008 Y1374.0785 Z-21.0000 F2750
G1 X65.8989 Y1374.0785 Z-21.0000 F2750
G1 X65.8989 Y1376.0812 Z-21.0000 F2750
G1 X70.8989 Y1376.0812 Z-21.0000 F2750
G1 X70.8989 Y1455.0790 Z-21.0000 F2750
G1 X41.9009 Y1455.0790 Z-21.0000 F2750
G1 X41.9009 Y1450.0792 Z-21.0000 F2750
G1 X39.8989 Y1450.0792 Z-21.0000 F2750
G1 X39.8989 Y1470.0810 Z-21.0000 F2750
G1 X41.9009 Y1470.0810 Z-21.0000 F2750
G1 X41.9009 Y1465.0811 Z-21.0000 F2750
G1 X70.8989 Y1465.0811 Z-21.0000 F2750
G1 X70.8989 Y1544.0790 Z-21.0000 F2750
G1 X65.8989 Y1544.0790 Z-21.0000 F2750
G1 X65.8989 Y1546.0802 Z-21.0000 F2750
G1 X85.9008 Y1546.0802 Z-21.0000 F2750
G1 X85.9008 Y1544.0790 Z-21.0000 F2750
G1 X80.9009 Y1544.0790 Z-21.0000 F2750
G1 X80.9009 Y1460.0801 Z-21.0000 F2750
G1 X80.9009 Y1460.0801 Z10.0000 F9999
G1 X52.8989 Y1760.0796 Z10.0000 F9999
G1 X52.8989 Y1760.0796 Z1.0000 F2000
G1 X52.8989 Y1799.0507 Z-10.0000 F2000
G1 X52.8989 Y1760.0796 Z-21.0000 F2000
G1 X52.8989 Y1844.0785 Z-21.0000 F2750
G1 X47.8989 Y1844.0785 Z-21.0000 F2750
G1 X47.8989 Y1846.0797 Z-21.0000 F2750
G1 X85.9008 Y1846.0797 Z-21.0000 F2750
G1 X85.9008 Y1844.0785 Z-21.0000 F2750
G1 X80.9009 Y1844.0785 Z-21.0000 F2750
G1 X80.9009 Y1676.0807 Z-21.0000 F2750
G1 X85.9008 Y1676.0807 Z-21.0000 F2750
G1 X85.9008 Y1674.0776 Z-21.0000 F2750
G1 X47.8989 Y1674.0776 Z-21.0000 F2750
G1 X47.8989 Y1676.0807 Z-21.0000 F2750
G1 X52.8989 Y1676.0807 Z-21.0000 F2750
G1 X52.8989 Y1760.0796 Z-21.0000 F2750
G1 X52.8989 Y1760.0796 Z10.0000 F9999
G1 X80.9009 Y2060.0784 Z10.0000 F9999
G1 X80.9009 Y2060.0784 Z1.0000 F2000
G1 X80.9009 Y2021.1072 Z-10.0000 F2000
G1 X80.9009 Y2060.0784 Z-21.0000 F2000
G1 X80.9009 Y1976.0794 Z-21.0000 F2750
G1 X85.9008 Y1976.0794 Z-21.0000 F2750
G1 X85.9008 Y1974.0776 Z-21.0000 F2750
G1 X47.8989 Y1974.0776 Z-21.0000 F2750
G1 X47.8989 Y1976.0794 Z-21.0000 F2750
G1 X52.8989 Y1976.0794 Z-21.0000 F2750
G1 X52.8989 Y2144.0774 Z-21.0000 F2750
G1 X47.8989 Y2144.0774 Z-21.0000 F2750
G1 X47.8989 Y2146.0792 Z-21.0000 F2750
G1 X85.9008 Y2146.0792 Z-21.0000 F2750
G1 X85.9008 Y2144.0774 Z-21.0000 F2750
G1 X80.9009 Y2144.0774 Z-21.0000 F2750
G1 X80.9009 Y2060.0784 Z-21.0000 F2750
G1 X80.9009 Y2060.0784 Z10.0000 F9999
G1 X1166.8987 Y2060.0784 Z10.0000 F9999
G1 X1166.8987 Y2060.0784 Z1.0000 F2000
G1 X1166.8987 Y2021.1072 Z-10.0000 F2000
G1 X1166.8987 Y2060.0784 Z-21.0000 F2000
G1 X1166.8987 Y1976.0794 Z-21.0000 F2750
G1 X1171.8986 Y1976.0794 Z-21.0000 F2750
G1 X1171.8986 Y1974.0776 Z-21.0000 F2750
G1 X1133.8967 Y1974.0776 Z-21.0000 F2750
G1 X1133.8967 Y1976.0794 Z-21.0000 F2750
G1 X1138.8967 Y1976.0794 Z-21.0000 F2750
G1 X1138.8967 Y2144.0774 Z-21.0000 F2750
G1 X1133.8967 Y2144.0774 Z-21.0000 F2750
G1 X1133.8967 Y2146.0792 Z-21.0000 F2750
G1 X1171.8986 Y2146.0792 Z-21.0000 F2750
G1 X1171.8986 Y2144.0774 Z-21.0000 F2750
G1 X1166.8987 Y2144.0774 Z-21.0000 F2750
G1 X1166.8987 Y2060.0784 Z-21.0000 F2750
G1 X1166.8987 Y2060.0784 Z10.0000 F9999
G1 X1138.8967 Y1760.0796 Z10.0000 F9999
G1 X1138.8967 Y1760.0796 Z1.0000 F2000
G1 X1138.8967 Y1799.0507 Z-10.0000 F2000
G1 X1138.8967 Y1760.0796 Z-21.0000 F2000
G1 X1138.8967 Y1844.0785 Z-21.0000 F2750
G1 X1133.8967 Y1844.0785 Z-21.0000 F2750
G1 X1133.8967 Y1846.0797 Z-21.0000 F2750
G1 X1171.8986 Y1846.0797 Z-21.0000 F2750
G1 X1171.8986 Y1844.0785 Z-21.0000 F2750
G1 X1166.8987 Y1844.0785 Z-21.0000 F2750
G1 X1166.8987 Y1676.0807 Z-21.0000 F2750
G1 X1171.8986 Y1676.0807 Z-21.0000 F2750
G1 X1171.8986 Y1674.0776 Z-21.0000 F2750
G1 X1133.8967 Y1674.0776 Z-21.0000 F2750
G1 X1133.8967 Y1676.0807 Z-21.0000 F2750
G1 X1138.8967 Y1676.0807 Z-21.0000 F2750
G1 X1138.8967 Y1760.0796 Z-21.0000 F2750
G1 X1138.8967 Y1760.0796 Z10.0000 F9999
G1 X1138.8967 Y1460.0801 Z10.0000 F9999
G1 X1138.8967 Y1460.0801 Z1.0000 F2000
G1 X1138.8967 Y1499.0512 Z-10.0000 F2000
G1 X1138.8967 Y1460.0801 Z-21.0000 F2000
G1 X1138.8967 Y1544.0790 Z-21.0000 F2750
G1 X1133.8967 Y1544.0790 Z-21.0000 F2750
G1 X1133.8967 Y1546.0802 Z-21.0000 F2750
G1 X1153.8987 Y1546.0802 Z-21.0000 F2750
G1 X1153.8987 Y1544.0790 Z-21.0000 F2750
G1 X1148.8987 Y1544.0790 Z-21.0000 F2750
G1 X1148.8987 Y1465.0811 Z-21.0000 F2750
G1 X1177.8967 Y1465.0811 Z-21.0000 F2750
G1 X1177.8967 Y1470.0810 Z-21.0000 F2750
G1 X1179.8986 Y1470.0810 Z-21.0000 F2750
G1 X1179.8986 Y1450.0792 Z-21.0000 F2750
G1 X1177.8967 Y1450.0792 Z-21.0000 F2750
G1 X1177.8967 Y1455.0790 Z-21.0000 F2750
G1 X1148.8987 Y1455.0790 Z-21.0000 F2750
G1 X1148.8987 Y1376.0812 Z-21.0000 F2750
G1 X1153.8987 Y1376.0812 Z-21.0000 F2750
G1 X1153.8987 Y1374.0785 Z-21.0000 F2750
G1 X1133.8967 Y1374.0785 Z-21.0000 F2750
G1 X1133.8967 Y1376.0812 Z-21.0000 F2750
G1 X1138.8967 Y1376.0812 Z-21.0000 F2750
G1 X1138.8967 Y1460.0801 Z-21.0000 F2750
G1 X1138.8967 Y1460.0801 Z10.0000 F9999
G1 X1138.8967 Y1129.9886 Z10.0000 F9999
G1 X1138.8967 Y1129.9886 Z1.0000 F2000
G1 X1138.8967 Y1168.9598 Z-10.0000 F2000
G1 X1138.8967 Y1129.9886 Z-21.0000 F2000
G1 X1138.8967 Y1213.9868 Z-21.0000 F2750
G1 X1133.8967 Y1213.9868 Z-21.0000 F2750
G1 X1133.8967 Y1215.9897 Z-21.0000 F2750
G1 X1153.8987 Y1215.9897 Z-21.0000 F2750
G1 X1153.8987 Y1213.9868 Z-21.0000 F2750
G1 X1148.8987 Y1213.9868 Z-21.0000 F2750
G1 X1148.8987 Y1045.9905 Z-21.0000 F2750
G1 X1153.8987 Y1045.9905 Z-21.0000 F2750
G1 X1153.8987 Y1043.9878 Z-21.0000 F2750
G1 X1133.8967 Y1043.9878 Z-21.0000 F2750
G1 X1133.8967 Y1045.9905 Z-21.0000 F2750
G1 X1138.8967 Y1045.9905 Z-21.0000 F2750
G1 X1138.8967 Y1129.9886 Z-21.0000 F2750
G1 X1138.8967 Y1129.9886 Z10.0000 F9999
G1 X1138.8967 Y799.8976 Z10.0000 F9999
G1 X1138.8967 Y799.8976 Z1.0000 F2000
G1 X1138.8967 Y838.8687 Z-10.0000 F2000
G1 X1138.8967 Y799.8976 Z-21.0000 F2000
G1 X1138.8967 Y883.8965 Z-21.0000 F2750
G1 X1133.8967 Y883.8965 Z-21.0000 F2750
G1 X1133.8967 Y885.8992 Z-21.0000 F2750
G1 X1153.8987 Y885.8992 Z-21.0000 F2750
G1 X1153.8987 Y883.8965 Z-21.0000 F2750
G1 X1148.8987 Y883.8965 Z-21.0000 F2750
G1 X1148.8987 Y804.8987 Z-21.0000 F2750
G1 X1177.8967 Y804.8987 Z-21.0000 F2750
G1 X1177.8967 Y809.8984 Z-21.0000 F2750
G1 X1179.8986 Y809.8984 Z-21.0000 F2750
G1 X1179.8986 Y789.8966 Z-21.0000 F2750
G1 X1177.8967 Y789.8966 Z-21.0000 F2750
G1 X1177.8967 Y794.8964 Z-21.0000 F2750
G1 X1148.8987 Y794.8964 Z-21.0000 F2750
G1 X1148.8987 Y715.8986 Z-21.0000 F2750
G1 X1153.8987 Y715.8986 Z-21.0000 F2750
G1 X1153.8987 Y713.8974 Z-21.0000 F2750
G1 X1133.8967 Y713.8974 Z-21.0000 F2750
G1 X1133.8967 Y715.8986 Z-21.0000 F2750
G1 X1138.8967 Y715.8986 Z-21.0000 F2750
G1 X1138.8967 Y799.8976 Z-21.0000 F2750
G1 X1138.8967 Y799.8976 Z10.0000 F9999
G1 X1138.8967 Y499.8981 Z10.0000 F9999
G1 X1138.8967 Y499.8981 Z1.0000 F2000
G1 X1138.8967 Y538.8693 Z-10.0000 F2000
G1 X1138.8967 Y499.8981 Z-21.0000 F2000
G1 X1138.8967 Y583.8972 Z-21.0000 F2750
G1 X1133.8967 Y583.8972 Z-21.0000 F2750
G1 X1133.8967 Y585.8998 Z-21.0000 F2750
G1 X1171.8986 Y585.8998 Z-21.0000 F2750
G1 X1171.8986 Y583.8972 Z-21.0000 F2750
G1 X1166.8987 Y583.8972 Z-21.0000 F2750
G1 X1166.8987 Y415.8990 Z-21.0000 F2750
G1 X1171.8986 Y415.8990 Z-21.0000 F2750
G1 X1171.8986 Y413.8978 Z-21.0000 F2750
G1 X1133.8967 Y413.8978 Z-21.0000 F2750
G1 X1133.8967 Y415.8990 Z-21.0000 F2750
G1 X1138.8967 Y415.8990 Z-21.0000 F2750
G1 X1138.8967 Y499.8981 Z-21.0000 F2750
G1 X1138.8967 Y499.8981 Z10.0000 F9999
G1 X1138.8967 Y199.8985 Z10.0000 F9999
G1 X1138.8967 Y199.8985 Z1.0000 F2000
G1 X1138.8967 Y238.8697 Z-10.0000 F2000
G1 X1138.8967 Y199.8985 Z-21.0000 F2000
G1 X1138.8967 Y283.8974 Z-21.0000 F2750
G1 X1133.8967 Y283.8974 Z-21.0000 F2750
G1 X1133.8967 Y285.9002 Z-21.0000 F2750
G1 X1171.8986 Y285.9002 Z-21.0000 F2750
G1 X1171.8986 Y283.8974 Z-21.0000 F2750
G1 X1166.8987 Y283.8974 Z-21.0000 F2750
G1 X1166.8987 Y115.8996 Z-21.0000 F2750
G1 X1171.8986 Y115.8996 Z-21.0000 F2750
G1 X1171.8986 Y113.8982 Z-21.0000 F2750
G1 X1133.8967 Y113.8982 Z-21.0000 F2750
G1 X1133.8967 Y115.8996 Z-21.0000 F2750
G1 X1138.8967 Y115.8996 Z-21.0000 F2750
G1 X1138.8967 Y199.8985 Z-21.0000 F2750
G1 X1138.8967 Y199.8985 Z10.0000 F9999
G1 X842.4276 Y192.4268 Z10.0000 F9999
G1 X842.4276 Y192.4268 Z1.0000 F2000
G1 X843.7631 Y191.0341 Z0.4554 F2000
G1 X845.0598 Y189.5620 Z-0.0983 F2000
G1 X846.3114 Y188.0115 Z-0.6608 F2000
G1 X847.5120 Y186.3837 Z-1.2317 F2000
G1 X848.6552 Y184.6807 Z-1.8107 F2000
G1 X849.7350 Y182.9050 Z-2.3973 F2000
G1 X850.7451 Y181.0597 Z-2.9911 F2000
G1 X851.6798 Y179.1486 Z-3.5915 F2000
G1 X852.5333 Y177.1762 Z-4.1982 F2000
G1 X853.3003 Y175.1474 Z-4.8104 F2000
G1 X853.9758 Y173.0678 Z-5.4276 F2000
G1 X854.5555 Y170.9437 Z-6.0490 F2000
G1 X855.0353 Y168.7815 Z-6.6742 F2000
G1 X855.4120 Y166.5885 Z-7.3022 F2000
G1 X855.6830 Y164.3719 Z-7.9325 F2000
G1 X855.8464 Y162.1395 Z-8.5643 F2000
G1 X855.9010 Y159.8992 Z-9.1969 F2000
G1 X855.8464 Y157.6589 Z-9.8294 F2000
G1 X855.8023 Y157.0562 Z-10.0000 F2000
G1 X855.8464 Y157.6589 Z-10.1706 F2000
G1 X855.9010 Y159.8992 Z-10.8031 F2000
G1 X855.8464 Y162.1395 Z-11.4357 F2000
G1 X855.6830 Y164.3719 Z-12.0675 F2000
G1 X855.4120 Y166.5885 Z-12.6978 F2000
G1 X855.0353 Y168.7815 Z-13.3258 F2000
G1 X854.5555 Y170.9437 Z-13.9510 F2000
G1 X853.9758 Y173.0678 Z-14.5724 F2000
G1 X853.3003 Y175.1474 Z-15.1896 F2000
G1 X852.5333 Y177.1762 Z-15.8018 F2000
G1 X851.6798 Y179.1486 Z-16.4085 F2000
G1 X850.7451 Y181.0597 Z-17.0089 F2000
G1 X849.7350 Y182.9050 Z-17.6027 F2000
G1 X848.6552 Y184.6807 Z-18.1893 F2000
G1 X847.5120 Y186.3837 Z-18.7683 F2000
G1 X846.3114 Y188.0115 Z-19.3392 F2000
G1 X845.0598 Y189.5620 Z-19.9017 F2000
G1 X843.7631 Y191.0341 Z-20.4554 F2000
G1 X842.4276 Y192.4268 Z-21.0000 F2000
G1 X843.7631 Y191.0341 Z-21.0000 F2750
G1 X845.0598 Y189.5620 Z-21.0000 F2750
G1 X846.3114 Y188.0115 Z-21.0000 F2750
G1 X847.5120 Y186.3837 Z-21.0000 F2750
G1 X848.6552 Y184.6807 Z-21.0000 F2750
G1 X849.7350 Y182.9050 Z-21.0000 F2750
G1 X850.7451 Y181.0597 Z-21.0000 F2750
G1 X851.6798 Y179.1486 Z-21.0000 F2750
G1 X852.5333 Y177.1762 Z-21.0000 F2750
G1 X853.3003 Y175.1474 Z-21.0000 F2750
G1 X853.9758 Y173.0678 Z-21.0000 F2750
G1 X854.5555 Y170.9437 Z-21.0000 F2750
G1 X855.0353 Y168.7815 Z-21.0000 F2750
G1 X855.4120 Y166.5885 Z-21.0000 F2750
G1 X855.6830 Y164.3719 Z-21.0000 F2750
G1 X855.8464 Y162.1395 Z-21.0000 F2750
G1 X855.9010 Y159.8992 Z-21.0000 F2750
G1 X855.8464 Y157.6589 Z-21.0000 F2750
G1 X855.6830 Y155.4265 Z-21.0000 F2750
G1 X855.4120 Y153.2099 Z-21.0000 F2750
G1 X855.0353 Y151.0169 Z-21.0000 F2750
G1 X854.5555 Y148.8548 Z-21.0000 F2750
G1 X853.9758 Y146.7306 Z-21.0000 F2750
G1 X853.3003 Y144.6511 Z-21.0000 F2750
G1 X852.5333 Y142.6222 Z-21.0000 F2750
G1 X851.6798 Y140.6498 Z-21.0000 F2750
G1 X850.7451 Y138.7387 Z-21.0000 F2750
G1 X849.7350 Y136.8934 Z-21.0000 F2750
G1 X848.6552 Y135.1177 Z-21.0000 F2750
G1 X847.5120 Y133.4147 Z-21.0000 F2750
G1 X846.3114 Y131.7869 Z-21.0000 F2750
G1 X845.0598 Y130.2364 Z-21.0000 F2750
G1 X843.7631 Y128.7643 Z-21.0000 F2750
G1 X842.4276 Y127.3716 Z-21.0000 F2750
G1 X841.0349 Y126.0361 Z-21.0000 F2750
G1 X839.5628 Y124.7395 Z-21.0000 F2750
G1 X838.0123 Y123.4878 Z-21.0000 F2750
G1 X836.3845 Y122.2872 Z-21.0000 F2750
G1 X834.6815 Y121.1440 Z-21.0000 F2750
G1 X832.9058 Y120.0642 Z-21.0000 F2750
G1 X831.0605 Y119.0541 Z-21.0000 F2750
G1 X829.1494 Y118.1194 Z-21.0000 F2750
G1 X827.1770 Y117.2659 Z-21.0000 F2750
G1 X825.1482 Y116.4989 Z-21.0000 F2750
G1 X823.0686 Y115.8234 Z-21.0000 F2750
G1 X820.9445 Y115.2437 Z-21.0000 F2750
G1 X818.7823 Y114.7639 Z-21.0000 F2750
G1 X816.5893 Y114.3872 Z-21.0000 F2750
G1 X814.3727 Y114.1162 Z-21.0000 F2750
G1 X812.1403 Y113.9528 Z-21.0000 F2750
G1 X809.9000 Y113.8982 Z-21.0000 F2750
G1 X807.6597 Y113.9528 Z-21.0000 F2750
G1 X805.4273 Y114.1162 Z-21.0000 F2750
G1 X803.2107 Y114.3872 Z-21.0000 F2750
G1 X801.0177 Y114.7639 Z-21.0000 F2750
G1 X798.8555 Y115.2437 Z-21.0000 F2750
G1 X796.7314 Y115.8234 Z-21.0000 F2750
G1 X794.6518 Y116.4989 Z-21.0000 F2750
G1 X792.6230 Y117.2659 Z-21.0000 F2750
G1 X790.6506 Y118.1194 Z-21.0000 F2750
G1 X788.7395 Y119.0541 Z-21.0000 F2750
G1 X786.8942 Y120.0642 Z-21.0000 F2750
G1 X785.1185 Y121.1440 Z-21.0000 F2750
G1 X783.4155 Y122.2872 Z-21.0000 F2750
G1 X781.7877 Y123.4878 Z-21.0000 F2750
G1 X780.2372 Y124.7395 Z-21.0000 F2750
G1 X778.7651 Y126.0361 Z-21.0000 F2750
G1 X777.3724 Y127.3716 Z-21.0000 F2750
G1 X776.0369 Y128.7643 Z-21.0000 F2750
G1 X774.7402 Y130.2364 Z-21.0000 F2750
G1 X773.4886 Y131.7869 Z-21.0000 F2750
G1 X772.2880 Y133.4147 Z-21.0000 F2750
G1 X771.1448 Y135.1177 Z-21.0000 F2750
G1 X770.0650 Y136.8934 Z-21.0000 F2750
G1 X769.0549 Y138.7387 Z-21.0000 F2750
G1 X768.1202 Y140.6498 Z-21.0000 F2750
G1 X767.2667 Y142.6222 Z-21.0000 F2750
G1 X766.4997 Y144.6511 Z-21.0000 F2750
G1 X765.8242 Y146.7306 Z-21.0000 F2750
G1 X765.2445 Y148.8548 Z-21.0000 F2750
G1 X764.7647 Y151.0169 Z-21.0000 F2750
G1 X764.3880 Y153.2099 Z-21.0000 F2750
G1 X764.1170 Y155.4265 Z-21.0000 F2750
G1 X763.9536 Y157.6589 Z-21.0000 F2750
G1 X763.8990 Y159.8992 Z-21.0000 F2750
G1 X763.9536 Y162.1395 Z-21.0000 F2750
G1 X764.1170 Y164.3719 Z-21.0000 F2750
G1 X764.3880 Y166.5885 Z-21.0000 F2750
G1 X764.7647 Y168.7815 Z-21.0000 F2750
G1 X765.2445 Y170.9437 Z-21.0000 F2750
G1 X765.8242 Y173.0678 Z-21.0000 F2750
G1 X766.4997 Y175.1474 Z-21.0000 F2750
G1 X767.2667 Y177.1762 Z-21.0000 F2750
G1 X768.1202 Y179.1486 Z-21.0000 F2750
G1 X769.0549 Y181.0597 Z-21.0000 F2750
G1 X770.0650 Y182.9050 Z-21.0000 F2750
G1 X771.1448 Y184.6807 Z-21.0000 F2750
G1 X772.2880 Y186.3837 Z-21.0000 F2750
G1 X773.4886 Y188.0115 Z-21.0000 F2750
G1 X774.7402 Y189.5620 Z-21.0000 F2750
G1 X776.0369 Y191.0341 Z-21.0000 F2750
G1 X777.3724 Y192.4268 Z-21.0000 F2750
G1 X778.7651 Y193.7623 Z-21.0000 F2750
G1 X780.2372 Y195.0590 Z-21.0000 F2750
G1 X781.7877 Y196.3106 Z-21.0000 F2750
G1 X783.4155 Y197.5112 Z-21.0000 F2750
G1 X785.1185 Y198.6544 Z-21.0000 F2750
G1 X786.8942 Y199.7342 Z-21.0000 F2750
G1 X788.7395 Y200.7443 Z-21.0000 F2750
G1 X790.6506 Y201.6790 Z-21.0000 F2750
G1 X792.6230 Y202.5325 Z-21.0000 F2750
G1 X794.6518 Y203.2995 Z-21.0000 F2750
G1 X796.7314 Y203.9750 Z-21.0000 F2750
G1 X798.8555 Y204.5547 Z-21.0000 F2750
G1 X801.0177 Y205.0345 Z-21.0000 F2750
G1 X803.2107 Y205.4112 Z-21.0000 F2750
G1 X805.4273 Y205.6822 Z-21.0000 F2750
G1 X807.6597 Y205.8456 Z-21.0000 F2750
G1 X809.9000 Y205.9002 Z-21.0000 F2750
G1 X812.1403 Y205.8456 Z-21.0000 F2750
G1 X814.3727 Y205.6822 Z-21.0000 F2750
G1 X816.5893 Y205.4112 Z-21.0000 F2750
G1 X818.7823 Y205.0345 Z-21.0000 F2750
G1 X820.9445 Y204.5547 Z-21.0000 F2750
G1 X823.0686 Y203.9750 Z-21.0000 F2750
G1 X825.1482 Y203.2995 Z-21.0000 F2750
G1 X827.1770 Y202.5325 Z-21.0000 F2750
G1 X829.1494 Y201.6790 Z-21.0000 F2750
G1 X831.0605 Y200.7443 Z-21.0000 F2750
G1 X832.9058 Y199.7342 Z-21.0000 F2750
G1 X834.6815 Y198.6544 Z-21.0000 F2750
G1 X836.3845 Y197.5112 Z-21.0000 F2750
G1 X838.0123 Y196.3106 Z-21.0000 F2750
G1 X839.5628 Y195.0590 Z-21.0000 F2750
G1 X841.0349 Y193.7623 Z-21.0000 F2750
G1 X842.4276 Y192.4268 Z-21.0000 F2750
G1 X842.4276 Y192.4268 Z10.0000 F9999
G1 X642.4276 Y127.3716 Z10.0000 F9999
G1 X642.4276 Y127.3716 Z1.0000 F2000
G1 X641.0349 Y126.0361 Z0.4554 F2000
G1 X639.5628 Y124.7395 Z-0.0983 F2000
G1 X638.0123 Y123.4878 Z-0.6608 F2000
G1 X636.3845 Y122.2872 Z-1.2317 F2000
G1 X634.6815 Y121.1440 Z-1.8107 F2000
G1 X632.9058 Y120.0642 Z-2.3973 F2000
G1 X631.0605 Y119.0541 Z-2.9911 F2000
G1 X629.1494 Y118.1194 Z-3.5915 F2000
G1 X627.1770 Y117.2659 Z-4.1982 F2000
G1 X625.1482 Y116.4989 Z-4.8104 F2000
G1 X623.0686 Y115.8234 Z-5.4276 F2000
G1 X620.9445 Y115.2437 Z-6.0490 F2000
G1 X618.7823 Y114.7639 Z-6.6742 F2000
G1 X616.5893 Y114.3872 Z-7.3022 F2000
G1 X614.3727 Y114.1162 Z-7.9325 F2000
G1 X612.1403 Y113.9528 Z-8.5643 F2000
G1 X609.9000 Y113.8982 Z-9.1969 F2000
G1 X607.6597 Y113.9528 Z-9.8294 F2000
G1 X607.0570 Y113.9969 Z-10.0000 F2000
G1 X607.6597 Y113.9528 Z-10.1706 F2000
G1 X609.9000 Y113.8982 Z-10.8031 F2000
G1 X612.1403 Y113.9528 Z-11.4357 F2000
G1 X614.3727 Y114.1162 Z-12.0675 F2000
G1 X616.5893 Y114.3872 Z-12.6978 F2000
G1 X618.7823 Y114.7639 Z-13.3258 F2000
G1 X620.9445 Y115.2437 Z-13.9510 F2000
G1 X623.0686 Y115.8234 Z-14.5724 F2000
G1 X625.1482 Y116.4989 Z-15.1896 F2000
G1 X627.1770 Y117.2659 Z-15.8018 F2000
G1 X629.1494 Y118.1194 Z-16.4085 F2000
G1 X631.0605 Y119.0541 Z-17.0089 F2000
G1 X632.9058 Y120.0642 Z-17.6027 F2000
G1 X634.6815 Y121.1440 Z-18.1893 F2000
G1 X636.3845 Y122.2872 Z-18.7683 F2000
G1 X638.0123 Y123.4878 Z-19.3392 F2000
G1 X639.5628 Y124.7395 Z-19.9017 F2000
G1 X641.0349 Y126.0361 Z-20.4554 F2000
G1 X642.4276 Y127.3716 Z-21.0000 F2000
G1 X641.0349 Y126.0361 Z-21.0000 F2750
G1 X639.5628 Y124.7395 Z-21.0000 F2750
G1 X638.0123 Y123.4878 Z-21.0000 F2750
G1 X636.3845 Y122.2872 Z-21.0000 F2750
G1 X634.6815 Y121.1440 Z-21.0000 F2750
G1 X632.9058 Y120.0642 Z-21.0000 F2750
G1 X631.0605 Y119.0541 Z-21.0000 F2750
G1 X629.1494 Y118.1194 Z-21.0000 F2750
G1 X627.1770 Y117.2659 Z-21.0000 F2750
G1 X625.1482 Y116.4989 Z-21.0000 F2750
G1 X623.0686 Y115.8234 Z-21.0000 F2750
G1 X620.9445 Y115.2437 Z-21.0000 F2750
G1 X618.7823 Y114.7639 Z-21.0000 F2750
G1 X616.5893 Y114.3872 Z-21.0000 F2750
G1 X614.3727 Y114.1162 Z-21.0000 F2750
G1 X612.1403 Y113.9528 Z-21.0000 F2750
G1 X609.9000 Y113.8982 Z-21.0000 F2750
G1 X607.6597 Y113.9528 Z-21.0000 F2750
G1 X605.4273 Y114.1162 Z-21.0000 F2750
G1 X603.2107 Y114.3872 Z-21.0000 F2750
G1 X601.0177 Y114.7639 Z-21.0000 F2750
G1 X598.8555 Y115.2437 Z-21.0000 F2750
G1 X596.7314 Y115.8234 Z-21.0000 F2750
G1 X594.6518 Y116.4989 Z-21.0000 F2750
G1 X592.6230 Y117.2659 Z-21.0000 F2750
G1 X590.6506 Y118.1194 Z-21.0000 F2750
G1 X588.7395 Y119.0541 Z-21.0000 F2750
G1 X586.8942 Y120.0642 Z-21.0000 F2750
G1 X585.1185 Y121.1440 Z-21.0000 F2750
G1 X583.4155 Y122.2872 Z-21.0000 F2750
G1 X581.7877 Y123.4878 Z-21.0000 F2750
G1 X580.2372 Y124.7395 Z-21.0000 F2750
G1 X578.7651 Y126.0361 Z-21.0000 F2750
G1 X577.3724 Y127.3716 Z-21.0000 F2750
G1 X576.0369 Y128.7643 Z-21.0000 F2750
G1 X574.7402 Y130.2364 Z-21.0000 F2750
G1 X573.4886 Y131.7869 Z-21.0000 F2750
G1 X572.2880 Y133.4147 Z-21.0000 F2750
G1 X571.1448 Y135.1177 Z-21.0000 F2750
G1 X570.0650 Y136.8934 Z-21.0000 F2750
G1 X569.0549 Y138.7387 Z-21.0000 F2750
G1 X568.1202 Y140.6498 Z-21.0000 F2750
G1 X567.2667 Y142.6222 Z-21.0000 F2750
G1 X566.4997 Y144.6511 Z-21.0000 F2750
G1 X565.8242 Y146.7306 Z-21.0000 F2750
G1 X565.2445 Y148.8548 Z-21.0000 F2750
G1 X564.7647 Y151.0169 Z-21.0000 F2750
G1 X564.3880 Y153.2099 Z-21.0000 F2750
G1 X564.1170 Y155.4265 Z-21.0000 F2750
G1 X563.9536 Y157.6589 Z-21.0000 F2750
G1 X563.8990 Y159.8992 Z-21.0000 F2750
G1 X563.9536 Y162.1395 Z-21.0000 F2750
G1 X564.1170 Y164.3719 Z-21.0000 F2750
G1 X564.3880 Y166.5885 Z-21.0000 F2750
G1 X564.7647 Y168.7815 Z-21.0000 F2750
G1 X565.2445 Y170.9437 Z-21.0000 F2750
G1 X565.8242 Y173.0678 Z-21.0000 F2750
G1 X566.4997 Y175.1474 Z-21.0000 F2750
G1 X567.2667 Y177.1762 Z-21.0000 F2750
G1 X568.1202 Y179.1486 Z-21.0000 F2750
G1 X569.0549 Y181.0597 Z-21.0000 F2750
G1 X570.0650 Y182.9050 Z-21.0000 F2750
G1 X571.1448 Y184.6807 Z-21.0000 F2750
G1 X572.2880 Y186.3837 Z-21.0000 F2750
G1 X573.4886 Y188.0115 Z-21.0000 F2750
G1 X574.7402 Y189.5620 Z-21.0000 F2750
G1 X576.0369 Y191.0341 Z-21.0000 F2750
G1 X577.3724 Y192.4268 Z-21.0000 F2750
G1 X578.7651 Y193.7623 Z-21.0000 F2750
G1 X580.2372 Y195.0590 Z-21.0000 F2750
G1 X581.7877 Y196.3106 Z-21.0000 F2750
G1 X583.4155 Y197.5112 Z-21.0000 F2750
G1 X585.1185 Y198.6544 Z-21.0000 F2750
G1 X586.8942 Y199.7342 Z-21.0000 F2750
G1 X588.7395 Y200.7443 Z-21.0000 F2750
G1 X590.6506 Y201.6790 Z-21.0000 F2750
G1 X592.6230 Y202.5325 Z-21.0000 F2750
G1 X594.6518 Y203.2995 Z-21.0000 F2750
G1 X596.7314 Y203.9750 Z-21.0000 F2750
G1 X598.8555 Y204.5547 Z-21.0000 F2750
G1 X601.0177 Y205.0345 Z-21.0000 F2750
G1 X603.2107 Y205.4112 Z-21.0000 F2750
G1 X605.4273 Y205.6822 Z-21.0000 F2750
G1 X607.6597 Y205.8456 Z-21.0000 F2750
G1 X609.9000 Y205.9002 Z-21.0000 F2750
G1 X612.1403 Y205.8456 Z-21.0000 F2750
G1 X614.3727 Y205.6822 Z-21.0000 F2750
G1 X616.5893 Y205.4112 Z-21.0000 F2750
G1 X618.7823 Y205.0345 Z-21.0000 F2750
G1 X620.9445 Y204.5547 Z-21.0000 F2750
G1 X623.0686 Y203.9750 Z-21.0000 F2750
G1 X625.1482 Y203.2995 Z-21.0000 F2750
G1 X627.1770 Y202.5325 Z-21.0000 F2750
G1 X629.1494 Y201.6790 Z-21.0000 F2750
G1 X631.0605 Y200.7443 Z-21.0000 F2750
G1 X632.9058 Y199.7342 Z-21.0000 F2750
G1 X634.6815 Y198.6544 Z-21.0000 F2750
G1 X636.3845 Y197.5112 Z-21.0000 F2750
G1 X638.0123 Y196.3106 Z-21.0000 F2750
G1 X639.5628 Y195.0590 Z-21.0000 F2750
G1 X641.0349 Y193.7623 Z-21.0000 F2750
G1 X642.4276 Y192.4268 Z-21.0000 F2750
G1 X643.7631 Y191.0341 Z-21.0000 F2750
G1 X645.0598 Y189.5620 Z-21.0000 F2750
G1 X646.3114 Y188.0115 Z-21.0000 F2750
G1 X647.5120 Y186.3837 Z-21.0000 F2750
G1 X648.6552 Y184.6807 Z-21.0000 F2750
G1 X649.7350 Y182.9050 Z-21.0000 F2750
G1 X650.7451 Y181.0597 Z-21.0000 F2750
G1 X651.6798 Y179.1486 Z-21.0000 F2750
G1 X652.5333 Y177.1762 Z-21.0000 F2750
G1 X653.3003 Y175.1474 Z-21.0000 F2750
G1 X653.9758 Y173.0678 Z-21.0000 F2750
G1 X654.5555 Y170.9437 Z-21.0000 F2750
G1 X655.0353 Y168.7815 Z-21.0000 F2750
G1 X655.4120 Y166.5885 Z-21.0000 F2750
G1 X655.6830 Y164.3719 Z-21.0000 F2750
G1 X655.8464 Y162.1395 Z-21.0000 F2750
G1 X655.9010 Y159.8992 Z-21.0000 F2750
G1 X655.8464 Y157.6589 Z-21.0000 F2750
G1 X655.6830 Y155.4265 Z-21.0000 F2750
G1 X655.4120 Y153.2099 Z-21.0000 F2750
G1 X655.0353 Y151.0169 Z-21.0000 F2750
G1 X654.5555 Y148.8548 Z-21.0000 F2750
G1 X653.9758 Y146.7306 Z-21.0000 F2750
G1 X653.3003 Y144.6511 Z-21.0000 F2750
G1 X652.5333 Y142.6222 Z-21.0000 F2750
G1 X651.6798 Y140.6498 Z-21.0000 F2750
G1 X650.7451 Y138.7387 Z-21.0000 F2750
G1 X649.7350 Y136.8934 Z-21.0000 F2750
G1 X648.6552 Y135.1177 Z-21.0000 F2750
G1 X647.5120 Y133.4147 Z-21.0000 F2750
G1 X646.3114 Y131.7869 Z-21.0000 F2750
G1 X645.0598 Y130.2364 Z-21.0000 F2750
G1 X643.7631 Y128.7643 Z-21.0000 F2750
G1 X642.4276 Y127.3716 Z-21.0000 F2750
G1 X642.4276 Y127.3716 Z10.0000 F9999
G1 X377.3724 Y192.4268 Z10.0000 F9999
G1 X377.3724 Y192.4268 Z1.0000 F2000
G1 X378.7651 Y193.7623 Z0.4554 F2000
G1 X380.2372 Y195.0590 Z-0.0983 F2000
G1 X381.7877 Y196.3106 Z-0.6608 F2000
G1 X383.4155 Y197.5112 Z-1.2317 F2000
G1 X385.1185 Y198.6544 Z-1.8107 F2000
G1 X386.8942 Y199.7342 Z-2.3973 F2000
G1 X388.7395 Y200.7443 Z-2.9911 F2000
G1 X390.6506 Y201.6790 Z-3.5915 F2000
G1 X392.6230 Y202.5325 Z-4.1982 F2000
G1 X394.6518 Y203.2995 Z-4.8104 F2000
G1 X396.7314 Y203.9750 Z-5.4276 F2000
G1 X398.8555 Y204.5547 Z-6.0490 F2000
G1 X401.0177 Y205.0345 Z-6.6742 F2000
G1 X403.2107 Y205.4112 Z-7.3022 F2000
G1 X405.4273 Y205.6822 Z-7.9325 F2000
G1 X407.6597 Y205.8456 Z-8.5643 F2000
G1 X409.9000 Y205.9002 Z-9.1969 F2000
G1 X412.1403 Y205.8456 Z-9.8294 F2000
G1 X412.7430 Y205.8015 Z-10.0000 F2000
G1 X412.1403 Y205.8456 Z-10.1706 F2000
G1 X409.9000 Y205.9002 Z-10.8031 F2000
G1 X407.6597 Y205.8456 Z-11.4357 F2000
G1 X405.4273 Y205.6822 Z-12.0675 F2000
G1 X403.2107 Y205.4112 Z-12.6978 F2000
G1 X401.0177 Y205.0345 Z-13.3258 F2000
G1 X398.8555 Y204.5547 Z-13.9510 F2000
G1 X396.7314 Y203.9750 Z-14.5724 F2000
G1 X394.6518 Y203.2995 Z-15.1896 F2000
G1 X392.6230 Y202.5325 Z-15.8018 F2000
G1 X390.6506 Y201.6790 Z-16.4085 F2000
G1 X388.7395 Y200.7443 Z-17.0089 F2000
G1 X386.8942 Y199.7342 Z-17.6027 F2000
G1 X385.1185 Y198.6544 Z-18.1893 F2000
G1 X383.4155 Y197.5112 Z-18.7683 F2000
G1 X381.7877 Y196.3106 Z-19.3392 F2000
G1 X380.2372 Y195.0590 Z-19.9017 F2000
G1 X378.7651 Y193.7623 Z-20.4554 F2000
G1 X377.3724 Y192.4268 Z-21.0000 F2000
G1 X378.7651 Y193.7623 Z-21.0000 F2750
G1 X380.2372 Y195.0590 Z-21.0000 F2750
G1 X381.7877 Y196.3106 Z-21.0000 F2750
G1 X383.4155 Y197.5112 Z-21.0000 F2750
G1 X385.1185 Y198.6544 Z-21.0000 F2750
G1 X386.8942 Y199.7342 Z-21.0000 F2750
G1 X388.7395 Y200.7443 Z-21.0000 F2750
G1 X390.6506 Y201.6790 Z-21.0000 F2750
G1 X392.6230 Y202.5325 Z-21.0000 F2750
G1 X394.6518 Y203.2995 Z-21.0000 F2750
G1 X396.7314 Y203.9750 Z-21.0000 F2750
G1 X398.8555 Y204.5547 Z-21.0000 F2750
G1 X401.0177 Y205.0345 Z-21.0000 F2750
G1 X403.2107 Y205.4112 Z-21.0000 F2750
G1 X405.4273 Y205.6822 Z-21.0000 F2750
G1 X407.6597 Y205.8456 Z-21.0000 F2750
G1 X409.9000 Y205.9002 Z-21.0000 F2750
G1 X412.1403 Y205.8456 Z-21.0000 F2750
G1 X414.3727 Y205.6822 Z-21.0000 F2750
G1 X416.5893 Y205.4112 Z-21.0000 F2750
G1 X418.7823 Y205.0345 Z-21.0000 F2750
G1 X420.9445 Y204.5547 Z-21.0000 F2750
G1 X423.0686 Y203.9750 Z-21.0000 F2750
G1 X425.1482 Y203.2995 Z-21.0000 F2750
G1 X427.1770 Y202.5325 Z-21.0000 F2750
G1 X429.1494 Y201.6790 Z-21.0000 F2750
G1 X431.0605 Y200.7443 Z-21.0000 F2750
G1 X432.9058 Y199.7342 Z-21.0000 F2750
G1 X434.6815 Y198.6544 Z-21.0000 F2750
G1 X436.3845 Y197.5112 Z-21.0000 F2750
G1 X438.0123 Y196.3106 Z-21.0000 F2750
G1 X439.5628 Y195.0590 Z-21.0000 F2750
G1 X441.0349 Y193.7623 Z-21.0000 F2750
G1 X442.4276 Y192.4268 Z-21.0000 F2750
G1 X443.7631 Y191.0341 Z-21.0000 F2750
G1 X445.0598 Y189.5620 Z-21.0000 F2750
G1 X446.3114 Y188.0115 Z-21.0000 F2750
G1 X447.5120 Y186.3837 Z-21.0000 F2750
G1 X448.6552 Y184.6807 Z-21.0000 F2750
G1 X449.7350 Y182.9050 Z-21.0000 F2750
G1 X450.7451 Y181.0597 Z-21.0000 F2750
G1 X451.6798 Y179.1486 Z-21.0000 F2750
G1 X452.5333 Y177.1762 Z-21.0000 F2750
G1 X453.3003 Y175.1474 Z-21.0000 F2750
G1 X453.9758 Y173.0678 Z-21.0000 F2750
G1 X454.5555 Y170.9437 Z-21.0000 F2750
G1 X455.0353 Y168.7815 Z-21.0000 F2750
G1 X455.4120 Y166.5885 Z-21.0000 F2750
G1 X455.6830 Y164.3719 Z-21.0000 F2750
G1 X455.8464 Y162.1395 Z-21.0000 F2750
G1 X455.9010 Y159.8992 Z-21.0000 F2750
G1 X455.8464 Y157.6589 Z-21.0000 F2750
G1 X455.6830 Y155.4265 Z-21.0000 F2750
G1 X455.4120 Y153.2099 Z-21.0000 F2750
G1 X455.0353 Y151.0169 Z-21.0000 F2750
G1 X454.5555 Y148.8548 Z-21.0000 F2750
G1 X453.9758 Y146.7306 Z-21.0000 F2750
G1 X453.3003 Y144.6511 Z-21.0000 F2750
G1 X452.5333 Y142.6222 Z-21.0000 F2750
G1 X451.6798 Y140.6498 Z-21.0000 F2750
G1 X450.7451 Y138.7387 Z-21.0000 F2750
G1 X449.7350 Y136.8934 Z-21.0000 F2750
G1 X448.6552 Y135.1177 Z-21.0000 F2750
G1 X447.5120 Y133.4147 Z-21.0000 F2750
G1 X446.3114 Y131.7869 Z-21.0000 F2750
G1 X445.0598 Y130.2364 Z-21.0000 F2750
G1 X443.7631 Y128.7643 Z-21.0000 F2750
G1 X442.4276 Y127.3716 Z-21.0000 F2750
G1 X441.0349 Y126.0361 Z-21.0000 F2750
G1 X439.5628 Y124.7395 Z-21.0000 F2750
G1 X438.0123 Y123.4878 Z-21.0000 F2750
G1 X436.3845 Y122.2872 Z-21.0000 F2750
G1 X434.6815 Y121.1440 Z-21.0000 F2750
G1 X432.9058 Y120.0642 Z-21.0000 F2750
G1 X431.0605 Y119.0541 Z-21.0000 F2750
G1 X429.1494 Y118.1194 Z-21.0000 F2750
G1 X427.1770 Y117.2659 Z-21.0000 F2750
G1 X425.1482 Y116.4989 Z-21.0000 F2750
G1 X423.0686 Y115.8234 Z-21.0000 F2750
G1 X420.9445 Y115.2437 Z-21.0000 F2750
G1 X418.7823 Y114.7639 Z-21.0000 F2750
G1 X416.5893 Y114.3872 Z-21.0000 F2750
G1 X414.3727 Y114.1162 Z-21.0000 F2750
G1 X412.1403 Y113.9528 Z-21.0000 F2750
G1 X409.9000 Y113.8982 Z-21.0000 F2750
G1 X407.6597 Y113.9528 Z-21.0000 F2750
G1 X405.4273 Y114.1162 Z-21.0000 F2750
G1 X403.2107 Y114.3872 Z-21.0000 F2750
G1 X401.0177 Y114.7639 Z-21.0000 F2750
G1 X398.8555 Y115.2437 Z-21.0000 F2750
G1 X396.7314 Y115.8234 Z-21.0000 F2750
G1 X394.6518 Y116.4989 Z-21.0000 F2750
G1 X392.6230 Y117.2659 Z-21.0000 F2750
G1 X390.6506 Y118.1194 Z-21.0000 F2750
G1 X388.7395 Y119.0541 Z-21.0000 F2750
G1 X386.8942 Y120.0642 Z-21.0000 F2750
G1 X385.1185 Y121.1440 Z-21.0000 F2750
G1 X383.4155 Y122.2872 Z-21.0000 F2750
G1 X381.7877 Y123.4878 Z-21.0000 F2750
G1 X380.2372 Y124.7395 Z-21.0000 F2750
G1 X378.7651 Y126.0361 Z-21.0000 F2750
G1 X377.3724 Y127.3716 Z-21.0000 F2750
G1 X376.0369 Y128.7643 Z-21.0000 F2750
G1 X374.7402 Y130.2364 Z-21.0000 F2750
G1 X373.4886 Y131.7869 Z-21.0000 F2750
G1 X372.2880 Y133.4147 Z-21.0000 F2750
G1 X371.1448 Y135.1177 Z-21.0000 F2750
G1 X370.0650 Y136.8934 Z-21.0000 F2750
G1 X369.0549 Y138.7387 Z-21.0000 F2750
G1 X368.1202 Y140.6498 Z-21.0000 F2750
G1 X367.2667 Y142.6222 Z-21.0000 F2750
G1 X366.4997 Y144.6511 Z-21.0000 F2750
G1 X365.8242 Y146.7306 Z-21.0000 F2750
G1 X365.2445 Y148.8548 Z-21.0000 F2750
G1 X364.7647 Y151.0169 Z-21.0000 F2750
G1 X364.3880 Y153.2099 Z-21.0000 F2750
G1 X364.1170 Y155.4265 Z-21.0000 F2750
G1 X363.9536 Y157.6589 Z-21.0000 F2750
G1 X363.8990 Y159.8992 Z-21.0000 F2750
G1 X363.9536 Y162.1395 Z-21.0000 F2750
G1 X364.1170 Y164.3719 Z-21.0000 F2750
G1 X364.3880 Y166.5885 Z-21.0000 F2750
G1 X364.7647 Y168.7815 Z-21.0000 F2750
G1 X365.2445 Y170.9437 Z-21.0000 F2750
G1 X365.8242 Y173.0678 Z-21.0000 F2750
G1 X366.4997 Y175.1474 Z-21.0000 F2750
G1 X367.2667 Y177.1762 Z-21.0000 F2750
G1 X368.1202 Y179.1486 Z-21.0000 F2750
G1 X369.0549 Y181.0597 Z-21.0000 F2750
G1 X370.0650 Y182.9050 Z-21.0000 F2750
G1 X371.1448 Y184.6807 Z-21.0000 F2750
G1 X372.2880 Y186.3837 Z-21.0000 F2750
G1 X373.4886 Y188.0115 Z-21.0000 F2750
G1 X374.7402 Y189.5620 Z-21.0000 F2750
G1 X376.0369 Y191.0341 Z-21.0000 F2750
G1 X377.3724 Y192.4268 Z-21.0000 F2750
G1 X377.3724 Y192.4268 Z10.0000 F9999
(Tool Number:1) (7.998 mm dia. slot drill)
M3 S19000
G1 X5.9010 Y1149.7821 Z10.0000 F9999
G1 X5.9010 Y1149.7821 Z1.0000 F2000
G1 X5.9010 Y1110.8110 Z-10.0000 F2000
G1 X5.9010 Y1149.7821 Z-21.0000 F2000
G1 X5.9010 Y5.9010 Z-21.0000 F2750
G1 X1213.8967 Y5.9010 Z-21.0000 F2750
G1 X1213.8967 Y2293.6633 Z-21.0000 F2750
G1 X5.9010 Y2293.6633 Z-21.0000 F2750
G1 X5.9010 Y1149.7821 Z-21.0000 F2750
G1 X5.9010 Y1149.7821 Z10.0000 F9999
G1 X609.8993 Y2307.6664 Z10.0000 F9999
G1 X609.8993 Y2307.6664 Z1.0000 F2000
G1 X648.8704 Y2307.6664 Z-10.0000 F2000
G1 X609.8993 Y2307.6664 Z-21.0000 F2000
G1 X1213.8976 Y2307.6664 Z-21.0000 F2750
G1 X1213.8976 Y2416.6563 Z-21.0000 F2750
G1 X1155.8998 Y2416.6563 Z-21.0000 F2750
G1 X1155.8998 Y2389.6662 Z-21.0000 F2750
G1 X1160.8997 Y2389.6662 Z-21.0000 F2750
G1 X1160.8997 Y2387.6642 Z-21.0000 F2750
G1 X1122.8978 Y2387.6642 Z-21.0000 F2750
G1 X1122.8978 Y2389.6662 Z-21.0000 F2750
G1 X1127.8978 Y2389.6662 Z-21.0000 F2750
G1 X1127.8978 Y2416.6563 Z-21.0000 F2750
G1 X80.8997 Y2416.6563 Z-21.0000 F2750
G1 X80.8997 Y2389.6662 Z-21.0000 F2750
G1 X85.8997 Y2389.6662 Z-21.0000 F2750
G1 X85.8997 Y2387.6642 Z-21.0000 F2750
G1 X47.8978 Y2387.6642 Z-21.0000 F2750
G1 X47.8978 Y2389.6662 Z-21.0000 F2750
G1 X52.8977 Y2389.6662 Z-21.0000 F2750
G1 X52.8977 Y2416.6563 Z-21.0000 F2750
G1 X5.9010 Y2416.6563 Z-21.0000 F2750
G1 X5.9010 Y2307.6664 Z-21.0000 F2750
G1 X609.8993 Y2307.6664 Z-21.0000 F2750
G1 X609.8993 Y2307.6664 Z10.0000 F9999
G1 X1900.0000 Y2800.0000 Z80.0000 F9999
G1 Z80.0000 F9999
G1 X1900.0000 Y2800.0000 F9999
M5
M30
