(plotsheet 2n3_nested_153 sheets_final v1_0_sheet 22 to 31_S22.0_4 screws_CC8 - stepover 1mm)
(Material Size) (X=1220.000, Y=2440.000, Z=21.000)
(LinuxCNC_NoArcs_MM_TC_medium_50um_G1_verbose.con)
G90 G80 G21 G49
G64 P0.050
M6 T1
(Tool Number:1) (7.998 mm dia. slot drill)
G43 H1 G0Z30.0000
M3 S19000
G04 P10
G1 X180.3253 Y111.0255 Z10.0000 F9999
G1 X180.3253 Y111.0255 Z2.0000 F9999
G1 X180.3253 Y111.0255 Z-2.0000 F2000
G1 X180.3253 Y111.0255 Z10.0000 F9999
G1 X1045.5587 Y100.6719 Z10.0000 F9999
G1 X1045.5587 Y100.6719 Z2.0000 F9999
G1 X1045.5587 Y100.6719 Z-2.0000 F2000
G1 X1045.5587 Y100.6719 Z10.0000 F9999
G1 X904.9039 Y2032.6045 Z10.0000 F9999
G1 X904.9039 Y2032.6045 Z2.0000 F9999
G1 X904.9039 Y2032.6045 Z-2.0000 F2000
G1 X904.9039 Y2032.6045 Z10.0000 F9999
G1 X191.3861 Y2076.4851 Z10.0000 F9999
G1 X191.3861 Y2076.4851 Z2.0000 F9999
G1 X191.3861 Y2076.4851 Z-2.0000 F2000
G1 X191.3861 Y2076.4851 Z10.0000 F9999
G1 X1900.0000 Y2800.0000 Z80.0000 F9999
G1 Z80.0000 F9999
G1 X1900.0000 Y2800.0000 F9999
M5
M30
