(plotsheet 2n3_nested_153 sheets_final v1_0_sheet 141a_S141.1_text_CC8 - stepover 1mm)
(Material Size) (X=1220.000, Y=2440.000, Z=20.000)
(LinuxCNC_NoArcs_MM_TC_medium_50um_G1_verbose.con)
G90 G80 G21 G49
G64 P0.050
M6 T1
(Tool Number:1) (7.998 mm dia. slot drill)
G43 H1 G0Z80.0000
M3 S18000
G04 P10
G1 X505.0641 Y114.3495 Z10.0000 F9999
G1 X505.0641 Y114.3495 Z-1.0000 F2500
G1 X492.4402 Y114.3495 Z-1.0000 F4000
G1 X492.4402 Y155.4504 Z-1.0000 F4000
G1 X492.4402 Y114.3495 Z-1.0000 F4000
G1 X492.4402 Y114.3495 Z10.0000 F9999
G1 X538.0365 Y155.4504 Z10.0000 F9999
G1 X538.0365 Y155.4504 Z-1.0000 F2500
G1 X515.8347 Y122.0559 Z-1.0000 F4000
G1 X544.6421 Y122.0559 Z-1.0000 F4000
G1 X515.8347 Y122.0559 Z-1.0000 F4000
G1 X538.0365 Y155.4504 Z-1.0000 F4000
G1 X538.0365 Y114.3495 Z-1.0000 F4000
G1 X538.0365 Y114.3495 Z10.0000 F9999
G1 X555.7613 Y122.2944 Z10.0000 F9999
G1 X555.7613 Y122.2944 Z-1.0000 F2500
G1 X556.5136 Y119.6155 Z-1.0000 F4000
G1 X558.2384 Y117.0467 Z-1.0000 F4000
G1 X561.1925 Y115.1018 Z-1.0000 F4000
G1 X565.7430 Y114.3495 Z-1.0000 F4000
G1 X574.2567 Y116.9733 Z-1.0000 F4000
G1 X577.3576 Y124.9550 Z-1.0000 F4000
G1 X576.4769 Y129.6889 Z-1.0000 F4000
G1 X574.1650 Y133.0467 Z-1.0000 F4000
G1 X570.9540 Y135.0467 Z-1.0000 F4000
G1 X567.3760 Y135.7256 Z-1.0000 F4000
G1 X570.8439 Y136.4596 Z-1.0000 F4000
G1 X573.7980 Y138.6798 Z-1.0000 F4000
G1 X575.8898 Y142.0559 Z-1.0000 F4000
G1 X576.6787 Y146.2577 Z-1.0000 F4000
G1 X576.6421 Y147.8357 Z-1.0000 F4000
G1 X576.3668 Y149.8174 Z-1.0000 F4000
G1 X575.5778 Y151.8357 Z-1.0000 F4000
G1 X574.0549 Y153.6706 Z-1.0000 F4000
G1 X571.5044 Y154.9733 Z-1.0000 F4000
G1 X567.7613 Y155.4504 Z-1.0000 F4000
G1 X562.3852 Y154.6247 Z-1.0000 F4000
G1 X559.2843 Y152.6064 Z-1.0000 F4000
G1 X557.7613 Y149.9458 Z-1.0000 F4000
G1 X557.1742 Y147.2119 Z-1.0000 F4000
G1 X557.7613 Y149.9458 Z-1.0000 F4000
G1 X559.2843 Y152.6064 Z-1.0000 F4000
G1 X562.3852 Y154.6247 Z-1.0000 F4000
G1 X567.7613 Y155.4504 Z-1.0000 F4000
G1 X571.5044 Y154.9733 Z-1.0000 F4000
G1 X574.0549 Y153.6706 Z-1.0000 F4000
G1 X575.5778 Y151.8357 Z-1.0000 F4000
G1 X576.3668 Y149.8174 Z-1.0000 F4000
G1 X576.6421 Y147.8724 Z-1.0000 F4000
G1 X576.6787 Y146.2577 Z-1.0000 F4000
G1 X575.8898 Y142.0559 Z-1.0000 F4000
G1 X573.7980 Y138.6798 Z-1.0000 F4000
G1 X570.8439 Y136.4596 Z-1.0000 F4000
G1 X567.3760 Y135.7256 Z-1.0000 F4000
G1 X570.9540 Y135.0467 Z-1.0000 F4000
G1 X574.1650 Y133.0467 Z-1.0000 F4000
G1 X576.4769 Y129.6889 Z-1.0000 F4000
G1 X577.3576 Y124.9550 Z-1.0000 F4000
G1 X574.2567 Y116.9733 Z-1.0000 F4000
G1 X565.7430 Y114.3495 Z-1.0000 F4000
G1 X561.1925 Y115.1018 Z-1.0000 F4000
G1 X558.2384 Y117.0467 Z-1.0000 F4000
G1 X556.5136 Y119.6155 Z-1.0000 F4000
G1 X556.5136 Y119.6155 Z10.0000 F9999
G1 X505.0641 Y386.3999 Z10.0000 F9999
G1 X505.0641 Y386.3999 Z-1.0000 F2500
G1 X492.4402 Y386.3999 Z-1.0000 F4000
G1 X492.4402 Y427.5008 Z-1.0000 F4000
G1 X492.4402 Y386.3999 Z-1.0000 F4000
G1 X492.4402 Y386.3999 Z10.0000 F9999
G1 X538.0365 Y427.5008 Z10.0000 F9999
G1 X538.0365 Y427.5008 Z-1.0000 F2500
G1 X515.8347 Y394.1063 Z-1.0000 F4000
G1 X544.6421 Y394.1063 Z-1.0000 F4000
G1 X515.8347 Y394.1063 Z-1.0000 F4000
G1 X538.0365 Y427.5008 Z-1.0000 F4000
G1 X538.0365 Y386.3999 Z-1.0000 F4000
G1 X538.0365 Y386.3999 Z10.0000 F9999
G1 X555.7613 Y394.3448 Z10.0000 F9999
G1 X555.7613 Y394.3448 Z-1.0000 F2500
G1 X556.5136 Y391.6659 Z-1.0000 F4000
G1 X558.2384 Y389.0971 Z-1.0000 F4000
G1 X561.1925 Y387.1522 Z-1.0000 F4000
G1 X565.7430 Y386.3999 Z-1.0000 F4000
G1 X574.2567 Y389.0237 Z-1.0000 F4000
G1 X577.3576 Y397.0054 Z-1.0000 F4000
G1 X576.4769 Y401.7393 Z-1.0000 F4000
G1 X574.1650 Y405.0971 Z-1.0000 F4000
G1 X570.9540 Y407.0971 Z-1.0000 F4000
G1 X567.3760 Y407.7760 Z-1.0000 F4000
G1 X570.8439 Y408.5100 Z-1.0000 F4000
G1 X573.7980 Y410.7302 Z-1.0000 F4000
G1 X575.8898 Y414.1063 Z-1.0000 F4000
G1 X576.6787 Y418.3081 Z-1.0000 F4000
G1 X576.6421 Y419.8861 Z-1.0000 F4000
G1 X576.3668 Y421.8678 Z-1.0000 F4000
G1 X575.5778 Y423.8861 Z-1.0000 F4000
G1 X574.0549 Y425.7210 Z-1.0000 F4000
G1 X571.5044 Y427.0237 Z-1.0000 F4000
G1 X567.7613 Y427.5008 Z-1.0000 F4000
G1 X562.3852 Y426.6751 Z-1.0000 F4000
G1 X559.2843 Y424.6568 Z-1.0000 F4000
G1 X557.7613 Y421.9962 Z-1.0000 F4000
G1 X557.1742 Y419.2623 Z-1.0000 F4000
G1 X557.7613 Y421.9962 Z-1.0000 F4000
G1 X559.2843 Y424.6568 Z-1.0000 F4000
G1 X562.3852 Y426.6751 Z-1.0000 F4000
G1 X567.7613 Y427.5008 Z-1.0000 F4000
G1 X571.5044 Y427.0237 Z-1.0000 F4000
G1 X574.0549 Y425.7210 Z-1.0000 F4000
G1 X575.5778 Y423.8861 Z-1.0000 F4000
G1 X576.3668 Y421.8678 Z-1.0000 F4000
G1 X576.6421 Y419.9228 Z-1.0000 F4000
G1 X576.6787 Y418.3081 Z-1.0000 F4000
G1 X575.8898 Y414.1063 Z-1.0000 F4000
G1 X573.7980 Y410.7302 Z-1.0000 F4000
G1 X570.8439 Y408.5100 Z-1.0000 F4000
G1 X567.3760 Y407.7760 Z-1.0000 F4000
G1 X570.9540 Y407.0971 Z-1.0000 F4000
G1 X574.1650 Y405.0971 Z-1.0000 F4000
G1 X576.4769 Y401.7393 Z-1.0000 F4000
G1 X577.3576 Y397.0054 Z-1.0000 F4000
G1 X574.2567 Y389.0237 Z-1.0000 F4000
G1 X565.7430 Y386.3999 Z-1.0000 F4000
G1 X561.1925 Y387.1522 Z-1.0000 F4000
G1 X558.2384 Y389.0971 Z-1.0000 F4000
G1 X556.5136 Y391.6659 Z-1.0000 F4000
G1 X556.5136 Y391.6659 Z10.0000 F9999
G1 X505.0641 Y658.4503 Z10.0000 F9999
G1 X505.0641 Y658.4503 Z-1.0000 F2500
G1 X492.4402 Y658.4503 Z-1.0000 F4000
G1 X492.4402 Y699.5512 Z-1.0000 F4000
G1 X492.4402 Y658.4503 Z-1.0000 F4000
G1 X492.4402 Y658.4503 Z10.0000 F9999
G1 X538.0365 Y699.5512 Z10.0000 F9999
G1 X538.0365 Y699.5512 Z-1.0000 F2500
G1 X515.8347 Y666.1567 Z-1.0000 F4000
G1 X544.6421 Y666.1567 Z-1.0000 F4000
G1 X515.8347 Y666.1567 Z-1.0000 F4000
G1 X538.0365 Y699.5512 Z-1.0000 F4000
G1 X538.0365 Y658.4503 Z-1.0000 F4000
G1 X538.0365 Y658.4503 Z10.0000 F9999
G1 X555.7613 Y666.3952 Z10.0000 F9999
G1 X555.7613 Y666.3952 Z-1.0000 F2500
G1 X556.5136 Y663.7163 Z-1.0000 F4000
G1 X558.2384 Y661.1475 Z-1.0000 F4000
G1 X561.1925 Y659.2026 Z-1.0000 F4000
G1 X565.7430 Y658.4503 Z-1.0000 F4000
G1 X574.2567 Y661.0741 Z-1.0000 F4000
G1 X577.3576 Y669.0558 Z-1.0000 F4000
G1 X576.4769 Y673.7897 Z-1.0000 F4000
G1 X574.1650 Y677.1475 Z-1.0000 F4000
G1 X570.9540 Y679.1475 Z-1.0000 F4000
G1 X567.3760 Y679.8264 Z-1.0000 F4000
G1 X570.8439 Y680.5604 Z-1.0000 F4000
G1 X573.7980 Y682.7805 Z-1.0000 F4000
G1 X575.8898 Y686.1567 Z-1.0000 F4000
G1 X576.6787 Y690.3585 Z-1.0000 F4000
G1 X576.6421 Y691.9365 Z-1.0000 F4000
G1 X576.3668 Y693.9182 Z-1.0000 F4000
G1 X575.5778 Y695.9365 Z-1.0000 F4000
G1 X574.0549 Y697.7714 Z-1.0000 F4000
G1 X571.5044 Y699.0741 Z-1.0000 F4000
G1 X567.7613 Y699.5512 Z-1.0000 F4000
G1 X562.3852 Y698.7255 Z-1.0000 F4000
G1 X559.2843 Y696.7072 Z-1.0000 F4000
G1 X557.7613 Y694.0466 Z-1.0000 F4000
G1 X557.1742 Y691.3127 Z-1.0000 F4000
G1 X557.7613 Y694.0466 Z-1.0000 F4000
G1 X559.2843 Y696.7072 Z-1.0000 F4000
G1 X562.3852 Y698.7255 Z-1.0000 F4000
G1 X567.7613 Y699.5512 Z-1.0000 F4000
G1 X571.5044 Y699.0741 Z-1.0000 F4000
G1 X574.0549 Y697.7714 Z-1.0000 F4000
G1 X575.5778 Y695.9365 Z-1.0000 F4000
G1 X576.3668 Y693.9182 Z-1.0000 F4000
G1 X576.6421 Y691.9732 Z-1.0000 F4000
G1 X576.6787 Y690.3585 Z-1.0000 F4000
G1 X575.8898 Y686.1567 Z-1.0000 F4000
G1 X573.7980 Y682.7805 Z-1.0000 F4000
G1 X570.8439 Y680.5604 Z-1.0000 F4000
G1 X567.3760 Y679.8264 Z-1.0000 F4000
G1 X570.9540 Y679.1475 Z-1.0000 F4000
G1 X574.1650 Y677.1475 Z-1.0000 F4000
G1 X576.4769 Y673.7897 Z-1.0000 F4000
G1 X577.3576 Y669.0558 Z-1.0000 F4000
G1 X574.2567 Y661.0741 Z-1.0000 F4000
G1 X565.7430 Y658.4503 Z-1.0000 F4000
G1 X561.1925 Y659.2026 Z-1.0000 F4000
G1 X558.2384 Y661.1475 Z-1.0000 F4000
G1 X556.5136 Y663.7163 Z-1.0000 F4000
G1 X556.5136 Y663.7163 Z10.0000 F9999
G1 X505.0641 Y930.5007 Z10.0000 F9999
G1 X505.0641 Y930.5007 Z-1.0000 F2500
G1 X492.4402 Y930.5007 Z-1.0000 F4000
G1 X492.4402 Y971.6016 Z-1.0000 F4000
G1 X492.4402 Y930.5007 Z-1.0000 F4000
G1 X492.4402 Y930.5007 Z10.0000 F9999
G1 X538.0365 Y971.6016 Z10.0000 F9999
G1 X538.0365 Y971.6016 Z-1.0000 F2500
G1 X515.8347 Y938.2071 Z-1.0000 F4000
G1 X544.6421 Y938.2071 Z-1.0000 F4000
G1 X515.8347 Y938.2071 Z-1.0000 F4000
G1 X538.0365 Y971.6016 Z-1.0000 F4000
G1 X538.0365 Y930.5007 Z-1.0000 F4000
G1 X538.0365 Y930.5007 Z10.0000 F9999
G1 X555.7613 Y938.4456 Z10.0000 F9999
G1 X555.7613 Y938.4456 Z-1.0000 F2500
G1 X556.5136 Y935.7667 Z-1.0000 F4000
G1 X558.2384 Y933.1979 Z-1.0000 F4000
G1 X561.1925 Y931.2530 Z-1.0000 F4000
G1 X565.7430 Y930.5007 Z-1.0000 F4000
G1 X574.2567 Y933.1245 Z-1.0000 F4000
G1 X577.3576 Y941.1062 Z-1.0000 F4000
G1 X576.4769 Y945.8401 Z-1.0000 F4000
G1 X574.1650 Y949.1979 Z-1.0000 F4000
G1 X570.9540 Y951.1979 Z-1.0000 F4000
G1 X567.3760 Y951.8768 Z-1.0000 F4000
G1 X570.8439 Y952.6108 Z-1.0000 F4000
G1 X573.7980 Y954.8309 Z-1.0000 F4000
G1 X575.8898 Y958.2071 Z-1.0000 F4000
G1 X576.6787 Y962.4089 Z-1.0000 F4000
G1 X576.6421 Y963.9869 Z-1.0000 F4000
G1 X576.3668 Y965.9686 Z-1.0000 F4000
G1 X575.5778 Y967.9869 Z-1.0000 F4000
G1 X574.0549 Y969.8218 Z-1.0000 F4000
G1 X571.5044 Y971.1245 Z-1.0000 F4000
G1 X567.7613 Y971.6016 Z-1.0000 F4000
G1 X562.3852 Y970.7759 Z-1.0000 F4000
G1 X559.2843 Y968.7575 Z-1.0000 F4000
G1 X557.7613 Y966.0970 Z-1.0000 F4000
G1 X557.1742 Y963.3630 Z-1.0000 F4000
G1 X557.7613 Y966.0970 Z-1.0000 F4000
G1 X559.2843 Y968.7575 Z-1.0000 F4000
G1 X562.3852 Y970.7759 Z-1.0000 F4000
G1 X567.7613 Y971.6016 Z-1.0000 F4000
G1 X571.5044 Y971.1245 Z-1.0000 F4000
G1 X574.0549 Y969.8218 Z-1.0000 F4000
G1 X575.5778 Y967.9869 Z-1.0000 F4000
G1 X576.3668 Y965.9686 Z-1.0000 F4000
G1 X576.6421 Y964.0236 Z-1.0000 F4000
G1 X576.6787 Y962.4089 Z-1.0000 F4000
G1 X575.8898 Y958.2071 Z-1.0000 F4000
G1 X573.7980 Y954.8309 Z-1.0000 F4000
G1 X570.8439 Y952.6108 Z-1.0000 F4000
G1 X567.3760 Y951.8768 Z-1.0000 F4000
G1 X570.9540 Y951.1979 Z-1.0000 F4000
G1 X574.1650 Y949.1979 Z-1.0000 F4000
G1 X576.4769 Y945.8401 Z-1.0000 F4000
G1 X577.3576 Y941.1062 Z-1.0000 F4000
G1 X574.2567 Y933.1245 Z-1.0000 F4000
G1 X565.7430 Y930.5007 Z-1.0000 F4000
G1 X561.1925 Y931.2530 Z-1.0000 F4000
G1 X558.2384 Y933.1979 Z-1.0000 F4000
G1 X556.5136 Y935.7667 Z-1.0000 F4000
G1 X556.5136 Y935.7667 Z10.0000 F9999
G1 X505.0641 Y1202.5511 Z10.0000 F9999
G1 X505.0641 Y1202.5511 Z-1.0000 F2500
G1 X492.4402 Y1202.5511 Z-1.0000 F4000
G1 X492.4402 Y1243.6520 Z-1.0000 F4000
G1 X492.4402 Y1202.5511 Z-1.0000 F4000
G1 X492.4402 Y1202.5511 Z10.0000 F9999
G1 X538.0365 Y1243.6520 Z10.0000 F9999
G1 X538.0365 Y1243.6520 Z-1.0000 F2500
G1 X515.8347 Y1210.2575 Z-1.0000 F4000
G1 X544.6421 Y1210.2575 Z-1.0000 F4000
G1 X515.8347 Y1210.2575 Z-1.0000 F4000
G1 X538.0365 Y1243.6520 Z-1.0000 F4000
G1 X538.0365 Y1202.5511 Z-1.0000 F4000
G1 X538.0365 Y1202.5511 Z10.0000 F9999
G1 X555.7613 Y1210.4960 Z10.0000 F9999
G1 X555.7613 Y1210.4960 Z-1.0000 F2500
G1 X556.5136 Y1207.8171 Z-1.0000 F4000
G1 X558.2384 Y1205.2483 Z-1.0000 F4000
G1 X561.1925 Y1203.3034 Z-1.0000 F4000
G1 X565.7430 Y1202.5511 Z-1.0000 F4000
G1 X574.2567 Y1205.1749 Z-1.0000 F4000
G1 X577.3576 Y1213.1566 Z-1.0000 F4000
G1 X576.4769 Y1217.8905 Z-1.0000 F4000
G1 X574.1650 Y1221.2483 Z-1.0000 F4000
G1 X570.9540 Y1223.2483 Z-1.0000 F4000
G1 X567.3760 Y1223.9272 Z-1.0000 F4000
G1 X570.8439 Y1224.6611 Z-1.0000 F4000
G1 X573.7980 Y1226.8813 Z-1.0000 F4000
G1 X575.8898 Y1230.2575 Z-1.0000 F4000
G1 X576.6787 Y1234.4593 Z-1.0000 F4000
G1 X576.6421 Y1236.0373 Z-1.0000 F4000
G1 X576.3668 Y1238.0189 Z-1.0000 F4000
G1 X575.5778 Y1240.0373 Z-1.0000 F4000
G1 X574.0549 Y1241.8722 Z-1.0000 F4000
G1 X571.5044 Y1243.1749 Z-1.0000 F4000
G1 X567.7613 Y1243.6520 Z-1.0000 F4000
G1 X562.3852 Y1242.8263 Z-1.0000 F4000
G1 X559.2843 Y1240.8079 Z-1.0000 F4000
G1 X557.7613 Y1238.1474 Z-1.0000 F4000
G1 X557.1742 Y1235.4134 Z-1.0000 F4000
G1 X557.7613 Y1238.1474 Z-1.0000 F4000
G1 X559.2843 Y1240.8079 Z-1.0000 F4000
G1 X562.3852 Y1242.8263 Z-1.0000 F4000
G1 X567.7613 Y1243.6520 Z-1.0000 F4000
G1 X571.5044 Y1243.1749 Z-1.0000 F4000
G1 X574.0549 Y1241.8722 Z-1.0000 F4000
G1 X575.5778 Y1240.0373 Z-1.0000 F4000
G1 X576.3668 Y1238.0189 Z-1.0000 F4000
G1 X576.6421 Y1236.0740 Z-1.0000 F4000
G1 X576.6787 Y1234.4593 Z-1.0000 F4000
G1 X575.8898 Y1230.2575 Z-1.0000 F4000
G1 X573.7980 Y1226.8813 Z-1.0000 F4000
G1 X570.8439 Y1224.6611 Z-1.0000 F4000
G1 X567.3760 Y1223.9272 Z-1.0000 F4000
G1 X570.9540 Y1223.2483 Z-1.0000 F4000
G1 X574.1650 Y1221.2483 Z-1.0000 F4000
G1 X576.4769 Y1217.8905 Z-1.0000 F4000
G1 X577.3576 Y1213.1566 Z-1.0000 F4000
G1 X574.2567 Y1205.1749 Z-1.0000 F4000
G1 X565.7430 Y1202.5511 Z-1.0000 F4000
G1 X561.1925 Y1203.3034 Z-1.0000 F4000
G1 X558.2384 Y1205.2483 Z-1.0000 F4000
G1 X556.5136 Y1207.8171 Z-1.0000 F4000
G1 X556.5136 Y1207.8171 Z10.0000 F9999
G1 X505.0641 Y1474.6015 Z10.0000 F9999
G1 X505.0641 Y1474.6015 Z-1.0000 F2500
G1 X492.4402 Y1474.6015 Z-1.0000 F4000
G1 X492.4402 Y1515.7024 Z-1.0000 F4000
G1 X492.4402 Y1474.6015 Z-1.0000 F4000
G1 X492.4402 Y1474.6015 Z10.0000 F9999
G1 X538.0365 Y1515.7024 Z10.0000 F9999
G1 X538.0365 Y1515.7024 Z-1.0000 F2500
G1 X515.8347 Y1482.3079 Z-1.0000 F4000
G1 X544.6421 Y1482.3079 Z-1.0000 F4000
G1 X515.8347 Y1482.3079 Z-1.0000 F4000
G1 X538.0365 Y1515.7024 Z-1.0000 F4000
G1 X538.0365 Y1474.6015 Z-1.0000 F4000
G1 X538.0365 Y1474.6015 Z10.0000 F9999
G1 X555.7613 Y1482.5464 Z10.0000 F9999
G1 X555.7613 Y1482.5464 Z-1.0000 F2500
G1 X556.5136 Y1479.8675 Z-1.0000 F4000
G1 X558.2384 Y1477.2987 Z-1.0000 F4000
G1 X561.1925 Y1475.3537 Z-1.0000 F4000
G1 X565.7430 Y1474.6015 Z-1.0000 F4000
G1 X574.2567 Y1477.2253 Z-1.0000 F4000
G1 X577.3576 Y1485.2070 Z-1.0000 F4000
G1 X576.4769 Y1489.9409 Z-1.0000 F4000
G1 X574.1650 Y1493.2987 Z-1.0000 F4000
G1 X570.9540 Y1495.2987 Z-1.0000 F4000
G1 X567.3760 Y1495.9776 Z-1.0000 F4000
G1 X570.8439 Y1496.7115 Z-1.0000 F4000
G1 X573.7980 Y1498.9317 Z-1.0000 F4000
G1 X575.8898 Y1502.3079 Z-1.0000 F4000
G1 X576.6787 Y1506.5097 Z-1.0000 F4000
G1 X576.6421 Y1508.0877 Z-1.0000 F4000
G1 X576.3668 Y1510.0693 Z-1.0000 F4000
G1 X575.5778 Y1512.0877 Z-1.0000 F4000
G1 X574.0549 Y1513.9226 Z-1.0000 F4000
G1 X571.5044 Y1515.2253 Z-1.0000 F4000
G1 X567.7613 Y1515.7024 Z-1.0000 F4000
G1 X562.3852 Y1514.8767 Z-1.0000 F4000
G1 X559.2843 Y1512.8583 Z-1.0000 F4000
G1 X557.7613 Y1510.1978 Z-1.0000 F4000
G1 X557.1742 Y1507.4638 Z-1.0000 F4000
G1 X557.7613 Y1510.1978 Z-1.0000 F4000
G1 X559.2843 Y1512.8583 Z-1.0000 F4000
G1 X562.3852 Y1514.8767 Z-1.0000 F4000
G1 X567.7613 Y1515.7024 Z-1.0000 F4000
G1 X571.5044 Y1515.2253 Z-1.0000 F4000
G1 X574.0549 Y1513.9226 Z-1.0000 F4000
G1 X575.5778 Y1512.0877 Z-1.0000 F4000
G1 X576.3668 Y1510.0693 Z-1.0000 F4000
G1 X576.6421 Y1508.1244 Z-1.0000 F4000
G1 X576.6787 Y1506.5097 Z-1.0000 F4000
G1 X575.8898 Y1502.3079 Z-1.0000 F4000
G1 X573.7980 Y1498.9317 Z-1.0000 F4000
G1 X570.8439 Y1496.7115 Z-1.0000 F4000
G1 X567.3760 Y1495.9776 Z-1.0000 F4000
G1 X570.9540 Y1495.2987 Z-1.0000 F4000
G1 X574.1650 Y1493.2987 Z-1.0000 F4000
G1 X576.4769 Y1489.9409 Z-1.0000 F4000
G1 X577.3576 Y1485.2070 Z-1.0000 F4000
G1 X574.2567 Y1477.2253 Z-1.0000 F4000
G1 X565.7430 Y1474.6015 Z-1.0000 F4000
G1 X561.1925 Y1475.3537 Z-1.0000 F4000
G1 X558.2384 Y1477.2987 Z-1.0000 F4000
G1 X556.5136 Y1479.8675 Z-1.0000 F4000
G1 X556.5136 Y1479.8675 Z10.0000 F9999
G1 X505.0641 Y1746.6518 Z10.0000 F9999
G1 X505.0641 Y1746.6518 Z-1.0000 F2500
G1 X492.4402 Y1746.6518 Z-1.0000 F4000
G1 X492.4402 Y1787.7528 Z-1.0000 F4000
G1 X492.4402 Y1746.6518 Z-1.0000 F4000
G1 X492.4402 Y1746.6518 Z10.0000 F9999
G1 X538.0365 Y1787.7528 Z10.0000 F9999
G1 X538.0365 Y1787.7528 Z-1.0000 F2500
G1 X515.8347 Y1754.3583 Z-1.0000 F4000
G1 X544.6421 Y1754.3583 Z-1.0000 F4000
G1 X515.8347 Y1754.3583 Z-1.0000 F4000
G1 X538.0365 Y1787.7528 Z-1.0000 F4000
G1 X538.0365 Y1746.6518 Z-1.0000 F4000
G1 X538.0365 Y1746.6518 Z10.0000 F9999
G1 X555.7613 Y1754.5968 Z10.0000 F9999
G1 X555.7613 Y1754.5968 Z-1.0000 F2500
G1 X556.5136 Y1751.9179 Z-1.0000 F4000
G1 X558.2384 Y1749.3491 Z-1.0000 F4000
G1 X561.1925 Y1747.4041 Z-1.0000 F4000
G1 X565.7430 Y1746.6518 Z-1.0000 F4000
G1 X574.2567 Y1749.2757 Z-1.0000 F4000
G1 X577.3576 Y1757.2573 Z-1.0000 F4000
G1 X576.4769 Y1761.9913 Z-1.0000 F4000
G1 X574.1650 Y1765.3491 Z-1.0000 F4000
G1 X570.9540 Y1767.3491 Z-1.0000 F4000
G1 X567.3760 Y1768.0280 Z-1.0000 F4000
G1 X570.8439 Y1768.7619 Z-1.0000 F4000
G1 X573.7980 Y1770.9821 Z-1.0000 F4000
G1 X575.8898 Y1774.3583 Z-1.0000 F4000
G1 X576.6787 Y1778.5601 Z-1.0000 F4000
G1 X576.6421 Y1780.1381 Z-1.0000 F4000
G1 X576.3668 Y1782.1197 Z-1.0000 F4000
G1 X575.5778 Y1784.1381 Z-1.0000 F4000
G1 X574.0549 Y1785.9729 Z-1.0000 F4000
G1 X571.5044 Y1787.2757 Z-1.0000 F4000
G1 X567.7613 Y1787.7528 Z-1.0000 F4000
G1 X562.3852 Y1786.9271 Z-1.0000 F4000
G1 X559.2843 Y1784.9087 Z-1.0000 F4000
G1 X557.7613 Y1782.2482 Z-1.0000 F4000
G1 X557.1742 Y1779.5142 Z-1.0000 F4000
G1 X557.7613 Y1782.2482 Z-1.0000 F4000
G1 X559.2843 Y1784.9087 Z-1.0000 F4000
G1 X562.3852 Y1786.9271 Z-1.0000 F4000
G1 X567.7613 Y1787.7528 Z-1.0000 F4000
G1 X571.5044 Y1787.2757 Z-1.0000 F4000
G1 X574.0549 Y1785.9729 Z-1.0000 F4000
G1 X575.5778 Y1784.1381 Z-1.0000 F4000
G1 X576.3668 Y1782.1197 Z-1.0000 F4000
G1 X576.6421 Y1780.1748 Z-1.0000 F4000
G1 X576.6787 Y1778.5601 Z-1.0000 F4000
G1 X575.8898 Y1774.3583 Z-1.0000 F4000
G1 X573.7980 Y1770.9821 Z-1.0000 F4000
G1 X570.8439 Y1768.7619 Z-1.0000 F4000
G1 X567.3760 Y1768.0280 Z-1.0000 F4000
G1 X570.9540 Y1767.3491 Z-1.0000 F4000
G1 X574.1650 Y1765.3491 Z-1.0000 F4000
G1 X576.4769 Y1761.9913 Z-1.0000 F4000
G1 X577.3576 Y1757.2573 Z-1.0000 F4000
G1 X574.2567 Y1749.2757 Z-1.0000 F4000
G1 X565.7430 Y1746.6518 Z-1.0000 F4000
G1 X561.1925 Y1747.4041 Z-1.0000 F4000
G1 X558.2384 Y1749.3491 Z-1.0000 F4000
G1 X556.5136 Y1751.9179 Z-1.0000 F4000
G1 X556.5136 Y1751.9179 Z10.0000 F9999
(Tool Number:1) (7.998 mm dia. slot drill)
M3 S9000
G1 X508.8661 Y1624.1506 Z10.0000 F9999
G1 X508.8661 Y1624.1506 Z1.0000 F2500
G1 X469.8950 Y1624.1506 Z-9.5000 F2500
G1 X508.8661 Y1624.1506 Z-20.0000 F2500
G1 X5.9010 Y1624.1504 Z-20.0000 F5000
G1 X5.9010 Y1366.1530 Z-20.0000 F5000
G1 X1010.5371 Y1366.1533 Z-20.0000 F5000
G1 X1010.5371 Y1366.1533 Z-10.0000 F9999
G1 X1026.5351 Y1366.1533 Z-10.0000 F5000
G1 X1026.5351 Y1366.1533 Z-20.0000 F2500
G1 X1063.8969 Y1366.1533 Z-20.0000 F5000
G1 X1063.8967 Y1624.1509 Z-20.0000 F5000
G1 X1027.8293 Y1624.1508 Z-20.0000 F5000
G1 X1027.8293 Y1624.1508 Z-10.0000 F9999
G1 X1011.8313 Y1624.1508 Z-10.0000 F5000
G1 X1011.8313 Y1624.1508 Z-20.0000 F2500
G1 X508.8661 Y1624.1506 Z-20.0000 F5000
G1 X508.8661 Y1624.1506 Z10.0000 F9999
G1 X509.7289 Y1094.1028 Z10.0000 F9999
G1 X509.7289 Y1094.1028 Z1.0000 F2500
G1 X548.7001 Y1094.1028 Z-9.5000 F2500
G1 X509.7289 Y1094.1028 Z-20.0000 F2500
G1 X1013.5569 Y1094.1029 Z-20.0000 F5000
G1 X1013.5569 Y1094.1029 Z-10.0000 F9999
G1 X1029.5549 Y1094.1029 Z-10.0000 F5000
G1 X1029.5549 Y1094.1029 Z-20.0000 F2500
G1 X1063.8969 Y1094.1029 Z-20.0000 F5000
G1 X1063.8967 Y1352.1005 Z-20.0000 F5000
G1 X1026.5351 Y1352.1004 Z-20.0000 F5000
G1 X1026.5351 Y1352.1004 Z-10.0000 F9999
G1 X1010.5371 Y1352.1004 Z-10.0000 F5000
G1 X1010.5371 Y1352.1004 Z-20.0000 F2500
G1 X5.9010 Y1352.1000 Z-20.0000 F5000
G1 X5.9010 Y1094.1026 Z-20.0000 F5000
G1 X509.7289 Y1094.1028 Z-20.0000 F5000
G1 X509.7289 Y1094.1028 Z10.0000 F9999
G1 X510.1603 Y822.0524 Z10.0000 F9999
G1 X510.1603 Y822.0524 Z1.0000 F2500
G1 X549.1315 Y822.0524 Z-9.5000 F2500
G1 X510.1603 Y822.0524 Z-20.0000 F2500
G1 X1014.4197 Y822.0525 Z-20.0000 F5000
G1 X1014.4197 Y822.0525 Z-10.0000 F9999
G1 X1030.4177 Y822.0525 Z-10.0000 F5000
G1 X1030.4177 Y822.0525 Z-20.0000 F2500
G1 X1063.8969 Y822.0526 Z-20.0000 F5000
G1 X1063.8967 Y1080.0501 Z-20.0000 F5000
G1 X1029.9863 Y1080.0500 Z-20.0000 F5000
G1 X1029.9863 Y1080.0500 Z-10.0000 F9999
G1 X1013.9883 Y1080.0500 Z-10.0000 F5000
G1 X1013.9883 Y1080.0500 Z-20.0000 F2500
G1 X5.9010 Y1080.0496 Z-20.0000 F5000
G1 X5.9010 Y822.0522 Z-20.0000 F5000
G1 X510.1603 Y822.0524 Z-20.0000 F5000
G1 X510.1603 Y822.0524 Z10.0000 F9999
G1 X510.1603 Y807.9994 Z10.0000 F9999
G1 X510.1603 Y807.9994 Z1.0000 F2500
G1 X471.1892 Y807.9994 Z-9.5000 F2500
G1 X510.1603 Y807.9994 Z-20.0000 F2500
G1 X5.9010 Y807.9992 Z-20.0000 F5000
G1 X5.9010 Y550.0018 Z-20.0000 F5000
G1 X1013.9883 Y550.0021 Z-20.0000 F5000
G1 X1013.9883 Y550.0021 Z-10.0000 F9999
G1 X1029.9863 Y550.0021 Z-10.0000 F5000
G1 X1029.9863 Y550.0021 Z-20.0000 F2500
G1 X1063.8969 Y550.0022 Z-20.0000 F5000
G1 X1063.8967 Y807.9997 Z-20.0000 F5000
G1 X1030.4177 Y807.9997 Z-20.0000 F5000
G1 X1030.4177 Y807.9997 Z-10.0000 F9999
G1 X1014.4197 Y807.9996 Z-10.0000 F5000
G1 X1014.4197 Y807.9996 Z-20.0000 F2500
G1 X510.1603 Y807.9994 Z-20.0000 F5000
G1 X510.1603 Y807.9994 Z10.0000 F9999
G1 X510.8074 Y277.9516 Z10.0000 F9999
G1 X510.8074 Y277.9516 Z1.0000 F2500
G1 X549.7786 Y277.9516 Z-9.5000 F2500
G1 X510.8074 Y277.9516 Z-20.0000 F2500
G1 X1015.7139 Y277.9517 Z-20.0000 F5000
G1 X1015.7139 Y277.9517 Z-10.0000 F9999
G1 X1031.7119 Y277.9518 Z-10.0000 F5000
G1 X1031.7119 Y277.9518 Z-20.0000 F2500
G1 X1063.8969 Y277.9518 Z-20.0000 F5000
G1 X1063.8967 Y535.9493 Z-20.0000 F5000
G1 X1029.9863 Y535.9493 Z-20.0000 F5000
G1 X1029.9863 Y535.9493 Z-10.0000 F9999
G1 X1013.9883 Y535.9493 Z-10.0000 F5000
G1 X1013.9883 Y535.9493 Z-20.0000 F2500
G1 X5.9010 Y535.9488 Z-20.0000 F5000
G1 X5.9010 Y277.9514 Z-20.0000 F5000
G1 X510.8074 Y277.9516 Z-20.0000 F5000
G1 X510.8074 Y277.9516 Z10.0000 F9999
G1 X534.8989 Y5.9012 Z10.0000 F9999
G1 X534.8989 Y5.9012 Z1.0000 F2500
G1 X573.8701 Y5.9012 Z-9.5000 F2500
G1 X534.8989 Y5.9012 Z-20.0000 F2500
G1 X1063.8969 Y5.9014 Z-20.0000 F5000
G1 X1063.8967 Y263.8989 Z-20.0000 F5000
G1 X5.9010 Y263.8984 Z-20.0000 F5000
G1 X5.9010 Y5.9010 Z-20.0000 F5000
G1 X534.8989 Y5.9012 Z-20.0000 F5000
G1 X534.8989 Y5.9012 Z10.0000 F9999
G1 X534.8989 Y1896.2010 Z10.0000 F9999
G1 X534.8989 Y1896.2010 Z1.0000 F2500
G1 X495.9277 Y1896.2010 Z-9.5000 F2500
G1 X534.8989 Y1896.2010 Z-20.0000 F2500
G1 X5.9010 Y1896.2008 Z-20.0000 F5000
G1 X5.9010 Y1638.2034 Z-20.0000 F5000
G1 X1011.8313 Y1638.2037 Z-20.0000 F5000
G1 X1011.8313 Y1638.2037 Z-10.0000 F9999
G1 X1027.8293 Y1638.2037 Z-10.0000 F5000
G1 X1027.8293 Y1638.2037 Z-20.0000 F2500
G1 X1063.8969 Y1638.2037 Z-20.0000 F5000
G1 X1063.8967 Y1896.2012 Z-20.0000 F5000
G1 X534.8989 Y1896.2010 Z-20.0000 F5000
G1 X534.8989 Y1896.2010 Z10.0000 F9999
G1 X1900.0000 Y2800.0000 Z80.0000 F9999
G1 Z80.0000 F9999
G1 X1900.0000 Y2800.0000 F9999
M5
M30
