(plotsheet 2n3_nested_153 sheets_final v1_0_sheet 156_S156.0_6 screws_pre drill_CC8 - HSM MRR 5.5~11mil)
(Material Size) (X=1220.000, Y=2440.000, Z=21.000)
(LinuxCNC_NoArcs_MM_TC_medium_50um_G1_verbose.con)
G90 G80 G21 G49
G64 P0.050
M6 T1
(Tool Number:1) (7.998 mm dia. slot drill)
G43 H1 G0Z80.0000
M3 S9000
G04 P10
G1 X23.5714 Y48.3168 Z10.0000 F9999
G1 X23.5714 Y48.3168 Z2.0000 F9999
G1 X23.5714 Y48.3168 Z-1.0000 F2500
G1 X23.5714 Y48.3168 Z10.0000 F9999
G1 X1195.2546 Y48.3168 Z10.0000 F9999
G1 X1195.2546 Y48.3168 Z2.0000 F9999
G1 X1195.2546 Y48.3168 Z-1.0000 F2500
G1 X1195.2546 Y48.3168 Z10.0000 F9999
G1 X1195.2546 Y1619.6322 Z10.0000 F9999
G1 X1195.2546 Y1619.6322 Z2.0000 F9999
G1 X1195.2546 Y1619.6322 Z-1.0000 F2500
G1 X1195.2546 Y1619.6322 Z10.0000 F9999
G1 X23.5714 Y1619.6322 Z10.0000 F9999
G1 X23.5714 Y1619.6322 Z2.0000 F9999
G1 X23.5714 Y1619.6322 Z-1.0000 F2500
G1 X23.5714 Y1619.6322 Z10.0000 F9999
G1 X1195.2546 Y2383.0552 Z10.0000 F9999
G1 X1195.2546 Y2383.0552 Z2.0000 F9999
G1 X1195.2546 Y2383.0552 Z-1.0000 F2500
G1 X1195.2546 Y2383.0552 Z10.0000 F9999
G1 X23.5714 Y2383.0552 Z10.0000 F9999
G1 X23.5714 Y2383.0552 Z2.0000 F9999
G1 X23.5714 Y2383.0552 Z-1.0000 F2500
G1 X23.5714 Y2383.0552 Z10.0000 F9999
G1 X1900.0000 Y2800.0000 Z80.0000 F9999
G1 Z80.0000 F9999
G1 X1900.0000 Y2800.0000 F9999
M5
M30
