(plotsheet 2n3_nested_153 sheets_final v1_0_sheet 144a_S144.0_15 screws_CC8 - stepover 1mm)
(Material Size) (X=1220.000, Y=2440.000, Z=20.000)
(LinuxCNC_NoArcs_MM_TC_medium_50um_G1_verbose.con)
G90 G80 G21 G49
G64 P0.050
M6 T1
(Tool Number:1) (7.998 mm dia. slot drill)
G43 H1 G0Z80.0000
M3 S9000
G04 P10
G1 X79.9755 Y197.5813 Z10.0000 F9999
G1 X79.9755 Y197.5813 Z2.0000 F9999
G1 X79.9755 Y197.5813 Z-1.0000 F2500
G1 X79.9755 Y197.5813 Z10.0000 F9999
G1 X426.8213 Y197.5813 Z10.0000 F9999
G1 X426.8213 Y197.5813 Z2.0000 F9999
G1 X426.8213 Y197.5813 Z-1.0000 F2500
G1 X426.8213 Y197.5813 Z10.0000 F9999
G1 X762.7157 Y86.4356 Z10.0000 F9999
G1 X762.7157 Y86.4356 Z2.0000 F9999
G1 X762.7157 Y86.4356 Z-1.0000 F2500
G1 X762.7157 Y86.4356 Z10.0000 F9999
G1 X1111.2871 Y86.4356 Z10.0000 F9999
G1 X1111.2871 Y86.4356 Z2.0000 F9999
G1 X1111.2871 Y86.4356 Z-1.0000 F2500
G1 X1111.2871 Y86.4356 Z10.0000 F9999
G1 X1112.3055 Y824.9929 Z10.0000 F9999
G1 X1112.3055 Y824.9929 Z2.0000 F9999
G1 X1112.3055 Y824.9929 Z-1.0000 F2500
G1 X1112.3055 Y824.9929 Z10.0000 F9999
G1 X937.5040 Y828.3396 Z10.0000 F9999
G1 X937.5040 Y828.3396 Z2.0000 F9999
G1 X937.5040 Y828.3396 Z-1.0000 F2500
G1 X937.5040 Y828.3396 Z10.0000 F9999
G1 X767.5073 Y824.9929 Z10.0000 F9999
G1 X767.5073 Y824.9929 Z2.0000 F9999
G1 X767.5073 Y824.9929 Z-1.0000 F2500
G1 X767.5073 Y824.9929 Z10.0000 F9999
G1 X595.3324 Y824.9929 Z10.0000 F9999
G1 X595.3324 Y824.9929 Z2.0000 F9999
G1 X595.3324 Y824.9929 Z-1.0000 F2500
G1 X595.3324 Y824.9929 Z10.0000 F9999
G1 X429.3468 Y899.1938 Z10.0000 F9999
G1 X429.3468 Y899.1938 Z2.0000 F9999
G1 X429.3468 Y899.1938 Z-1.0000 F2500
G1 X429.3468 Y899.1938 Z10.0000 F9999
G1 X260.2379 Y899.1938 Z10.0000 F9999
G1 X260.2379 Y899.1938 Z2.0000 F9999
G1 X260.2379 Y899.1938 Z-1.0000 F2500
G1 X260.2379 Y899.1938 Z10.0000 F9999
G1 X87.6778 Y899.1938 Z10.0000 F9999
G1 X87.6778 Y899.1938 Z2.0000 F9999
G1 X87.6778 Y899.1938 Z-1.0000 F2500
G1 X87.6778 Y899.1938 Z10.0000 F9999
G1 X762.7075 Y1831.8317 Z10.0000 F9999
G1 X762.7075 Y1831.8317 Z2.0000 F9999
G1 X762.7075 Y1831.8317 Z-1.0000 F2500
G1 X762.7075 Y1831.8317 Z10.0000 F9999
G1 X1107.5057 Y1831.8317 Z10.0000 F9999
G1 X1107.5057 Y1831.8317 Z2.0000 F9999
G1 X1107.5057 Y1831.8317 Z-1.0000 F2500
G1 X1107.5057 Y1831.8317 Z10.0000 F9999
G1 X427.9491 Y2062.2490 Z10.0000 F9999
G1 X427.9491 Y2062.2490 Z2.0000 F9999
G1 X427.9491 Y2062.2490 Z-1.0000 F2500
G1 X427.9491 Y2062.2490 Z10.0000 F9999
G1 X81.1033 Y2058.7979 Z10.0000 F9999
G1 X81.1033 Y2058.7979 Z2.0000 F9999
G1 X81.1033 Y2058.7979 Z-1.0000 F2500
G1 X81.1033 Y2058.7979 Z10.0000 F9999
G1 X1900.0000 Y2800.0000 Z80.0000 F9999
G1 Z80.0000 F9999
G1 X1900.0000 Y2800.0000 F9999
M5
M30
