(plotsheet 2n3_nested_153 sheets_final v1_0_sheet 152b_S152.0_21 screws_CC8 - stepover 1mm)
(Material Size) (X=1220.000, Y=2440.000, Z=20.000)
(LinuxCNC_NoArcs_MM_TC_medium_50um_G1_verbose.con)
G90 G80 G21 G49
G64 P0.050
M6 T1
(Tool Number:1) (7.998 mm dia. slot drill)
G43 H1 G0Z80.0000
M3 S9000
G04 P10
G1 X81.5884 Y2200.3599 Z10.0000 F9999
G1 X81.5884 Y2200.3599 Z2.0000 F9999
G1 X81.5884 Y2200.3599 Z-1.0000 F2500
G1 X81.5884 Y2200.3599 Z10.0000 F9999
G1 X426.5944 Y2200.3599 Z10.0000 F9999
G1 X426.5944 Y2200.3599 Z2.0000 F9999
G1 X426.5944 Y2200.3599 Z-1.0000 F2500
G1 X426.5944 Y2200.3599 Z10.0000 F9999
G1 X1054.4160 Y2354.8469 Z10.0000 F9999
G1 X1054.4160 Y2354.8469 Z2.0000 F9999
G1 X1054.4160 Y2354.8469 Z-1.0000 F2500
G1 X1054.4160 Y2354.8469 Z10.0000 F9999
G1 X1054.4160 Y2190.7974 Z10.0000 F9999
G1 X1054.4160 Y2190.7974 Z2.0000 F9999
G1 X1054.4160 Y2190.7974 Z-1.0000 F2500
G1 X1054.4160 Y2190.7974 Z10.0000 F9999
G1 X770.3239 Y1832.6597 Z10.0000 F9999
G1 X770.3239 Y1832.6597 Z2.0000 F9999
G1 X770.3239 Y1832.6597 Z-1.0000 F2500
G1 X770.3239 Y1832.6597 Z10.0000 F9999
G1 X1115.5016 Y1832.6597 Z10.0000 F9999
G1 X1115.5016 Y1832.6597 Z2.0000 F9999
G1 X1115.5016 Y1832.6597 Z-1.0000 F2500
G1 X1115.5016 Y1832.6597 Z10.0000 F9999
G1 X428.4541 Y1507.5005 Z10.0000 F9999
G1 X428.4541 Y1507.5005 Z2.0000 F9999
G1 X428.4541 Y1507.5005 Z-1.0000 F2500
G1 X428.4541 Y1507.5005 Z10.0000 F9999
G1 X84.5457 Y1507.5005 Z10.0000 F9999
G1 X84.5457 Y1507.5005 Z2.0000 F9999
G1 X84.5457 Y1507.5005 Z-1.0000 F2500
G1 X84.5457 Y1507.5005 Z10.0000 F9999
G1 X774.3519 Y1205.0266 Z10.0000 F9999
G1 X774.3519 Y1205.0266 Z2.0000 F9999
G1 X774.3519 Y1205.0266 Z-1.0000 F2500
G1 X774.3519 Y1205.0266 Z10.0000 F9999
G1 X1119.4838 Y1205.0266 Z10.0000 F9999
G1 X1119.4838 Y1205.0266 Z2.0000 F9999
G1 X1119.4838 Y1205.0266 Z-1.0000 F2500
G1 X1119.4838 Y1205.0266 Z10.0000 F9999
G1 X84.5457 Y819.5582 Z10.0000 F9999
G1 X84.5457 Y819.5582 Z2.0000 F9999
G1 X84.5457 Y819.5582 Z-1.0000 F2500
G1 X84.5457 Y819.5582 Z10.0000 F9999
G1 X428.4541 Y819.5582 Z10.0000 F9999
G1 X428.4541 Y819.5582 Z2.0000 F9999
G1 X428.4541 Y819.5582 Z-1.0000 F2500
G1 X428.4541 Y819.5582 Z10.0000 F9999
G1 X603.7042 Y819.5582 Z10.0000 F9999
G1 X603.7042 Y819.5582 Z2.0000 F9999
G1 X603.7042 Y819.5582 Z-1.0000 F2500
G1 X603.7042 Y819.5582 Z10.0000 F9999
G1 X774.3519 Y819.5582 Z10.0000 F9999
G1 X774.3519 Y819.5582 Z2.0000 F9999
G1 X774.3519 Y819.5582 Z-1.0000 F2500
G1 X774.3519 Y819.5582 Z10.0000 F9999
G1 X945.8757 Y819.5582 Z10.0000 F9999
G1 X945.8757 Y819.5582 Z2.0000 F9999
G1 X945.8757 Y819.5582 Z-1.0000 F2500
G1 X945.8757 Y819.5582 Z10.0000 F9999
G1 X1119.4838 Y819.5582 Z10.0000 F9999
G1 X1119.4838 Y819.5582 Z2.0000 F9999
G1 X1119.4838 Y819.5582 Z-1.0000 F2500
G1 X1119.4838 Y819.5582 Z10.0000 F9999
G1 X84.5457 Y73.8250 Z10.0000 F9999
G1 X84.5457 Y73.8250 Z2.0000 F9999
G1 X84.5457 Y73.8250 Z-1.0000 F2500
G1 X84.5457 Y73.8250 Z10.0000 F9999
G1 X257.2220 Y73.8250 Z10.0000 F9999
G1 X257.2220 Y73.8250 Z2.0000 F9999
G1 X257.2220 Y73.8250 Z-1.0000 F2500
G1 X257.2220 Y73.8250 Z10.0000 F9999
G1 X428.4541 Y73.8250 Z10.0000 F9999
G1 X428.4541 Y73.8250 Z2.0000 F9999
G1 X428.4541 Y73.8250 Z-1.0000 F2500
G1 X428.4541 Y73.8250 Z10.0000 F9999
G1 X774.3519 Y73.8250 Z10.0000 F9999
G1 X774.3519 Y73.8250 Z2.0000 F9999
G1 X774.3519 Y73.8250 Z-1.0000 F2500
G1 X774.3519 Y73.8250 Z10.0000 F9999
G1 X1119.4838 Y73.8250 Z10.0000 F9999
G1 X1119.4838 Y73.8250 Z2.0000 F9999
G1 X1119.4838 Y73.8250 Z-1.0000 F2500
G1 X1119.4838 Y73.8250 Z10.0000 F9999
G1 X1900.0000 Y2800.0000 Z80.0000 F9999
G1 Z80.0000 F9999
G1 X1900.0000 Y2800.0000 F9999
M5
M30
