(plotsheet 2n3_nested_153 sheets_final v1_0_sheet 137 to 139_S137.1_text_CC9.53 - PCD - stepover 1mm)
(Material Size) (X=1220.000, Y=2440.000, Z=20.000)
(LinuxCNC_NoArcs_MM_TC_medium_50um_G1_verbose.con)
G90 G80 G21 G49
G64 P0.050
M6 T1
(Tool Number:1) (9.530 mm dia. slot drill)
G43 H1 G0Z80.0000
M3 S13114
G04 P10
G1 X601.5745 Y69.3158 Z10.0000 F9999
G1 X601.5745 Y69.3158 Z-1.0000 F2500
G1 X600.8222 Y71.9947 Z-1.0000 F4000
G1 X599.0975 Y74.5635 Z-1.0000 F4000
G1 X596.1433 Y76.5085 Z-1.0000 F4000
G1 X591.5929 Y77.2608 Z-1.0000 F4000
G1 X583.0791 Y74.6369 Z-1.0000 F4000
G1 X579.9782 Y66.6553 Z-1.0000 F4000
G1 X580.8589 Y61.9213 Z-1.0000 F4000
G1 X583.1709 Y58.5635 Z-1.0000 F4000
G1 X586.3819 Y56.5635 Z-1.0000 F4000
G1 X589.9598 Y55.8846 Z-1.0000 F4000
G1 X586.4920 Y55.1507 Z-1.0000 F4000
G1 X583.5378 Y52.9305 Z-1.0000 F4000
G1 X581.4461 Y49.5544 Z-1.0000 F4000
G1 X580.6571 Y45.3525 Z-1.0000 F4000
G1 X580.6938 Y43.7745 Z-1.0000 F4000
G1 X580.9690 Y41.7929 Z-1.0000 F4000
G1 X581.7580 Y39.7745 Z-1.0000 F4000
G1 X583.2809 Y37.9397 Z-1.0000 F4000
G1 X585.8314 Y36.6369 Z-1.0000 F4000
G1 X589.5745 Y36.1599 Z-1.0000 F4000
G1 X594.9507 Y36.9856 Z-1.0000 F4000
G1 X598.0516 Y39.0039 Z-1.0000 F4000
G1 X599.5745 Y41.6645 Z-1.0000 F4000
G1 X600.1617 Y44.3984 Z-1.0000 F4000
G1 X599.5745 Y41.6645 Z-1.0000 F4000
G1 X598.0516 Y39.0039 Z-1.0000 F4000
G1 X594.9507 Y36.9856 Z-1.0000 F4000
G1 X589.5745 Y36.1599 Z-1.0000 F4000
G1 X585.8314 Y36.6369 Z-1.0000 F4000
G1 X583.2809 Y37.9397 Z-1.0000 F4000
G1 X581.7580 Y39.7745 Z-1.0000 F4000
G1 X580.9690 Y41.7929 Z-1.0000 F4000
G1 X580.6938 Y43.7378 Z-1.0000 F4000
G1 X580.6571 Y45.3525 Z-1.0000 F4000
G1 X581.4461 Y49.5544 Z-1.0000 F4000
G1 X583.5378 Y52.9305 Z-1.0000 F4000
G1 X586.4920 Y55.1507 Z-1.0000 F4000
G1 X589.9598 Y55.8846 Z-1.0000 F4000
G1 X586.3819 Y56.5635 Z-1.0000 F4000
G1 X583.1709 Y58.5635 Z-1.0000 F4000
G1 X580.8589 Y61.9213 Z-1.0000 F4000
G1 X579.9782 Y66.6553 Z-1.0000 F4000
G1 X583.0791 Y74.6369 Z-1.0000 F4000
G1 X591.5929 Y77.2608 Z-1.0000 F4000
G1 X596.1433 Y76.5085 Z-1.0000 F4000
G1 X599.0975 Y74.5635 Z-1.0000 F4000
G1 X600.8222 Y71.9947 Z-1.0000 F4000
G1 X600.8222 Y71.9947 Z10.0000 F9999
G1 X658.9507 Y77.2608 Z10.0000 F9999
G1 X658.9507 Y77.2608 Z-1.0000 F2500
G1 X643.0057 Y36.1599 Z-1.0000 F4000
G1 X627.0424 Y77.2608 Z-1.0000 F4000
G1 X613.9782 Y36.1599 Z-1.0000 F4000
G1 X627.0424 Y77.2608 Z-1.0000 F4000
G1 X643.0057 Y36.1599 Z-1.0000 F4000
G1 X658.9507 Y77.2608 Z-1.0000 F4000
G1 X672.0332 Y36.1599 Z-1.0000 F4000
G1 X672.0332 Y36.1599 Z10.0000 F9999
G1 X505.2899 Y488.2604 Z10.0000 F9999
G1 X505.2899 Y488.2604 Z-1.0000 F2500
G1 X489.4092 Y547.1125 Z-1.0000 F4000
G1 X505.2899 Y488.2604 Z-1.0000 F4000
G1 X505.2899 Y488.2604 Z10.0000 F9999
G1 X474.7481 Y496.8754 Z10.0000 F9999
G1 X474.7481 Y496.8754 Z-1.0000 F2500
G1 X464.5372 Y486.6646 Z-1.0000 F4000
G1 X474.7481 Y496.8754 Z-1.0000 F4000
G1 X487.6836 Y483.9399 Z-1.0000 F4000
G1 X476.9926 Y473.2490 Z-1.0000 F4000
G1 X487.6836 Y483.9399 Z-1.0000 F4000
G1 X458.6208 Y513.0027 Z-1.0000 F4000
G1 X458.6208 Y513.0027 Z10.0000 F9999
G1 X498.6210 Y553.0029 Z10.0000 F9999
G1 X498.6210 Y553.0029 Z-1.0000 F2500
G1 X522.2215 Y548.1115 Z-1.0000 F4000
G1 X498.6210 Y553.0029 Z-1.0000 F4000
G1 X498.6210 Y553.0029 Z10.0000 F9999
G1 X510.9338 Y565.3156 Z10.0000 F9999
G1 X510.9338 Y565.3156 Z-1.0000 F2500
G1 X539.9965 Y536.2529 Z-1.0000 F4000
G1 X534.9365 Y531.1928 Z-1.0000 F4000
G1 X531.7707 Y528.8834 Z-1.0000 F4000
G1 X528.2157 Y527.8973 Z-1.0000 F4000
G1 X524.4142 Y528.5590 Z-1.0000 F4000
G1 X520.5348 Y531.2447 Z-1.0000 F4000
G1 X518.0438 Y535.3706 Z-1.0000 F4000
G1 X517.6545 Y539.6781 Z-1.0000 F4000
G1 X518.6146 Y543.4147 Z-1.0000 F4000
G1 X520.1975 Y545.9318 Z-1.0000 F4000
G1 X525.2575 Y550.9918 Z-1.0000 F4000
G1 X520.1975 Y545.9318 Z-1.0000 F4000
G1 X518.6146 Y543.4147 Z-1.0000 F4000
G1 X517.6545 Y539.6781 Z-1.0000 F4000
G1 X518.0438 Y535.3706 Z-1.0000 F4000
G1 X520.5348 Y531.2447 Z-1.0000 F4000
G1 X524.4142 Y528.5590 Z-1.0000 F4000
G1 X528.2157 Y527.8973 Z-1.0000 F4000
G1 X531.7707 Y528.8834 Z-1.0000 F4000
G1 X534.9365 Y531.1928 Z-1.0000 F4000
G1 X539.9965 Y536.2529 Z-1.0000 F4000
G1 X539.9965 Y536.2529 Z10.0000 F9999
G1 X534.1840 Y588.5658 Z10.0000 F9999
G1 X534.1840 Y588.5658 Z-1.0000 F2500
G1 X550.3112 Y572.4386 Z-1.0000 F4000
G1 X538.6731 Y560.8005 Z-1.0000 F4000
G1 X550.3112 Y572.4386 Z-1.0000 F4000
G1 X563.2467 Y559.5031 Z-1.0000 F4000
G1 X550.6874 Y546.9438 Z-1.0000 F4000
G1 X563.2467 Y559.5031 Z-1.0000 F4000
G1 X534.1840 Y588.5658 Z-1.0000 F4000
G1 X521.6247 Y576.0065 Z-1.0000 F4000
G1 X521.6247 Y576.0065 Z10.0000 F9999
G1 X549.4159 Y595.7536 Z10.0000 F9999
G1 X549.4159 Y595.7536 Z-1.0000 F2500
G1 X551.1545 Y603.3826 Z-1.0000 F4000
G1 X555.7215 Y610.1034 Z-1.0000 F4000
G1 X562.7277 Y614.8001 Z-1.0000 F4000
G1 X570.6421 Y616.4608 Z-1.0000 F4000
G1 X578.4917 Y615.0726 Z-1.0000 F4000
G1 X585.3422 Y610.6094 Z-1.0000 F4000
G1 X589.7664 Y603.7978 Z-1.0000 F4000
G1 X591.1417 Y595.9612 Z-1.0000 F4000
G1 X589.4810 Y588.0468 Z-1.0000 F4000
G1 X584.7843 Y581.0406 Z-1.0000 F4000
G1 X578.2841 Y576.5385 Z-1.0000 F4000
G1 X570.8627 Y574.6961 Z-1.0000 F4000
G1 X578.2841 Y576.5385 Z-1.0000 F4000
G1 X584.7843 Y581.0406 Z-1.0000 F4000
G1 X589.4810 Y588.0468 Z-1.0000 F4000
G1 X591.1417 Y595.9612 Z-1.0000 F4000
G1 X589.7664 Y603.7978 Z-1.0000 F4000
G1 X585.3422 Y610.6094 Z-1.0000 F4000
G1 X578.4917 Y615.0726 Z-1.0000 F4000
G1 X570.6421 Y616.4608 Z-1.0000 F4000
G1 X562.7277 Y614.8001 Z-1.0000 F4000
G1 X555.7215 Y610.1034 Z-1.0000 F4000
G1 X551.1545 Y603.3826 Z-1.0000 F4000
G1 X551.1545 Y603.3826 Z10.0000 F9999
G1 X593.2825 Y626.8793 Z10.0000 F9999
G1 X593.2825 Y626.8793 Z-1.0000 F2500
G1 X607.9177 Y641.5145 Z-1.0000 F4000
G1 X593.2825 Y626.8793 Z-1.0000 F4000
G1 X593.2825 Y626.8793 Z10.0000 F9999
G1 X619.2444 Y615.5007 Z10.0000 F9999
G1 X619.2444 Y615.5007 Z-1.0000 F2500
G1 X578.8290 Y633.2108 Z-1.0000 F4000
G1 X619.2444 Y615.5007 Z-1.0000 F4000
G1 X601.5083 Y655.8901 Z-1.0000 F4000
G1 X601.5083 Y655.8901 Z10.0000 F9999
G1 X651.2653 Y647.5216 Z10.0000 F9999
G1 X651.2653 Y647.5216 Z-1.0000 F2500
G1 X646.7242 Y642.9806 Z-1.0000 F4000
G1 X638.8098 Y638.6990 Z-1.0000 F4000
G1 X631.3236 Y641.9556 Z-1.0000 F4000
G1 X627.9372 Y649.7013 Z-1.0000 F4000
G1 X631.7647 Y657.5249 Z-1.0000 F4000
G1 X636.5133 Y662.2736 Z-1.0000 F4000
G1 X631.7647 Y657.5249 Z-1.0000 F4000
G1 X627.9372 Y649.7013 Z-1.0000 F4000
G1 X631.3236 Y641.9556 Z-1.0000 F4000
G1 X638.8098 Y638.6990 Z-1.0000 F4000
G1 X646.7242 Y642.9806 Z-1.0000 F4000
G1 X651.2653 Y647.5216 Z-1.0000 F4000
G1 X622.2025 Y676.5844 Z-1.0000 F4000
G1 X622.2025 Y676.5844 Z10.0000 F9999
G1 X655.3263 Y700.0551 Z10.0000 F9999
G1 X655.3263 Y700.0551 Z-1.0000 F2500
G1 X651.7972 Y700.8336 Z-1.0000 F4000
G1 X648.6315 Y700.5741 Z-1.0000 F4000
G1 X645.5435 Y699.2507 Z-1.0000 F4000
G1 X642.2870 Y696.6688 Z-1.0000 F4000
G1 X639.4326 Y693.1657 Z-1.0000 F4000
G1 X637.9665 Y689.2344 Z-1.0000 F4000
G1 X638.1870 Y685.2253 Z-1.0000 F4000
G1 X640.3408 Y681.4887 Z-1.0000 F4000
G1 X643.5455 Y679.0365 Z-1.0000 F4000
G1 X646.5296 Y678.2321 Z-1.0000 F4000
G1 X649.1634 Y678.4786 Z-1.0000 F4000
G1 X651.2912 Y679.0495 Z-1.0000 F4000
G1 X661.1388 Y682.2023 Z-1.0000 F4000
G1 X663.8115 Y682.8770 Z-1.0000 F4000
G1 X666.2897 Y683.0197 Z-1.0000 F4000
G1 X668.7159 Y682.3580 Z-1.0000 F4000
G1 X671.1162 Y680.6843 Z-1.0000 F4000
G1 X673.0623 Y677.9856 Z-1.0000 F4000
G1 X673.9057 Y674.5474 Z-1.0000 F4000
G1 X673.2569 Y670.7588 Z-1.0000 F4000
G1 X670.7918 Y667.0482 Z-1.0000 F4000
G1 X667.3017 Y664.5181 Z-1.0000 F4000
G1 X664.2527 Y663.5451 Z-1.0000 F4000
G1 X661.2556 Y663.5840 Z-1.0000 F4000
G1 X664.2527 Y663.5451 Z-1.0000 F4000
G1 X667.3017 Y664.5181 Z-1.0000 F4000
G1 X670.7918 Y667.0482 Z-1.0000 F4000
G1 X673.2569 Y670.7588 Z-1.0000 F4000
G1 X673.9057 Y674.5474 Z-1.0000 F4000
G1 X673.0623 Y677.9856 Z-1.0000 F4000
G1 X671.1162 Y680.6843 Z-1.0000 F4000
G1 X668.7159 Y682.3580 Z-1.0000 F4000
G1 X666.2897 Y683.0197 Z-1.0000 F4000
G1 X663.8115 Y682.8770 Z-1.0000 F4000
G1 X661.1388 Y682.2023 Z-1.0000 F4000
G1 X651.2912 Y679.0495 Z-1.0000 F4000
G1 X649.1634 Y678.4786 Z-1.0000 F4000
G1 X646.5296 Y678.2321 Z-1.0000 F4000
G1 X643.5455 Y679.0365 Z-1.0000 F4000
G1 X640.3408 Y681.4887 Z-1.0000 F4000
G1 X638.1870 Y685.2253 Z-1.0000 F4000
G1 X637.9665 Y689.2344 Z-1.0000 F4000
G1 X639.4326 Y693.1657 Z-1.0000 F4000
G1 X642.2870 Y696.6688 Z-1.0000 F4000
G1 X645.5435 Y699.2507 Z-1.0000 F4000
G1 X648.6315 Y700.5741 Z-1.0000 F4000
G1 X651.7972 Y700.8336 Z-1.0000 F4000
G1 X651.7972 Y700.8336 Z10.0000 F9999
G1 X486.1082 Y867.4187 Z10.0000 F9999
G1 X486.1082 Y867.4187 Z-1.0000 F2500
G1 X489.6373 Y866.6403 Z-1.0000 F4000
G1 X492.8030 Y866.8998 Z-1.0000 F4000
G1 X495.8909 Y868.2232 Z-1.0000 F4000
G1 X499.1475 Y870.8051 Z-1.0000 F4000
G1 X502.0019 Y874.3082 Z-1.0000 F4000
G1 X503.4680 Y878.2394 Z-1.0000 F4000
G1 X503.2475 Y882.2485 Z-1.0000 F4000
G1 X501.0937 Y885.9852 Z-1.0000 F4000
G1 X497.8890 Y888.4373 Z-1.0000 F4000
G1 X494.9049 Y889.2417 Z-1.0000 F4000
G1 X492.2711 Y888.9952 Z-1.0000 F4000
G1 X490.1433 Y888.4244 Z-1.0000 F4000
G1 X480.2957 Y885.2716 Z-1.0000 F4000
G1 X477.6229 Y884.5969 Z-1.0000 F4000
G1 X475.1448 Y884.4542 Z-1.0000 F4000
G1 X472.7186 Y885.1159 Z-1.0000 F4000
G1 X470.3183 Y886.7896 Z-1.0000 F4000
G1 X468.3722 Y889.4883 Z-1.0000 F4000
G1 X467.5288 Y892.9265 Z-1.0000 F4000
G1 X468.1776 Y896.7150 Z-1.0000 F4000
G1 X470.6427 Y900.4257 Z-1.0000 F4000
G1 X474.1328 Y902.9557 Z-1.0000 F4000
G1 X477.1818 Y903.9288 Z-1.0000 F4000
G1 X480.1789 Y903.8899 Z-1.0000 F4000
G1 X477.1818 Y903.9288 Z-1.0000 F4000
G1 X474.1328 Y902.9557 Z-1.0000 F4000
G1 X470.6427 Y900.4257 Z-1.0000 F4000
G1 X468.1776 Y896.7150 Z-1.0000 F4000
G1 X467.5288 Y892.9265 Z-1.0000 F4000
G1 X468.3722 Y889.4883 Z-1.0000 F4000
G1 X470.3183 Y886.7896 Z-1.0000 F4000
G1 X472.7186 Y885.1159 Z-1.0000 F4000
G1 X475.1448 Y884.4542 Z-1.0000 F4000
G1 X477.6229 Y884.5969 Z-1.0000 F4000
G1 X480.2957 Y885.2716 Z-1.0000 F4000
G1 X490.1433 Y888.4244 Z-1.0000 F4000
G1 X492.2711 Y888.9952 Z-1.0000 F4000
G1 X494.9049 Y889.2417 Z-1.0000 F4000
G1 X497.8890 Y888.4373 Z-1.0000 F4000
G1 X501.0937 Y885.9852 Z-1.0000 F4000
G1 X503.2475 Y882.2485 Z-1.0000 F4000
G1 X503.4680 Y878.2394 Z-1.0000 F4000
G1 X502.0019 Y874.3082 Z-1.0000 F4000
G1 X499.1475 Y870.8051 Z-1.0000 F4000
G1 X495.8909 Y868.2232 Z-1.0000 F4000
G1 X492.8030 Y866.8998 Z-1.0000 F4000
G1 X489.6373 Y866.6403 Z-1.0000 F4000
G1 X489.6373 Y866.6403 Z10.0000 F9999
G1 X490.1692 Y919.9522 Z10.0000 F9999
G1 X490.1692 Y919.9522 Z-1.0000 F2500
G1 X494.7103 Y924.4933 Z-1.0000 F4000
G1 X502.6247 Y928.7748 Z-1.0000 F4000
G1 X510.1109 Y925.5183 Z-1.0000 F4000
G1 X513.4973 Y917.7725 Z-1.0000 F4000
G1 X509.6698 Y909.9489 Z-1.0000 F4000
G1 X504.9212 Y905.2003 Z-1.0000 F4000
G1 X509.6698 Y909.9489 Z-1.0000 F4000
G1 X513.4973 Y917.7725 Z-1.0000 F4000
G1 X510.1109 Y925.5183 Z-1.0000 F4000
G1 X502.6247 Y928.7748 Z-1.0000 F4000
G1 X494.7103 Y924.4933 Z-1.0000 F4000
G1 X490.1692 Y919.9522 Z-1.0000 F4000
G1 X519.2320 Y890.8895 Z-1.0000 F4000
G1 X519.2320 Y890.8895 Z10.0000 F9999
G1 X548.1520 Y940.5946 Z10.0000 F9999
G1 X548.1520 Y940.5946 Z-1.0000 F2500
G1 X533.5168 Y925.9594 Z-1.0000 F4000
G1 X548.1520 Y940.5946 Z-1.0000 F4000
G1 X548.1520 Y940.5946 Z10.0000 F9999
G1 X522.1901 Y951.9731 Z10.0000 F9999
G1 X522.1901 Y951.9731 Z-1.0000 F2500
G1 X562.6055 Y934.2630 Z-1.0000 F4000
G1 X522.1901 Y951.9731 Z-1.0000 F4000
G1 X539.9262 Y911.5837 Z-1.0000 F4000
G1 X539.9262 Y911.5837 Z10.0000 F9999
G1 X592.0185 Y971.7202 Z10.0000 F9999
G1 X592.0185 Y971.7202 Z-1.0000 F2500
G1 X590.2800 Y964.0913 Z-1.0000 F4000
G1 X585.7130 Y957.3705 Z-1.0000 F4000
G1 X578.7068 Y952.6738 Z-1.0000 F4000
G1 X570.7924 Y951.0130 Z-1.0000 F4000
G1 X562.9428 Y952.4013 Z-1.0000 F4000
G1 X556.0923 Y956.8645 Z-1.0000 F4000
G1 X551.6681 Y963.6761 Z-1.0000 F4000
G1 X550.2928 Y971.5126 Z-1.0000 F4000
G1 X551.9535 Y979.4270 Z-1.0000 F4000
G1 X556.6502 Y986.4332 Z-1.0000 F4000
G1 X563.1504 Y990.9354 Z-1.0000 F4000
G1 X570.5718 Y992.7777 Z-1.0000 F4000
G1 X563.1504 Y990.9354 Z-1.0000 F4000
G1 X556.6502 Y986.4332 Z-1.0000 F4000
G1 X551.9535 Y979.4270 Z-1.0000 F4000
G1 X550.2928 Y971.5126 Z-1.0000 F4000
G1 X551.6681 Y963.6761 Z-1.0000 F4000
G1 X556.0923 Y956.8645 Z-1.0000 F4000
G1 X562.9428 Y952.4013 Z-1.0000 F4000
G1 X570.7924 Y951.0130 Z-1.0000 F4000
G1 X578.7068 Y952.6738 Z-1.0000 F4000
G1 X585.7130 Y957.3705 Z-1.0000 F4000
G1 X590.2800 Y964.0913 Z-1.0000 F4000
G1 X590.2800 Y964.0913 Z10.0000 F9999
G1 X607.2505 Y978.9081 Z10.0000 F9999
G1 X607.2505 Y978.9081 Z-1.0000 F2500
G1 X591.1233 Y995.0353 Z-1.0000 F4000
G1 X602.7614 Y1006.6734 Z-1.0000 F4000
G1 X591.1233 Y995.0353 Z-1.0000 F4000
G1 X578.1878 Y1007.9708 Z-1.0000 F4000
G1 X590.7471 Y1020.5301 Z-1.0000 F4000
G1 X578.1878 Y1007.9708 Z-1.0000 F4000
G1 X607.2505 Y978.9081 Z-1.0000 F4000
G1 X619.8098 Y991.4673 Z-1.0000 F4000
G1 X619.8098 Y991.4673 Z10.0000 F9999
G1 X630.5007 Y1002.1583 Z10.0000 F9999
G1 X630.5007 Y1002.1583 Z-1.0000 F2500
G1 X601.4380 Y1031.2210 Z-1.0000 F4000
G1 X606.4980 Y1036.2810 Z-1.0000 F4000
G1 X609.6638 Y1038.5905 Z-1.0000 F4000
G1 X613.2188 Y1039.5765 Z-1.0000 F4000
G1 X617.0203 Y1038.9148 Z-1.0000 F4000
G1 X620.8996 Y1036.2291 Z-1.0000 F4000
G1 X623.3907 Y1032.1033 Z-1.0000 F4000
G1 X623.7800 Y1027.7957 Z-1.0000 F4000
G1 X622.8199 Y1024.0591 Z-1.0000 F4000
G1 X621.2370 Y1021.5421 Z-1.0000 F4000
G1 X616.1769 Y1016.4820 Z-1.0000 F4000
G1 X621.2370 Y1021.5421 Z-1.0000 F4000
G1 X622.8199 Y1024.0591 Z-1.0000 F4000
G1 X623.7800 Y1027.7957 Z-1.0000 F4000
G1 X623.3907 Y1032.1033 Z-1.0000 F4000
G1 X620.8996 Y1036.2291 Z-1.0000 F4000
G1 X617.0203 Y1038.9148 Z-1.0000 F4000
G1 X613.2188 Y1039.5765 Z-1.0000 F4000
G1 X609.6638 Y1038.5905 Z-1.0000 F4000
G1 X606.4980 Y1036.2810 Z-1.0000 F4000
G1 X601.4380 Y1031.2210 Z-1.0000 F4000
G1 X601.4380 Y1031.2210 Z10.0000 F9999
G1 X642.8135 Y1014.4710 Z10.0000 F9999
G1 X642.8135 Y1014.4710 Z-1.0000 F2500
G1 X619.2130 Y1019.3624 Z-1.0000 F4000
G1 X642.8135 Y1014.4710 Z-1.0000 F4000
G1 X642.8135 Y1014.4710 Z10.0000 F9999
G1 X666.6864 Y1070.5984 Z10.0000 F9999
G1 X666.6864 Y1070.5984 Z-1.0000 F2500
G1 X676.8973 Y1080.8093 Z-1.0000 F4000
G1 X666.6864 Y1070.5984 Z-1.0000 F4000
G1 X653.7509 Y1083.5339 Z-1.0000 F4000
G1 X664.4419 Y1094.2249 Z-1.0000 F4000
G1 X653.7509 Y1083.5339 Z-1.0000 F4000
G1 X682.8137 Y1054.4712 Z-1.0000 F4000
G1 X682.8137 Y1054.4712 Z10.0000 F9999
G1 X636.1446 Y1079.2134 Z10.0000 F9999
G1 X636.1446 Y1079.2134 Z-1.0000 F2500
G1 X652.0253 Y1020.3614 Z-1.0000 F4000
G1 X636.1446 Y1079.2134 Z-1.0000 F4000
G1 X636.1446 Y1079.2134 Z10.0000 F9999
G1 X496.2600 Y1274.4399 Z10.0000 F9999
G1 X496.2600 Y1274.4399 Z-1.0000 F2500
G1 X480.3793 Y1333.2920 Z-1.0000 F4000
G1 X496.2600 Y1274.4399 Z-1.0000 F4000
G1 X496.2600 Y1274.4399 Z10.0000 F9999
G1 X465.7181 Y1283.0550 Z10.0000 F9999
G1 X465.7181 Y1283.0550 Z-1.0000 F2500
G1 X455.5073 Y1272.8441 Z-1.0000 F4000
G1 X465.7181 Y1283.0550 Z-1.0000 F4000
G1 X478.6537 Y1270.1195 Z-1.0000 F4000
G1 X467.9627 Y1259.4285 Z-1.0000 F4000
G1 X478.6537 Y1270.1195 Z-1.0000 F4000
G1 X449.5909 Y1299.1822 Z-1.0000 F4000
G1 X449.5909 Y1299.1822 Z10.0000 F9999
G1 X489.5911 Y1339.1824 Z10.0000 F9999
G1 X489.5911 Y1339.1824 Z-1.0000 F2500
G1 X513.1916 Y1334.2910 Z-1.0000 F4000
G1 X489.5911 Y1339.1824 Z-1.0000 F4000
G1 X489.5911 Y1339.1824 Z10.0000 F9999
G1 X501.9038 Y1351.4951 Z10.0000 F9999
G1 X501.9038 Y1351.4951 Z-1.0000 F2500
G1 X530.9666 Y1322.4324 Z-1.0000 F4000
G1 X525.9065 Y1317.3724 Z-1.0000 F4000
G1 X522.7408 Y1315.0629 Z-1.0000 F4000
G1 X519.1858 Y1314.0769 Z-1.0000 F4000
G1 X515.3843 Y1314.7385 Z-1.0000 F4000
G1 X511.5049 Y1317.4243 Z-1.0000 F4000
G1 X509.0138 Y1321.5501 Z-1.0000 F4000
G1 X508.6246 Y1325.8576 Z-1.0000 F4000
G1 X509.5847 Y1329.5943 Z-1.0000 F4000
G1 X511.1676 Y1332.1113 Z-1.0000 F4000
G1 X516.2276 Y1337.1713 Z-1.0000 F4000
G1 X511.1676 Y1332.1113 Z-1.0000 F4000
G1 X509.5847 Y1329.5943 Z-1.0000 F4000
G1 X508.6246 Y1325.8576 Z-1.0000 F4000
G1 X509.0138 Y1321.5501 Z-1.0000 F4000
G1 X511.5049 Y1317.4243 Z-1.0000 F4000
G1 X515.3843 Y1314.7385 Z-1.0000 F4000
G1 X519.1858 Y1314.0769 Z-1.0000 F4000
G1 X522.7408 Y1315.0629 Z-1.0000 F4000
G1 X525.9065 Y1317.3724 Z-1.0000 F4000
G1 X530.9666 Y1322.4324 Z-1.0000 F4000
G1 X530.9666 Y1322.4324 Z10.0000 F9999
G1 X525.1540 Y1374.7453 Z10.0000 F9999
G1 X525.1540 Y1374.7453 Z-1.0000 F2500
G1 X541.2813 Y1358.6181 Z-1.0000 F4000
G1 X529.6432 Y1346.9800 Z-1.0000 F4000
G1 X541.2813 Y1358.6181 Z-1.0000 F4000
G1 X554.2168 Y1345.6826 Z-1.0000 F4000
G1 X541.6575 Y1333.1233 Z-1.0000 F4000
G1 X554.2168 Y1345.6826 Z-1.0000 F4000
G1 X525.1540 Y1374.7453 Z-1.0000 F4000
G1 X512.5948 Y1362.1861 Z-1.0000 F4000
G1 X512.5948 Y1362.1861 Z10.0000 F9999
G1 X540.3860 Y1381.9332 Z10.0000 F9999
G1 X540.3860 Y1381.9332 Z-1.0000 F2500
G1 X542.1246 Y1389.5621 Z-1.0000 F4000
G1 X546.6916 Y1396.2829 Z-1.0000 F4000
G1 X553.6978 Y1400.9796 Z-1.0000 F4000
G1 X561.6122 Y1402.6404 Z-1.0000 F4000
G1 X569.4617 Y1401.2521 Z-1.0000 F4000
G1 X576.3122 Y1396.7889 Z-1.0000 F4000
G1 X580.7365 Y1389.9773 Z-1.0000 F4000
G1 X582.1118 Y1382.1407 Z-1.0000 F4000
G1 X580.4511 Y1374.2263 Z-1.0000 F4000
G1 X575.7543 Y1367.2201 Z-1.0000 F4000
G1 X569.2541 Y1362.7180 Z-1.0000 F4000
G1 X561.8328 Y1360.8756 Z-1.0000 F4000
G1 X569.2541 Y1362.7180 Z-1.0000 F4000
G1 X575.7543 Y1367.2201 Z-1.0000 F4000
G1 X580.4511 Y1374.2263 Z-1.0000 F4000
G1 X582.1118 Y1382.1407 Z-1.0000 F4000
G1 X580.7365 Y1389.9773 Z-1.0000 F4000
G1 X576.3122 Y1396.7889 Z-1.0000 F4000
G1 X569.4617 Y1401.2521 Z-1.0000 F4000
G1 X561.6122 Y1402.6404 Z-1.0000 F4000
G1 X553.6978 Y1400.9796 Z-1.0000 F4000
G1 X546.6916 Y1396.2829 Z-1.0000 F4000
G1 X542.1246 Y1389.5621 Z-1.0000 F4000
G1 X542.1246 Y1389.5621 Z10.0000 F9999
G1 X584.2526 Y1413.0588 Z10.0000 F9999
G1 X584.2526 Y1413.0588 Z-1.0000 F2500
G1 X598.8878 Y1427.6940 Z-1.0000 F4000
G1 X584.2526 Y1413.0588 Z-1.0000 F4000
G1 X584.2526 Y1413.0588 Z10.0000 F9999
G1 X610.2144 Y1401.6802 Z10.0000 F9999
G1 X610.2144 Y1401.6802 Z-1.0000 F2500
G1 X569.7991 Y1419.3904 Z-1.0000 F4000
G1 X610.2144 Y1401.6802 Z-1.0000 F4000
G1 X592.4784 Y1442.0697 Z-1.0000 F4000
G1 X592.4784 Y1442.0697 Z10.0000 F9999
G1 X642.2353 Y1433.7012 Z10.0000 F9999
G1 X642.2353 Y1433.7012 Z-1.0000 F2500
G1 X637.6943 Y1429.1601 Z-1.0000 F4000
G1 X629.7799 Y1424.8785 Z-1.0000 F4000
G1 X622.2936 Y1428.1351 Z-1.0000 F4000
G1 X618.9073 Y1435.8809 Z-1.0000 F4000
G1 X622.7348 Y1443.7044 Z-1.0000 F4000
G1 X627.4834 Y1448.4531 Z-1.0000 F4000
G1 X622.7348 Y1443.7044 Z-1.0000 F4000
G1 X618.9073 Y1435.8809 Z-1.0000 F4000
G1 X622.2936 Y1428.1351 Z-1.0000 F4000
G1 X629.7799 Y1424.8785 Z-1.0000 F4000
G1 X637.6943 Y1429.1601 Z-1.0000 F4000
G1 X642.2353 Y1433.7012 Z-1.0000 F4000
G1 X613.1726 Y1462.7639 Z-1.0000 F4000
G1 X613.1726 Y1462.7639 Z10.0000 F9999
G1 X646.2963 Y1486.2346 Z10.0000 F9999
G1 X646.2963 Y1486.2346 Z-1.0000 F2500
G1 X642.7673 Y1487.0131 Z-1.0000 F4000
G1 X639.6015 Y1486.7536 Z-1.0000 F4000
G1 X636.5136 Y1485.4302 Z-1.0000 F4000
G1 X633.2570 Y1482.8483 Z-1.0000 F4000
G1 X630.4027 Y1479.3452 Z-1.0000 F4000
G1 X628.9365 Y1475.4140 Z-1.0000 F4000
G1 X629.1571 Y1471.4049 Z-1.0000 F4000
G1 X631.3109 Y1467.6682 Z-1.0000 F4000
G1 X634.5156 Y1465.2161 Z-1.0000 F4000
G1 X637.4997 Y1464.4116 Z-1.0000 F4000
G1 X640.1335 Y1464.6582 Z-1.0000 F4000
G1 X642.2613 Y1465.2290 Z-1.0000 F4000
G1 X652.1089 Y1468.3818 Z-1.0000 F4000
G1 X654.7816 Y1469.0565 Z-1.0000 F4000
G1 X657.2597 Y1469.1992 Z-1.0000 F4000
G1 X659.6860 Y1468.5375 Z-1.0000 F4000
G1 X662.0862 Y1466.8638 Z-1.0000 F4000
G1 X664.0324 Y1464.1651 Z-1.0000 F4000
G1 X664.8757 Y1460.7269 Z-1.0000 F4000
G1 X664.2270 Y1456.9384 Z-1.0000 F4000
G1 X661.7619 Y1453.2277 Z-1.0000 F4000
G1 X658.2717 Y1450.6977 Z-1.0000 F4000
G1 X655.2228 Y1449.7246 Z-1.0000 F4000
G1 X652.2257 Y1449.7635 Z-1.0000 F4000
G1 X655.2228 Y1449.7246 Z-1.0000 F4000
G1 X658.2717 Y1450.6977 Z-1.0000 F4000
G1 X661.7619 Y1453.2277 Z-1.0000 F4000
G1 X664.2270 Y1456.9384 Z-1.0000 F4000
G1 X664.8757 Y1460.7269 Z-1.0000 F4000
G1 X664.0324 Y1464.1651 Z-1.0000 F4000
G1 X662.0862 Y1466.8638 Z-1.0000 F4000
G1 X659.6860 Y1468.5375 Z-1.0000 F4000
G1 X657.2597 Y1469.1992 Z-1.0000 F4000
G1 X654.7816 Y1469.0565 Z-1.0000 F4000
G1 X652.1089 Y1468.3818 Z-1.0000 F4000
G1 X642.2613 Y1465.2290 Z-1.0000 F4000
G1 X640.1335 Y1464.6582 Z-1.0000 F4000
G1 X637.4997 Y1464.4116 Z-1.0000 F4000
G1 X634.5156 Y1465.2161 Z-1.0000 F4000
G1 X631.3109 Y1467.6682 Z-1.0000 F4000
G1 X629.1571 Y1471.4049 Z-1.0000 F4000
G1 X628.9365 Y1475.4140 Z-1.0000 F4000
G1 X630.4027 Y1479.3452 Z-1.0000 F4000
G1 X633.2570 Y1482.8483 Z-1.0000 F4000
G1 X636.5136 Y1485.4302 Z-1.0000 F4000
G1 X639.6015 Y1486.7536 Z-1.0000 F4000
G1 X642.7673 Y1487.0131 Z-1.0000 F4000
G1 X642.7673 Y1487.0131 Z10.0000 F9999
G1 X469.2972 Y1645.8172 Z10.0000 F9999
G1 X469.2972 Y1645.8172 Z-1.0000 F2500
G1 X472.8262 Y1645.0387 Z-1.0000 F4000
G1 X475.9920 Y1645.2982 Z-1.0000 F4000
G1 X479.0799 Y1646.6216 Z-1.0000 F4000
G1 X482.3365 Y1649.2035 Z-1.0000 F4000
G1 X485.1909 Y1652.7066 Z-1.0000 F4000
G1 X486.6570 Y1656.6378 Z-1.0000 F4000
G1 X486.4364 Y1660.6469 Z-1.0000 F4000
G1 X484.2827 Y1664.3836 Z-1.0000 F4000
G1 X481.0780 Y1666.8358 Z-1.0000 F4000
G1 X478.0939 Y1667.6402 Z-1.0000 F4000
G1 X475.4601 Y1667.3937 Z-1.0000 F4000
G1 X473.3322 Y1666.8228 Z-1.0000 F4000
G1 X463.4847 Y1663.6700 Z-1.0000 F4000
G1 X460.8119 Y1662.9953 Z-1.0000 F4000
G1 X458.3338 Y1662.8526 Z-1.0000 F4000
G1 X455.9076 Y1663.5143 Z-1.0000 F4000
G1 X453.5073 Y1665.1880 Z-1.0000 F4000
G1 X451.5611 Y1667.8867 Z-1.0000 F4000
G1 X450.7178 Y1671.3249 Z-1.0000 F4000
G1 X451.3665 Y1675.1134 Z-1.0000 F4000
G1 X453.8317 Y1678.8241 Z-1.0000 F4000
G1 X457.3218 Y1681.3541 Z-1.0000 F4000
G1 X460.3708 Y1682.3272 Z-1.0000 F4000
G1 X463.3679 Y1682.2883 Z-1.0000 F4000
G1 X460.3708 Y1682.3272 Z-1.0000 F4000
G1 X457.3218 Y1681.3541 Z-1.0000 F4000
G1 X453.8317 Y1678.8241 Z-1.0000 F4000
G1 X451.3665 Y1675.1134 Z-1.0000 F4000
G1 X450.7178 Y1671.3249 Z-1.0000 F4000
G1 X451.5611 Y1667.8867 Z-1.0000 F4000
G1 X453.5073 Y1665.1880 Z-1.0000 F4000
G1 X455.9076 Y1663.5143 Z-1.0000 F4000
G1 X458.3338 Y1662.8526 Z-1.0000 F4000
G1 X460.8119 Y1662.9953 Z-1.0000 F4000
G1 X463.4847 Y1663.6700 Z-1.0000 F4000
G1 X473.3322 Y1666.8228 Z-1.0000 F4000
G1 X475.4601 Y1667.3937 Z-1.0000 F4000
G1 X478.0939 Y1667.6402 Z-1.0000 F4000
G1 X481.0780 Y1666.8358 Z-1.0000 F4000
G1 X484.2827 Y1664.3836 Z-1.0000 F4000
G1 X486.4364 Y1660.6469 Z-1.0000 F4000
G1 X486.6570 Y1656.6378 Z-1.0000 F4000
G1 X485.1909 Y1652.7066 Z-1.0000 F4000
G1 X482.3365 Y1649.2035 Z-1.0000 F4000
G1 X479.0799 Y1646.6216 Z-1.0000 F4000
G1 X475.9920 Y1645.2982 Z-1.0000 F4000
G1 X472.8262 Y1645.0387 Z-1.0000 F4000
G1 X472.8262 Y1645.0387 Z10.0000 F9999
G1 X473.3582 Y1698.3507 Z10.0000 F9999
G1 X473.3582 Y1698.3507 Z-1.0000 F2500
G1 X477.8993 Y1702.8917 Z-1.0000 F4000
G1 X485.8137 Y1707.1733 Z-1.0000 F4000
G1 X493.2999 Y1703.9167 Z-1.0000 F4000
G1 X496.6862 Y1696.1710 Z-1.0000 F4000
G1 X492.8588 Y1688.3474 Z-1.0000 F4000
G1 X488.1101 Y1683.5987 Z-1.0000 F4000
G1 X492.8588 Y1688.3474 Z-1.0000 F4000
G1 X496.6862 Y1696.1710 Z-1.0000 F4000
G1 X493.2999 Y1703.9167 Z-1.0000 F4000
G1 X485.8137 Y1707.1733 Z-1.0000 F4000
G1 X477.8993 Y1702.8917 Z-1.0000 F4000
G1 X473.3582 Y1698.3507 Z-1.0000 F4000
G1 X502.4209 Y1669.2879 Z-1.0000 F4000
G1 X502.4209 Y1669.2879 Z10.0000 F9999
G1 X531.3410 Y1718.9930 Z10.0000 F9999
G1 X531.3410 Y1718.9930 Z-1.0000 F2500
G1 X516.7058 Y1704.3578 Z-1.0000 F4000
G1 X531.3410 Y1718.9930 Z-1.0000 F4000
G1 X531.3410 Y1718.9930 Z10.0000 F9999
G1 X505.3791 Y1730.3716 Z10.0000 F9999
G1 X505.3791 Y1730.3716 Z-1.0000 F2500
G1 X545.7945 Y1712.6615 Z-1.0000 F4000
G1 X505.3791 Y1730.3716 Z-1.0000 F4000
G1 X523.1152 Y1689.9821 Z-1.0000 F4000
G1 X523.1152 Y1689.9821 Z10.0000 F9999
G1 X575.2075 Y1750.1187 Z10.0000 F9999
G1 X575.2075 Y1750.1187 Z-1.0000 F2500
G1 X573.4689 Y1742.4897 Z-1.0000 F4000
G1 X568.9019 Y1735.7689 Z-1.0000 F4000
G1 X561.8958 Y1731.0722 Z-1.0000 F4000
G1 X553.9813 Y1729.4115 Z-1.0000 F4000
G1 X546.1318 Y1730.7997 Z-1.0000 F4000
G1 X539.2813 Y1735.2629 Z-1.0000 F4000
G1 X534.8570 Y1742.0745 Z-1.0000 F4000
G1 X533.4817 Y1749.9111 Z-1.0000 F4000
G1 X535.1425 Y1757.8255 Z-1.0000 F4000
G1 X539.8392 Y1764.8317 Z-1.0000 F4000
G1 X546.3394 Y1769.3338 Z-1.0000 F4000
G1 X553.7608 Y1771.1762 Z-1.0000 F4000
G1 X546.3394 Y1769.3338 Z-1.0000 F4000
G1 X539.8392 Y1764.8317 Z-1.0000 F4000
G1 X535.1425 Y1757.8255 Z-1.0000 F4000
G1 X533.4817 Y1749.9111 Z-1.0000 F4000
G1 X534.8570 Y1742.0745 Z-1.0000 F4000
G1 X539.2813 Y1735.2629 Z-1.0000 F4000
G1 X546.1318 Y1730.7997 Z-1.0000 F4000
G1 X553.9813 Y1729.4115 Z-1.0000 F4000
G1 X561.8958 Y1731.0722 Z-1.0000 F4000
G1 X568.9019 Y1735.7689 Z-1.0000 F4000
G1 X573.4689 Y1742.4897 Z-1.0000 F4000
G1 X573.4689 Y1742.4897 Z10.0000 F9999
G1 X590.4395 Y1757.3065 Z10.0000 F9999
G1 X590.4395 Y1757.3065 Z-1.0000 F2500
G1 X574.3123 Y1773.4337 Z-1.0000 F4000
G1 X585.9504 Y1785.0718 Z-1.0000 F4000
G1 X574.3123 Y1773.4337 Z-1.0000 F4000
G1 X561.3768 Y1786.3692 Z-1.0000 F4000
G1 X573.9360 Y1798.9285 Z-1.0000 F4000
G1 X561.3768 Y1786.3692 Z-1.0000 F4000
G1 X590.4395 Y1757.3065 Z-1.0000 F4000
G1 X602.9988 Y1769.8657 Z-1.0000 F4000
G1 X602.9988 Y1769.8657 Z10.0000 F9999
G1 X613.6897 Y1780.5567 Z10.0000 F9999
G1 X613.6897 Y1780.5567 Z-1.0000 F2500
G1 X584.6270 Y1809.6194 Z-1.0000 F4000
G1 X589.6870 Y1814.6795 Z-1.0000 F4000
G1 X592.8528 Y1816.9889 Z-1.0000 F4000
G1 X596.4078 Y1817.9750 Z-1.0000 F4000
G1 X600.2093 Y1817.3133 Z-1.0000 F4000
G1 X604.0886 Y1814.6276 Z-1.0000 F4000
G1 X606.5797 Y1810.5017 Z-1.0000 F4000
G1 X606.9689 Y1806.1942 Z-1.0000 F4000
G1 X606.0088 Y1802.4575 Z-1.0000 F4000
G1 X604.4260 Y1799.9405 Z-1.0000 F4000
G1 X599.3659 Y1794.8805 Z-1.0000 F4000
G1 X604.4260 Y1799.9405 Z-1.0000 F4000
G1 X606.0088 Y1802.4575 Z-1.0000 F4000
G1 X606.9689 Y1806.1942 Z-1.0000 F4000
G1 X606.5797 Y1810.5017 Z-1.0000 F4000
G1 X604.0886 Y1814.6276 Z-1.0000 F4000
G1 X600.2093 Y1817.3133 Z-1.0000 F4000
G1 X596.4078 Y1817.9750 Z-1.0000 F4000
G1 X592.8528 Y1816.9889 Z-1.0000 F4000
G1 X589.6870 Y1814.6795 Z-1.0000 F4000
G1 X584.6270 Y1809.6194 Z-1.0000 F4000
G1 X584.6270 Y1809.6194 Z10.0000 F9999
G1 X626.0024 Y1792.8694 Z10.0000 F9999
G1 X626.0024 Y1792.8694 Z-1.0000 F2500
G1 X602.4019 Y1797.7608 Z-1.0000 F4000
G1 X626.0024 Y1792.8694 Z-1.0000 F4000
G1 X626.0024 Y1792.8694 Z10.0000 F9999
G1 X649.8754 Y1848.9968 Z10.0000 F9999
G1 X649.8754 Y1848.9968 Z-1.0000 F2500
G1 X660.0863 Y1859.2077 Z-1.0000 F4000
G1 X649.8754 Y1848.9968 Z-1.0000 F4000
G1 X636.9399 Y1861.9323 Z-1.0000 F4000
G1 X647.6308 Y1872.6233 Z-1.0000 F4000
G1 X636.9399 Y1861.9323 Z-1.0000 F4000
G1 X666.0026 Y1832.8696 Z-1.0000 F4000
G1 X666.0026 Y1832.8696 Z10.0000 F9999
G1 X619.3336 Y1857.6119 Z10.0000 F9999
G1 X619.3336 Y1857.6119 Z-1.0000 F2500
G1 X635.2143 Y1798.7598 Z-1.0000 F4000
G1 X619.3336 Y1857.6119 Z-1.0000 F4000
G1 X619.3336 Y1857.6119 Z10.0000 F9999
(Tool Number:1) (9.530 mm dia. slot drill)
M3 S13114
G1 X0.0000 Y2254.4979 Z10.0000 F9999
G1 X0.0000 Y2254.4979 Z1.0000 F2500
G1 X30.3109 Y2254.4979 Z-9.0000 F2500
G1 X0.0000 Y2254.4979 Z-19.0000 F2500
G1 X1220.0000 Y2254.4979 Z-19.0000 F4000
G1 X1220.0000 Y2254.4979 Z10.0000 F9999
(Tool Number:1) (9.530 mm dia. slot drill)
M3 S13114
G1 X177.8620 Y179.7025 Z10.0000 F9999
G1 X177.8620 Y179.7025 Z1.0000 F2500
G1 X167.7752 Y169.6156 Z-3.7062 F2500
G1 X171.3107 Y166.0801 Z-5.3558 F2500
G1 X170.9784 Y165.7478 Z-5.5108 F2500
G1 X163.5001 Y173.2262 Z-9.0000 F2500
G1 X170.9784 Y165.7478 Z-12.4892 F2500
G1 X171.3107 Y166.0801 Z-12.6442 F2500
G1 X167.7752 Y169.6156 Z-14.2938 F2500
G1 X177.8620 Y179.7025 Z-19.0000 F2500
G1 X167.7752 Y169.6156 Z-19.0000 F4000
G1 X171.3107 Y166.0801 Z-19.0000 F4000
G1 X170.9784 Y165.7478 Z-19.0000 F4000
G1 X157.9182 Y178.8081 Z-19.0000 F4000
G1 X158.2504 Y179.1403 Z-19.0000 F4000
G1 X161.7860 Y175.6048 Z-19.0000 F4000
G1 X181.9597 Y195.7786 Z-19.0000 F4000
G1 X178.4242 Y199.3141 Z-19.0000 F4000
G1 X178.7565 Y199.6464 Z-19.0000 F4000
G1 X191.8168 Y186.5862 Z-19.0000 F4000
G1 X191.4845 Y186.2538 Z-19.0000 F4000
G1 X187.9489 Y189.7894 Z-19.0000 F4000
G1 X177.8620 Y179.7025 Z-19.0000 F4000
G1 X177.8620 Y179.7025 Z10.0000 F9999
G1 X168.0789 Y592.2778 Z10.0000 F9999
G1 X168.0789 Y592.2778 Z1.0000 F2500
G1 X178.1657 Y602.3647 Z-3.7062 F2500
G1 X174.6302 Y605.9002 Z-5.3558 F2500
G1 X174.9626 Y606.2325 Z-5.5109 F2500
G1 X182.4409 Y598.7542 Z-9.0000 F2500
G1 X174.9626 Y606.2325 Z-12.4891 F2500
G1 X174.6302 Y605.9002 Z-12.6442 F2500
G1 X178.1657 Y602.3647 Z-14.2938 F2500
G1 X168.0789 Y592.2778 Z-19.0000 F2500
G1 X178.1657 Y602.3647 Z-19.0000 F4000
G1 X174.6302 Y605.9002 Z-19.0000 F4000
G1 X174.9626 Y606.2325 Z-19.0000 F4000
G1 X188.0228 Y593.1723 Z-19.0000 F4000
G1 X187.6905 Y592.8399 Z-19.0000 F4000
G1 X184.1549 Y596.3755 Z-19.0000 F4000
G1 X163.9812 Y576.2018 Z-19.0000 F4000
G1 X167.5168 Y572.6662 Z-19.0000 F4000
G1 X167.1844 Y572.3339 Z-19.0000 F4000
G1 X154.1242 Y585.3941 Z-19.0000 F4000
G1 X154.4565 Y585.7265 Z-19.0000 F4000
G1 X157.9920 Y582.1910 Z-19.0000 F4000
G1 X168.0789 Y592.2778 Z-19.0000 F4000
G1 X168.0789 Y592.2778 Z10.0000 F9999
G1 X162.8429 Y971.8712 Z10.0000 F9999
G1 X162.8429 Y971.8712 Z1.0000 F2500
G1 X172.9298 Y981.9581 Z-3.7062 F2500
G1 X169.3943 Y985.4936 Z-5.3558 F2500
G1 X169.7266 Y985.8260 Z-5.5109 F2500
G1 X177.2049 Y978.3477 Z-9.0000 F2500
G1 X169.7266 Y985.8260 Z-12.4891 F2500
G1 X169.3943 Y985.4936 Z-12.6442 F2500
G1 X172.9298 Y981.9581 Z-14.2938 F2500
G1 X162.8429 Y971.8712 Z-19.0000 F2500
G1 X172.9298 Y981.9581 Z-19.0000 F4000
G1 X169.3943 Y985.4936 Z-19.0000 F4000
G1 X169.7266 Y985.8260 Z-19.0000 F4000
G1 X182.7869 Y972.7657 Z-19.0000 F4000
G1 X182.4545 Y972.4334 Z-19.0000 F4000
G1 X178.9190 Y975.9689 Z-19.0000 F4000
G1 X158.7452 Y955.7951 Z-19.0000 F4000
G1 X162.2808 Y952.2596 Z-19.0000 F4000
G1 X161.9485 Y951.9274 Z-19.0000 F4000
G1 X148.8883 Y964.9876 Z-19.0000 F4000
G1 X149.2205 Y965.3199 Z-19.0000 F4000
G1 X152.7560 Y961.7843 Z-19.0000 F4000
G1 X162.8429 Y971.8712 Z-19.0000 F4000
G1 X162.8429 Y971.8712 Z10.0000 F9999
G1 X151.2679 Y1370.6762 Z10.0000 F9999
G1 X151.2679 Y1370.6762 Z1.0000 F2500
G1 X161.3547 Y1380.7631 Z-3.7062 F2500
G1 X157.8192 Y1384.2986 Z-5.3558 F2500
G1 X158.1515 Y1384.6310 Z-5.5109 F2500
G1 X165.6298 Y1377.1527 Z-9.0000 F2500
G1 X158.1515 Y1384.6310 Z-12.4891 F2500
G1 X157.8192 Y1384.2986 Z-12.6442 F2500
G1 X161.3547 Y1380.7631 Z-14.2938 F2500
G1 X151.2679 Y1370.6762 Z-19.0000 F2500
G1 X161.3547 Y1380.7631 Z-19.0000 F4000
G1 X157.8192 Y1384.2986 Z-19.0000 F4000
G1 X158.1515 Y1384.6310 Z-19.0000 F4000
G1 X171.2118 Y1371.5707 Z-19.0000 F4000
G1 X170.8795 Y1371.2384 Z-19.0000 F4000
G1 X167.3439 Y1374.7739 Z-19.0000 F4000
G1 X147.1702 Y1354.6002 Z-19.0000 F4000
G1 X150.7057 Y1351.0647 Z-19.0000 F4000
G1 X150.3734 Y1350.7323 Z-19.0000 F4000
G1 X137.3131 Y1363.7926 Z-19.0000 F4000
G1 X137.6455 Y1364.1249 Z-19.0000 F4000
G1 X141.1810 Y1360.5894 Z-19.0000 F4000
G1 X151.2679 Y1370.6762 Z-19.0000 F4000
G1 X151.2679 Y1370.6762 Z10.0000 F9999
G1 X969.5616 Y1381.7822 Z10.0000 F9999
G1 X969.5616 Y1381.7822 Z1.0000 F2500
G1 X959.4748 Y1371.6953 Z-3.7062 F2500
G1 X963.0103 Y1368.1598 Z-5.3558 F2500
G1 X962.6780 Y1367.8274 Z-5.5109 F2500
G1 X955.1997 Y1375.3057 Z-9.0000 F2500
G1 X962.6780 Y1367.8274 Z-12.4891 F2500
G1 X963.0103 Y1368.1598 Z-12.6442 F2500
G1 X959.4748 Y1371.6953 Z-14.2938 F2500
G1 X969.5616 Y1381.7822 Z-19.0000 F2500
G1 X959.4748 Y1371.6953 Z-19.0000 F4000
G1 X963.0103 Y1368.1598 Z-19.0000 F4000
G1 X962.6780 Y1367.8274 Z-19.0000 F4000
G1 X949.6177 Y1380.8877 Z-19.0000 F4000
G1 X949.9500 Y1381.2200 Z-19.0000 F4000
G1 X953.4856 Y1377.6845 Z-19.0000 F4000
G1 X973.6593 Y1397.8582 Z-19.0000 F4000
G1 X970.1238 Y1401.3938 Z-19.0000 F4000
G1 X970.4560 Y1401.7260 Z-19.0000 F4000
G1 X983.5163 Y1388.6658 Z-19.0000 F4000
G1 X983.1841 Y1388.3335 Z-19.0000 F4000
G1 X979.6485 Y1391.8690 Z-19.0000 F4000
G1 X969.5616 Y1381.7822 Z-19.0000 F4000
G1 X969.5616 Y1381.7822 Z10.0000 F9999
G1 X964.3257 Y1761.3756 Z10.0000 F9999
G1 X964.3257 Y1761.3756 Z1.0000 F2500
G1 X954.2388 Y1751.2887 Z-3.7062 F2500
G1 X957.7744 Y1747.7532 Z-5.3558 F2500
G1 X957.4420 Y1747.4208 Z-5.5109 F2500
G1 X949.9637 Y1754.8991 Z-9.0000 F2500
G1 X957.4420 Y1747.4208 Z-12.4891 F2500
G1 X957.7744 Y1747.7532 Z-12.6442 F2500
G1 X954.2388 Y1751.2887 Z-14.2938 F2500
G1 X964.3257 Y1761.3756 Z-19.0000 F2500
G1 X954.2388 Y1751.2887 Z-19.0000 F4000
G1 X957.7744 Y1747.7532 Z-19.0000 F4000
G1 X957.4420 Y1747.4208 Z-19.0000 F4000
G1 X944.3817 Y1760.4811 Z-19.0000 F4000
G1 X944.7141 Y1760.8134 Z-19.0000 F4000
G1 X948.2496 Y1757.2779 Z-19.0000 F4000
G1 X968.4233 Y1777.4516 Z-19.0000 F4000
G1 X964.8878 Y1780.9872 Z-19.0000 F4000
G1 X965.2201 Y1781.3195 Z-19.0000 F4000
G1 X978.2804 Y1768.2592 Z-19.0000 F4000
G1 X977.9481 Y1767.9269 Z-19.0000 F4000
G1 X974.4125 Y1771.4624 Z-19.0000 F4000
G1 X964.3257 Y1761.3756 Z-19.0000 F4000
G1 X964.3257 Y1761.3756 Z10.0000 F9999
G1 X952.7506 Y2160.1806 Z10.0000 F9999
G1 X952.7506 Y2160.1806 Z1.0000 F2500
G1 X942.6637 Y2150.0937 Z-3.7062 F2500
G1 X946.1993 Y2146.5582 Z-5.3558 F2500
G1 X945.8669 Y2146.2258 Z-5.5109 F2500
G1 X938.3886 Y2153.7041 Z-9.0000 F2500
G1 X945.8669 Y2146.2258 Z-12.4891 F2500
G1 X946.1993 Y2146.5582 Z-12.6442 F2500
G1 X942.6637 Y2150.0937 Z-14.2938 F2500
G1 X952.7506 Y2160.1806 Z-19.0000 F2500
G1 X942.6637 Y2150.0937 Z-19.0000 F4000
G1 X946.1993 Y2146.5582 Z-19.0000 F4000
G1 X945.8669 Y2146.2258 Z-19.0000 F4000
G1 X932.8067 Y2159.2861 Z-19.0000 F4000
G1 X933.1390 Y2159.6184 Z-19.0000 F4000
G1 X936.6745 Y2156.0829 Z-19.0000 F4000
G1 X956.8483 Y2176.2567 Z-19.0000 F4000
G1 X953.3128 Y2179.7922 Z-19.0000 F4000
G1 X953.6450 Y2180.1245 Z-19.0000 F4000
G1 X966.7053 Y2167.0642 Z-19.0000 F4000
G1 X966.3730 Y2166.7319 Z-19.0000 F4000
G1 X962.8375 Y2170.2675 Z-19.0000 F4000
G1 X952.7506 Y2160.1806 Z-19.0000 F4000
G1 X952.7506 Y2160.1806 Z10.0000 F9999
G1 X967.3664 Y981.1852 Z10.0000 F9999
G1 X967.3664 Y981.1852 Z1.0000 F2500
G1 X977.4533 Y991.2721 Z-3.7062 F2500
G1 X973.9177 Y994.8076 Z-5.3558 F2500
G1 X974.2501 Y995.1400 Z-5.5109 F2500
G1 X981.7284 Y987.6617 Z-9.0000 F2500
G1 X974.2501 Y995.1400 Z-12.4891 F2500
G1 X973.9177 Y994.8076 Z-12.6442 F2500
G1 X977.4533 Y991.2721 Z-14.2938 F2500
G1 X967.3664 Y981.1852 Z-19.0000 F2500
G1 X977.4533 Y991.2721 Z-19.0000 F4000
G1 X973.9177 Y994.8076 Z-19.0000 F4000
G1 X974.2501 Y995.1400 Z-19.0000 F4000
G1 X987.3103 Y982.0797 Z-19.0000 F4000
G1 X986.9780 Y981.7474 Z-19.0000 F4000
G1 X983.4425 Y985.2829 Z-19.0000 F4000
G1 X963.2687 Y965.1092 Z-19.0000 F4000
G1 X966.8043 Y961.5737 Z-19.0000 F4000
G1 X966.4719 Y961.2413 Z-19.0000 F4000
G1 X953.4117 Y974.3016 Z-19.0000 F4000
G1 X953.7440 Y974.6339 Z-19.0000 F4000
G1 X957.2795 Y971.0984 Z-19.0000 F4000
G1 X967.3664 Y981.1852 Z-19.0000 F4000
G1 X967.3664 Y981.1852 Z10.0000 F9999
(Tool Number:1) (9.530 mm dia. slot drill)
M3 S13114
G1 X488.0237 Y1884.9579 Z10.0000 F9999
G1 X488.0237 Y1884.9579 Z1.0000 F2500
G1 X466.5906 Y1863.5249 Z-9.0000 F2500
G1 X488.0237 Y1884.9579 Z-19.0000 F2500
G1 X141.1960 Y1538.1303 Z-19.0000 F4000
G1 X141.1960 Y1538.1303 Z-9.0000 F9999
G1 X128.8004 Y1525.7347 Z-9.0000 F4000
G1 X128.8004 Y1525.7347 Z-19.0000 F2500
G1 X85.6520 Y1482.5863 Z-19.0000 F4000
G1 X148.2521 Y1419.9862 Z-19.0000 F4000
G1 X151.7876 Y1423.5217 Z-19.0000 F4000
G1 X152.1200 Y1423.1894 Z-19.0000 F4000
G1 X95.5515 Y1366.6210 Z-19.0000 F4000
G1 X153.2018 Y1308.9707 Z-19.0000 F4000
G1 X209.7702 Y1365.5391 Z-19.0000 F4000
G1 X210.1025 Y1365.2068 Z-19.0000 F4000
G1 X206.5670 Y1361.6713 Z-19.0000 F4000
G1 X281.8950 Y1286.3434 Z-19.0000 F4000
G1 X309.8468 Y1314.2953 Z-19.0000 F4000
G1 X293.5834 Y1330.5587 Z-19.0000 F4000
G1 X293.9157 Y1330.8910 Z-19.0000 F4000
G1 X297.4512 Y1327.3555 Z-19.0000 F4000
G1 X611.7808 Y1641.6851 Z-19.0000 F4000
G1 X608.2453 Y1645.2206 Z-19.0000 F4000
G1 X608.5776 Y1645.5529 Z-19.0000 F4000
G1 X624.8410 Y1629.2894 Z-19.0000 F4000
G1 X688.1482 Y1692.5966 Z-19.0000 F4000
G1 X671.8847 Y1708.8601 Z-19.0000 F4000
G1 X672.2170 Y1709.1924 Z-19.0000 F4000
G1 X675.7526 Y1705.6568 Z-19.0000 F4000
G1 X990.0821 Y2019.9864 Z-19.0000 F4000
G1 X986.5466 Y2023.5219 Z-19.0000 F4000
G1 X986.8790 Y2023.8543 Z-19.0000 F4000
G1 X1003.1424 Y2007.5908 Z-19.0000 F4000
G1 X1031.0943 Y2035.5427 Z-19.0000 F4000
G1 X994.0106 Y2072.6263 Z-19.0000 F4000
G1 X994.0106 Y2072.6263 Z-9.0000 F9999
G1 X981.6150 Y2085.0219 Z-9.0000 F4000
G1 X981.6150 Y2085.0219 Z-19.0000 F2500
G1 X955.7663 Y2110.8706 Z-19.0000 F4000
G1 X952.2308 Y2107.3351 Z-19.0000 F4000
G1 X951.8985 Y2107.6674 Z-19.0000 F4000
G1 X1008.4670 Y2164.2359 Z-19.0000 F4000
G1 X950.8168 Y2221.8862 Z-19.0000 F4000
G1 X894.2482 Y2165.3176 Z-19.0000 F4000
G1 X893.9159 Y2165.6500 Z-19.0000 F4000
G1 X897.4514 Y2169.1855 Z-19.0000 F4000
G1 X834.8513 Y2231.7856 Z-19.0000 F4000
G1 X488.0237 Y1884.9579 Z-19.0000 F4000
G1 X488.0237 Y1884.9579 Z10.0000 F9999
G1 X655.3418 Y1274.8659 Z10.0000 F9999
G1 X655.3418 Y1274.8659 Z1.0000 F2500
G1 X676.7749 Y1296.2989 Z-9.0000 F2500
G1 X655.3418 Y1274.8659 Z-19.0000 F2500
G1 X1029.9415 Y1649.4655 Z-19.0000 F4000
G1 X1008.1149 Y1671.2921 Z-19.0000 F4000
G1 X1008.1149 Y1671.2921 Z-9.0000 F9999
G1 X995.7193 Y1683.6877 Z-9.0000 F4000
G1 X995.7193 Y1683.6877 Z-19.0000 F2500
G1 X967.3414 Y1712.0656 Z-19.0000 F4000
G1 X963.8059 Y1708.5301 Z-19.0000 F4000
G1 X963.4736 Y1708.8624 Z-19.0000 F4000
G1 X1020.0420 Y1765.4309 Z-19.0000 F4000
G1 X962.3918 Y1823.0811 Z-19.0000 F4000
G1 X905.8233 Y1766.5127 Z-19.0000 F4000
G1 X905.4910 Y1766.8450 Z-19.0000 F4000
G1 X909.0265 Y1770.3805 Z-19.0000 F4000
G1 X873.7337 Y1805.6733 Z-19.0000 F4000
G1 X873.7337 Y1805.6733 Z-9.0000 F9999
G1 X861.3381 Y1818.0689 Z-9.0000 F4000
G1 X861.3381 Y1818.0689 Z-19.0000 F2500
G1 X833.6986 Y1845.7084 Z-19.0000 F4000
G1 X805.7467 Y1817.7566 Z-19.0000 F4000
G1 X822.0102 Y1801.4931 Z-19.0000 F4000
G1 X821.6779 Y1801.1608 Z-19.0000 F4000
G1 X818.1423 Y1804.6963 Z-19.0000 F4000
G1 X503.8127 Y1490.3667 Z-19.0000 F4000
G1 X507.3483 Y1486.8312 Z-19.0000 F4000
G1 X507.0160 Y1486.4989 Z-19.0000 F4000
G1 X490.7525 Y1502.7624 Z-19.0000 F4000
G1 X427.4453 Y1439.4552 Z-19.0000 F4000
G1 X443.7088 Y1423.1917 Z-19.0000 F4000
G1 X443.3765 Y1422.8594 Z-19.0000 F4000
G1 X439.8410 Y1426.3950 Z-19.0000 F4000
G1 X125.5114 Y1112.0654 Z-19.0000 F4000
G1 X129.0469 Y1108.5299 Z-19.0000 F4000
G1 X128.7146 Y1108.1975 Z-19.0000 F4000
G1 X112.4511 Y1124.4610 Z-19.0000 F4000
G1 X84.4993 Y1096.5091 Z-19.0000 F4000
G1 X99.8439 Y1081.1645 Z-19.0000 F4000
G1 X99.8439 Y1081.1645 Z-9.0000 F9999
G1 X112.2395 Y1068.7689 Z-9.0000 F4000
G1 X112.2395 Y1068.7689 Z-19.0000 F2500
G1 X159.8272 Y1021.1812 Z-19.0000 F4000
G1 X163.3627 Y1024.7168 Z-19.0000 F4000
G1 X163.6951 Y1024.3844 Z-19.0000 F4000
G1 X107.1265 Y967.8159 Z-19.0000 F4000
G1 X164.7768 Y910.1656 Z-19.0000 F4000
G1 X221.3453 Y966.7342 Z-19.0000 F4000
G1 X221.6777 Y966.4018 Z-19.0000 F4000
G1 X218.1421 Y962.8663 Z-19.0000 F4000
G1 X280.7422 Y900.2662 Z-19.0000 F4000
G1 X655.3418 Y1274.8659 Z-19.0000 F4000
G1 X655.3418 Y1274.8659 Z10.0000 F9999
G1 X477.0627 Y1078.7875 Z10.0000 F9999
G1 X477.0627 Y1078.7875 Z1.0000 F2500
G1 X455.6297 Y1057.3545 Z-9.0000 F2500
G1 X477.0627 Y1078.7875 Z-19.0000 F2500
G1 X102.4631 Y704.1879 Z-19.0000 F4000
G1 X118.0117 Y688.6392 Z-19.0000 F4000
G1 X118.0117 Y688.6392 Z-9.0000 F9999
G1 X130.4073 Y676.2437 Z-9.0000 F4000
G1 X130.4073 Y676.2437 Z-19.0000 F2500
G1 X165.0631 Y641.5878 Z-19.0000 F4000
G1 X168.5986 Y645.1233 Z-19.0000 F4000
G1 X168.9310 Y644.7909 Z-19.0000 F4000
G1 X112.3626 Y588.2225 Z-19.0000 F4000
G1 X170.0128 Y530.5723 Z-19.0000 F4000
G1 X226.5812 Y587.1407 Z-19.0000 F4000
G1 X226.9136 Y586.8084 Z-19.0000 F4000
G1 X223.3781 Y583.2729 Z-19.0000 F4000
G1 X298.7060 Y507.9450 Z-19.0000 F4000
G1 X326.6578 Y535.8968 Z-19.0000 F4000
G1 X310.3944 Y552.1603 Z-19.0000 F4000
G1 X310.7267 Y552.4926 Z-19.0000 F4000
G1 X314.2622 Y548.9571 Z-19.0000 F4000
G1 X628.5918 Y863.2866 Z-19.0000 F4000
G1 X625.0563 Y866.8222 Z-19.0000 F4000
G1 X625.3886 Y867.1545 Z-19.0000 F4000
G1 X641.6520 Y850.8910 Z-19.0000 F4000
G1 X704.9592 Y914.1982 Z-19.0000 F4000
G1 X688.6958 Y930.4617 Z-19.0000 F4000
G1 X689.0281 Y930.7940 Z-19.0000 F4000
G1 X692.5636 Y927.2584 Z-19.0000 F4000
G1 X1006.8932 Y1241.5880 Z-19.0000 F4000
G1 X1003.3576 Y1245.1235 Z-19.0000 F4000
G1 X1003.6900 Y1245.4559 Z-19.0000 F4000
G1 X1019.9534 Y1229.1924 Z-19.0000 F4000
G1 X1047.9053 Y1257.1443 Z-19.0000 F4000
G1 X1027.5769 Y1277.4727 Z-19.0000 F4000
G1 X1027.5769 Y1277.4727 Z-9.0000 F9999
G1 X1015.1813 Y1289.8682 Z-9.0000 F4000
G1 X1015.1813 Y1289.8682 Z-19.0000 F2500
G1 X972.5774 Y1332.4722 Z-19.0000 F4000
G1 X969.0418 Y1328.9366 Z-19.0000 F4000
G1 X968.7095 Y1329.2690 Z-19.0000 F4000
G1 X1025.2780 Y1385.8375 Z-19.0000 F4000
G1 X967.6278 Y1443.4878 Z-19.0000 F4000
G1 X911.0592 Y1386.9192 Z-19.0000 F4000
G1 X910.7269 Y1387.2516 Z-19.0000 F4000
G1 X914.2624 Y1390.7871 Z-19.0000 F4000
G1 X886.7247 Y1418.3249 Z-19.0000 F4000
G1 X886.7247 Y1418.3249 Z-9.0000 F9999
G1 X874.3291 Y1430.7204 Z-9.0000 F4000
G1 X874.3291 Y1430.7204 Z-19.0000 F2500
G1 X851.6624 Y1453.3872 Z-19.0000 F4000
G1 X477.0627 Y1078.7875 Z-19.0000 F4000
G1 X477.0627 Y1078.7875 Z10.0000 F9999
G1 X664.3718 Y488.6863 Z10.0000 F9999
G1 X664.3718 Y488.6863 Z1.0000 F2500
G1 X685.8048 Y510.1194 Z-9.0000 F2500
G1 X664.3718 Y488.6863 Z-19.0000 F2500
G1 X1038.9714 Y863.2860 Z-19.0000 F4000
G1 X1016.6440 Y885.6134 Z-19.0000 F4000
G1 X1016.6440 Y885.6134 Z-9.0000 F9999
G1 X1004.2484 Y898.0090 Z-9.0000 F4000
G1 X1004.2484 Y898.0090 Z-19.0000 F2500
G1 X976.3713 Y925.8861 Z-19.0000 F4000
G1 X972.8359 Y922.3506 Z-19.0000 F4000
G1 X972.5035 Y922.6829 Z-19.0000 F4000
G1 X1029.0719 Y979.2513 Z-19.0000 F4000
G1 X971.4217 Y1036.9016 Z-19.0000 F4000
G1 X914.8533 Y980.3332 Z-19.0000 F4000
G1 X914.5209 Y980.6655 Z-19.0000 F4000
G1 X918.0564 Y984.2010 Z-19.0000 F4000
G1 X842.7285 Y1059.5289 Z-19.0000 F4000
G1 X814.7766 Y1031.5770 Z-19.0000 F4000
G1 X831.0401 Y1015.3136 Z-19.0000 F4000
G1 X830.7078 Y1014.9813 Z-19.0000 F4000
G1 X827.1722 Y1018.5168 Z-19.0000 F4000
G1 X512.8427 Y704.1872 Z-19.0000 F4000
G1 X516.3782 Y700.6517 Z-19.0000 F4000
G1 X516.0459 Y700.3194 Z-19.0000 F4000
G1 X499.7824 Y716.5828 Z-19.0000 F4000
G1 X436.4753 Y653.2757 Z-19.0000 F4000
G1 X452.7387 Y637.0122 Z-19.0000 F4000
G1 X452.4064 Y636.6799 Z-19.0000 F4000
G1 X448.8709 Y640.2154 Z-19.0000 F4000
G1 X134.5413 Y325.8859 Z-19.0000 F4000
G1 X138.0769 Y322.3503 Z-19.0000 F4000
G1 X137.7445 Y322.0180 Z-19.0000 F4000
G1 X121.4811 Y338.2814 Z-19.0000 F4000
G1 X93.5292 Y310.3296 Z-19.0000 F4000
G1 X168.8571 Y235.0017 Z-19.0000 F4000
G1 X172.3927 Y238.5372 Z-19.0000 F4000
G1 X172.7250 Y238.2049 Z-19.0000 F4000
G1 X116.1565 Y181.6363 Z-19.0000 F4000
G1 X173.8067 Y123.9861 Z-19.0000 F4000
G1 X230.3752 Y180.5546 Z-19.0000 F4000
G1 X230.7076 Y180.2223 Z-19.0000 F4000
G1 X227.1720 Y176.6868 Z-19.0000 F4000
G1 X252.4608 Y151.3981 Z-19.0000 F4000
G1 X252.4608 Y151.3981 Z-9.0000 F9999
G1 X264.8563 Y139.0025 Z-9.0000 F4000
G1 X264.8563 Y139.0025 Z-19.0000 F2500
G1 X289.7721 Y114.0867 Z-19.0000 F4000
G1 X664.3718 Y488.6863 Z-19.0000 F4000
G1 X664.3718 Y488.6863 Z10.0000 F9999
G1 X5.1350 Y1103.1912 Z10.0000 F9999
G1 X5.1350 Y1103.1912 Z1.0000 F2500
G1 X5.1350 Y1072.8803 Z-9.0000 F2500
G1 X5.1350 Y1103.1912 Z-19.0000 F2500
G1 X5.1350 Y5.1350 Z-19.0000 F4000
G1 X1214.6626 Y5.1350 Z-19.0000 F4000
G1 X1214.6626 Y2201.2473 Z-19.0000 F4000
G1 X1130.1287 Y2201.2473 Z-19.0000 F4000
G1 X1130.1287 Y2124.7174 Z-19.0000 F4000
G1 X1171.1316 Y2124.7174 Z-19.0000 F4000
G1 X1171.1316 Y2124.2475 Z-19.0000 F4000
G1 X1166.1330 Y2124.2475 Z-19.0000 F4000
G1 X1166.1330 Y1954.7178 Z-19.0000 F4000
G1 X1171.1316 Y1954.7178 Z-19.0000 F4000
G1 X1171.1316 Y1954.2478 Z-19.0000 F4000
G1 X1130.1316 Y1954.2478 Z-19.0000 F4000
G1 X1130.1316 Y1824.7181 Z-19.0000 F4000
G1 X1171.1316 Y1824.7181 Z-19.0000 F4000
G1 X1171.1316 Y1824.2481 Z-19.0000 F4000
G1 X1166.1330 Y1824.2481 Z-19.0000 F4000
G1 X1166.1330 Y1654.7184 Z-19.0000 F4000
G1 X1171.1316 Y1654.7184 Z-19.0000 F4000
G1 X1171.1316 Y1654.2484 Z-19.0000 F4000
G1 X1130.1316 Y1654.2484 Z-19.0000 F4000
G1 X1130.1316 Y1524.7186 Z-19.0000 F4000
G1 X1153.1330 Y1524.7186 Z-19.0000 F4000
G1 X1153.1330 Y1524.2486 Z-19.0000 F4000
G1 X1148.1321 Y1524.2486 Z-19.0000 F4000
G1 X1148.1321 Y1443.7188 Z-19.0000 F4000
G1 X1178.6630 Y1443.7188 Z-19.0000 F4000
G1 X1178.6630 Y1448.7188 Z-19.0000 F4000
G1 X1179.1326 Y1448.7188 Z-19.0000 F4000
G1 X1179.1326 Y1430.2489 Z-19.0000 F4000
G1 X1178.6630 Y1430.2489 Z-19.0000 F4000
G1 X1178.6630 Y1435.2489 Z-19.0000 F4000
G1 X1148.1321 Y1435.2489 Z-19.0000 F4000
G1 X1148.1321 Y1354.7190 Z-19.0000 F4000
G1 X1153.1330 Y1354.7190 Z-19.0000 F4000
G1 X1153.1330 Y1354.2490 Z-19.0000 F4000
G1 X1130.1316 Y1354.2490 Z-19.0000 F4000
G1 X1130.1316 Y1224.7192 Z-19.0000 F4000
G1 X1153.1330 Y1224.7192 Z-19.0000 F4000
G1 X1153.1330 Y1224.2494 Z-19.0000 F4000
G1 X1148.1321 Y1224.2494 Z-19.0000 F4000
G1 X1148.1321 Y1054.7196 Z-19.0000 F4000
G1 X1153.1330 Y1054.7196 Z-19.0000 F4000
G1 X1153.1330 Y1054.2496 Z-19.0000 F4000
G1 X1130.1316 Y1054.2496 Z-19.0000 F4000
G1 X1130.1316 Y924.7200 Z-19.0000 F4000
G1 X1153.1330 Y924.7200 Z-19.0000 F4000
G1 X1153.1330 Y924.2500 Z-19.0000 F4000
G1 X1148.1321 Y924.2500 Z-19.0000 F4000
G1 X1148.1321 Y843.7201 Z-19.0000 F4000
G1 X1178.6630 Y843.7201 Z-19.0000 F4000
G1 X1178.6630 Y848.7201 Z-19.0000 F4000
G1 X1179.1326 Y848.7201 Z-19.0000 F4000
G1 X1179.1326 Y830.2501 Z-19.0000 F4000
G1 X1178.6630 Y830.2501 Z-19.0000 F4000
G1 X1178.6630 Y835.2501 Z-19.0000 F4000
G1 X1148.1321 Y835.2501 Z-19.0000 F4000
G1 X1148.1321 Y754.7202 Z-19.0000 F4000
G1 X1153.1330 Y754.7202 Z-19.0000 F4000
G1 X1153.1330 Y754.2502 Z-19.0000 F4000
G1 X1130.1316 Y754.2502 Z-19.0000 F4000
G1 X1130.1316 Y624.7204 Z-19.0000 F4000
G1 X1171.1316 Y624.7204 Z-19.0000 F4000
G1 X1171.1316 Y624.2504 Z-19.0000 F4000
G1 X1166.1330 Y624.2504 Z-19.0000 F4000
G1 X1166.1330 Y454.7207 Z-19.0000 F4000
G1 X1171.1316 Y454.7207 Z-19.0000 F4000
G1 X1171.1316 Y454.2507 Z-19.0000 F4000
G1 X1130.1316 Y454.2507 Z-19.0000 F4000
G1 X1130.1316 Y324.7211 Z-19.0000 F4000
G1 X1171.1316 Y324.7211 Z-19.0000 F4000
G1 X1171.1316 Y324.2511 Z-19.0000 F4000
G1 X1166.1330 Y324.2511 Z-19.0000 F4000
G1 X1166.1330 Y154.7214 Z-19.0000 F4000
G1 X1171.1316 Y154.7214 Z-19.0000 F4000
G1 X1171.1316 Y154.2514 Z-19.0000 F4000
G1 X1130.1316 Y154.2514 Z-19.0000 F4000
G1 X1130.1316 Y78.2517 Z-19.0000 F4000
G1 X1129.6591 Y78.2517 Z-19.0000 F4000
G1 X1129.6591 Y83.2517 Z-19.0000 F4000
G1 X990.1340 Y83.2517 Z-19.0000 F4000
G1 X990.1340 Y78.2517 Z-19.0000 F4000
G1 X989.6616 Y78.2517 Z-19.0000 F4000
G1 X989.6616 Y101.2514 Z-19.0000 F4000
G1 X830.1316 Y101.2514 Z-19.0000 F4000
G1 X830.1316 Y78.2517 Z-19.0000 F4000
G1 X829.6621 Y78.2517 Z-19.0000 F4000
G1 X829.6621 Y83.2517 Z-19.0000 F4000
G1 X690.1321 Y83.2517 Z-19.0000 F4000
G1 X690.1321 Y78.2517 Z-19.0000 F4000
G1 X689.6645 Y78.2517 Z-19.0000 F4000
G1 X689.6645 Y101.2514 Z-19.0000 F4000
G1 X625.6674 Y101.2514 Z-19.0000 F4000
G1 X625.6674 Y101.2514 Z-9.0000 F9999
G1 X608.1374 Y101.2514 Z-9.0000 F4000
G1 X608.1374 Y101.2514 Z-19.0000 F2500
G1 X530.1350 Y101.2514 Z-19.0000 F4000
G1 X530.1350 Y78.2517 Z-19.0000 F4000
G1 X529.6621 Y78.2517 Z-19.0000 F4000
G1 X529.6621 Y83.2517 Z-19.0000 F4000
G1 X390.1326 Y83.2517 Z-19.0000 F4000
G1 X390.1326 Y78.2517 Z-19.0000 F4000
G1 X389.6655 Y78.2517 Z-19.0000 F4000
G1 X389.6655 Y101.2514 Z-19.0000 F4000
G1 X230.1326 Y101.2514 Z-19.0000 F4000
G1 X230.1326 Y78.2517 Z-19.0000 F4000
G1 X229.6655 Y78.2517 Z-19.0000 F4000
G1 X229.6655 Y83.2517 Z-19.0000 F4000
G1 X90.1355 Y83.2517 Z-19.0000 F4000
G1 X90.1355 Y78.2517 Z-19.0000 F4000
G1 X89.6630 Y78.2517 Z-19.0000 F4000
G1 X89.6630 Y154.2514 Z-19.0000 F4000
G1 X48.6645 Y154.2514 Z-19.0000 F4000
G1 X48.6645 Y154.7214 Z-19.0000 F4000
G1 X53.6640 Y154.7214 Z-19.0000 F4000
G1 X53.6640 Y324.2511 Z-19.0000 F4000
G1 X48.6645 Y324.2511 Z-19.0000 F4000
G1 X48.6645 Y324.7211 Z-19.0000 F4000
G1 X89.6630 Y324.7211 Z-19.0000 F4000
G1 X89.6630 Y454.2507 Z-19.0000 F4000
G1 X48.6645 Y454.2507 Z-19.0000 F4000
G1 X48.6645 Y454.7207 Z-19.0000 F4000
G1 X53.6640 Y454.7207 Z-19.0000 F4000
G1 X53.6640 Y624.2504 Z-19.0000 F4000
G1 X48.6645 Y624.2504 Z-19.0000 F4000
G1 X48.6645 Y624.7204 Z-19.0000 F4000
G1 X89.6630 Y624.7204 Z-19.0000 F4000
G1 X89.6630 Y754.2502 Z-19.0000 F4000
G1 X66.6635 Y754.2502 Z-19.0000 F4000
G1 X66.6635 Y754.7202 Z-19.0000 F4000
G1 X71.6645 Y754.7202 Z-19.0000 F4000
G1 X71.6645 Y835.2501 Z-19.0000 F4000
G1 X41.1340 Y835.2501 Z-19.0000 F4000
G1 X41.1340 Y830.2501 Z-19.0000 F4000
G1 X40.6645 Y830.2501 Z-19.0000 F4000
G1 X40.6645 Y848.7201 Z-19.0000 F4000
G1 X41.1340 Y848.7201 Z-19.0000 F4000
G1 X41.1340 Y843.7201 Z-19.0000 F4000
G1 X71.6645 Y843.7201 Z-19.0000 F4000
G1 X71.6645 Y924.2500 Z-19.0000 F4000
G1 X66.6635 Y924.2500 Z-19.0000 F4000
G1 X66.6635 Y924.7200 Z-19.0000 F4000
G1 X89.6630 Y924.7200 Z-19.0000 F4000
G1 X89.6630 Y1054.2496 Z-19.0000 F4000
G1 X66.6635 Y1054.2496 Z-19.0000 F4000
G1 X66.6635 Y1054.7196 Z-19.0000 F4000
G1 X71.6645 Y1054.7196 Z-19.0000 F4000
G1 X71.6645 Y1224.2494 Z-19.0000 F4000
G1 X66.6635 Y1224.2494 Z-19.0000 F4000
G1 X66.6635 Y1224.7192 Z-19.0000 F4000
G1 X89.6630 Y1224.7192 Z-19.0000 F4000
G1 X89.6630 Y1354.2490 Z-19.0000 F4000
G1 X66.6635 Y1354.2490 Z-19.0000 F4000
G1 X66.6635 Y1354.7190 Z-19.0000 F4000
G1 X71.6645 Y1354.7190 Z-19.0000 F4000
G1 X71.6645 Y1435.2489 Z-19.0000 F4000
G1 X41.1340 Y1435.2489 Z-19.0000 F4000
G1 X41.1340 Y1430.2489 Z-19.0000 F4000
G1 X40.6645 Y1430.2489 Z-19.0000 F4000
G1 X40.6645 Y1448.7188 Z-19.0000 F4000
G1 X41.1340 Y1448.7188 Z-19.0000 F4000
G1 X41.1340 Y1443.7188 Z-19.0000 F4000
G1 X71.6645 Y1443.7188 Z-19.0000 F4000
G1 X71.6645 Y1524.2486 Z-19.0000 F4000
G1 X66.6635 Y1524.2486 Z-19.0000 F4000
G1 X66.6635 Y1524.7186 Z-19.0000 F4000
G1 X89.6630 Y1524.7186 Z-19.0000 F4000
G1 X89.6630 Y1654.2484 Z-19.0000 F4000
G1 X48.6645 Y1654.2484 Z-19.0000 F4000
G1 X48.6645 Y1654.7184 Z-19.0000 F4000
G1 X53.6640 Y1654.7184 Z-19.0000 F4000
G1 X53.6640 Y1824.2481 Z-19.0000 F4000
G1 X48.6645 Y1824.2481 Z-19.0000 F4000
G1 X48.6645 Y1824.7181 Z-19.0000 F4000
G1 X89.6630 Y1824.7181 Z-19.0000 F4000
G1 X89.6630 Y1954.2478 Z-19.0000 F4000
G1 X48.6645 Y1954.2478 Z-19.0000 F4000
G1 X48.6645 Y1954.7178 Z-19.0000 F4000
G1 X53.6640 Y1954.7178 Z-19.0000 F4000
G1 X53.6640 Y2124.2475 Z-19.0000 F4000
G1 X48.6645 Y2124.2475 Z-19.0000 F4000
G1 X48.6645 Y2124.7174 Z-19.0000 F4000
G1 X89.6577 Y2124.7174 Z-19.0000 F4000
G1 X89.6577 Y2201.2473 Z-19.0000 F4000
G1 X5.1350 Y2201.2473 Z-19.0000 F4000
G1 X5.1350 Y1103.1912 Z-19.0000 F4000
G1 X5.1350 Y1103.1912 Z10.0000 F9999
G1 X1900.0000 Y2800.0000 Z80.0000 F9999
G1 Z80.0000 F9999
G1 X1900.0000 Y2800.0000 F9999
M5
M30
