(plotsheet 2n3_nested_153 sheets_final v1_0_sheet 155_S155.1_text_CC8 - HSM Finish 4~8mil)
(Material Size) (X=1220.000, Y=2440.000, Z=20.000)
(LinuxCNC_NoArcs_MM_TC_medium_50um_G1_verbose.con)
G90 G80 G21 G49
G64 P0.050
M6 T1
(Tool Number:1) (7.998 mm dia. slot drill)
G43 H1 G0Z80.0000
M3 S18000
G04 P10
G1 X78.2597 Y456.5721 Z10.0000 F9999
G1 X78.2597 Y456.5721 Z-1.5000 F2500
G1 X78.2597 Y471.0124 Z-1.5000 F5000
G1 X78.2597 Y456.5721 Z-1.5000 F5000
G1 X59.9661 Y456.5721 Z-1.5000 F5000
G1 X59.9661 Y471.6913 Z-1.5000 F5000
G1 X59.9661 Y456.5721 Z-1.5000 F5000
G1 X101.0670 Y456.5721 Z-1.5000 F5000
G1 X101.0670 Y456.5721 Z10.0000 F9999
G1 X101.0670 Y487.1042 Z10.0000 F9999
G1 X101.0670 Y487.1042 Z-1.5000 F2500
G1 X59.9661 Y487.1042 Z-1.5000 F5000
G1 X59.9661 Y494.2602 Z-1.5000 F5000
G1 X60.5716 Y498.1317 Z-1.5000 F5000
G1 X62.3881 Y501.3427 Z-1.5000 F5000
G1 X65.5441 Y503.5629 Z-1.5000 F5000
G1 X70.1863 Y504.4069 Z-1.5000 F5000
G1 X74.8652 Y503.2510 Z-1.5000 F5000
G1 X78.1863 Y500.4803 Z-1.5000 F5000
G1 X80.1496 Y497.1592 Z-1.5000 F5000
G1 X80.8102 Y494.2602 Z-1.5000 F5000
G1 X80.8102 Y487.1042 Z-1.5000 F5000
G1 X80.8102 Y494.2602 Z-1.5000 F5000
G1 X80.1496 Y497.1592 Z-1.5000 F5000
G1 X78.1863 Y500.4803 Z-1.5000 F5000
G1 X74.8652 Y503.2510 Z-1.5000 F5000
G1 X70.1863 Y504.4069 Z-1.5000 F5000
G1 X65.5441 Y503.5629 Z-1.5000 F5000
G1 X62.3881 Y501.3427 Z-1.5000 F5000
G1 X60.5716 Y498.1317 Z-1.5000 F5000
G1 X59.9661 Y494.2602 Z-1.5000 F5000
G1 X59.9661 Y487.1042 Z-1.5000 F5000
G1 X59.9661 Y487.1042 Z10.0000 F9999
G1 X59.9661 Y531.2143 Z10.0000 F9999
G1 X59.9661 Y531.2143 Z-1.5000 F2500
G1 X101.0670 Y547.2693 Z-1.5000 F5000
G1 X59.9661 Y531.2143 Z-1.5000 F5000
G1 X101.0670 Y515.1959 Z-1.5000 F5000
G1 X101.0670 Y515.1959 Z10.0000 F9999
G1 X101.0670 Y504.5170 Z10.0000 F9999
G1 X101.0670 Y504.5170 Z-1.5000 F2500
G1 X80.9202 Y491.2877 Z-1.5000 F5000
G1 X101.0670 Y504.5170 Z-1.5000 F5000
G1 X101.0670 Y504.5170 Z10.0000 F9999
G1 X86.3698 Y541.5262 Z10.0000 F9999
G1 X86.3698 Y541.5262 Z-1.5000 F2500
G1 X86.3698 Y520.8290 Z-1.5000 F5000
G1 X86.3698 Y541.5262 Z-1.5000 F5000
G1 X86.3698 Y541.5262 Z10.0000 F9999
G1 X94.2413 Y599.7464 Z10.0000 F9999
G1 X94.2413 Y599.7464 Z-1.5000 F2500
G1 X97.2872 Y601.6913 Z-1.5000 F5000
G1 X99.3423 Y604.1134 Z-1.5000 F5000
G1 X100.5900 Y607.2326 Z-1.5000 F5000
G1 X101.0670 Y611.3611 Z-1.5000 F5000
G1 X100.6083 Y615.8565 Z-1.5000 F5000
G1 X98.8652 Y619.6730 Z-1.5000 F5000
G1 X95.8744 Y622.3519 Z-1.5000 F5000
G1 X91.7092 Y623.4712 Z-1.5000 F5000
G1 X87.7092 Y622.9391 Z-1.5000 F5000
G1 X85.0303 Y621.3978 Z-1.5000 F5000
G1 X83.3423 Y619.3611 Z-1.5000 F5000
G1 X82.2413 Y617.4528 Z-1.5000 F5000
G1 X77.5074 Y608.2602 Z-1.5000 F5000
G1 X76.0946 Y605.8932 Z-1.5000 F5000
G1 X74.4432 Y604.0400 Z-1.5000 F5000
G1 X72.2597 Y602.7923 Z-1.5000 F5000
G1 X69.3790 Y602.2785 Z-1.5000 F5000
G1 X66.0946 Y602.8106 Z-1.5000 F5000
G1 X63.0670 Y604.6455 Z-1.5000 F5000
G1 X60.8469 Y607.7831 Z-1.5000 F5000
G1 X59.9661 Y612.1501 Z-1.5000 F5000
G1 X60.6450 Y616.4069 Z-1.5000 F5000
G1 X62.1129 Y619.2510 Z-1.5000 F5000
G1 X64.2597 Y621.3427 Z-1.5000 F5000
G1 X62.1129 Y619.2510 Z-1.5000 F5000
G1 X60.6450 Y616.4069 Z-1.5000 F5000
G1 X59.9661 Y612.1501 Z-1.5000 F5000
G1 X60.8469 Y607.7831 Z-1.5000 F5000
G1 X63.0670 Y604.6455 Z-1.5000 F5000
G1 X66.0946 Y602.8106 Z-1.5000 F5000
G1 X69.3790 Y602.2785 Z-1.5000 F5000
G1 X72.2597 Y602.7923 Z-1.5000 F5000
G1 X74.4432 Y604.0400 Z-1.5000 F5000
G1 X76.0946 Y605.8932 Z-1.5000 F5000
G1 X77.5074 Y608.2602 Z-1.5000 F5000
G1 X82.2413 Y617.4528 Z-1.5000 F5000
G1 X83.3423 Y619.3611 Z-1.5000 F5000
G1 X85.0303 Y621.3978 Z-1.5000 F5000
G1 X87.7092 Y622.9391 Z-1.5000 F5000
G1 X91.7092 Y623.4712 Z-1.5000 F5000
G1 X95.8744 Y622.3519 Z-1.5000 F5000
G1 X98.8652 Y619.6730 Z-1.5000 F5000
G1 X100.6083 Y615.8565 Z-1.5000 F5000
G1 X101.0670 Y611.3611 Z-1.5000 F5000
G1 X100.5900 Y607.2326 Z-1.5000 F5000
G1 X99.3423 Y604.1134 Z-1.5000 F5000
G1 X97.2872 Y601.6913 Z-1.5000 F5000
G1 X97.2872 Y601.6913 Z10.0000 F9999
G1 X50.5716 Y589.0308 Z10.0000 F9999
G1 X50.5716 Y589.0308 Z-1.5000 F2500
G1 X103.4157 Y558.6455 Z-1.5000 F5000
G1 X50.5716 Y589.0308 Z-1.5000 F5000
G1 X50.5716 Y589.0308 Z10.0000 F9999
G1 X59.9661 Y643.2143 Z10.0000 F9999
G1 X59.9661 Y643.2143 Z-1.5000 F2500
G1 X59.9661 Y637.3978 Z-1.5000 F5000
G1 X59.9661 Y643.2143 Z-1.5000 F5000
G1 X101.0670 Y643.2143 Z-1.5000 F5000
G1 X101.0670 Y643.2143 Z10.0000 F9999
G1 X50.5716 Y688.8473 Z10.0000 F9999
G1 X50.5716 Y688.8473 Z-1.5000 F2500
G1 X103.4157 Y658.4620 Z-1.5000 F5000
G1 X50.5716 Y688.8473 Z-1.5000 F5000
G1 X50.5716 Y688.8473 Z10.0000 F9999
G1 X59.9661 Y704.3519 Z10.0000 F9999
G1 X59.9661 Y704.3519 Z-1.5000 F2500
G1 X101.0670 Y704.3519 Z-1.5000 F5000
G1 X59.9661 Y704.3519 Z-1.5000 F5000
G1 X59.9661 Y704.3519 Z10.0000 F9999
G1 X59.9661 Y724.3152 Z10.0000 F9999
G1 X59.9661 Y724.3152 Z-1.5000 F2500
G1 X101.0670 Y761.4161 Z-1.5000 F5000
G1 X59.9661 Y761.4161 Z-1.5000 F5000
G1 X101.0670 Y761.4161 Z-1.5000 F5000
G1 X59.9661 Y724.3152 Z-1.5000 F5000
G1 X101.0670 Y724.3152 Z-1.5000 F5000
G1 X101.0670 Y724.3152 Z10.0000 F9999
(Tool Number:1) (7.998 mm dia. slot drill)
M3 S9000
G1 X16.6519 Y1119.9962 Z10.0000 F9999
G1 X16.6519 Y1119.9962 Z0.0000 F2500
G1 X17.0009 Y1079.9978 Z-15.0000 F5000
G1 X17.0009 Y964.9990 Z-15.0000 F5000
G1 X22.0009 Y964.9970 Z-15.0000 F5000
G1 X4.9293 Y964.9970 Z-15.0000 F5000
G1 X-0.9990 Y959.0687 Z-15.0000 F5000
G1 X-0.9990 Y933.9990 Z-15.0000 F5000
G1 X47.9989 Y933.9990 Z-15.0000 F5000
G1 X48.0009 Y938.9991 Z-15.0000 F5000
G1 X47.9989 Y920.9971 Z-15.0000 F5000
G1 X47.9989 Y925.9972 Z-15.0000 F5000
G1 X-0.9990 Y925.9972 Z-15.0000 F5000
G1 X-0.9990 Y900.9275 Z-15.0000 F5000
G1 X4.9293 Y894.9992 Z-15.0000 F5000
G1 X22.0009 Y894.9972 Z-15.0000 F5000
G1 X17.0009 Y894.9972 Z-15.0000 F5000
G1 X17.0009 Y664.9997 Z-15.0000 F5000
G1 X22.0009 Y664.9977 Z-15.0000 F5000
G1 X4.9293 Y664.9977 Z-15.0000 F5000
G1 X-0.9990 Y659.0693 Z-15.0000 F5000
G1 X-0.9990 Y600.9281 Z-15.0000 F5000
G1 X4.9293 Y594.9998 Z-15.0000 F5000
G1 X22.0009 Y594.9978 Z-15.0000 F5000
G1 X17.0009 Y594.9978 Z-15.0000 F5000
G1 X17.0009 Y365.0003 Z-15.0000 F5000
G1 X22.0009 Y364.9983 Z-15.0000 F5000
G1 X4.9293 Y364.9983 Z-15.0000 F5000
G1 X-0.9990 Y359.0699 Z-15.0000 F5000
G1 X-0.9990 Y300.9288 Z-15.0000 F5000
G1 X4.9293 Y295.0004 Z-15.0000 F5000
G1 X22.0009 Y294.9984 Z-15.0000 F5000
G1 X17.0009 Y294.9984 Z-15.0000 F5000
G1 X17.0009 Y65.0009 Z-15.0000 F5000
G1 X22.0009 Y64.9989 Z-15.0000 F5000
G1 X4.9293 Y64.9989 Z-15.0000 F5000
G1 X-0.9990 Y59.0705 Z-15.0000 F5000
G1 X-0.9990 Y25.0010 Z-15.0000 F5000
G1 X61.5682 Y25.0010 Z-15.0000 F5000
G1 X61.8370 Y24.9620 Z-15.0000 F5000
G1 X61.6745 Y24.7443 Z-15.0000 F5000
G1 X58.7456 Y21.8154 Z-15.0000 F5000
G1 X57.2277 Y19.7826 Z-15.0000 F5000
G1 X56.2080 Y16.9618 Z-15.0000 F5000
G1 X56.0706 Y13.9657 Z-15.0000 F5000
G1 X56.7847 Y11.1536 Z-15.0000 F5000
G1 X58.2683 Y8.6600 Z-15.0000 F5000
G1 X60.4840 Y6.6386 Z-15.0000 F5000
G1 X63.1995 Y5.3650 Z-15.0000 F5000
G1 X65.7104 Y5.0010 Z-15.0000 F5000
G1 X92.2892 Y5.0010 Z-15.0000 F5000
G1 X94.8001 Y5.3650 Z-15.0000 F5000
G1 X97.5156 Y6.6386 Z-15.0000 F5000
G1 X99.7314 Y8.6600 Z-15.0000 F5000
G1 X101.2149 Y11.1536 Z-15.0000 F5000
G1 X101.9290 Y13.9657 Z-15.0000 F5000
G1 X101.7917 Y16.9618 Z-15.0000 F5000
G1 X100.7720 Y19.7826 Z-15.0000 F5000
G1 X99.2540 Y21.8154 Z-15.0000 F5000
G1 X96.3251 Y24.7443 Z-15.0000 F5000
G1 X96.1626 Y24.9620 Z-15.0000 F5000
G1 X96.4315 Y25.0010 Z-15.0000 F5000
G1 X158.9986 Y25.0010 Z-15.0000 F5000
G1 X158.9986 Y59.0705 Z-15.0000 F5000
G1 X153.0704 Y64.9989 Z-15.0000 F5000
G1 X135.9987 Y65.0009 Z-15.0000 F5000
G1 X140.9987 Y65.0009 Z-15.0000 F5000
G1 X140.9987 Y294.9984 Z-15.0000 F5000
G1 X135.9987 Y295.0004 Z-15.0000 F5000
G1 X153.0704 Y295.0004 Z-15.0000 F5000
G1 X158.9986 Y300.9288 Z-15.0000 F5000
G1 X158.9986 Y359.0699 Z-15.0000 F5000
G1 X153.0704 Y364.9983 Z-15.0000 F5000
G1 X135.9987 Y365.0003 Z-15.0000 F5000
G1 X140.9987 Y365.0003 Z-15.0000 F5000
G1 X140.9987 Y594.9978 Z-15.0000 F5000
G1 X135.9987 Y594.9998 Z-15.0000 F5000
G1 X153.0703 Y594.9998 Z-15.0000 F5000
G1 X158.9986 Y600.9281 Z-15.0000 F5000
G1 X158.9986 Y659.0693 Z-15.0000 F5000
G1 X153.0704 Y664.9977 Z-15.0000 F5000
G1 X135.9987 Y664.9997 Z-15.0000 F5000
G1 X140.9987 Y664.9997 Z-15.0000 F5000
G1 X140.9987 Y894.9972 Z-15.0000 F5000
G1 X135.9987 Y894.9992 Z-15.0000 F5000
G1 X153.0704 Y894.9992 Z-15.0000 F5000
G1 X158.9986 Y900.9275 Z-15.0000 F5000
G1 X158.9986 Y925.9972 Z-15.0000 F5000
G1 X110.0008 Y925.9972 Z-15.0000 F5000
G1 X109.9988 Y920.9971 Z-15.0000 F5000
G1 X110.0008 Y938.9991 Z-15.0000 F5000
G1 X110.0008 Y933.9990 Z-15.0000 F5000
G1 X158.9986 Y933.9990 Z-15.0000 F5000
G1 X158.9986 Y959.0687 Z-15.0000 F5000
G1 X153.0704 Y964.9970 Z-15.0000 F5000
G1 X135.9987 Y964.9990 Z-15.0000 F5000
G1 X140.9987 Y964.9990 Z-15.0000 F5000
G1 X140.9987 Y1194.9966 Z-15.0000 F5000
G1 X135.9987 Y1194.9986 Z-15.0000 F5000
G1 X153.0704 Y1194.9986 Z-15.0000 F5000
G1 X158.9986 Y1200.9269 Z-15.0000 F5000
G1 X158.9986 Y1259.0681 Z-15.0000 F5000
G1 X153.0704 Y1264.9964 Z-15.0000 F5000
G1 X135.9987 Y1264.9984 Z-15.0000 F5000
G1 X140.9987 Y1264.9984 Z-15.0000 F5000
G1 X140.9987 Y1384.9963 Z-15.0000 F5000
G1 X118.0011 Y1384.9983 Z-15.0000 F5000
G1 X123.0012 Y1384.9983 Z-15.0000 F5000
G1 X122.9986 Y1494.9959 Z-15.0000 F5000
G1 X117.9988 Y1494.9979 Z-15.0000 F5000
G1 X153.0704 Y1494.9979 Z-15.0000 F5000
G1 X158.9986 Y1500.9263 Z-15.0000 F5000
G1 X158.9986 Y1559.0674 Z-15.0000 F5000
G1 X153.0704 Y1564.9958 Z-15.0000 F5000
G1 X117.9988 Y1564.9978 Z-15.0000 F5000
G1 X122.9988 Y1564.9978 Z-15.0000 F5000
G1 X122.9988 Y1794.9953 Z-15.0000 F5000
G1 X117.9988 Y1794.9973 Z-15.0000 F5000
G1 X153.0704 Y1794.9973 Z-15.0000 F5000
G1 X158.9986 Y1800.9257 Z-15.0000 F5000
G1 X158.9986 Y1859.0670 Z-15.0000 F5000
G1 X153.0704 Y1864.9953 Z-15.0000 F5000
G1 X117.9988 Y1864.9972 Z-15.0000 F5000
G1 X122.9988 Y1864.9972 Z-15.0000 F5000
G1 X122.9988 Y1996.4950 Z-15.0000 F5000
G1 X35.0009 Y1996.4950 Z-15.0000 F5000
G1 X35.0009 Y1864.9972 Z-15.0000 F5000
G1 X40.0009 Y1864.9953 Z-15.0000 F5000
G1 X4.9293 Y1864.9953 Z-15.0000 F5000
G1 X-0.9990 Y1859.0670 Z-15.0000 F5000
G1 X-0.9990 Y1800.9257 Z-15.0000 F5000
G1 X4.9293 Y1794.9973 Z-15.0000 F5000
G1 X40.0009 Y1794.9953 Z-15.0000 F5000
G1 X35.0009 Y1794.9953 Z-15.0000 F5000
G1 X35.0009 Y1564.9978 Z-15.0000 F5000
G1 X40.0009 Y1564.9958 Z-15.0000 F5000
G1 X4.9293 Y1564.9958 Z-15.0000 F5000
G1 X-0.9990 Y1559.0674 Z-15.0000 F5000
G1 X-0.9990 Y1500.9263 Z-15.0000 F5000
G1 X4.9293 Y1494.9979 Z-15.0000 F5000
G1 X40.0009 Y1494.9959 Z-15.0000 F5000
G1 X35.0009 Y1494.9959 Z-15.0000 F5000
G1 X35.0009 Y1384.9983 Z-15.0000 F5000
G1 X40.0009 Y1384.9963 Z-15.0000 F5000
G1 X17.0009 Y1384.9963 Z-15.0000 F5000
G1 X17.0009 Y1264.9984 Z-15.0000 F5000
G1 X22.0009 Y1264.9964 Z-15.0000 F5000
G1 X4.9293 Y1264.9964 Z-15.0000 F5000
G1 X-0.9990 Y1259.0681 Z-15.0000 F5000
G1 X-0.9990 Y1200.9269 Z-15.0000 F5000
G1 X4.9293 Y1194.9986 Z-15.0000 F5000
G1 X22.0009 Y1194.9966 Z-15.0000 F5000
G1 X17.0009 Y1194.9966 Z-15.0000 F5000
G1 X17.0009 Y1079.9978 Z-15.0000 F5000
G1 X17.0009 Y1055.9978 Z-15.0000 F5000
G1 X16.6519 Y1015.9993 Z0.0000 F5000
G1 X16.6519 Y1015.9993 Z10.0000 F9999
(Tool Number:1) (7.998 mm dia. slot drill)
M3 S9000
G1 X17.9922 Y1080.9977 Z10.0000 F9999
G1 X17.9922 Y1080.9977 Z-20.0000 F2500
G1 X18.0009 Y1079.9978 Z-20.0000 F5000
G1 X18.0009 Y965.9990 Z-20.0000 F5000
G1 X23.0009 Y965.9990 Z-20.0000 F5000
G1 X23.0009 Y963.9970 Z-20.0000 F5000
G1 X5.3435 Y963.9970 Z-20.0000 F5000
G1 X0.0010 Y958.6545 Z-20.0000 F5000
G1 X0.0010 Y934.9990 Z-20.0000 F5000
G1 X46.9989 Y934.9990 Z-20.0000 F5000
G1 X46.9989 Y939.9991 Z-20.0000 F5000
G1 X49.0009 Y939.9991 Z-20.0000 F5000
G1 X49.0009 Y919.9971 Z-20.0000 F5000
G1 X46.9989 Y919.9971 Z-20.0000 F5000
G1 X46.9989 Y924.9972 Z-20.0000 F5000
G1 X0.0010 Y924.9972 Z-20.0000 F5000
G1 X0.0010 Y901.3418 Z-20.0000 F5000
G1 X5.3435 Y895.9992 Z-20.0000 F5000
G1 X23.0009 Y895.9992 Z-20.0000 F5000
G1 X23.0009 Y893.9972 Z-20.0000 F5000
G1 X18.0009 Y893.9972 Z-20.0000 F5000
G1 X18.0009 Y665.9997 Z-20.0000 F5000
G1 X23.0009 Y665.9997 Z-20.0000 F5000
G1 X23.0009 Y663.9977 Z-20.0000 F5000
G1 X5.3435 Y663.9977 Z-20.0000 F5000
G1 X0.0010 Y658.6551 Z-20.0000 F5000
G1 X0.0010 Y601.3423 Z-20.0000 F5000
G1 X5.3435 Y595.9998 Z-20.0000 F5000
G1 X23.0009 Y595.9998 Z-20.0000 F5000
G1 X23.0009 Y593.9978 Z-20.0000 F5000
G1 X18.0009 Y593.9978 Z-20.0000 F5000
G1 X18.0009 Y366.0003 Z-20.0000 F5000
G1 X23.0009 Y366.0003 Z-20.0000 F5000
G1 X23.0009 Y363.9983 Z-20.0000 F5000
G1 X5.3435 Y363.9983 Z-20.0000 F5000
G1 X0.0010 Y358.6557 Z-20.0000 F5000
G1 X0.0010 Y301.3430 Z-20.0000 F5000
G1 X5.3435 Y296.0004 Z-20.0000 F5000
G1 X23.0009 Y296.0004 Z-20.0000 F5000
G1 X23.0009 Y293.9984 Z-20.0000 F5000
G1 X18.0009 Y293.9984 Z-20.0000 F5000
G1 X18.0009 Y66.0009 Z-20.0000 F5000
G1 X23.0009 Y66.0009 Z-20.0000 F5000
G1 X23.0009 Y63.9989 Z-20.0000 F5000
G1 X5.3435 Y63.9989 Z-20.0000 F5000
G1 X0.0010 Y58.6563 Z-20.0000 F5000
G1 X0.0010 Y26.0010 Z-20.0000 F5000
G1 X61.6403 Y26.0010 Z-20.0000 F5000
G1 X62.1880 Y25.9215 Z-20.0000 F5000
G1 X62.4475 Y25.8039 Z-20.0000 F5000
G1 X62.6652 Y25.6100 Z-20.0000 F5000
G1 X62.8122 Y25.3659 Z-20.0000 F5000
G1 X62.8809 Y25.0894 Z-20.0000 F5000
G1 X62.8640 Y24.7984 Z-20.0000 F5000
G1 X62.7637 Y24.5316 Z-20.0000 F5000
G1 X62.4326 Y24.0882 Z-20.0000 F5000
G1 X59.5037 Y21.1593 Z-20.0000 F5000
G1 X58.1177 Y19.3031 Z-20.0000 F5000
G1 X57.2000 Y16.7645 Z-20.0000 F5000
G1 X57.0764 Y14.0681 Z-20.0000 F5000
G1 X57.7183 Y11.5402 Z-20.0000 F5000
G1 X59.0518 Y9.2988 Z-20.0000 F5000
G1 X61.0460 Y7.4796 Z-20.0000 F5000
G1 X63.4898 Y6.3334 Z-20.0000 F5000
G1 X65.7825 Y6.0010 Z-20.0000 F5000
G1 X92.2171 Y6.0010 Z-20.0000 F5000
G1 X94.5098 Y6.3334 Z-20.0000 F5000
G1 X96.9537 Y7.4796 Z-20.0000 F5000
G1 X98.9478 Y9.2988 Z-20.0000 F5000
G1 X100.2813 Y11.5402 Z-20.0000 F5000
G1 X100.9233 Y14.0681 Z-20.0000 F5000
G1 X100.7997 Y16.7645 Z-20.0000 F5000
G1 X99.8820 Y19.3031 Z-20.0000 F5000
G1 X98.4959 Y21.1593 Z-20.0000 F5000
G1 X95.5670 Y24.0882 Z-20.0000 F5000
G1 X95.2359 Y24.5316 Z-20.0000 F5000
G1 X95.1356 Y24.7984 Z-20.0000 F5000
G1 X95.1187 Y25.0894 Z-20.0000 F5000
G1 X95.1874 Y25.3659 Z-20.0000 F5000
G1 X95.3344 Y25.6100 Z-20.0000 F5000
G1 X95.5521 Y25.8039 Z-20.0000 F5000
G1 X95.8116 Y25.9215 Z-20.0000 F5000
G1 X96.3593 Y26.0010 Z-20.0000 F5000
G1 X157.9986 Y26.0010 Z-20.0000 F5000
G1 X157.9986 Y58.6563 Z-20.0000 F5000
G1 X152.6562 Y63.9989 Z-20.0000 F5000
G1 X134.9987 Y63.9989 Z-20.0000 F5000
G1 X134.9987 Y66.0009 Z-20.0000 F5000
G1 X139.9987 Y66.0009 Z-20.0000 F5000
G1 X139.9987 Y293.9984 Z-20.0000 F5000
G1 X134.9987 Y293.9984 Z-20.0000 F5000
G1 X134.9987 Y296.0004 Z-20.0000 F5000
G1 X152.6562 Y296.0004 Z-20.0000 F5000
G1 X157.9986 Y301.3430 Z-20.0000 F5000
G1 X157.9986 Y358.6557 Z-20.0000 F5000
G1 X152.6562 Y363.9983 Z-20.0000 F5000
G1 X134.9987 Y363.9983 Z-20.0000 F5000
G1 X134.9987 Y366.0003 Z-20.0000 F5000
G1 X139.9987 Y366.0003 Z-20.0000 F5000
G1 X139.9987 Y593.9978 Z-20.0000 F5000
G1 X134.9987 Y593.9978 Z-20.0000 F5000
G1 X134.9987 Y595.9998 Z-20.0000 F5000
G1 X152.6561 Y595.9998 Z-20.0000 F5000
G1 X157.9986 Y601.3423 Z-20.0000 F5000
G1 X157.9986 Y658.6551 Z-20.0000 F5000
G1 X152.6562 Y663.9977 Z-20.0000 F5000
G1 X134.9987 Y663.9977 Z-20.0000 F5000
G1 X134.9987 Y665.9997 Z-20.0000 F5000
G1 X139.9987 Y665.9997 Z-20.0000 F5000
G1 X139.9987 Y893.9972 Z-20.0000 F5000
G1 X134.9987 Y893.9972 Z-20.0000 F5000
G1 X134.9987 Y895.9992 Z-20.0000 F5000
G1 X152.6562 Y895.9992 Z-20.0000 F5000
G1 X157.9986 Y901.3418 Z-20.0000 F5000
G1 X157.9986 Y924.9972 Z-20.0000 F5000
G1 X111.0008 Y924.9972 Z-20.0000 F5000
G1 X111.0008 Y919.9971 Z-20.0000 F5000
G1 X108.9988 Y919.9971 Z-20.0000 F5000
G1 X108.9988 Y939.9991 Z-20.0000 F5000
G1 X111.0008 Y939.9991 Z-20.0000 F5000
G1 X111.0008 Y934.9990 Z-20.0000 F5000
G1 X157.9986 Y934.9990 Z-20.0000 F5000
G1 X157.9986 Y958.6545 Z-20.0000 F5000
G1 X152.6562 Y963.9970 Z-20.0000 F5000
G1 X134.9987 Y963.9970 Z-20.0000 F5000
G1 X134.9987 Y965.9990 Z-20.0000 F5000
G1 X139.9987 Y965.9990 Z-20.0000 F5000
G1 X139.9987 Y1193.9966 Z-20.0000 F5000
G1 X134.9987 Y1193.9966 Z-20.0000 F5000
G1 X134.9987 Y1195.9986 Z-20.0000 F5000
G1 X152.6562 Y1195.9986 Z-20.0000 F5000
G1 X157.9986 Y1201.3411 Z-20.0000 F5000
G1 X157.9986 Y1258.6539 Z-20.0000 F5000
G1 X152.6562 Y1263.9964 Z-20.0000 F5000
G1 X134.9987 Y1263.9964 Z-20.0000 F5000
G1 X134.9987 Y1265.9984 Z-20.0000 F5000
G1 X139.9987 Y1265.9984 Z-20.0000 F5000
G1 X139.9987 Y1383.9963 Z-20.0000 F5000
G1 X117.0011 Y1383.9963 Z-20.0000 F5000
G1 X117.0011 Y1385.9983 Z-20.0000 F5000
G1 X122.0012 Y1385.9983 Z-20.0000 F5000
G1 X121.9987 Y1493.9959 Z-20.0000 F5000
G1 X116.9988 Y1493.9959 Z-20.0000 F5000
G1 X116.9988 Y1495.9979 Z-20.0000 F5000
G1 X152.6562 Y1495.9979 Z-20.0000 F5000
G1 X157.9986 Y1501.3405 Z-20.0000 F5000
G1 X157.9986 Y1558.6532 Z-20.0000 F5000
G1 X152.6562 Y1563.9958 Z-20.0000 F5000
G1 X116.9988 Y1563.9958 Z-20.0000 F5000
G1 X116.9988 Y1565.9978 Z-20.0000 F5000
G1 X121.9988 Y1565.9978 Z-20.0000 F5000
G1 X121.9988 Y1793.9953 Z-20.0000 F5000
G1 X116.9988 Y1793.9953 Z-20.0000 F5000
G1 X116.9988 Y1795.9973 Z-20.0000 F5000
G1 X152.6562 Y1795.9973 Z-20.0000 F5000
G1 X157.9986 Y1801.3399 Z-20.0000 F5000
G1 X157.9986 Y1858.6528 Z-20.0000 F5000
G1 X152.6562 Y1863.9953 Z-20.0000 F5000
G1 X116.9988 Y1863.9953 Z-20.0000 F5000
G1 X116.9988 Y1865.9972 Z-20.0000 F5000
G1 X121.9988 Y1865.9972 Z-20.0000 F5000
G1 X121.9988 Y1995.4950 Z-20.0000 F5000
G1 X36.0009 Y1995.4950 Z-20.0000 F5000
G1 X36.0009 Y1865.9972 Z-20.0000 F5000
G1 X41.0009 Y1865.9972 Z-20.0000 F5000
G1 X41.0009 Y1863.9953 Z-20.0000 F5000
G1 X5.3435 Y1863.9953 Z-20.0000 F5000
G1 X0.0010 Y1858.6528 Z-20.0000 F5000
G1 X0.0010 Y1801.3399 Z-20.0000 F5000
G1 X5.3435 Y1795.9973 Z-20.0000 F5000
G1 X41.0009 Y1795.9973 Z-20.0000 F5000
G1 X41.0009 Y1793.9953 Z-20.0000 F5000
G1 X36.0009 Y1793.9953 Z-20.0000 F5000
G1 X36.0009 Y1565.9978 Z-20.0000 F5000
G1 X41.0009 Y1565.9978 Z-20.0000 F5000
G1 X41.0009 Y1563.9958 Z-20.0000 F5000
G1 X5.3435 Y1563.9958 Z-20.0000 F5000
G1 X0.0010 Y1558.6532 Z-20.0000 F5000
G1 X0.0010 Y1501.3405 Z-20.0000 F5000
G1 X5.3435 Y1495.9979 Z-20.0000 F5000
G1 X41.0009 Y1495.9979 Z-20.0000 F5000
G1 X41.0009 Y1493.9959 Z-20.0000 F5000
G1 X36.0009 Y1493.9959 Z-20.0000 F5000
G1 X36.0009 Y1385.9983 Z-20.0000 F5000
G1 X41.0009 Y1385.9983 Z-20.0000 F5000
G1 X41.0009 Y1383.9963 Z-20.0000 F5000
G1 X18.0009 Y1383.9963 Z-20.0000 F5000
G1 X18.0009 Y1265.9984 Z-20.0000 F5000
G1 X23.0009 Y1265.9984 Z-20.0000 F5000
G1 X23.0009 Y1263.9964 Z-20.0000 F5000
G1 X5.3435 Y1263.9964 Z-20.0000 F5000
G1 X0.0010 Y1258.6539 Z-20.0000 F5000
G1 X0.0010 Y1201.3411 Z-20.0000 F5000
G1 X5.3435 Y1195.9986 Z-20.0000 F5000
G1 X23.0009 Y1195.9986 Z-20.0000 F5000
G1 X23.0009 Y1193.9966 Z-20.0000 F5000
G1 X18.0009 Y1193.9966 Z-20.0000 F5000
G1 X18.0009 Y1079.9978 Z-20.0000 F5000
G1 X18.0009 Y1055.9978 Z-20.0000 F5000
G1 X17.9922 Y1054.9978 Z-20.0000 F5000
G1 X17.9922 Y1054.9978 Z10.0000 F9999
G1 X1900.0000 Y2800.0000 Z80.0000 F9999
G1 Z80.0000 F9999
G1 X1900.0000 Y2800.0000 F9999
M5
M30
