(plotsheet 2n3_nested_153 sheets_final v1_0_sheet 143a_S143.1_text_CC8 - stepover 1mm)
(Material Size) (X=1220.000, Y=2440.000, Z=20.000)
(LinuxCNC_NoArcs_MM_TC_medium_50um_G1_verbose.con)
G90 G80 G21 G49
G64 P0.050
M6 T1
(Tool Number:1) (7.998 mm dia. slot drill)
G43 H1 G0Z80.0000
M3 S18000
G04 P10
G1 X86.1695 Y921.0885 Z10.0000 F9999
G1 X86.1695 Y921.0885 Z-1.0000 F2500
G1 X86.1695 Y935.5289 Z-1.0000 F4000
G1 X86.1695 Y921.0885 Z-1.0000 F4000
G1 X67.8760 Y921.0885 Z-1.0000 F4000
G1 X67.8760 Y936.2078 Z-1.0000 F4000
G1 X67.8760 Y921.0885 Z-1.0000 F4000
G1 X108.9769 Y921.0885 Z-1.0000 F4000
G1 X108.9769 Y921.0885 Z10.0000 F9999
G1 X108.9769 Y951.6206 Z10.0000 F9999
G1 X108.9769 Y951.6206 Z-1.0000 F2500
G1 X67.8760 Y951.6206 Z-1.0000 F4000
G1 X67.8760 Y958.7766 Z-1.0000 F4000
G1 X68.4815 Y962.6482 Z-1.0000 F4000
G1 X70.2980 Y965.8592 Z-1.0000 F4000
G1 X73.4540 Y968.0794 Z-1.0000 F4000
G1 X78.0962 Y968.9234 Z-1.0000 F4000
G1 X82.7751 Y967.7674 Z-1.0000 F4000
G1 X86.0962 Y964.9968 Z-1.0000 F4000
G1 X88.0595 Y961.6757 Z-1.0000 F4000
G1 X88.7200 Y958.7766 Z-1.0000 F4000
G1 X88.7200 Y951.6206 Z-1.0000 F4000
G1 X88.7200 Y958.7766 Z-1.0000 F4000
G1 X88.0595 Y961.6757 Z-1.0000 F4000
G1 X86.0962 Y964.9968 Z-1.0000 F4000
G1 X82.7751 Y967.7674 Z-1.0000 F4000
G1 X78.0962 Y968.9234 Z-1.0000 F4000
G1 X73.4540 Y968.0794 Z-1.0000 F4000
G1 X70.2980 Y965.8592 Z-1.0000 F4000
G1 X68.4815 Y962.6482 Z-1.0000 F4000
G1 X67.8760 Y958.7766 Z-1.0000 F4000
G1 X67.8760 Y951.6206 Z-1.0000 F4000
G1 X67.8760 Y951.6206 Z10.0000 F9999
G1 X67.8760 Y995.7307 Z10.0000 F9999
G1 X67.8760 Y995.7307 Z-1.0000 F2500
G1 X108.9769 Y1011.7858 Z-1.0000 F4000
G1 X67.8760 Y995.7307 Z-1.0000 F4000
G1 X108.9769 Y979.7124 Z-1.0000 F4000
G1 X108.9769 Y979.7124 Z10.0000 F9999
G1 X108.9769 Y969.0335 Z10.0000 F9999
G1 X108.9769 Y969.0335 Z-1.0000 F2500
G1 X88.8301 Y955.8041 Z-1.0000 F4000
G1 X108.9769 Y969.0335 Z-1.0000 F4000
G1 X108.9769 Y969.0335 Z10.0000 F9999
G1 X94.2796 Y1006.0427 Z10.0000 F9999
G1 X94.2796 Y1006.0427 Z-1.0000 F2500
G1 X94.2796 Y985.3454 Z-1.0000 F4000
G1 X94.2796 Y1006.0427 Z-1.0000 F4000
G1 X94.2796 Y1006.0427 Z10.0000 F9999
G1 X84.3163 Y1052.4096 Z10.0000 F9999
G1 X84.3163 Y1052.4096 Z-1.0000 F2500
G1 X84.3163 Y1023.1619 Z-1.0000 F4000
G1 X84.3163 Y1052.4096 Z-1.0000 F4000
G1 X84.3163 Y1052.4096 Z10.0000 F9999
G1 X67.8760 Y1079.1069 Z10.0000 F9999
G1 X67.8760 Y1079.1069 Z-1.0000 F2500
G1 X108.9769 Y1095.1619 Z-1.0000 F4000
G1 X67.8760 Y1079.1069 Z-1.0000 F4000
G1 X108.9769 Y1063.0885 Z-1.0000 F4000
G1 X108.9769 Y1063.0885 Z10.0000 F9999
G1 X94.2796 Y1089.4188 Z10.0000 F9999
G1 X94.2796 Y1089.4188 Z-1.0000 F2500
G1 X94.2796 Y1068.7216 Z-1.0000 F4000
G1 X94.2796 Y1089.4188 Z-1.0000 F4000
G1 X94.2796 Y1089.4188 Z10.0000 F9999
G1 X102.1512 Y1147.6390 Z10.0000 F9999
G1 X102.1512 Y1147.6390 Z-1.0000 F2500
G1 X105.1971 Y1149.5840 Z-1.0000 F4000
G1 X107.2521 Y1152.0060 Z-1.0000 F4000
G1 X108.4998 Y1155.1252 Z-1.0000 F4000
G1 X108.9769 Y1159.2537 Z-1.0000 F4000
G1 X108.5182 Y1163.7491 Z-1.0000 F4000
G1 X106.7751 Y1167.5656 Z-1.0000 F4000
G1 X103.7842 Y1170.2445 Z-1.0000 F4000
G1 X99.6191 Y1171.3638 Z-1.0000 F4000
G1 X95.6191 Y1170.8317 Z-1.0000 F4000
G1 X92.9402 Y1169.2904 Z-1.0000 F4000
G1 X91.2521 Y1167.2537 Z-1.0000 F4000
G1 X90.1512 Y1165.3454 Z-1.0000 F4000
G1 X85.4173 Y1156.1528 Z-1.0000 F4000
G1 X84.0044 Y1153.7858 Z-1.0000 F4000
G1 X82.3530 Y1151.9326 Z-1.0000 F4000
G1 X80.1695 Y1150.6849 Z-1.0000 F4000
G1 X77.2888 Y1150.1711 Z-1.0000 F4000
G1 X74.0044 Y1150.7032 Z-1.0000 F4000
G1 X70.9769 Y1152.5381 Z-1.0000 F4000
G1 X68.7567 Y1155.6757 Z-1.0000 F4000
G1 X67.8760 Y1160.0427 Z-1.0000 F4000
G1 X68.5549 Y1164.2995 Z-1.0000 F4000
G1 X70.0228 Y1167.1436 Z-1.0000 F4000
G1 X72.1695 Y1169.2353 Z-1.0000 F4000
G1 X70.0228 Y1167.1436 Z-1.0000 F4000
G1 X68.5549 Y1164.2995 Z-1.0000 F4000
G1 X67.8760 Y1160.0427 Z-1.0000 F4000
G1 X68.7567 Y1155.6757 Z-1.0000 F4000
G1 X70.9769 Y1152.5381 Z-1.0000 F4000
G1 X74.0044 Y1150.7032 Z-1.0000 F4000
G1 X77.2888 Y1150.1711 Z-1.0000 F4000
G1 X80.1695 Y1150.6849 Z-1.0000 F4000
G1 X82.3530 Y1151.9326 Z-1.0000 F4000
G1 X84.0044 Y1153.7858 Z-1.0000 F4000
G1 X85.4173 Y1156.1528 Z-1.0000 F4000
G1 X90.1512 Y1165.3454 Z-1.0000 F4000
G1 X91.2521 Y1167.2537 Z-1.0000 F4000
G1 X92.9402 Y1169.2904 Z-1.0000 F4000
G1 X95.6191 Y1170.8317 Z-1.0000 F4000
G1 X99.6191 Y1171.3638 Z-1.0000 F4000
G1 X103.7842 Y1170.2445 Z-1.0000 F4000
G1 X106.7751 Y1167.5656 Z-1.0000 F4000
G1 X108.5182 Y1163.7491 Z-1.0000 F4000
G1 X108.9769 Y1159.2537 Z-1.0000 F4000
G1 X108.4998 Y1155.1252 Z-1.0000 F4000
G1 X107.2521 Y1152.0060 Z-1.0000 F4000
G1 X105.1971 Y1149.5840 Z-1.0000 F4000
G1 X105.1971 Y1149.5840 Z10.0000 F9999
G1 X103.4540 Y1182.8684 Z10.0000 F9999
G1 X103.4540 Y1182.8684 Z-1.0000 F2500
G1 X104.7200 Y1184.1161 Z-1.0000 F4000
G1 X106.5365 Y1186.4463 Z-1.0000 F4000
G1 X108.1879 Y1189.9142 Z-1.0000 F4000
G1 X108.9769 Y1194.6482 Z-1.0000 F4000
G1 X107.7842 Y1199.8041 Z-1.0000 F4000
G1 X104.4631 Y1204.1711 Z-1.0000 F4000
G1 X99.5457 Y1207.2170 Z-1.0000 F4000
G1 X93.6007 Y1208.3546 Z-1.0000 F4000
G1 X88.0595 Y1207.0151 Z-1.0000 F4000
G1 X84.0228 Y1203.7674 Z-1.0000 F4000
G1 X81.6007 Y1199.7124 Z-1.0000 F4000
G1 X80.7934 Y1195.9509 Z-1.0000 F4000
G1 X80.7934 Y1193.8041 Z-1.0000 F4000
G1 X81.1971 Y1191.5473 Z-1.0000 F4000
G1 X82.0962 Y1188.9051 Z-1.0000 F4000
G1 X66.7017 Y1194.5381 Z-1.0000 F4000
G1 X66.7017 Y1208.7399 Z-1.0000 F4000
G1 X66.7017 Y1194.5381 Z-1.0000 F4000
G1 X82.0962 Y1188.9051 Z-1.0000 F4000
G1 X81.1971 Y1191.5473 Z-1.0000 F4000
G1 X80.7934 Y1193.8041 Z-1.0000 F4000
G1 X80.7934 Y1195.9509 Z-1.0000 F4000
G1 X81.6007 Y1199.7124 Z-1.0000 F4000
G1 X84.0228 Y1203.7674 Z-1.0000 F4000
G1 X88.0595 Y1207.0151 Z-1.0000 F4000
G1 X93.6007 Y1208.3546 Z-1.0000 F4000
G1 X99.5457 Y1207.2170 Z-1.0000 F4000
G1 X104.4631 Y1204.1711 Z-1.0000 F4000
G1 X107.7842 Y1199.8041 Z-1.0000 F4000
G1 X108.9769 Y1194.6482 Z-1.0000 F4000
G1 X108.1879 Y1189.9142 Z-1.0000 F4000
G1 X106.5365 Y1186.4463 Z-1.0000 F4000
G1 X104.7200 Y1184.1161 Z-1.0000 F4000
G1 X104.7200 Y1184.1161 Z10.0000 F9999
G1 X58.4815 Y1136.9234 Z10.0000 F9999
G1 X58.4815 Y1136.9234 Z-1.0000 F2500
G1 X111.3255 Y1106.5381 Z-1.0000 F4000
G1 X58.4815 Y1136.9234 Z-1.0000 F4000
G1 X58.4815 Y1136.9234 Z10.0000 F9999
G1 X58.4815 Y1249.6573 Z10.0000 F9999
G1 X58.4815 Y1249.6573 Z-1.0000 F2500
G1 X111.3255 Y1219.2720 Z-1.0000 F4000
G1 X58.4815 Y1249.6573 Z-1.0000 F4000
G1 X58.4815 Y1249.6573 Z10.0000 F9999
G1 X67.8760 Y1265.1619 Z10.0000 F9999
G1 X67.8760 Y1265.1619 Z-1.0000 F2500
G1 X108.9769 Y1265.1619 Z-1.0000 F4000
G1 X67.8760 Y1265.1619 Z-1.0000 F4000
G1 X67.8760 Y1265.1619 Z10.0000 F9999
G1 X67.8760 Y1285.1252 Z10.0000 F9999
G1 X67.8760 Y1285.1252 Z-1.0000 F2500
G1 X108.9769 Y1322.2262 Z-1.0000 F4000
G1 X67.8760 Y1322.2262 Z-1.0000 F4000
G1 X108.9769 Y1322.2262 Z-1.0000 F4000
G1 X67.8760 Y1285.1252 Z-1.0000 F4000
G1 X108.9769 Y1285.1252 Z-1.0000 F4000
G1 X108.9769 Y1285.1252 Z10.0000 F9999
G1 X225.5157 Y1249.6573 Z10.0000 F9999
G1 X225.5157 Y1249.6573 Z-1.0000 F2500
G1 X278.3598 Y1219.2720 Z-1.0000 F4000
G1 X225.5157 Y1249.6573 Z-1.0000 F4000
G1 X225.5157 Y1249.6573 Z10.0000 F9999
G1 X234.9102 Y1265.1619 Z10.0000 F9999
G1 X234.9102 Y1265.1619 Z-1.0000 F2500
G1 X276.0112 Y1265.1619 Z-1.0000 F4000
G1 X234.9102 Y1265.1619 Z-1.0000 F4000
G1 X234.9102 Y1265.1619 Z10.0000 F9999
G1 X234.9102 Y1285.1252 Z10.0000 F9999
G1 X234.9102 Y1285.1252 Z-1.0000 F2500
G1 X276.0112 Y1322.2262 Z-1.0000 F4000
G1 X234.9102 Y1322.2262 Z-1.0000 F4000
G1 X276.0112 Y1322.2262 Z-1.0000 F4000
G1 X234.9102 Y1285.1252 Z-1.0000 F4000
G1 X276.0112 Y1285.1252 Z-1.0000 F4000
G1 X276.0112 Y1285.1252 Z10.0000 F9999
G1 X270.4882 Y1182.8684 Z10.0000 F9999
G1 X270.4882 Y1182.8684 Z-1.0000 F2500
G1 X271.7543 Y1184.1161 Z-1.0000 F4000
G1 X273.5708 Y1186.4463 Z-1.0000 F4000
G1 X275.2222 Y1189.9142 Z-1.0000 F4000
G1 X276.0112 Y1194.6482 Z-1.0000 F4000
G1 X274.8185 Y1199.8041 Z-1.0000 F4000
G1 X271.4974 Y1204.1711 Z-1.0000 F4000
G1 X266.5800 Y1207.2170 Z-1.0000 F4000
G1 X260.6350 Y1208.3546 Z-1.0000 F4000
G1 X255.0937 Y1207.0151 Z-1.0000 F4000
G1 X251.0570 Y1203.7674 Z-1.0000 F4000
G1 X248.6350 Y1199.7124 Z-1.0000 F4000
G1 X247.8277 Y1195.9509 Z-1.0000 F4000
G1 X247.8277 Y1193.8041 Z-1.0000 F4000
G1 X248.2313 Y1191.5473 Z-1.0000 F4000
G1 X249.1304 Y1188.9051 Z-1.0000 F4000
G1 X233.7359 Y1194.5381 Z-1.0000 F4000
G1 X233.7359 Y1208.7399 Z-1.0000 F4000
G1 X233.7359 Y1194.5381 Z-1.0000 F4000
G1 X249.1304 Y1188.9051 Z-1.0000 F4000
G1 X248.2313 Y1191.5473 Z-1.0000 F4000
G1 X247.8277 Y1193.8041 Z-1.0000 F4000
G1 X247.8277 Y1195.9509 Z-1.0000 F4000
G1 X248.6350 Y1199.7124 Z-1.0000 F4000
G1 X251.0570 Y1203.7674 Z-1.0000 F4000
G1 X255.0937 Y1207.0151 Z-1.0000 F4000
G1 X260.6350 Y1208.3546 Z-1.0000 F4000
G1 X266.5800 Y1207.2170 Z-1.0000 F4000
G1 X271.4974 Y1204.1711 Z-1.0000 F4000
G1 X274.8185 Y1199.8041 Z-1.0000 F4000
G1 X276.0112 Y1194.6482 Z-1.0000 F4000
G1 X275.2222 Y1189.9142 Z-1.0000 F4000
G1 X273.5708 Y1186.4463 Z-1.0000 F4000
G1 X271.7543 Y1184.1161 Z-1.0000 F4000
G1 X271.7543 Y1184.1161 Z10.0000 F9999
G1 X269.1855 Y1147.6390 Z10.0000 F9999
G1 X269.1855 Y1147.6390 Z-1.0000 F2500
G1 X272.2313 Y1149.5840 Z-1.0000 F4000
G1 X274.2864 Y1152.0060 Z-1.0000 F4000
G1 X275.5341 Y1155.1252 Z-1.0000 F4000
G1 X276.0112 Y1159.2537 Z-1.0000 F4000
G1 X275.5524 Y1163.7491 Z-1.0000 F4000
G1 X273.8093 Y1167.5656 Z-1.0000 F4000
G1 X270.8185 Y1170.2445 Z-1.0000 F4000
G1 X266.6534 Y1171.3638 Z-1.0000 F4000
G1 X262.6534 Y1170.8317 Z-1.0000 F4000
G1 X259.9745 Y1169.2904 Z-1.0000 F4000
G1 X258.2864 Y1167.2537 Z-1.0000 F4000
G1 X257.1855 Y1165.3454 Z-1.0000 F4000
G1 X252.4515 Y1156.1528 Z-1.0000 F4000
G1 X251.0387 Y1153.7858 Z-1.0000 F4000
G1 X249.3873 Y1151.9326 Z-1.0000 F4000
G1 X247.2038 Y1150.6849 Z-1.0000 F4000
G1 X244.3231 Y1150.1711 Z-1.0000 F4000
G1 X241.0387 Y1150.7032 Z-1.0000 F4000
G1 X238.0112 Y1152.5381 Z-1.0000 F4000
G1 X235.7910 Y1155.6757 Z-1.0000 F4000
G1 X234.9102 Y1160.0427 Z-1.0000 F4000
G1 X235.5891 Y1164.2995 Z-1.0000 F4000
G1 X237.0570 Y1167.1436 Z-1.0000 F4000
G1 X239.2038 Y1169.2353 Z-1.0000 F4000
G1 X237.0570 Y1167.1436 Z-1.0000 F4000
G1 X235.5891 Y1164.2995 Z-1.0000 F4000
G1 X234.9102 Y1160.0427 Z-1.0000 F4000
G1 X235.7910 Y1155.6757 Z-1.0000 F4000
G1 X238.0112 Y1152.5381 Z-1.0000 F4000
G1 X241.0387 Y1150.7032 Z-1.0000 F4000
G1 X244.3231 Y1150.1711 Z-1.0000 F4000
G1 X247.2038 Y1150.6849 Z-1.0000 F4000
G1 X249.3873 Y1151.9326 Z-1.0000 F4000
G1 X251.0387 Y1153.7858 Z-1.0000 F4000
G1 X252.4515 Y1156.1528 Z-1.0000 F4000
G1 X257.1855 Y1165.3454 Z-1.0000 F4000
G1 X258.2864 Y1167.2537 Z-1.0000 F4000
G1 X259.9745 Y1169.2904 Z-1.0000 F4000
G1 X262.6534 Y1170.8317 Z-1.0000 F4000
G1 X266.6534 Y1171.3638 Z-1.0000 F4000
G1 X270.8185 Y1170.2445 Z-1.0000 F4000
G1 X273.8093 Y1167.5656 Z-1.0000 F4000
G1 X275.5524 Y1163.7491 Z-1.0000 F4000
G1 X276.0112 Y1159.2537 Z-1.0000 F4000
G1 X275.5341 Y1155.1252 Z-1.0000 F4000
G1 X274.2864 Y1152.0060 Z-1.0000 F4000
G1 X272.2313 Y1149.5840 Z-1.0000 F4000
G1 X272.2313 Y1149.5840 Z10.0000 F9999
G1 X225.5157 Y1136.9234 Z10.0000 F9999
G1 X225.5157 Y1136.9234 Z-1.0000 F2500
G1 X278.3598 Y1106.5381 Z-1.0000 F4000
G1 X225.5157 Y1136.9234 Z-1.0000 F4000
G1 X225.5157 Y1136.9234 Z10.0000 F9999
G1 X234.9102 Y1079.1069 Z10.0000 F9999
G1 X234.9102 Y1079.1069 Z-1.0000 F2500
G1 X276.0112 Y1095.1619 Z-1.0000 F4000
G1 X234.9102 Y1079.1069 Z-1.0000 F4000
G1 X276.0112 Y1063.0885 Z-1.0000 F4000
G1 X276.0112 Y1063.0885 Z10.0000 F9999
G1 X251.3506 Y1052.4096 Z10.0000 F9999
G1 X251.3506 Y1052.4096 Z-1.0000 F2500
G1 X251.3506 Y1023.1619 Z-1.0000 F4000
G1 X251.3506 Y1052.4096 Z-1.0000 F4000
G1 X251.3506 Y1052.4096 Z10.0000 F9999
G1 X261.3139 Y1089.4188 Z10.0000 F9999
G1 X261.3139 Y1089.4188 Z-1.0000 F2500
G1 X261.3139 Y1068.7216 Z-1.0000 F4000
G1 X261.3139 Y1089.4188 Z-1.0000 F4000
G1 X261.3139 Y1089.4188 Z10.0000 F9999
G1 X261.3139 Y1006.0427 Z10.0000 F9999
G1 X261.3139 Y1006.0427 Z-1.0000 F2500
G1 X261.3139 Y985.3454 Z-1.0000 F4000
G1 X261.3139 Y1006.0427 Z-1.0000 F4000
G1 X261.3139 Y1006.0427 Z10.0000 F9999
G1 X234.9102 Y995.7307 Z10.0000 F9999
G1 X234.9102 Y995.7307 Z-1.0000 F2500
G1 X276.0112 Y1011.7858 Z-1.0000 F4000
G1 X234.9102 Y995.7307 Z-1.0000 F4000
G1 X276.0112 Y979.7124 Z-1.0000 F4000
G1 X276.0112 Y979.7124 Z10.0000 F9999
G1 X276.0112 Y969.0335 Z10.0000 F9999
G1 X276.0112 Y969.0335 Z-1.0000 F2500
G1 X255.8644 Y955.8041 Z-1.0000 F4000
G1 X276.0112 Y969.0335 Z-1.0000 F4000
G1 X276.0112 Y969.0335 Z10.0000 F9999
G1 X276.0112 Y951.6206 Z10.0000 F9999
G1 X276.0112 Y951.6206 Z-1.0000 F2500
G1 X234.9102 Y951.6206 Z-1.0000 F4000
G1 X234.9102 Y958.7766 Z-1.0000 F4000
G1 X235.5157 Y962.6482 Z-1.0000 F4000
G1 X237.3323 Y965.8592 Z-1.0000 F4000
G1 X240.4882 Y968.0794 Z-1.0000 F4000
G1 X245.1304 Y968.9234 Z-1.0000 F4000
G1 X249.8093 Y967.7674 Z-1.0000 F4000
G1 X253.1304 Y964.9968 Z-1.0000 F4000
G1 X255.0937 Y961.6757 Z-1.0000 F4000
G1 X255.7543 Y958.7766 Z-1.0000 F4000
G1 X255.7543 Y951.6206 Z-1.0000 F4000
G1 X255.7543 Y958.7766 Z-1.0000 F4000
G1 X255.0937 Y961.6757 Z-1.0000 F4000
G1 X253.1304 Y964.9968 Z-1.0000 F4000
G1 X249.8093 Y967.7674 Z-1.0000 F4000
G1 X245.1304 Y968.9234 Z-1.0000 F4000
G1 X240.4882 Y968.0794 Z-1.0000 F4000
G1 X237.3323 Y965.8592 Z-1.0000 F4000
G1 X235.5157 Y962.6482 Z-1.0000 F4000
G1 X234.9102 Y958.7766 Z-1.0000 F4000
G1 X234.9102 Y951.6206 Z-1.0000 F4000
G1 X234.9102 Y951.6206 Z10.0000 F9999
G1 X253.2038 Y921.0885 Z10.0000 F9999
G1 X253.2038 Y921.0885 Z-1.0000 F2500
G1 X253.2038 Y935.5289 Z-1.0000 F4000
G1 X253.2038 Y921.0885 Z-1.0000 F4000
G1 X234.9102 Y921.0885 Z-1.0000 F4000
G1 X234.9102 Y936.2078 Z-1.0000 F4000
G1 X234.9102 Y921.0885 Z-1.0000 F4000
G1 X276.0112 Y921.0885 Z-1.0000 F4000
G1 X276.0112 Y921.0885 Z10.0000 F9999
G1 X427.4895 Y921.0885 Z10.0000 F9999
G1 X427.4895 Y921.0885 Z-1.0000 F2500
G1 X427.4895 Y935.5289 Z-1.0000 F4000
G1 X427.4895 Y921.0885 Z-1.0000 F4000
G1 X409.1960 Y921.0885 Z-1.0000 F4000
G1 X409.1960 Y936.2078 Z-1.0000 F4000
G1 X409.1960 Y921.0885 Z-1.0000 F4000
G1 X450.2969 Y921.0885 Z-1.0000 F4000
G1 X450.2969 Y921.0885 Z10.0000 F9999
G1 X450.2969 Y951.6206 Z10.0000 F9999
G1 X450.2969 Y951.6206 Z-1.0000 F2500
G1 X409.1960 Y951.6206 Z-1.0000 F4000
G1 X409.1960 Y958.7766 Z-1.0000 F4000
G1 X409.8015 Y962.6482 Z-1.0000 F4000
G1 X411.6180 Y965.8592 Z-1.0000 F4000
G1 X414.7739 Y968.0794 Z-1.0000 F4000
G1 X419.4161 Y968.9234 Z-1.0000 F4000
G1 X424.0950 Y967.7674 Z-1.0000 F4000
G1 X427.4161 Y964.9968 Z-1.0000 F4000
G1 X429.3794 Y961.6757 Z-1.0000 F4000
G1 X430.0400 Y958.7766 Z-1.0000 F4000
G1 X430.0400 Y951.6206 Z-1.0000 F4000
G1 X430.0400 Y958.7766 Z-1.0000 F4000
G1 X429.3794 Y961.6757 Z-1.0000 F4000
G1 X427.4161 Y964.9968 Z-1.0000 F4000
G1 X424.0950 Y967.7674 Z-1.0000 F4000
G1 X419.4161 Y968.9234 Z-1.0000 F4000
G1 X414.7739 Y968.0794 Z-1.0000 F4000
G1 X411.6180 Y965.8592 Z-1.0000 F4000
G1 X409.8015 Y962.6482 Z-1.0000 F4000
G1 X409.1960 Y958.7766 Z-1.0000 F4000
G1 X409.1960 Y951.6206 Z-1.0000 F4000
G1 X409.1960 Y951.6206 Z10.0000 F9999
G1 X409.1960 Y995.7307 Z10.0000 F9999
G1 X409.1960 Y995.7307 Z-1.0000 F2500
G1 X450.2969 Y1011.7858 Z-1.0000 F4000
G1 X409.1960 Y995.7307 Z-1.0000 F4000
G1 X450.2969 Y979.7124 Z-1.0000 F4000
G1 X450.2969 Y979.7124 Z10.0000 F9999
G1 X450.2969 Y969.0335 Z10.0000 F9999
G1 X450.2969 Y969.0335 Z-1.0000 F2500
G1 X430.1501 Y955.8041 Z-1.0000 F4000
G1 X450.2969 Y969.0335 Z-1.0000 F4000
G1 X450.2969 Y969.0335 Z10.0000 F9999
G1 X435.5996 Y1006.0427 Z10.0000 F9999
G1 X435.5996 Y1006.0427 Z-1.0000 F2500
G1 X435.5996 Y985.3454 Z-1.0000 F4000
G1 X435.5996 Y1006.0427 Z-1.0000 F4000
G1 X435.5996 Y1006.0427 Z10.0000 F9999
G1 X425.6363 Y1052.4096 Z10.0000 F9999
G1 X425.6363 Y1052.4096 Z-1.0000 F2500
G1 X425.6363 Y1023.1619 Z-1.0000 F4000
G1 X425.6363 Y1052.4096 Z-1.0000 F4000
G1 X425.6363 Y1052.4096 Z10.0000 F9999
G1 X409.1960 Y1079.1069 Z10.0000 F9999
G1 X409.1960 Y1079.1069 Z-1.0000 F2500
G1 X450.2969 Y1095.1619 Z-1.0000 F4000
G1 X409.1960 Y1079.1069 Z-1.0000 F4000
G1 X450.2969 Y1063.0885 Z-1.0000 F4000
G1 X450.2969 Y1063.0885 Z10.0000 F9999
G1 X435.5996 Y1089.4188 Z10.0000 F9999
G1 X435.5996 Y1089.4188 Z-1.0000 F2500
G1 X435.5996 Y1068.7216 Z-1.0000 F4000
G1 X435.5996 Y1089.4188 Z-1.0000 F4000
G1 X435.5996 Y1089.4188 Z10.0000 F9999
G1 X443.4712 Y1147.6390 Z10.0000 F9999
G1 X443.4712 Y1147.6390 Z-1.0000 F2500
G1 X446.5171 Y1149.5840 Z-1.0000 F4000
G1 X448.5721 Y1152.0060 Z-1.0000 F4000
G1 X449.8198 Y1155.1252 Z-1.0000 F4000
G1 X450.2969 Y1159.2537 Z-1.0000 F4000
G1 X449.8382 Y1163.7491 Z-1.0000 F4000
G1 X448.0950 Y1167.5656 Z-1.0000 F4000
G1 X445.1042 Y1170.2445 Z-1.0000 F4000
G1 X440.9391 Y1171.3638 Z-1.0000 F4000
G1 X436.9391 Y1170.8317 Z-1.0000 F4000
G1 X434.2602 Y1169.2904 Z-1.0000 F4000
G1 X432.5721 Y1167.2537 Z-1.0000 F4000
G1 X431.4712 Y1165.3454 Z-1.0000 F4000
G1 X426.7372 Y1156.1528 Z-1.0000 F4000
G1 X425.3244 Y1153.7858 Z-1.0000 F4000
G1 X423.6730 Y1151.9326 Z-1.0000 F4000
G1 X421.4895 Y1150.6849 Z-1.0000 F4000
G1 X418.6088 Y1150.1711 Z-1.0000 F4000
G1 X415.3244 Y1150.7032 Z-1.0000 F4000
G1 X412.2969 Y1152.5381 Z-1.0000 F4000
G1 X410.0767 Y1155.6757 Z-1.0000 F4000
G1 X409.1960 Y1160.0427 Z-1.0000 F4000
G1 X409.8749 Y1164.2995 Z-1.0000 F4000
G1 X411.3427 Y1167.1436 Z-1.0000 F4000
G1 X413.4895 Y1169.2353 Z-1.0000 F4000
G1 X411.3427 Y1167.1436 Z-1.0000 F4000
G1 X409.8749 Y1164.2995 Z-1.0000 F4000
G1 X409.1960 Y1160.0427 Z-1.0000 F4000
G1 X410.0767 Y1155.6757 Z-1.0000 F4000
G1 X412.2969 Y1152.5381 Z-1.0000 F4000
G1 X415.3244 Y1150.7032 Z-1.0000 F4000
G1 X418.6088 Y1150.1711 Z-1.0000 F4000
G1 X421.4895 Y1150.6849 Z-1.0000 F4000
G1 X423.6730 Y1151.9326 Z-1.0000 F4000
G1 X425.3244 Y1153.7858 Z-1.0000 F4000
G1 X426.7372 Y1156.1528 Z-1.0000 F4000
G1 X431.4712 Y1165.3454 Z-1.0000 F4000
G1 X432.5721 Y1167.2537 Z-1.0000 F4000
G1 X434.2602 Y1169.2904 Z-1.0000 F4000
G1 X436.9391 Y1170.8317 Z-1.0000 F4000
G1 X440.9391 Y1171.3638 Z-1.0000 F4000
G1 X445.1042 Y1170.2445 Z-1.0000 F4000
G1 X448.0950 Y1167.5656 Z-1.0000 F4000
G1 X449.8382 Y1163.7491 Z-1.0000 F4000
G1 X450.2969 Y1159.2537 Z-1.0000 F4000
G1 X449.8198 Y1155.1252 Z-1.0000 F4000
G1 X448.5721 Y1152.0060 Z-1.0000 F4000
G1 X446.5171 Y1149.5840 Z-1.0000 F4000
G1 X446.5171 Y1149.5840 Z10.0000 F9999
G1 X444.7739 Y1182.8684 Z10.0000 F9999
G1 X444.7739 Y1182.8684 Z-1.0000 F2500
G1 X446.0400 Y1184.1161 Z-1.0000 F4000
G1 X447.8565 Y1186.4463 Z-1.0000 F4000
G1 X449.5079 Y1189.9142 Z-1.0000 F4000
G1 X450.2969 Y1194.6482 Z-1.0000 F4000
G1 X449.1042 Y1199.8041 Z-1.0000 F4000
G1 X445.7831 Y1204.1711 Z-1.0000 F4000
G1 X440.8657 Y1207.2170 Z-1.0000 F4000
G1 X434.9207 Y1208.3546 Z-1.0000 F4000
G1 X429.3794 Y1207.0151 Z-1.0000 F4000
G1 X425.3427 Y1203.7674 Z-1.0000 F4000
G1 X422.9207 Y1199.7124 Z-1.0000 F4000
G1 X422.1134 Y1195.9509 Z-1.0000 F4000
G1 X422.1134 Y1193.8041 Z-1.0000 F4000
G1 X422.5171 Y1191.5473 Z-1.0000 F4000
G1 X423.4161 Y1188.9051 Z-1.0000 F4000
G1 X408.0216 Y1194.5381 Z-1.0000 F4000
G1 X408.0216 Y1208.7399 Z-1.0000 F4000
G1 X408.0216 Y1194.5381 Z-1.0000 F4000
G1 X423.4161 Y1188.9051 Z-1.0000 F4000
G1 X422.5171 Y1191.5473 Z-1.0000 F4000
G1 X422.1134 Y1193.8041 Z-1.0000 F4000
G1 X422.1134 Y1195.9509 Z-1.0000 F4000
G1 X422.9207 Y1199.7124 Z-1.0000 F4000
G1 X425.3427 Y1203.7674 Z-1.0000 F4000
G1 X429.3794 Y1207.0151 Z-1.0000 F4000
G1 X434.9207 Y1208.3546 Z-1.0000 F4000
G1 X440.8657 Y1207.2170 Z-1.0000 F4000
G1 X445.7831 Y1204.1711 Z-1.0000 F4000
G1 X449.1042 Y1199.8041 Z-1.0000 F4000
G1 X450.2969 Y1194.6482 Z-1.0000 F4000
G1 X449.5079 Y1189.9142 Z-1.0000 F4000
G1 X447.8565 Y1186.4463 Z-1.0000 F4000
G1 X446.0400 Y1184.1161 Z-1.0000 F4000
G1 X446.0400 Y1184.1161 Z10.0000 F9999
G1 X399.8015 Y1136.9234 Z10.0000 F9999
G1 X399.8015 Y1136.9234 Z-1.0000 F2500
G1 X452.6455 Y1106.5381 Z-1.0000 F4000
G1 X399.8015 Y1136.9234 Z-1.0000 F4000
G1 X399.8015 Y1136.9234 Z10.0000 F9999
G1 X399.8015 Y1249.6573 Z10.0000 F9999
G1 X399.8015 Y1249.6573 Z-1.0000 F2500
G1 X452.6455 Y1219.2720 Z-1.0000 F4000
G1 X399.8015 Y1249.6573 Z-1.0000 F4000
G1 X399.8015 Y1249.6573 Z10.0000 F9999
G1 X409.1960 Y1265.1619 Z10.0000 F9999
G1 X409.1960 Y1265.1619 Z-1.0000 F2500
G1 X450.2969 Y1265.1619 Z-1.0000 F4000
G1 X409.1960 Y1265.1619 Z-1.0000 F4000
G1 X409.1960 Y1265.1619 Z10.0000 F9999
G1 X409.1960 Y1285.1252 Z10.0000 F9999
G1 X409.1960 Y1285.1252 Z-1.0000 F2500
G1 X450.2969 Y1322.2262 Z-1.0000 F4000
G1 X409.1960 Y1322.2262 Z-1.0000 F4000
G1 X450.2969 Y1322.2262 Z-1.0000 F4000
G1 X409.1960 Y1285.1252 Z-1.0000 F4000
G1 X450.2969 Y1285.1252 Z-1.0000 F4000
G1 X450.2969 Y1285.1252 Z10.0000 F9999
G1 X569.9829 Y1249.6573 Z10.0000 F9999
G1 X569.9829 Y1249.6573 Z-1.0000 F2500
G1 X622.8269 Y1219.2720 Z-1.0000 F4000
G1 X569.9829 Y1249.6573 Z-1.0000 F4000
G1 X569.9829 Y1249.6573 Z10.0000 F9999
G1 X579.3774 Y1265.1619 Z10.0000 F9999
G1 X579.3774 Y1265.1619 Z-1.0000 F2500
G1 X620.4783 Y1265.1619 Z-1.0000 F4000
G1 X579.3774 Y1265.1619 Z-1.0000 F4000
G1 X579.3774 Y1265.1619 Z10.0000 F9999
G1 X579.3774 Y1285.1252 Z10.0000 F9999
G1 X579.3774 Y1285.1252 Z-1.0000 F2500
G1 X620.4783 Y1322.2262 Z-1.0000 F4000
G1 X579.3774 Y1322.2262 Z-1.0000 F4000
G1 X620.4783 Y1322.2262 Z-1.0000 F4000
G1 X579.3774 Y1285.1252 Z-1.0000 F4000
G1 X620.4783 Y1285.1252 Z-1.0000 F4000
G1 X620.4783 Y1285.1252 Z10.0000 F9999
G1 X614.9553 Y1182.8684 Z10.0000 F9999
G1 X614.9553 Y1182.8684 Z-1.0000 F2500
G1 X616.2214 Y1184.1161 Z-1.0000 F4000
G1 X618.0379 Y1186.4463 Z-1.0000 F4000
G1 X619.6893 Y1189.9142 Z-1.0000 F4000
G1 X620.4783 Y1194.6482 Z-1.0000 F4000
G1 X619.2856 Y1199.8041 Z-1.0000 F4000
G1 X615.9645 Y1204.1711 Z-1.0000 F4000
G1 X611.0471 Y1207.2170 Z-1.0000 F4000
G1 X605.1021 Y1208.3546 Z-1.0000 F4000
G1 X599.5608 Y1207.0151 Z-1.0000 F4000
G1 X595.5241 Y1203.7674 Z-1.0000 F4000
G1 X593.1021 Y1199.7124 Z-1.0000 F4000
G1 X592.2948 Y1195.9509 Z-1.0000 F4000
G1 X592.2948 Y1193.8041 Z-1.0000 F4000
G1 X592.6985 Y1191.5473 Z-1.0000 F4000
G1 X593.5975 Y1188.9051 Z-1.0000 F4000
G1 X578.2030 Y1194.5381 Z-1.0000 F4000
G1 X578.2030 Y1208.7399 Z-1.0000 F4000
G1 X578.2030 Y1194.5381 Z-1.0000 F4000
G1 X593.5975 Y1188.9051 Z-1.0000 F4000
G1 X592.6985 Y1191.5473 Z-1.0000 F4000
G1 X592.2948 Y1193.8041 Z-1.0000 F4000
G1 X592.2948 Y1195.9509 Z-1.0000 F4000
G1 X593.1021 Y1199.7124 Z-1.0000 F4000
G1 X595.5241 Y1203.7674 Z-1.0000 F4000
G1 X599.5608 Y1207.0151 Z-1.0000 F4000
G1 X605.1021 Y1208.3546 Z-1.0000 F4000
G1 X611.0471 Y1207.2170 Z-1.0000 F4000
G1 X615.9645 Y1204.1711 Z-1.0000 F4000
G1 X619.2856 Y1199.8041 Z-1.0000 F4000
G1 X620.4783 Y1194.6482 Z-1.0000 F4000
G1 X619.6893 Y1189.9142 Z-1.0000 F4000
G1 X618.0379 Y1186.4463 Z-1.0000 F4000
G1 X616.2214 Y1184.1161 Z-1.0000 F4000
G1 X616.2214 Y1184.1161 Z10.0000 F9999
G1 X613.6526 Y1147.6390 Z10.0000 F9999
G1 X613.6526 Y1147.6390 Z-1.0000 F2500
G1 X616.6985 Y1149.5840 Z-1.0000 F4000
G1 X618.7535 Y1152.0060 Z-1.0000 F4000
G1 X620.0012 Y1155.1252 Z-1.0000 F4000
G1 X620.4783 Y1159.2537 Z-1.0000 F4000
G1 X620.0196 Y1163.7491 Z-1.0000 F4000
G1 X618.2764 Y1167.5656 Z-1.0000 F4000
G1 X615.2856 Y1170.2445 Z-1.0000 F4000
G1 X611.1205 Y1171.3638 Z-1.0000 F4000
G1 X607.1205 Y1170.8317 Z-1.0000 F4000
G1 X604.4416 Y1169.2904 Z-1.0000 F4000
G1 X602.7535 Y1167.2537 Z-1.0000 F4000
G1 X601.6526 Y1165.3454 Z-1.0000 F4000
G1 X596.9186 Y1156.1528 Z-1.0000 F4000
G1 X595.5058 Y1153.7858 Z-1.0000 F4000
G1 X593.8544 Y1151.9326 Z-1.0000 F4000
G1 X591.6709 Y1150.6849 Z-1.0000 F4000
G1 X588.7902 Y1150.1711 Z-1.0000 F4000
G1 X585.5058 Y1150.7032 Z-1.0000 F4000
G1 X582.4783 Y1152.5381 Z-1.0000 F4000
G1 X580.2581 Y1155.6757 Z-1.0000 F4000
G1 X579.3774 Y1160.0427 Z-1.0000 F4000
G1 X580.0563 Y1164.2995 Z-1.0000 F4000
G1 X581.5241 Y1167.1436 Z-1.0000 F4000
G1 X583.6709 Y1169.2353 Z-1.0000 F4000
G1 X581.5241 Y1167.1436 Z-1.0000 F4000
G1 X580.0563 Y1164.2995 Z-1.0000 F4000
G1 X579.3774 Y1160.0427 Z-1.0000 F4000
G1 X580.2581 Y1155.6757 Z-1.0000 F4000
G1 X582.4783 Y1152.5381 Z-1.0000 F4000
G1 X585.5058 Y1150.7032 Z-1.0000 F4000
G1 X588.7902 Y1150.1711 Z-1.0000 F4000
G1 X591.6709 Y1150.6849 Z-1.0000 F4000
G1 X593.8544 Y1151.9326 Z-1.0000 F4000
G1 X595.5058 Y1153.7858 Z-1.0000 F4000
G1 X596.9186 Y1156.1528 Z-1.0000 F4000
G1 X601.6526 Y1165.3454 Z-1.0000 F4000
G1 X602.7535 Y1167.2537 Z-1.0000 F4000
G1 X604.4416 Y1169.2904 Z-1.0000 F4000
G1 X607.1205 Y1170.8317 Z-1.0000 F4000
G1 X611.1205 Y1171.3638 Z-1.0000 F4000
G1 X615.2856 Y1170.2445 Z-1.0000 F4000
G1 X618.2764 Y1167.5656 Z-1.0000 F4000
G1 X620.0196 Y1163.7491 Z-1.0000 F4000
G1 X620.4783 Y1159.2537 Z-1.0000 F4000
G1 X620.0012 Y1155.1252 Z-1.0000 F4000
G1 X618.7535 Y1152.0060 Z-1.0000 F4000
G1 X616.6985 Y1149.5840 Z-1.0000 F4000
G1 X616.6985 Y1149.5840 Z10.0000 F9999
G1 X569.9829 Y1136.9234 Z10.0000 F9999
G1 X569.9829 Y1136.9234 Z-1.0000 F2500
G1 X622.8269 Y1106.5381 Z-1.0000 F4000
G1 X569.9829 Y1136.9234 Z-1.0000 F4000
G1 X569.9829 Y1136.9234 Z10.0000 F9999
G1 X579.3774 Y1079.1069 Z10.0000 F9999
G1 X579.3774 Y1079.1069 Z-1.0000 F2500
G1 X620.4783 Y1095.1619 Z-1.0000 F4000
G1 X579.3774 Y1079.1069 Z-1.0000 F4000
G1 X620.4783 Y1063.0885 Z-1.0000 F4000
G1 X620.4783 Y1063.0885 Z10.0000 F9999
G1 X595.8177 Y1052.4096 Z10.0000 F9999
G1 X595.8177 Y1052.4096 Z-1.0000 F2500
G1 X595.8177 Y1023.1619 Z-1.0000 F4000
G1 X595.8177 Y1052.4096 Z-1.0000 F4000
G1 X595.8177 Y1052.4096 Z10.0000 F9999
G1 X605.7810 Y1089.4188 Z10.0000 F9999
G1 X605.7810 Y1089.4188 Z-1.0000 F2500
G1 X605.7810 Y1068.7216 Z-1.0000 F4000
G1 X605.7810 Y1089.4188 Z-1.0000 F4000
G1 X605.7810 Y1089.4188 Z10.0000 F9999
G1 X605.7810 Y1006.0427 Z10.0000 F9999
G1 X605.7810 Y1006.0427 Z-1.0000 F2500
G1 X605.7810 Y985.3454 Z-1.0000 F4000
G1 X605.7810 Y1006.0427 Z-1.0000 F4000
G1 X605.7810 Y1006.0427 Z10.0000 F9999
G1 X579.3774 Y995.7307 Z10.0000 F9999
G1 X579.3774 Y995.7307 Z-1.0000 F2500
G1 X620.4783 Y1011.7858 Z-1.0000 F4000
G1 X579.3774 Y995.7307 Z-1.0000 F4000
G1 X620.4783 Y979.7124 Z-1.0000 F4000
G1 X620.4783 Y979.7124 Z10.0000 F9999
G1 X620.4783 Y969.0335 Z10.0000 F9999
G1 X620.4783 Y969.0335 Z-1.0000 F2500
G1 X600.3315 Y955.8041 Z-1.0000 F4000
G1 X620.4783 Y969.0335 Z-1.0000 F4000
G1 X620.4783 Y969.0335 Z10.0000 F9999
G1 X620.4783 Y951.6206 Z10.0000 F9999
G1 X620.4783 Y951.6206 Z-1.0000 F2500
G1 X579.3774 Y951.6206 Z-1.0000 F4000
G1 X579.3774 Y958.7766 Z-1.0000 F4000
G1 X579.9829 Y962.6482 Z-1.0000 F4000
G1 X581.7994 Y965.8592 Z-1.0000 F4000
G1 X584.9553 Y968.0794 Z-1.0000 F4000
G1 X589.5975 Y968.9234 Z-1.0000 F4000
G1 X594.2764 Y967.7674 Z-1.0000 F4000
G1 X597.5975 Y964.9968 Z-1.0000 F4000
G1 X599.5608 Y961.6757 Z-1.0000 F4000
G1 X600.2214 Y958.7766 Z-1.0000 F4000
G1 X600.2214 Y951.6206 Z-1.0000 F4000
G1 X600.2214 Y958.7766 Z-1.0000 F4000
G1 X599.5608 Y961.6757 Z-1.0000 F4000
G1 X597.5975 Y964.9968 Z-1.0000 F4000
G1 X594.2764 Y967.7674 Z-1.0000 F4000
G1 X589.5975 Y968.9234 Z-1.0000 F4000
G1 X584.9553 Y968.0794 Z-1.0000 F4000
G1 X581.7994 Y965.8592 Z-1.0000 F4000
G1 X579.9829 Y962.6482 Z-1.0000 F4000
G1 X579.3774 Y958.7766 Z-1.0000 F4000
G1 X579.3774 Y951.6206 Z-1.0000 F4000
G1 X579.3774 Y951.6206 Z10.0000 F9999
G1 X597.6709 Y921.0885 Z10.0000 F9999
G1 X597.6709 Y921.0885 Z-1.0000 F2500
G1 X597.6709 Y935.5289 Z-1.0000 F4000
G1 X597.6709 Y921.0885 Z-1.0000 F4000
G1 X579.3774 Y921.0885 Z-1.0000 F4000
G1 X579.3774 Y936.2078 Z-1.0000 F4000
G1 X579.3774 Y921.0885 Z-1.0000 F4000
G1 X620.4783 Y921.0885 Z-1.0000 F4000
G1 X620.4783 Y921.0885 Z10.0000 F9999
G1 X772.5380 Y921.0885 Z10.0000 F9999
G1 X772.5380 Y921.0885 Z-1.0000 F2500
G1 X772.5380 Y935.5289 Z-1.0000 F4000
G1 X772.5380 Y921.0885 Z-1.0000 F4000
G1 X754.2444 Y921.0885 Z-1.0000 F4000
G1 X754.2444 Y936.2078 Z-1.0000 F4000
G1 X754.2444 Y921.0885 Z-1.0000 F4000
G1 X795.3454 Y921.0885 Z-1.0000 F4000
G1 X795.3454 Y921.0885 Z10.0000 F9999
G1 X795.3454 Y951.6206 Z10.0000 F9999
G1 X795.3454 Y951.6206 Z-1.0000 F2500
G1 X754.2444 Y951.6206 Z-1.0000 F4000
G1 X754.2444 Y958.7766 Z-1.0000 F4000
G1 X754.8500 Y962.6482 Z-1.0000 F4000
G1 X756.6665 Y965.8592 Z-1.0000 F4000
G1 X759.8224 Y968.0794 Z-1.0000 F4000
G1 X764.4646 Y968.9234 Z-1.0000 F4000
G1 X769.1435 Y967.7674 Z-1.0000 F4000
G1 X772.4646 Y964.9968 Z-1.0000 F4000
G1 X774.4279 Y961.6757 Z-1.0000 F4000
G1 X775.0885 Y958.7766 Z-1.0000 F4000
G1 X775.0885 Y951.6206 Z-1.0000 F4000
G1 X775.0885 Y958.7766 Z-1.0000 F4000
G1 X774.4279 Y961.6757 Z-1.0000 F4000
G1 X772.4646 Y964.9968 Z-1.0000 F4000
G1 X769.1435 Y967.7674 Z-1.0000 F4000
G1 X764.4646 Y968.9234 Z-1.0000 F4000
G1 X759.8224 Y968.0794 Z-1.0000 F4000
G1 X756.6665 Y965.8592 Z-1.0000 F4000
G1 X754.8500 Y962.6482 Z-1.0000 F4000
G1 X754.2444 Y958.7766 Z-1.0000 F4000
G1 X754.2444 Y951.6206 Z-1.0000 F4000
G1 X754.2444 Y951.6206 Z10.0000 F9999
G1 X754.2444 Y995.7307 Z10.0000 F9999
G1 X754.2444 Y995.7307 Z-1.0000 F2500
G1 X795.3454 Y1011.7858 Z-1.0000 F4000
G1 X754.2444 Y995.7307 Z-1.0000 F4000
G1 X795.3454 Y979.7124 Z-1.0000 F4000
G1 X795.3454 Y979.7124 Z10.0000 F9999
G1 X795.3454 Y969.0335 Z10.0000 F9999
G1 X795.3454 Y969.0335 Z-1.0000 F2500
G1 X775.1986 Y955.8041 Z-1.0000 F4000
G1 X795.3454 Y969.0335 Z-1.0000 F4000
G1 X795.3454 Y969.0335 Z10.0000 F9999
G1 X780.6481 Y1006.0427 Z10.0000 F9999
G1 X780.6481 Y1006.0427 Z-1.0000 F2500
G1 X780.6481 Y985.3454 Z-1.0000 F4000
G1 X780.6481 Y1006.0427 Z-1.0000 F4000
G1 X780.6481 Y1006.0427 Z10.0000 F9999
G1 X770.6848 Y1052.4096 Z10.0000 F9999
G1 X770.6848 Y1052.4096 Z-1.0000 F2500
G1 X770.6848 Y1023.1619 Z-1.0000 F4000
G1 X770.6848 Y1052.4096 Z-1.0000 F4000
G1 X770.6848 Y1052.4096 Z10.0000 F9999
G1 X754.2444 Y1079.1069 Z10.0000 F9999
G1 X754.2444 Y1079.1069 Z-1.0000 F2500
G1 X795.3454 Y1095.1619 Z-1.0000 F4000
G1 X754.2444 Y1079.1069 Z-1.0000 F4000
G1 X795.3454 Y1063.0885 Z-1.0000 F4000
G1 X795.3454 Y1063.0885 Z10.0000 F9999
G1 X780.6481 Y1089.4188 Z10.0000 F9999
G1 X780.6481 Y1089.4188 Z-1.0000 F2500
G1 X780.6481 Y1068.7216 Z-1.0000 F4000
G1 X780.6481 Y1089.4188 Z-1.0000 F4000
G1 X780.6481 Y1089.4188 Z10.0000 F9999
G1 X788.5197 Y1147.6390 Z10.0000 F9999
G1 X788.5197 Y1147.6390 Z-1.0000 F2500
G1 X791.5656 Y1149.5840 Z-1.0000 F4000
G1 X793.6206 Y1152.0060 Z-1.0000 F4000
G1 X794.8683 Y1155.1252 Z-1.0000 F4000
G1 X795.3454 Y1159.2537 Z-1.0000 F4000
G1 X794.8867 Y1163.7491 Z-1.0000 F4000
G1 X793.1435 Y1167.5656 Z-1.0000 F4000
G1 X790.1527 Y1170.2445 Z-1.0000 F4000
G1 X785.9876 Y1171.3638 Z-1.0000 F4000
G1 X781.9876 Y1170.8317 Z-1.0000 F4000
G1 X779.3087 Y1169.2904 Z-1.0000 F4000
G1 X777.6206 Y1167.2537 Z-1.0000 F4000
G1 X776.5197 Y1165.3454 Z-1.0000 F4000
G1 X771.7857 Y1156.1528 Z-1.0000 F4000
G1 X770.3729 Y1153.7858 Z-1.0000 F4000
G1 X768.7215 Y1151.9326 Z-1.0000 F4000
G1 X766.5380 Y1150.6849 Z-1.0000 F4000
G1 X763.6573 Y1150.1711 Z-1.0000 F4000
G1 X760.3729 Y1150.7032 Z-1.0000 F4000
G1 X757.3454 Y1152.5381 Z-1.0000 F4000
G1 X755.1252 Y1155.6757 Z-1.0000 F4000
G1 X754.2444 Y1160.0427 Z-1.0000 F4000
G1 X754.9233 Y1164.2995 Z-1.0000 F4000
G1 X756.3912 Y1167.1436 Z-1.0000 F4000
G1 X758.5380 Y1169.2353 Z-1.0000 F4000
G1 X756.3912 Y1167.1436 Z-1.0000 F4000
G1 X754.9233 Y1164.2995 Z-1.0000 F4000
G1 X754.2444 Y1160.0427 Z-1.0000 F4000
G1 X755.1252 Y1155.6757 Z-1.0000 F4000
G1 X757.3454 Y1152.5381 Z-1.0000 F4000
G1 X760.3729 Y1150.7032 Z-1.0000 F4000
G1 X763.6573 Y1150.1711 Z-1.0000 F4000
G1 X766.5380 Y1150.6849 Z-1.0000 F4000
G1 X768.7215 Y1151.9326 Z-1.0000 F4000
G1 X770.3729 Y1153.7858 Z-1.0000 F4000
G1 X771.7857 Y1156.1528 Z-1.0000 F4000
G1 X776.5197 Y1165.3454 Z-1.0000 F4000
G1 X777.6206 Y1167.2537 Z-1.0000 F4000
G1 X779.3087 Y1169.2904 Z-1.0000 F4000
G1 X781.9876 Y1170.8317 Z-1.0000 F4000
G1 X785.9876 Y1171.3638 Z-1.0000 F4000
G1 X790.1527 Y1170.2445 Z-1.0000 F4000
G1 X793.1435 Y1167.5656 Z-1.0000 F4000
G1 X794.8867 Y1163.7491 Z-1.0000 F4000
G1 X795.3454 Y1159.2537 Z-1.0000 F4000
G1 X794.8683 Y1155.1252 Z-1.0000 F4000
G1 X793.6206 Y1152.0060 Z-1.0000 F4000
G1 X791.5656 Y1149.5840 Z-1.0000 F4000
G1 X791.5656 Y1149.5840 Z10.0000 F9999
G1 X789.8224 Y1182.8684 Z10.0000 F9999
G1 X789.8224 Y1182.8684 Z-1.0000 F2500
G1 X791.0885 Y1184.1161 Z-1.0000 F4000
G1 X792.9050 Y1186.4463 Z-1.0000 F4000
G1 X794.5564 Y1189.9142 Z-1.0000 F4000
G1 X795.3454 Y1194.6482 Z-1.0000 F4000
G1 X794.1527 Y1199.8041 Z-1.0000 F4000
G1 X790.8316 Y1204.1711 Z-1.0000 F4000
G1 X785.9142 Y1207.2170 Z-1.0000 F4000
G1 X779.9692 Y1208.3546 Z-1.0000 F4000
G1 X774.4279 Y1207.0151 Z-1.0000 F4000
G1 X770.3912 Y1203.7674 Z-1.0000 F4000
G1 X767.9692 Y1199.7124 Z-1.0000 F4000
G1 X767.1619 Y1195.9509 Z-1.0000 F4000
G1 X767.1619 Y1193.8041 Z-1.0000 F4000
G1 X767.5656 Y1191.5473 Z-1.0000 F4000
G1 X768.4646 Y1188.9051 Z-1.0000 F4000
G1 X753.0701 Y1194.5381 Z-1.0000 F4000
G1 X753.0701 Y1208.7399 Z-1.0000 F4000
G1 X753.0701 Y1194.5381 Z-1.0000 F4000
G1 X768.4646 Y1188.9051 Z-1.0000 F4000
G1 X767.5656 Y1191.5473 Z-1.0000 F4000
G1 X767.1619 Y1193.8041 Z-1.0000 F4000
G1 X767.1619 Y1195.9509 Z-1.0000 F4000
G1 X767.9692 Y1199.7124 Z-1.0000 F4000
G1 X770.3912 Y1203.7674 Z-1.0000 F4000
G1 X774.4279 Y1207.0151 Z-1.0000 F4000
G1 X779.9692 Y1208.3546 Z-1.0000 F4000
G1 X785.9142 Y1207.2170 Z-1.0000 F4000
G1 X790.8316 Y1204.1711 Z-1.0000 F4000
G1 X794.1527 Y1199.8041 Z-1.0000 F4000
G1 X795.3454 Y1194.6482 Z-1.0000 F4000
G1 X794.5564 Y1189.9142 Z-1.0000 F4000
G1 X792.9050 Y1186.4463 Z-1.0000 F4000
G1 X791.0885 Y1184.1161 Z-1.0000 F4000
G1 X791.0885 Y1184.1161 Z10.0000 F9999
G1 X744.8500 Y1136.9234 Z10.0000 F9999
G1 X744.8500 Y1136.9234 Z-1.0000 F2500
G1 X797.6940 Y1106.5381 Z-1.0000 F4000
G1 X744.8500 Y1136.9234 Z-1.0000 F4000
G1 X744.8500 Y1136.9234 Z10.0000 F9999
G1 X744.8500 Y1249.6573 Z10.0000 F9999
G1 X744.8500 Y1249.6573 Z-1.0000 F2500
G1 X797.6940 Y1219.2720 Z-1.0000 F4000
G1 X744.8500 Y1249.6573 Z-1.0000 F4000
G1 X744.8500 Y1249.6573 Z10.0000 F9999
G1 X754.2444 Y1265.1619 Z10.0000 F9999
G1 X754.2444 Y1265.1619 Z-1.0000 F2500
G1 X795.3454 Y1265.1619 Z-1.0000 F4000
G1 X754.2444 Y1265.1619 Z-1.0000 F4000
G1 X754.2444 Y1265.1619 Z10.0000 F9999
G1 X754.2444 Y1285.1252 Z10.0000 F9999
G1 X754.2444 Y1285.1252 Z-1.0000 F2500
G1 X795.3454 Y1322.2262 Z-1.0000 F4000
G1 X754.2444 Y1322.2262 Z-1.0000 F4000
G1 X795.3454 Y1322.2262 Z-1.0000 F4000
G1 X754.2444 Y1285.1252 Z-1.0000 F4000
G1 X795.3454 Y1285.1252 Z-1.0000 F4000
G1 X795.3454 Y1285.1252 Z10.0000 F9999
G1 X922.6586 Y1249.6573 Z10.0000 F9999
G1 X922.6586 Y1249.6573 Z-1.0000 F2500
G1 X975.5026 Y1219.2720 Z-1.0000 F4000
G1 X922.6586 Y1249.6573 Z-1.0000 F4000
G1 X922.6586 Y1249.6573 Z10.0000 F9999
G1 X932.0531 Y1265.1619 Z10.0000 F9999
G1 X932.0531 Y1265.1619 Z-1.0000 F2500
G1 X973.1540 Y1265.1619 Z-1.0000 F4000
G1 X932.0531 Y1265.1619 Z-1.0000 F4000
G1 X932.0531 Y1265.1619 Z10.0000 F9999
G1 X932.0531 Y1285.1252 Z10.0000 F9999
G1 X932.0531 Y1285.1252 Z-1.0000 F2500
G1 X973.1540 Y1322.2262 Z-1.0000 F4000
G1 X932.0531 Y1322.2262 Z-1.0000 F4000
G1 X973.1540 Y1322.2262 Z-1.0000 F4000
G1 X932.0531 Y1285.1252 Z-1.0000 F4000
G1 X973.1540 Y1285.1252 Z-1.0000 F4000
G1 X973.1540 Y1285.1252 Z10.0000 F9999
G1 X967.6311 Y1182.8684 Z10.0000 F9999
G1 X967.6311 Y1182.8684 Z-1.0000 F2500
G1 X968.8971 Y1184.1161 Z-1.0000 F4000
G1 X970.7136 Y1186.4463 Z-1.0000 F4000
G1 X972.3650 Y1189.9142 Z-1.0000 F4000
G1 X973.1540 Y1194.6482 Z-1.0000 F4000
G1 X971.9614 Y1199.8041 Z-1.0000 F4000
G1 X968.6403 Y1204.1711 Z-1.0000 F4000
G1 X963.7228 Y1207.2170 Z-1.0000 F4000
G1 X957.7779 Y1208.3546 Z-1.0000 F4000
G1 X952.2366 Y1207.0151 Z-1.0000 F4000
G1 X948.1999 Y1203.7674 Z-1.0000 F4000
G1 X945.7779 Y1199.7124 Z-1.0000 F4000
G1 X944.9705 Y1195.9509 Z-1.0000 F4000
G1 X944.9705 Y1193.8041 Z-1.0000 F4000
G1 X945.3742 Y1191.5473 Z-1.0000 F4000
G1 X946.2733 Y1188.9051 Z-1.0000 F4000
G1 X930.8788 Y1194.5381 Z-1.0000 F4000
G1 X930.8788 Y1208.7399 Z-1.0000 F4000
G1 X930.8788 Y1194.5381 Z-1.0000 F4000
G1 X946.2733 Y1188.9051 Z-1.0000 F4000
G1 X945.3742 Y1191.5473 Z-1.0000 F4000
G1 X944.9705 Y1193.8041 Z-1.0000 F4000
G1 X944.9705 Y1195.9509 Z-1.0000 F4000
G1 X945.7779 Y1199.7124 Z-1.0000 F4000
G1 X948.1999 Y1203.7674 Z-1.0000 F4000
G1 X952.2366 Y1207.0151 Z-1.0000 F4000
G1 X957.7779 Y1208.3546 Z-1.0000 F4000
G1 X963.7228 Y1207.2170 Z-1.0000 F4000
G1 X968.6403 Y1204.1711 Z-1.0000 F4000
G1 X971.9614 Y1199.8041 Z-1.0000 F4000
G1 X973.1540 Y1194.6482 Z-1.0000 F4000
G1 X972.3650 Y1189.9142 Z-1.0000 F4000
G1 X970.7136 Y1186.4463 Z-1.0000 F4000
G1 X968.8971 Y1184.1161 Z-1.0000 F4000
G1 X968.8971 Y1184.1161 Z10.0000 F9999
G1 X966.3283 Y1147.6390 Z10.0000 F9999
G1 X966.3283 Y1147.6390 Z-1.0000 F2500
G1 X969.3742 Y1149.5840 Z-1.0000 F4000
G1 X971.4292 Y1152.0060 Z-1.0000 F4000
G1 X972.6770 Y1155.1252 Z-1.0000 F4000
G1 X973.1540 Y1159.2537 Z-1.0000 F4000
G1 X972.6953 Y1163.7491 Z-1.0000 F4000
G1 X970.9522 Y1167.5656 Z-1.0000 F4000
G1 X967.9614 Y1170.2445 Z-1.0000 F4000
G1 X963.7962 Y1171.3638 Z-1.0000 F4000
G1 X959.7962 Y1170.8317 Z-1.0000 F4000
G1 X957.1173 Y1169.2904 Z-1.0000 F4000
G1 X955.4292 Y1167.2537 Z-1.0000 F4000
G1 X954.3283 Y1165.3454 Z-1.0000 F4000
G1 X949.5944 Y1156.1528 Z-1.0000 F4000
G1 X948.1815 Y1153.7858 Z-1.0000 F4000
G1 X946.5302 Y1151.9326 Z-1.0000 F4000
G1 X944.3467 Y1150.6849 Z-1.0000 F4000
G1 X941.4659 Y1150.1711 Z-1.0000 F4000
G1 X938.1815 Y1150.7032 Z-1.0000 F4000
G1 X935.1540 Y1152.5381 Z-1.0000 F4000
G1 X932.9338 Y1155.6757 Z-1.0000 F4000
G1 X932.0531 Y1160.0427 Z-1.0000 F4000
G1 X932.7320 Y1164.2995 Z-1.0000 F4000
G1 X934.1999 Y1167.1436 Z-1.0000 F4000
G1 X936.3467 Y1169.2353 Z-1.0000 F4000
G1 X934.1999 Y1167.1436 Z-1.0000 F4000
G1 X932.7320 Y1164.2995 Z-1.0000 F4000
G1 X932.0531 Y1160.0427 Z-1.0000 F4000
G1 X932.9338 Y1155.6757 Z-1.0000 F4000
G1 X935.1540 Y1152.5381 Z-1.0000 F4000
G1 X938.1815 Y1150.7032 Z-1.0000 F4000
G1 X941.4659 Y1150.1711 Z-1.0000 F4000
G1 X944.3467 Y1150.6849 Z-1.0000 F4000
G1 X946.5302 Y1151.9326 Z-1.0000 F4000
G1 X948.1815 Y1153.7858 Z-1.0000 F4000
G1 X949.5944 Y1156.1528 Z-1.0000 F4000
G1 X954.3283 Y1165.3454 Z-1.0000 F4000
G1 X955.4292 Y1167.2537 Z-1.0000 F4000
G1 X957.1173 Y1169.2904 Z-1.0000 F4000
G1 X959.7962 Y1170.8317 Z-1.0000 F4000
G1 X963.7962 Y1171.3638 Z-1.0000 F4000
G1 X967.9614 Y1170.2445 Z-1.0000 F4000
G1 X970.9522 Y1167.5656 Z-1.0000 F4000
G1 X972.6953 Y1163.7491 Z-1.0000 F4000
G1 X973.1540 Y1159.2537 Z-1.0000 F4000
G1 X972.6770 Y1155.1252 Z-1.0000 F4000
G1 X971.4292 Y1152.0060 Z-1.0000 F4000
G1 X969.3742 Y1149.5840 Z-1.0000 F4000
G1 X969.3742 Y1149.5840 Z10.0000 F9999
G1 X922.6586 Y1136.9234 Z10.0000 F9999
G1 X922.6586 Y1136.9234 Z-1.0000 F2500
G1 X975.5026 Y1106.5381 Z-1.0000 F4000
G1 X922.6586 Y1136.9234 Z-1.0000 F4000
G1 X922.6586 Y1136.9234 Z10.0000 F9999
G1 X932.0531 Y1079.1069 Z10.0000 F9999
G1 X932.0531 Y1079.1069 Z-1.0000 F2500
G1 X973.1540 Y1095.1619 Z-1.0000 F4000
G1 X932.0531 Y1079.1069 Z-1.0000 F4000
G1 X973.1540 Y1063.0885 Z-1.0000 F4000
G1 X973.1540 Y1063.0885 Z10.0000 F9999
G1 X948.4935 Y1052.4096 Z10.0000 F9999
G1 X948.4935 Y1052.4096 Z-1.0000 F2500
G1 X948.4935 Y1023.1619 Z-1.0000 F4000
G1 X948.4935 Y1052.4096 Z-1.0000 F4000
G1 X948.4935 Y1052.4096 Z10.0000 F9999
G1 X958.4568 Y1089.4188 Z10.0000 F9999
G1 X958.4568 Y1089.4188 Z-1.0000 F2500
G1 X958.4568 Y1068.7216 Z-1.0000 F4000
G1 X958.4568 Y1089.4188 Z-1.0000 F4000
G1 X958.4568 Y1089.4188 Z10.0000 F9999
G1 X958.4568 Y1006.0427 Z10.0000 F9999
G1 X958.4568 Y1006.0427 Z-1.0000 F2500
G1 X958.4568 Y985.3454 Z-1.0000 F4000
G1 X958.4568 Y1006.0427 Z-1.0000 F4000
G1 X958.4568 Y1006.0427 Z10.0000 F9999
G1 X932.0531 Y995.7307 Z10.0000 F9999
G1 X932.0531 Y995.7307 Z-1.0000 F2500
G1 X973.1540 Y1011.7858 Z-1.0000 F4000
G1 X932.0531 Y995.7307 Z-1.0000 F4000
G1 X973.1540 Y979.7124 Z-1.0000 F4000
G1 X973.1540 Y979.7124 Z10.0000 F9999
G1 X973.1540 Y969.0335 Z10.0000 F9999
G1 X973.1540 Y969.0335 Z-1.0000 F2500
G1 X953.0072 Y955.8041 Z-1.0000 F4000
G1 X973.1540 Y969.0335 Z-1.0000 F4000
G1 X973.1540 Y969.0335 Z10.0000 F9999
G1 X973.1540 Y951.6206 Z10.0000 F9999
G1 X973.1540 Y951.6206 Z-1.0000 F2500
G1 X932.0531 Y951.6206 Z-1.0000 F4000
G1 X932.0531 Y958.7766 Z-1.0000 F4000
G1 X932.6586 Y962.6482 Z-1.0000 F4000
G1 X934.4751 Y965.8592 Z-1.0000 F4000
G1 X937.6311 Y968.0794 Z-1.0000 F4000
G1 X942.2733 Y968.9234 Z-1.0000 F4000
G1 X946.9522 Y967.7674 Z-1.0000 F4000
G1 X950.2733 Y964.9968 Z-1.0000 F4000
G1 X952.2366 Y961.6757 Z-1.0000 F4000
G1 X952.8971 Y958.7766 Z-1.0000 F4000
G1 X952.8971 Y951.6206 Z-1.0000 F4000
G1 X952.8971 Y958.7766 Z-1.0000 F4000
G1 X952.2366 Y961.6757 Z-1.0000 F4000
G1 X950.2733 Y964.9968 Z-1.0000 F4000
G1 X946.9522 Y967.7674 Z-1.0000 F4000
G1 X942.2733 Y968.9234 Z-1.0000 F4000
G1 X937.6311 Y968.0794 Z-1.0000 F4000
G1 X934.4751 Y965.8592 Z-1.0000 F4000
G1 X932.6586 Y962.6482 Z-1.0000 F4000
G1 X932.0531 Y958.7766 Z-1.0000 F4000
G1 X932.0531 Y951.6206 Z-1.0000 F4000
G1 X932.0531 Y951.6206 Z10.0000 F9999
G1 X950.3467 Y921.0885 Z10.0000 F9999
G1 X950.3467 Y921.0885 Z-1.0000 F2500
G1 X950.3467 Y935.5289 Z-1.0000 F4000
G1 X950.3467 Y921.0885 Z-1.0000 F4000
G1 X932.0531 Y921.0885 Z-1.0000 F4000
G1 X932.0531 Y936.2078 Z-1.0000 F4000
G1 X932.0531 Y921.0885 Z-1.0000 F4000
G1 X973.1540 Y921.0885 Z-1.0000 F4000
G1 X973.1540 Y921.0885 Z10.0000 F9999
G1 X1113.0714 Y921.0885 Z10.0000 F9999
G1 X1113.0714 Y921.0885 Z-1.0000 F2500
G1 X1113.0714 Y935.5289 Z-1.0000 F4000
G1 X1113.0714 Y921.0885 Z-1.0000 F4000
G1 X1094.7778 Y921.0885 Z-1.0000 F4000
G1 X1094.7778 Y936.2078 Z-1.0000 F4000
G1 X1094.7778 Y921.0885 Z-1.0000 F4000
G1 X1135.8787 Y921.0885 Z-1.0000 F4000
G1 X1135.8787 Y921.0885 Z10.0000 F9999
G1 X1135.8787 Y951.6206 Z10.0000 F9999
G1 X1135.8787 Y951.6206 Z-1.0000 F2500
G1 X1094.7778 Y951.6206 Z-1.0000 F4000
G1 X1094.7778 Y958.7766 Z-1.0000 F4000
G1 X1095.3833 Y962.6482 Z-1.0000 F4000
G1 X1097.1998 Y965.8592 Z-1.0000 F4000
G1 X1100.3558 Y968.0794 Z-1.0000 F4000
G1 X1104.9980 Y968.9234 Z-1.0000 F4000
G1 X1109.6769 Y967.7674 Z-1.0000 F4000
G1 X1112.9980 Y964.9968 Z-1.0000 F4000
G1 X1114.9613 Y961.6757 Z-1.0000 F4000
G1 X1115.6218 Y958.7766 Z-1.0000 F4000
G1 X1115.6218 Y951.6206 Z-1.0000 F4000
G1 X1115.6218 Y958.7766 Z-1.0000 F4000
G1 X1114.9613 Y961.6757 Z-1.0000 F4000
G1 X1112.9980 Y964.9968 Z-1.0000 F4000
G1 X1109.6769 Y967.7674 Z-1.0000 F4000
G1 X1104.9980 Y968.9234 Z-1.0000 F4000
G1 X1100.3558 Y968.0794 Z-1.0000 F4000
G1 X1097.1998 Y965.8592 Z-1.0000 F4000
G1 X1095.3833 Y962.6482 Z-1.0000 F4000
G1 X1094.7778 Y958.7766 Z-1.0000 F4000
G1 X1094.7778 Y951.6206 Z-1.0000 F4000
G1 X1094.7778 Y951.6206 Z10.0000 F9999
G1 X1094.7778 Y995.7307 Z10.0000 F9999
G1 X1094.7778 Y995.7307 Z-1.0000 F2500
G1 X1135.8787 Y1011.7858 Z-1.0000 F4000
G1 X1094.7778 Y995.7307 Z-1.0000 F4000
G1 X1135.8787 Y979.7124 Z-1.0000 F4000
G1 X1135.8787 Y979.7124 Z10.0000 F9999
G1 X1135.8787 Y969.0335 Z10.0000 F9999
G1 X1135.8787 Y969.0335 Z-1.0000 F2500
G1 X1115.7319 Y955.8041 Z-1.0000 F4000
G1 X1135.8787 Y969.0335 Z-1.0000 F4000
G1 X1135.8787 Y969.0335 Z10.0000 F9999
G1 X1121.1815 Y1006.0427 Z10.0000 F9999
G1 X1121.1815 Y1006.0427 Z-1.0000 F2500
G1 X1121.1815 Y985.3454 Z-1.0000 F4000
G1 X1121.1815 Y1006.0427 Z-1.0000 F4000
G1 X1121.1815 Y1006.0427 Z10.0000 F9999
G1 X1111.2182 Y1052.4096 Z10.0000 F9999
G1 X1111.2182 Y1052.4096 Z-1.0000 F2500
G1 X1111.2182 Y1023.1619 Z-1.0000 F4000
G1 X1111.2182 Y1052.4096 Z-1.0000 F4000
G1 X1111.2182 Y1052.4096 Z10.0000 F9999
G1 X1094.7778 Y1079.1069 Z10.0000 F9999
G1 X1094.7778 Y1079.1069 Z-1.0000 F2500
G1 X1135.8787 Y1095.1619 Z-1.0000 F4000
G1 X1094.7778 Y1079.1069 Z-1.0000 F4000
G1 X1135.8787 Y1063.0885 Z-1.0000 F4000
G1 X1135.8787 Y1063.0885 Z10.0000 F9999
G1 X1121.1815 Y1089.4188 Z10.0000 F9999
G1 X1121.1815 Y1089.4188 Z-1.0000 F2500
G1 X1121.1815 Y1068.7216 Z-1.0000 F4000
G1 X1121.1815 Y1089.4188 Z-1.0000 F4000
G1 X1121.1815 Y1089.4188 Z10.0000 F9999
G1 X1129.0530 Y1147.6390 Z10.0000 F9999
G1 X1129.0530 Y1147.6390 Z-1.0000 F2500
G1 X1132.0989 Y1149.5840 Z-1.0000 F4000
G1 X1134.1539 Y1152.0060 Z-1.0000 F4000
G1 X1135.4017 Y1155.1252 Z-1.0000 F4000
G1 X1135.8787 Y1159.2537 Z-1.0000 F4000
G1 X1135.4200 Y1163.7491 Z-1.0000 F4000
G1 X1133.6769 Y1167.5656 Z-1.0000 F4000
G1 X1130.6861 Y1170.2445 Z-1.0000 F4000
G1 X1126.5209 Y1171.3638 Z-1.0000 F4000
G1 X1122.5209 Y1170.8317 Z-1.0000 F4000
G1 X1119.8420 Y1169.2904 Z-1.0000 F4000
G1 X1118.1539 Y1167.2537 Z-1.0000 F4000
G1 X1117.0530 Y1165.3454 Z-1.0000 F4000
G1 X1112.3191 Y1156.1528 Z-1.0000 F4000
G1 X1110.9062 Y1153.7858 Z-1.0000 F4000
G1 X1109.2549 Y1151.9326 Z-1.0000 F4000
G1 X1107.0714 Y1150.6849 Z-1.0000 F4000
G1 X1104.1906 Y1150.1711 Z-1.0000 F4000
G1 X1100.9062 Y1150.7032 Z-1.0000 F4000
G1 X1097.8787 Y1152.5381 Z-1.0000 F4000
G1 X1095.6585 Y1155.6757 Z-1.0000 F4000
G1 X1094.7778 Y1160.0427 Z-1.0000 F4000
G1 X1095.4567 Y1164.2995 Z-1.0000 F4000
G1 X1096.9246 Y1167.1436 Z-1.0000 F4000
G1 X1099.0714 Y1169.2353 Z-1.0000 F4000
G1 X1096.9246 Y1167.1436 Z-1.0000 F4000
G1 X1095.4567 Y1164.2995 Z-1.0000 F4000
G1 X1094.7778 Y1160.0427 Z-1.0000 F4000
G1 X1095.6585 Y1155.6757 Z-1.0000 F4000
G1 X1097.8787 Y1152.5381 Z-1.0000 F4000
G1 X1100.9062 Y1150.7032 Z-1.0000 F4000
G1 X1104.1906 Y1150.1711 Z-1.0000 F4000
G1 X1107.0714 Y1150.6849 Z-1.0000 F4000
G1 X1109.2549 Y1151.9326 Z-1.0000 F4000
G1 X1110.9062 Y1153.7858 Z-1.0000 F4000
G1 X1112.3191 Y1156.1528 Z-1.0000 F4000
G1 X1117.0530 Y1165.3454 Z-1.0000 F4000
G1 X1118.1539 Y1167.2537 Z-1.0000 F4000
G1 X1119.8420 Y1169.2904 Z-1.0000 F4000
G1 X1122.5209 Y1170.8317 Z-1.0000 F4000
G1 X1126.5209 Y1171.3638 Z-1.0000 F4000
G1 X1130.6861 Y1170.2445 Z-1.0000 F4000
G1 X1133.6769 Y1167.5656 Z-1.0000 F4000
G1 X1135.4200 Y1163.7491 Z-1.0000 F4000
G1 X1135.8787 Y1159.2537 Z-1.0000 F4000
G1 X1135.4017 Y1155.1252 Z-1.0000 F4000
G1 X1134.1539 Y1152.0060 Z-1.0000 F4000
G1 X1132.0989 Y1149.5840 Z-1.0000 F4000
G1 X1132.0989 Y1149.5840 Z10.0000 F9999
G1 X1130.3558 Y1182.8684 Z10.0000 F9999
G1 X1130.3558 Y1182.8684 Z-1.0000 F2500
G1 X1131.6218 Y1184.1161 Z-1.0000 F4000
G1 X1133.4384 Y1186.4463 Z-1.0000 F4000
G1 X1135.0897 Y1189.9142 Z-1.0000 F4000
G1 X1135.8787 Y1194.6482 Z-1.0000 F4000
G1 X1134.6861 Y1199.8041 Z-1.0000 F4000
G1 X1131.3650 Y1204.1711 Z-1.0000 F4000
G1 X1126.4475 Y1207.2170 Z-1.0000 F4000
G1 X1120.5026 Y1208.3546 Z-1.0000 F4000
G1 X1114.9613 Y1207.0151 Z-1.0000 F4000
G1 X1110.9246 Y1203.7674 Z-1.0000 F4000
G1 X1108.5026 Y1199.7124 Z-1.0000 F4000
G1 X1107.6952 Y1195.9509 Z-1.0000 F4000
G1 X1107.6952 Y1193.8041 Z-1.0000 F4000
G1 X1108.0989 Y1191.5473 Z-1.0000 F4000
G1 X1108.9980 Y1188.9051 Z-1.0000 F4000
G1 X1093.6035 Y1194.5381 Z-1.0000 F4000
G1 X1093.6035 Y1208.7399 Z-1.0000 F4000
G1 X1093.6035 Y1194.5381 Z-1.0000 F4000
G1 X1108.9980 Y1188.9051 Z-1.0000 F4000
G1 X1108.0989 Y1191.5473 Z-1.0000 F4000
G1 X1107.6952 Y1193.8041 Z-1.0000 F4000
G1 X1107.6952 Y1195.9509 Z-1.0000 F4000
G1 X1108.5026 Y1199.7124 Z-1.0000 F4000
G1 X1110.9246 Y1203.7674 Z-1.0000 F4000
G1 X1114.9613 Y1207.0151 Z-1.0000 F4000
G1 X1120.5026 Y1208.3546 Z-1.0000 F4000
G1 X1126.4475 Y1207.2170 Z-1.0000 F4000
G1 X1131.3650 Y1204.1711 Z-1.0000 F4000
G1 X1134.6861 Y1199.8041 Z-1.0000 F4000
G1 X1135.8787 Y1194.6482 Z-1.0000 F4000
G1 X1135.0897 Y1189.9142 Z-1.0000 F4000
G1 X1133.4384 Y1186.4463 Z-1.0000 F4000
G1 X1131.6218 Y1184.1161 Z-1.0000 F4000
G1 X1131.6218 Y1184.1161 Z10.0000 F9999
G1 X1085.3833 Y1136.9234 Z10.0000 F9999
G1 X1085.3833 Y1136.9234 Z-1.0000 F2500
G1 X1138.2273 Y1106.5381 Z-1.0000 F4000
G1 X1085.3833 Y1136.9234 Z-1.0000 F4000
G1 X1085.3833 Y1136.9234 Z10.0000 F9999
G1 X1085.3833 Y1249.6573 Z10.0000 F9999
G1 X1085.3833 Y1249.6573 Z-1.0000 F2500
G1 X1138.2273 Y1219.2720 Z-1.0000 F4000
G1 X1085.3833 Y1249.6573 Z-1.0000 F4000
G1 X1085.3833 Y1249.6573 Z10.0000 F9999
G1 X1094.7778 Y1265.1619 Z10.0000 F9999
G1 X1094.7778 Y1265.1619 Z-1.0000 F2500
G1 X1135.8787 Y1265.1619 Z-1.0000 F4000
G1 X1094.7778 Y1265.1619 Z-1.0000 F4000
G1 X1094.7778 Y1265.1619 Z10.0000 F9999
G1 X1094.7778 Y1285.1252 Z10.0000 F9999
G1 X1094.7778 Y1285.1252 Z-1.0000 F2500
G1 X1135.8787 Y1322.2262 Z-1.0000 F4000
G1 X1094.7778 Y1322.2262 Z-1.0000 F4000
G1 X1135.8787 Y1322.2262 Z-1.0000 F4000
G1 X1094.7778 Y1285.1252 Z-1.0000 F4000
G1 X1135.8787 Y1285.1252 Z-1.0000 F4000
G1 X1135.8787 Y1285.1252 Z10.0000 F9999
(Tool Number:1) (7.998 mm dia. slot drill)
M3 S9000
G1 X-0.0000 Y2306.2659 Z10.0000 F9999
G1 X-0.0000 Y2306.2659 Z1.0000 F2500
G1 X38.9711 Y2306.2659 Z-9.5000 F2500
G1 X-0.0000 Y2306.2659 Z-20.0000 F2500
G1 X1220.0000 Y2306.2659 Z-20.0000 F5000
G1 X1220.0000 Y2306.2659 Z10.0000 F9999
(Tool Number:1) (7.998 mm dia. slot drill)
M3 S9000
G1 X317.9475 Y1293.3040 Z10.0000 F9999
G1 X317.9475 Y1293.3040 Z1.0000 F2500
G1 X317.9475 Y1332.2751 Z-9.5000 F2500
G1 X317.9475 Y1293.3040 Z-20.0000 F2500
G1 X317.9475 Y1422.3479 Z-20.0000 F5000
G1 X312.9475 Y1422.3479 Z-20.0000 F5000
G1 X312.9475 Y1424.3507 Z-20.0000 F5000
G1 X330.6049 Y1424.3507 Z-20.0000 F5000
G1 X335.9475 Y1429.6930 Z-20.0000 F5000
G1 X335.9475 Y1453.3487 Z-20.0000 F5000
G1 X288.9496 Y1453.3487 Z-20.0000 F5000
G1 X288.9496 Y1448.3492 Z-20.0000 F5000
G1 X286.9476 Y1448.3492 Z-20.0000 F5000
G1 X286.9476 Y1468.3507 Z-20.0000 F5000
G1 X288.9496 Y1468.3507 Z-20.0000 F5000
G1 X288.9496 Y1463.3512 Z-20.0000 F5000
G1 X335.9475 Y1463.3512 Z-20.0000 F5000
G1 X335.9475 Y1487.0056 Z-20.0000 F5000
G1 X330.6048 Y1492.3476 Z-20.0000 F5000
G1 X312.9475 Y1492.3476 Z-20.0000 F5000
G1 X312.9475 Y1494.3505 Z-20.0000 F5000
G1 X317.9475 Y1494.3505 Z-20.0000 F5000
G1 X317.9475 Y1612.3488 Z-20.0000 F5000
G1 X294.9499 Y1612.3488 Z-20.0000 F5000
G1 X294.9499 Y1614.3515 Z-20.0000 F5000
G1 X299.9500 Y1614.3515 Z-20.0000 F5000
G1 X299.9475 Y1722.3474 Z-20.0000 F5000
G1 X294.9476 Y1722.3474 Z-20.0000 F5000
G1 X294.9476 Y1724.3502 Z-20.0000 F5000
G1 X330.6049 Y1724.3502 Z-20.0000 F5000
G1 X335.9475 Y1729.6925 Z-20.0000 F5000
G1 X335.9475 Y1787.0051 Z-20.0000 F5000
G1 X330.6048 Y1792.3470 Z-20.0000 F5000
G1 X294.9476 Y1792.3470 Z-20.0000 F5000
G1 X294.9476 Y1794.3501 Z-20.0000 F5000
G1 X299.9476 Y1794.3501 Z-20.0000 F5000
G1 X299.9476 Y2022.3475 Z-20.0000 F5000
G1 X294.9476 Y2022.3475 Z-20.0000 F5000
G1 X294.9476 Y2024.3493 Z-20.0000 F5000
G1 X330.6050 Y2024.3493 Z-20.0000 F5000
G1 X335.9475 Y2029.6921 Z-20.0000 F5000
G1 X335.9475 Y2049.7803 Z-20.0000 F5000
G1 X335.9475 Y2049.7803 Z-10.0000 F9999
G1 X335.9475 Y2065.7783 Z-10.0000 F5000
G1 X335.9475 Y2065.7783 Z-20.0000 F2500
G1 X335.9475 Y2087.0046 Z-20.0000 F5000
G1 X330.6050 Y2092.3472 Z-20.0000 F5000
G1 X294.9476 Y2092.3472 Z-20.0000 F5000
G1 X294.9476 Y2094.3493 Z-20.0000 F5000
G1 X299.9476 Y2094.3493 Z-20.0000 F5000
G1 X299.9476 Y2282.7282 Z-20.0000 F5000
G1 X213.9497 Y2282.7282 Z-20.0000 F5000
G1 X213.9497 Y2094.3493 Z-20.0000 F5000
G1 X218.9497 Y2094.3493 Z-20.0000 F5000
G1 X218.9497 Y2092.3472 Z-20.0000 F5000
G1 X183.2923 Y2092.3472 Z-20.0000 F5000
G1 X177.9498 Y2087.0046 Z-20.0000 F5000
G1 X177.9498 Y2065.7783 Z-20.0000 F5000
G1 X177.9498 Y2065.7783 Z-10.0000 F9999
G1 X177.9498 Y2049.7803 Z-10.0000 F5000
G1 X177.9498 Y2049.7803 Z-20.0000 F2500
G1 X177.9498 Y2029.6921 Z-20.0000 F5000
G1 X183.2922 Y2024.3493 Z-20.0000 F5000
G1 X218.9497 Y2024.3493 Z-20.0000 F5000
G1 X218.9497 Y2022.3475 Z-20.0000 F5000
G1 X213.9497 Y2022.3475 Z-20.0000 F5000
G1 X213.9497 Y1794.3501 Z-20.0000 F5000
G1 X218.9497 Y1794.3501 Z-20.0000 F5000
G1 X218.9497 Y1792.3470 Z-20.0000 F5000
G1 X183.2925 Y1792.3470 Z-20.0000 F5000
G1 X177.9498 Y1787.0051 Z-20.0000 F5000
G1 X177.9498 Y1729.6925 Z-20.0000 F5000
G1 X183.2924 Y1724.3502 Z-20.0000 F5000
G1 X218.9497 Y1724.3502 Z-20.0000 F5000
G1 X218.9497 Y1722.3474 Z-20.0000 F5000
G1 X213.9497 Y1722.3474 Z-20.0000 F5000
G1 X213.9497 Y1614.3515 Z-20.0000 F5000
G1 X218.9497 Y1614.3515 Z-20.0000 F5000
G1 X218.9497 Y1612.3488 Z-20.0000 F5000
G1 X195.9498 Y1612.3488 Z-20.0000 F5000
G1 X195.9498 Y1494.3505 Z-20.0000 F5000
G1 X200.9498 Y1494.3505 Z-20.0000 F5000
G1 X200.9498 Y1492.3476 Z-20.0000 F5000
G1 X183.2925 Y1492.3476 Z-20.0000 F5000
G1 X177.9498 Y1487.0056 Z-20.0000 F5000
G1 X177.9498 Y1463.3512 Z-20.0000 F5000
G1 X224.9477 Y1463.3512 Z-20.0000 F5000
G1 X224.9477 Y1468.3507 Z-20.0000 F5000
G1 X226.9497 Y1468.3507 Z-20.0000 F5000
G1 X226.9497 Y1448.3492 Z-20.0000 F5000
G1 X224.9477 Y1448.3492 Z-20.0000 F5000
G1 X224.9477 Y1453.3487 Z-20.0000 F5000
G1 X177.9498 Y1453.3487 Z-20.0000 F5000
G1 X177.9498 Y1429.6930 Z-20.0000 F5000
G1 X183.2924 Y1424.3507 Z-20.0000 F5000
G1 X200.9498 Y1424.3507 Z-20.0000 F5000
G1 X200.9498 Y1422.3479 Z-20.0000 F5000
G1 X195.9498 Y1422.3479 Z-20.0000 F5000
G1 X195.9498 Y1164.2601 Z-20.0000 F5000
G1 X200.9498 Y1164.2601 Z-20.0000 F5000
G1 X200.9498 Y1162.2573 Z-20.0000 F5000
G1 X183.2923 Y1162.2573 Z-20.0000 F5000
G1 X177.9498 Y1156.9149 Z-20.0000 F5000
G1 X177.9498 Y1099.6027 Z-20.0000 F5000
G1 X183.2923 Y1094.2602 Z-20.0000 F5000
G1 X200.9498 Y1094.2602 Z-20.0000 F5000
G1 X200.9498 Y1092.2573 Z-20.0000 F5000
G1 X195.9498 Y1092.2573 Z-20.0000 F5000
G1 X195.9498 Y834.1696 Z-20.0000 F5000
G1 X200.9498 Y834.1696 Z-20.0000 F5000
G1 X200.9498 Y832.1666 Z-20.0000 F5000
G1 X183.2925 Y832.1666 Z-20.0000 F5000
G1 X177.9498 Y826.8246 Z-20.0000 F5000
G1 X177.9498 Y803.1688 Z-20.0000 F5000
G1 X224.9477 Y803.1688 Z-20.0000 F5000
G1 X224.9477 Y808.1683 Z-20.0000 F5000
G1 X226.9497 Y808.1683 Z-20.0000 F5000
G1 X226.9497 Y788.1667 Z-20.0000 F5000
G1 X224.9477 Y788.1667 Z-20.0000 F5000
G1 X224.9477 Y793.1663 Z-20.0000 F5000
G1 X177.9498 Y793.1663 Z-20.0000 F5000
G1 X177.9498 Y769.5119 Z-20.0000 F5000
G1 X183.2924 Y764.1698 Z-20.0000 F5000
G1 X200.9498 Y764.1698 Z-20.0000 F5000
G1 X200.9498 Y762.1669 Z-20.0000 F5000
G1 X195.9498 Y762.1669 Z-20.0000 F5000
G1 X195.9498 Y644.1687 Z-20.0000 F5000
G1 X218.9497 Y644.1687 Z-20.0000 F5000
G1 X218.9497 Y642.1660 Z-20.0000 F5000
G1 X213.9497 Y642.1660 Z-20.0000 F5000
G1 X213.9497 Y534.1701 Z-20.0000 F5000
G1 X218.9497 Y534.1701 Z-20.0000 F5000
G1 X218.9497 Y532.1672 Z-20.0000 F5000
G1 X183.2924 Y532.1672 Z-20.0000 F5000
G1 X177.9498 Y526.8251 Z-20.0000 F5000
G1 X177.9498 Y469.5124 Z-20.0000 F5000
G1 X183.2925 Y464.1704 Z-20.0000 F5000
G1 X218.9497 Y464.1704 Z-20.0000 F5000
G1 X218.9497 Y462.1676 Z-20.0000 F5000
G1 X213.9497 Y462.1676 Z-20.0000 F5000
G1 X213.9497 Y234.1707 Z-20.0000 F5000
G1 X218.9497 Y234.1707 Z-20.0000 F5000
G1 X218.9497 Y232.1676 Z-20.0000 F5000
G1 X183.2925 Y232.1676 Z-20.0000 F5000
G1 X177.9498 Y226.8257 Z-20.0000 F5000
G1 X177.9498 Y205.5803 Z-20.0000 F5000
G1 X177.9498 Y205.5803 Z-10.0000 F9999
G1 X177.9498 Y189.5823 Z-10.0000 F5000
G1 X177.9498 Y189.5823 Z-20.0000 F2500
G1 X177.9498 Y169.5132 Z-20.0000 F5000
G1 X183.2923 Y164.1707 Z-20.0000 F5000
G1 X218.9497 Y164.1707 Z-20.0000 F5000
G1 X218.9497 Y162.1679 Z-20.0000 F5000
G1 X213.9497 Y162.1679 Z-20.0000 F5000
G1 X213.9497 Y5.9010 Z-20.0000 F5000
G1 X299.9476 Y5.9010 Z-20.0000 F5000
G1 X299.9476 Y162.1679 Z-20.0000 F5000
G1 X294.9476 Y162.1679 Z-20.0000 F5000
G1 X294.9476 Y164.1707 Z-20.0000 F5000
G1 X330.6050 Y164.1707 Z-20.0000 F5000
G1 X335.9475 Y169.5132 Z-20.0000 F5000
G1 X335.9475 Y189.5823 Z-20.0000 F5000
G1 X335.9475 Y189.5823 Z-10.0000 F9999
G1 X335.9475 Y205.5803 Z-10.0000 F5000
G1 X335.9475 Y205.5803 Z-20.0000 F2500
G1 X335.9475 Y226.8257 Z-20.0000 F5000
G1 X330.6048 Y232.1676 Z-20.0000 F5000
G1 X294.9476 Y232.1676 Z-20.0000 F5000
G1 X294.9476 Y234.1707 Z-20.0000 F5000
G1 X299.9476 Y234.1707 Z-20.0000 F5000
G1 X299.9476 Y462.1676 Z-20.0000 F5000
G1 X294.9476 Y462.1676 Z-20.0000 F5000
G1 X294.9476 Y464.1704 Z-20.0000 F5000
G1 X330.6048 Y464.1704 Z-20.0000 F5000
G1 X335.9475 Y469.5124 Z-20.0000 F5000
G1 X335.9475 Y526.8251 Z-20.0000 F5000
G1 X330.6048 Y532.1672 Z-20.0000 F5000
G1 X294.9476 Y532.1672 Z-20.0000 F5000
G1 X294.9476 Y534.1701 Z-20.0000 F5000
G1 X299.9475 Y534.1701 Z-20.0000 F5000
G1 X299.9500 Y642.1660 Z-20.0000 F5000
G1 X294.9499 Y642.1660 Z-20.0000 F5000
G1 X294.9499 Y644.1687 Z-20.0000 F5000
G1 X317.9475 Y644.1687 Z-20.0000 F5000
G1 X317.9475 Y762.1669 Z-20.0000 F5000
G1 X312.9475 Y762.1669 Z-20.0000 F5000
G1 X312.9475 Y764.1698 Z-20.0000 F5000
G1 X330.6048 Y764.1698 Z-20.0000 F5000
G1 X335.9475 Y769.5119 Z-20.0000 F5000
G1 X335.9475 Y793.1663 Z-20.0000 F5000
G1 X288.9496 Y793.1663 Z-20.0000 F5000
G1 X288.9496 Y788.1667 Z-20.0000 F5000
G1 X286.9476 Y788.1667 Z-20.0000 F5000
G1 X286.9476 Y808.1683 Z-20.0000 F5000
G1 X288.9496 Y808.1683 Z-20.0000 F5000
G1 X288.9496 Y803.1688 Z-20.0000 F5000
G1 X335.9475 Y803.1688 Z-20.0000 F5000
G1 X335.9475 Y826.8246 Z-20.0000 F5000
G1 X330.6048 Y832.1666 Z-20.0000 F5000
G1 X312.9475 Y832.1666 Z-20.0000 F5000
G1 X312.9475 Y834.1696 Z-20.0000 F5000
G1 X317.9475 Y834.1696 Z-20.0000 F5000
G1 X317.9475 Y1092.2573 Z-20.0000 F5000
G1 X312.9475 Y1092.2573 Z-20.0000 F5000
G1 X312.9475 Y1094.2602 Z-20.0000 F5000
G1 X330.6049 Y1094.2602 Z-20.0000 F5000
G1 X335.9475 Y1099.6027 Z-20.0000 F5000
G1 X335.9475 Y1156.9149 Z-20.0000 F5000
G1 X330.6049 Y1162.2573 Z-20.0000 F5000
G1 X312.9475 Y1162.2573 Z-20.0000 F5000
G1 X312.9475 Y1164.2601 Z-20.0000 F5000
G1 X317.9475 Y1164.2601 Z-20.0000 F5000
G1 X317.9475 Y1293.3040 Z-20.0000 F5000
G1 X317.9475 Y1293.3040 Z10.0000 F9999
G1 X662.0452 Y1293.3040 Z10.0000 F9999
G1 X662.0452 Y1293.3040 Z1.0000 F2500
G1 X662.0452 Y1332.2751 Z-9.5000 F2500
G1 X662.0452 Y1293.3040 Z-20.0000 F2500
G1 X662.0452 Y1422.3479 Z-20.0000 F5000
G1 X657.0452 Y1422.3479 Z-20.0000 F5000
G1 X657.0452 Y1424.3507 Z-20.0000 F5000
G1 X674.7026 Y1424.3507 Z-20.0000 F5000
G1 X680.0451 Y1429.6930 Z-20.0000 F5000
G1 X680.0451 Y1453.3487 Z-20.0000 F5000
G1 X633.0472 Y1453.3487 Z-20.0000 F5000
G1 X633.0472 Y1448.3492 Z-20.0000 F5000
G1 X631.0452 Y1448.3492 Z-20.0000 F5000
G1 X631.0452 Y1468.3507 Z-20.0000 F5000
G1 X633.0472 Y1468.3507 Z-20.0000 F5000
G1 X633.0472 Y1463.3512 Z-20.0000 F5000
G1 X680.0451 Y1463.3512 Z-20.0000 F5000
G1 X680.0451 Y1487.0056 Z-20.0000 F5000
G1 X674.7024 Y1492.3476 Z-20.0000 F5000
G1 X657.0452 Y1492.3476 Z-20.0000 F5000
G1 X657.0452 Y1494.3505 Z-20.0000 F5000
G1 X662.0452 Y1494.3505 Z-20.0000 F5000
G1 X662.0452 Y1612.3488 Z-20.0000 F5000
G1 X639.0475 Y1612.3488 Z-20.0000 F5000
G1 X639.0475 Y1614.3515 Z-20.0000 F5000
G1 X644.0476 Y1614.3515 Z-20.0000 F5000
G1 X644.0451 Y1722.3474 Z-20.0000 F5000
G1 X639.0452 Y1722.3474 Z-20.0000 F5000
G1 X639.0452 Y1724.3502 Z-20.0000 F5000
G1 X674.7025 Y1724.3502 Z-20.0000 F5000
G1 X680.0451 Y1729.6925 Z-20.0000 F5000
G1 X680.0451 Y1787.0051 Z-20.0000 F5000
G1 X674.7024 Y1792.3470 Z-20.0000 F5000
G1 X639.0452 Y1792.3470 Z-20.0000 F5000
G1 X639.0452 Y1794.3501 Z-20.0000 F5000
G1 X644.0452 Y1794.3501 Z-20.0000 F5000
G1 X644.0452 Y2022.3475 Z-20.0000 F5000
G1 X639.0452 Y2022.3475 Z-20.0000 F5000
G1 X639.0452 Y2024.3493 Z-20.0000 F5000
G1 X674.7027 Y2024.3493 Z-20.0000 F5000
G1 X680.0451 Y2029.6921 Z-20.0000 F5000
G1 X680.0451 Y2051.9374 Z-20.0000 F5000
G1 X680.0451 Y2051.9374 Z-10.0000 F9999
G1 X680.0451 Y2067.9354 Z-10.0000 F5000
G1 X680.0451 Y2067.9354 Z-20.0000 F2500
G1 X680.0451 Y2087.0046 Z-20.0000 F5000
G1 X674.7026 Y2092.3472 Z-20.0000 F5000
G1 X639.0452 Y2092.3472 Z-20.0000 F5000
G1 X639.0452 Y2094.3493 Z-20.0000 F5000
G1 X644.0452 Y2094.3493 Z-20.0000 F5000
G1 X644.0452 Y2282.7282 Z-20.0000 F5000
G1 X558.0473 Y2282.7282 Z-20.0000 F5000
G1 X558.0473 Y2094.3493 Z-20.0000 F5000
G1 X563.0473 Y2094.3493 Z-20.0000 F5000
G1 X563.0473 Y2092.3472 Z-20.0000 F5000
G1 X527.3899 Y2092.3472 Z-20.0000 F5000
G1 X522.0475 Y2087.0046 Z-20.0000 F5000
G1 X522.0475 Y2067.5040 Z-20.0000 F5000
G1 X522.0475 Y2067.5040 Z-10.0000 F9999
G1 X522.0475 Y2051.5060 Z-10.0000 F5000
G1 X522.0475 Y2051.5060 Z-20.0000 F2500
G1 X522.0475 Y2029.6921 Z-20.0000 F5000
G1 X527.3899 Y2024.3493 Z-20.0000 F5000
G1 X563.0473 Y2024.3493 Z-20.0000 F5000
G1 X563.0473 Y2022.3475 Z-20.0000 F5000
G1 X558.0473 Y2022.3475 Z-20.0000 F5000
G1 X558.0473 Y1794.3501 Z-20.0000 F5000
G1 X563.0473 Y1794.3501 Z-20.0000 F5000
G1 X563.0473 Y1792.3470 Z-20.0000 F5000
G1 X527.3901 Y1792.3470 Z-20.0000 F5000
G1 X522.0475 Y1787.0051 Z-20.0000 F5000
G1 X522.0475 Y1729.6925 Z-20.0000 F5000
G1 X527.3900 Y1724.3502 Z-20.0000 F5000
G1 X563.0473 Y1724.3502 Z-20.0000 F5000
G1 X563.0473 Y1722.3474 Z-20.0000 F5000
G1 X558.0473 Y1722.3474 Z-20.0000 F5000
G1 X558.0473 Y1614.3515 Z-20.0000 F5000
G1 X563.0473 Y1614.3515 Z-20.0000 F5000
G1 X563.0473 Y1612.3488 Z-20.0000 F5000
G1 X540.0474 Y1612.3488 Z-20.0000 F5000
G1 X540.0474 Y1494.3505 Z-20.0000 F5000
G1 X545.0474 Y1494.3505 Z-20.0000 F5000
G1 X545.0474 Y1492.3476 Z-20.0000 F5000
G1 X527.3901 Y1492.3476 Z-20.0000 F5000
G1 X522.0475 Y1487.0056 Z-20.0000 F5000
G1 X522.0475 Y1463.3512 Z-20.0000 F5000
G1 X569.0453 Y1463.3512 Z-20.0000 F5000
G1 X569.0453 Y1468.3507 Z-20.0000 F5000
G1 X571.0473 Y1468.3507 Z-20.0000 F5000
G1 X571.0473 Y1448.3492 Z-20.0000 F5000
G1 X569.0453 Y1448.3492 Z-20.0000 F5000
G1 X569.0453 Y1453.3487 Z-20.0000 F5000
G1 X522.0475 Y1453.3487 Z-20.0000 F5000
G1 X522.0475 Y1429.6930 Z-20.0000 F5000
G1 X527.3900 Y1424.3507 Z-20.0000 F5000
G1 X545.0474 Y1424.3507 Z-20.0000 F5000
G1 X545.0474 Y1422.3479 Z-20.0000 F5000
G1 X540.0474 Y1422.3479 Z-20.0000 F5000
G1 X540.0474 Y1164.2601 Z-20.0000 F5000
G1 X545.0474 Y1164.2601 Z-20.0000 F5000
G1 X545.0474 Y1162.2573 Z-20.0000 F5000
G1 X527.3900 Y1162.2573 Z-20.0000 F5000
G1 X522.0475 Y1156.9149 Z-20.0000 F5000
G1 X522.0475 Y1099.6027 Z-20.0000 F5000
G1 X527.3900 Y1094.2602 Z-20.0000 F5000
G1 X545.0474 Y1094.2602 Z-20.0000 F5000
G1 X545.0474 Y1092.2573 Z-20.0000 F5000
G1 X540.0474 Y1092.2573 Z-20.0000 F5000
G1 X540.0474 Y834.1696 Z-20.0000 F5000
G1 X545.0474 Y834.1696 Z-20.0000 F5000
G1 X545.0474 Y832.1666 Z-20.0000 F5000
G1 X527.3901 Y832.1666 Z-20.0000 F5000
G1 X522.0475 Y826.8246 Z-20.0000 F5000
G1 X522.0475 Y803.1688 Z-20.0000 F5000
G1 X569.0453 Y803.1688 Z-20.0000 F5000
G1 X569.0453 Y808.1683 Z-20.0000 F5000
G1 X571.0473 Y808.1683 Z-20.0000 F5000
G1 X571.0473 Y788.1667 Z-20.0000 F5000
G1 X569.0453 Y788.1667 Z-20.0000 F5000
G1 X569.0453 Y793.1663 Z-20.0000 F5000
G1 X522.0475 Y793.1663 Z-20.0000 F5000
G1 X522.0475 Y769.5119 Z-20.0000 F5000
G1 X527.3901 Y764.1698 Z-20.0000 F5000
G1 X545.0474 Y764.1698 Z-20.0000 F5000
G1 X545.0474 Y762.1669 Z-20.0000 F5000
G1 X540.0474 Y762.1669 Z-20.0000 F5000
G1 X540.0474 Y644.1687 Z-20.0000 F5000
G1 X563.0473 Y644.1687 Z-20.0000 F5000
G1 X563.0473 Y642.1660 Z-20.0000 F5000
G1 X558.0473 Y642.1660 Z-20.0000 F5000
G1 X558.0473 Y534.1701 Z-20.0000 F5000
G1 X563.0473 Y534.1701 Z-20.0000 F5000
G1 X563.0473 Y532.1672 Z-20.0000 F5000
G1 X527.3901 Y532.1672 Z-20.0000 F5000
G1 X522.0475 Y526.8251 Z-20.0000 F5000
G1 X522.0475 Y469.5124 Z-20.0000 F5000
G1 X527.3901 Y464.1704 Z-20.0000 F5000
G1 X563.0473 Y464.1704 Z-20.0000 F5000
G1 X563.0473 Y462.1676 Z-20.0000 F5000
G1 X558.0473 Y462.1676 Z-20.0000 F5000
G1 X558.0473 Y234.1707 Z-20.0000 F5000
G1 X563.0473 Y234.1707 Z-20.0000 F5000
G1 X563.0473 Y232.1676 Z-20.0000 F5000
G1 X527.3901 Y232.1676 Z-20.0000 F5000
G1 X522.0475 Y226.8257 Z-20.0000 F5000
G1 X522.0475 Y205.1489 Z-20.0000 F5000
G1 X522.0475 Y205.1489 Z-10.0000 F9999
G1 X522.0475 Y189.1509 Z-10.0000 F5000
G1 X522.0475 Y189.1509 Z-20.0000 F2500
G1 X522.0475 Y169.5132 Z-20.0000 F5000
G1 X527.3899 Y164.1707 Z-20.0000 F5000
G1 X563.0473 Y164.1707 Z-20.0000 F5000
G1 X563.0473 Y162.1679 Z-20.0000 F5000
G1 X558.0473 Y162.1679 Z-20.0000 F5000
G1 X558.0473 Y5.9010 Z-20.0000 F5000
G1 X644.0452 Y5.9010 Z-20.0000 F5000
G1 X644.0452 Y162.1679 Z-20.0000 F5000
G1 X639.0452 Y162.1679 Z-20.0000 F5000
G1 X639.0452 Y164.1707 Z-20.0000 F5000
G1 X674.7026 Y164.1707 Z-20.0000 F5000
G1 X680.0451 Y169.5132 Z-20.0000 F5000
G1 X680.0451 Y189.5823 Z-20.0000 F5000
G1 X680.0451 Y189.5823 Z-10.0000 F9999
G1 X680.0451 Y205.5803 Z-10.0000 F5000
G1 X680.0451 Y205.5803 Z-20.0000 F2500
G1 X680.0451 Y226.8257 Z-20.0000 F5000
G1 X674.7024 Y232.1676 Z-20.0000 F5000
G1 X639.0452 Y232.1676 Z-20.0000 F5000
G1 X639.0452 Y234.1707 Z-20.0000 F5000
G1 X644.0452 Y234.1707 Z-20.0000 F5000
G1 X644.0452 Y462.1676 Z-20.0000 F5000
G1 X639.0452 Y462.1676 Z-20.0000 F5000
G1 X639.0452 Y464.1704 Z-20.0000 F5000
G1 X674.7024 Y464.1704 Z-20.0000 F5000
G1 X680.0451 Y469.5124 Z-20.0000 F5000
G1 X680.0451 Y526.8251 Z-20.0000 F5000
G1 X674.7025 Y532.1672 Z-20.0000 F5000
G1 X639.0452 Y532.1672 Z-20.0000 F5000
G1 X639.0452 Y534.1701 Z-20.0000 F5000
G1 X644.0451 Y534.1701 Z-20.0000 F5000
G1 X644.0476 Y642.1660 Z-20.0000 F5000
G1 X639.0475 Y642.1660 Z-20.0000 F5000
G1 X639.0475 Y644.1687 Z-20.0000 F5000
G1 X662.0452 Y644.1687 Z-20.0000 F5000
G1 X662.0452 Y762.1669 Z-20.0000 F5000
G1 X657.0452 Y762.1669 Z-20.0000 F5000
G1 X657.0452 Y764.1698 Z-20.0000 F5000
G1 X674.7025 Y764.1698 Z-20.0000 F5000
G1 X680.0451 Y769.5119 Z-20.0000 F5000
G1 X680.0451 Y793.1663 Z-20.0000 F5000
G1 X633.0472 Y793.1663 Z-20.0000 F5000
G1 X633.0472 Y788.1667 Z-20.0000 F5000
G1 X631.0452 Y788.1667 Z-20.0000 F5000
G1 X631.0452 Y808.1683 Z-20.0000 F5000
G1 X633.0472 Y808.1683 Z-20.0000 F5000
G1 X633.0472 Y803.1688 Z-20.0000 F5000
G1 X680.0451 Y803.1688 Z-20.0000 F5000
G1 X680.0451 Y826.8246 Z-20.0000 F5000
G1 X674.7024 Y832.1666 Z-20.0000 F5000
G1 X657.0452 Y832.1666 Z-20.0000 F5000
G1 X657.0452 Y834.1696 Z-20.0000 F5000
G1 X662.0452 Y834.1696 Z-20.0000 F5000
G1 X662.0452 Y1092.2573 Z-20.0000 F5000
G1 X657.0452 Y1092.2573 Z-20.0000 F5000
G1 X657.0452 Y1094.2602 Z-20.0000 F5000
G1 X674.7026 Y1094.2602 Z-20.0000 F5000
G1 X680.0451 Y1099.6027 Z-20.0000 F5000
G1 X680.0451 Y1156.9149 Z-20.0000 F5000
G1 X674.7026 Y1162.2573 Z-20.0000 F5000
G1 X657.0452 Y1162.2573 Z-20.0000 F5000
G1 X657.0452 Y1164.2601 Z-20.0000 F5000
G1 X662.0452 Y1164.2601 Z-20.0000 F5000
G1 X662.0452 Y1293.3040 Z-20.0000 F5000
G1 X662.0452 Y1293.3040 Z10.0000 F9999
G1 X1006.1428 Y1293.3040 Z10.0000 F9999
G1 X1006.1428 Y1293.3040 Z1.0000 F2500
G1 X1006.1428 Y1332.2751 Z-9.5000 F2500
G1 X1006.1428 Y1293.3040 Z-20.0000 F2500
G1 X1006.1428 Y1422.3479 Z-20.0000 F5000
G1 X1001.1428 Y1422.3479 Z-20.0000 F5000
G1 X1001.1428 Y1424.3507 Z-20.0000 F5000
G1 X1018.8002 Y1424.3507 Z-20.0000 F5000
G1 X1024.1427 Y1429.6930 Z-20.0000 F5000
G1 X1024.1427 Y1453.3487 Z-20.0000 F5000
G1 X977.1449 Y1453.3487 Z-20.0000 F5000
G1 X977.1449 Y1448.3492 Z-20.0000 F5000
G1 X975.1429 Y1448.3492 Z-20.0000 F5000
G1 X975.1429 Y1468.3507 Z-20.0000 F5000
G1 X977.1449 Y1468.3507 Z-20.0000 F5000
G1 X977.1449 Y1463.3512 Z-20.0000 F5000
G1 X1024.1427 Y1463.3512 Z-20.0000 F5000
G1 X1024.1427 Y1487.0056 Z-20.0000 F5000
G1 X1018.8001 Y1492.3476 Z-20.0000 F5000
G1 X1001.1428 Y1492.3476 Z-20.0000 F5000
G1 X1001.1428 Y1494.3505 Z-20.0000 F5000
G1 X1006.1428 Y1494.3505 Z-20.0000 F5000
G1 X1006.1428 Y1612.3488 Z-20.0000 F5000
G1 X983.1452 Y1612.3488 Z-20.0000 F5000
G1 X983.1452 Y1614.3515 Z-20.0000 F5000
G1 X988.1453 Y1614.3515 Z-20.0000 F5000
G1 X988.1428 Y1722.3474 Z-20.0000 F5000
G1 X983.1429 Y1722.3474 Z-20.0000 F5000
G1 X983.1429 Y1724.3502 Z-20.0000 F5000
G1 X1018.8002 Y1724.3502 Z-20.0000 F5000
G1 X1024.1427 Y1729.6925 Z-20.0000 F5000
G1 X1024.1427 Y1787.0051 Z-20.0000 F5000
G1 X1018.8001 Y1792.3470 Z-20.0000 F5000
G1 X983.1429 Y1792.3470 Z-20.0000 F5000
G1 X983.1429 Y1794.3501 Z-20.0000 F5000
G1 X988.1429 Y1794.3501 Z-20.0000 F5000
G1 X988.1429 Y2022.3475 Z-20.0000 F5000
G1 X983.1429 Y2022.3475 Z-20.0000 F5000
G1 X983.1429 Y2024.3493 Z-20.0000 F5000
G1 X1018.8003 Y2024.3493 Z-20.0000 F5000
G1 X1024.1427 Y2029.6921 Z-20.0000 F5000
G1 X1024.1427 Y2048.9175 Z-20.0000 F5000
G1 X1024.1427 Y2048.9175 Z-10.0000 F9999
G1 X1024.1427 Y2064.9155 Z-10.0000 F5000
G1 X1024.1427 Y2064.9155 Z-20.0000 F2500
G1 X1024.1427 Y2087.0046 Z-20.0000 F5000
G1 X1018.8003 Y2092.3472 Z-20.0000 F5000
G1 X983.1429 Y2092.3472 Z-20.0000 F5000
G1 X983.1429 Y2094.3493 Z-20.0000 F5000
G1 X988.1429 Y2094.3493 Z-20.0000 F5000
G1 X988.1429 Y2282.7282 Z-20.0000 F5000
G1 X902.1450 Y2282.7282 Z-20.0000 F5000
G1 X902.1450 Y2094.3493 Z-20.0000 F5000
G1 X907.1450 Y2094.3493 Z-20.0000 F5000
G1 X907.1450 Y2092.3472 Z-20.0000 F5000
G1 X871.4876 Y2092.3472 Z-20.0000 F5000
G1 X866.1451 Y2087.0046 Z-20.0000 F5000
G1 X866.1451 Y2065.7783 Z-20.0000 F5000
G1 X866.1451 Y2065.7783 Z-10.0000 F9999
G1 X866.1451 Y2049.7803 Z-10.0000 F5000
G1 X866.1451 Y2049.7803 Z-20.0000 F2500
G1 X866.1451 Y2029.6921 Z-20.0000 F5000
G1 X871.4875 Y2024.3493 Z-20.0000 F5000
G1 X907.1450 Y2024.3493 Z-20.0000 F5000
G1 X907.1450 Y2022.3475 Z-20.0000 F5000
G1 X902.1450 Y2022.3475 Z-20.0000 F5000
G1 X902.1450 Y1794.3501 Z-20.0000 F5000
G1 X907.1450 Y1794.3501 Z-20.0000 F5000
G1 X907.1450 Y1792.3470 Z-20.0000 F5000
G1 X871.4878 Y1792.3470 Z-20.0000 F5000
G1 X866.1451 Y1787.0051 Z-20.0000 F5000
G1 X866.1451 Y1729.6925 Z-20.0000 F5000
G1 X871.4876 Y1724.3502 Z-20.0000 F5000
G1 X907.1450 Y1724.3502 Z-20.0000 F5000
G1 X907.1450 Y1722.3474 Z-20.0000 F5000
G1 X902.1450 Y1722.3474 Z-20.0000 F5000
G1 X902.1450 Y1614.3515 Z-20.0000 F5000
G1 X907.1450 Y1614.3515 Z-20.0000 F5000
G1 X907.1450 Y1612.3488 Z-20.0000 F5000
G1 X884.1450 Y1612.3488 Z-20.0000 F5000
G1 X884.1450 Y1494.3505 Z-20.0000 F5000
G1 X889.1450 Y1494.3505 Z-20.0000 F5000
G1 X889.1450 Y1492.3476 Z-20.0000 F5000
G1 X871.4878 Y1492.3476 Z-20.0000 F5000
G1 X866.1451 Y1487.0056 Z-20.0000 F5000
G1 X866.1451 Y1463.3512 Z-20.0000 F5000
G1 X913.1430 Y1463.3512 Z-20.0000 F5000
G1 X913.1430 Y1468.3507 Z-20.0000 F5000
G1 X915.1450 Y1468.3507 Z-20.0000 F5000
G1 X915.1450 Y1448.3492 Z-20.0000 F5000
G1 X913.1430 Y1448.3492 Z-20.0000 F5000
G1 X913.1430 Y1453.3487 Z-20.0000 F5000
G1 X866.1451 Y1453.3487 Z-20.0000 F5000
G1 X866.1451 Y1429.6930 Z-20.0000 F5000
G1 X871.4876 Y1424.3507 Z-20.0000 F5000
G1 X889.1450 Y1424.3507 Z-20.0000 F5000
G1 X889.1450 Y1422.3479 Z-20.0000 F5000
G1 X884.1450 Y1422.3479 Z-20.0000 F5000
G1 X884.1450 Y1164.2601 Z-20.0000 F5000
G1 X889.1450 Y1164.2601 Z-20.0000 F5000
G1 X889.1450 Y1162.2573 Z-20.0000 F5000
G1 X871.4876 Y1162.2573 Z-20.0000 F5000
G1 X866.1451 Y1156.9149 Z-20.0000 F5000
G1 X866.1451 Y1099.6027 Z-20.0000 F5000
G1 X871.4876 Y1094.2602 Z-20.0000 F5000
G1 X889.1450 Y1094.2602 Z-20.0000 F5000
G1 X889.1450 Y1092.2573 Z-20.0000 F5000
G1 X884.1450 Y1092.2573 Z-20.0000 F5000
G1 X884.1450 Y834.1696 Z-20.0000 F5000
G1 X889.1450 Y834.1696 Z-20.0000 F5000
G1 X889.1450 Y832.1666 Z-20.0000 F5000
G1 X871.4878 Y832.1666 Z-20.0000 F5000
G1 X866.1451 Y826.8246 Z-20.0000 F5000
G1 X866.1451 Y803.1688 Z-20.0000 F5000
G1 X913.1430 Y803.1688 Z-20.0000 F5000
G1 X913.1430 Y808.1683 Z-20.0000 F5000
G1 X915.1450 Y808.1683 Z-20.0000 F5000
G1 X915.1450 Y788.1667 Z-20.0000 F5000
G1 X913.1430 Y788.1667 Z-20.0000 F5000
G1 X913.1430 Y793.1663 Z-20.0000 F5000
G1 X866.1451 Y793.1663 Z-20.0000 F5000
G1 X866.1451 Y769.5119 Z-20.0000 F5000
G1 X871.4877 Y764.1698 Z-20.0000 F5000
G1 X889.1450 Y764.1698 Z-20.0000 F5000
G1 X889.1450 Y762.1669 Z-20.0000 F5000
G1 X884.1450 Y762.1669 Z-20.0000 F5000
G1 X884.1450 Y644.1687 Z-20.0000 F5000
G1 X907.1450 Y644.1687 Z-20.0000 F5000
G1 X907.1450 Y642.1660 Z-20.0000 F5000
G1 X902.1450 Y642.1660 Z-20.0000 F5000
G1 X902.1450 Y534.1701 Z-20.0000 F5000
G1 X907.1450 Y534.1701 Z-20.0000 F5000
G1 X907.1450 Y532.1672 Z-20.0000 F5000
G1 X871.4877 Y532.1672 Z-20.0000 F5000
G1 X866.1451 Y526.8251 Z-20.0000 F5000
G1 X866.1451 Y469.5124 Z-20.0000 F5000
G1 X871.4877 Y464.1704 Z-20.0000 F5000
G1 X907.1450 Y464.1704 Z-20.0000 F5000
G1 X907.1450 Y462.1676 Z-20.0000 F5000
G1 X902.1450 Y462.1676 Z-20.0000 F5000
G1 X902.1450 Y234.1707 Z-20.0000 F5000
G1 X907.1450 Y234.1707 Z-20.0000 F5000
G1 X907.1450 Y232.1676 Z-20.0000 F5000
G1 X871.4878 Y232.1676 Z-20.0000 F5000
G1 X866.1451 Y226.8257 Z-20.0000 F5000
G1 X866.1451 Y206.0117 Z-20.0000 F5000
G1 X866.1451 Y206.0117 Z-10.0000 F9999
G1 X866.1451 Y190.0137 Z-10.0000 F5000
G1 X866.1451 Y190.0137 Z-20.0000 F2500
G1 X866.1451 Y169.5132 Z-20.0000 F5000
G1 X871.4876 Y164.1707 Z-20.0000 F5000
G1 X907.1450 Y164.1707 Z-20.0000 F5000
G1 X907.1450 Y162.1679 Z-20.0000 F5000
G1 X902.1450 Y162.1679 Z-20.0000 F5000
G1 X902.1450 Y5.9010 Z-20.0000 F5000
G1 X988.1429 Y5.9010 Z-20.0000 F5000
G1 X988.1429 Y162.1679 Z-20.0000 F5000
G1 X983.1429 Y162.1679 Z-20.0000 F5000
G1 X983.1429 Y164.1707 Z-20.0000 F5000
G1 X1018.8002 Y164.1707 Z-20.0000 F5000
G1 X1024.1427 Y169.5132 Z-20.0000 F5000
G1 X1024.1427 Y187.8567 Z-20.0000 F5000
G1 X1024.1427 Y187.8567 Z-10.0000 F9999
G1 X1024.1427 Y203.8547 Z-10.0000 F5000
G1 X1024.1427 Y203.8547 Z-20.0000 F2500
G1 X1024.1427 Y226.8257 Z-20.0000 F5000
G1 X1018.8001 Y232.1676 Z-20.0000 F5000
G1 X983.1429 Y232.1676 Z-20.0000 F5000
G1 X983.1429 Y234.1707 Z-20.0000 F5000
G1 X988.1429 Y234.1707 Z-20.0000 F5000
G1 X988.1429 Y462.1676 Z-20.0000 F5000
G1 X983.1429 Y462.1676 Z-20.0000 F5000
G1 X983.1429 Y464.1704 Z-20.0000 F5000
G1 X1018.8001 Y464.1704 Z-20.0000 F5000
G1 X1024.1427 Y469.5124 Z-20.0000 F5000
G1 X1024.1427 Y526.8251 Z-20.0000 F5000
G1 X1018.8001 Y532.1672 Z-20.0000 F5000
G1 X983.1429 Y532.1672 Z-20.0000 F5000
G1 X983.1429 Y534.1701 Z-20.0000 F5000
G1 X988.1428 Y534.1701 Z-20.0000 F5000
G1 X988.1453 Y642.1660 Z-20.0000 F5000
G1 X983.1452 Y642.1660 Z-20.0000 F5000
G1 X983.1452 Y644.1687 Z-20.0000 F5000
G1 X1006.1428 Y644.1687 Z-20.0000 F5000
G1 X1006.1428 Y762.1669 Z-20.0000 F5000
G1 X1001.1428 Y762.1669 Z-20.0000 F5000
G1 X1001.1428 Y764.1698 Z-20.0000 F5000
G1 X1018.8001 Y764.1698 Z-20.0000 F5000
G1 X1024.1427 Y769.5119 Z-20.0000 F5000
G1 X1024.1427 Y793.1663 Z-20.0000 F5000
G1 X977.1449 Y793.1663 Z-20.0000 F5000
G1 X977.1449 Y788.1667 Z-20.0000 F5000
G1 X975.1429 Y788.1667 Z-20.0000 F5000
G1 X975.1429 Y808.1683 Z-20.0000 F5000
G1 X977.1449 Y808.1683 Z-20.0000 F5000
G1 X977.1449 Y803.1688 Z-20.0000 F5000
G1 X1024.1427 Y803.1688 Z-20.0000 F5000
G1 X1024.1427 Y826.8246 Z-20.0000 F5000
G1 X1018.8001 Y832.1666 Z-20.0000 F5000
G1 X1001.1428 Y832.1666 Z-20.0000 F5000
G1 X1001.1428 Y834.1696 Z-20.0000 F5000
G1 X1006.1428 Y834.1696 Z-20.0000 F5000
G1 X1006.1428 Y1092.2573 Z-20.0000 F5000
G1 X1001.1428 Y1092.2573 Z-20.0000 F5000
G1 X1001.1428 Y1094.2602 Z-20.0000 F5000
G1 X1018.8002 Y1094.2602 Z-20.0000 F5000
G1 X1024.1427 Y1099.6027 Z-20.0000 F5000
G1 X1024.1427 Y1156.9149 Z-20.0000 F5000
G1 X1018.8002 Y1162.2573 Z-20.0000 F5000
G1 X1001.1428 Y1162.2573 Z-20.0000 F5000
G1 X1001.1428 Y1164.2601 Z-20.0000 F5000
G1 X1006.1428 Y1164.2601 Z-20.0000 F5000
G1 X1006.1428 Y1293.3040 Z-20.0000 F5000
G1 X1006.1428 Y1293.3040 Z10.0000 F9999
G1 X145.8987 Y1293.3040 Z10.0000 F9999
G1 X145.8987 Y1293.3040 Z1.0000 F2500
G1 X145.8987 Y1332.2751 Z-9.5000 F2500
G1 X145.8987 Y1293.3040 Z-20.0000 F2500
G1 X145.8987 Y1422.3479 Z-20.0000 F5000
G1 X140.8987 Y1422.3479 Z-20.0000 F5000
G1 X140.8987 Y1424.3507 Z-20.0000 F5000
G1 X158.5561 Y1424.3507 Z-20.0000 F5000
G1 X163.8986 Y1429.6930 Z-20.0000 F5000
G1 X163.8986 Y1453.3487 Z-20.0000 F5000
G1 X116.9008 Y1453.3487 Z-20.0000 F5000
G1 X116.9008 Y1448.3492 Z-20.0000 F5000
G1 X114.8988 Y1448.3492 Z-20.0000 F5000
G1 X114.8988 Y1468.3507 Z-20.0000 F5000
G1 X116.9008 Y1468.3507 Z-20.0000 F5000
G1 X116.9008 Y1463.3512 Z-20.0000 F5000
G1 X163.8986 Y1463.3512 Z-20.0000 F5000
G1 X163.8986 Y1487.0056 Z-20.0000 F5000
G1 X158.5560 Y1492.3476 Z-20.0000 F5000
G1 X140.8987 Y1492.3476 Z-20.0000 F5000
G1 X140.8987 Y1494.3505 Z-20.0000 F5000
G1 X145.8987 Y1494.3505 Z-20.0000 F5000
G1 X145.8987 Y1612.3488 Z-20.0000 F5000
G1 X122.9011 Y1612.3488 Z-20.0000 F5000
G1 X122.9011 Y1614.3515 Z-20.0000 F5000
G1 X127.9012 Y1614.3515 Z-20.0000 F5000
G1 X127.8987 Y1722.3474 Z-20.0000 F5000
G1 X122.8988 Y1722.3474 Z-20.0000 F5000
G1 X122.8988 Y1724.3502 Z-20.0000 F5000
G1 X158.5561 Y1724.3502 Z-20.0000 F5000
G1 X163.8986 Y1729.6925 Z-20.0000 F5000
G1 X163.8986 Y1787.0051 Z-20.0000 F5000
G1 X158.5560 Y1792.3470 Z-20.0000 F5000
G1 X122.8988 Y1792.3470 Z-20.0000 F5000
G1 X122.8988 Y1794.3501 Z-20.0000 F5000
G1 X127.8988 Y1794.3501 Z-20.0000 F5000
G1 X127.8988 Y2022.3475 Z-20.0000 F5000
G1 X122.8988 Y2022.3475 Z-20.0000 F5000
G1 X122.8988 Y2024.3493 Z-20.0000 F5000
G1 X158.5562 Y2024.3493 Z-20.0000 F5000
G1 X163.8986 Y2029.6921 Z-20.0000 F5000
G1 X163.8986 Y2087.0046 Z-20.0000 F5000
G1 X158.5562 Y2092.3472 Z-20.0000 F5000
G1 X122.8988 Y2092.3472 Z-20.0000 F5000
G1 X122.8988 Y2094.3493 Z-20.0000 F5000
G1 X127.8988 Y2094.3493 Z-20.0000 F5000
G1 X127.8988 Y2282.7282 Z-20.0000 F5000
G1 X41.9009 Y2282.7282 Z-20.0000 F5000
G1 X41.9009 Y2094.3493 Z-20.0000 F5000
G1 X46.9009 Y2094.3493 Z-20.0000 F5000
G1 X46.9009 Y2092.3472 Z-20.0000 F5000
G1 X11.2435 Y2092.3472 Z-20.0000 F5000
G1 X5.9010 Y2087.0046 Z-20.0000 F5000
G1 X5.9010 Y2029.6921 Z-20.0000 F5000
G1 X11.2434 Y2024.3493 Z-20.0000 F5000
G1 X46.9009 Y2024.3493 Z-20.0000 F5000
G1 X46.9009 Y2022.3475 Z-20.0000 F5000
G1 X41.9009 Y2022.3475 Z-20.0000 F5000
G1 X41.9009 Y1794.3501 Z-20.0000 F5000
G1 X46.9009 Y1794.3501 Z-20.0000 F5000
G1 X46.9009 Y1792.3470 Z-20.0000 F5000
G1 X11.2437 Y1792.3470 Z-20.0000 F5000
G1 X5.9010 Y1787.0051 Z-20.0000 F5000
G1 X5.9010 Y1729.6925 Z-20.0000 F5000
G1 X11.2435 Y1724.3502 Z-20.0000 F5000
G1 X46.9009 Y1724.3502 Z-20.0000 F5000
G1 X46.9009 Y1722.3474 Z-20.0000 F5000
G1 X41.9009 Y1722.3474 Z-20.0000 F5000
G1 X41.9009 Y1614.3515 Z-20.0000 F5000
G1 X46.9009 Y1614.3515 Z-20.0000 F5000
G1 X46.9009 Y1612.3488 Z-20.0000 F5000
G1 X23.9009 Y1612.3488 Z-20.0000 F5000
G1 X23.9009 Y1494.3505 Z-20.0000 F5000
G1 X28.9009 Y1494.3505 Z-20.0000 F5000
G1 X28.9009 Y1492.3476 Z-20.0000 F5000
G1 X11.2437 Y1492.3476 Z-20.0000 F5000
G1 X5.9010 Y1487.0056 Z-20.0000 F5000
G1 X5.9010 Y1463.3512 Z-20.0000 F5000
G1 X52.8989 Y1463.3512 Z-20.0000 F5000
G1 X52.8989 Y1468.3507 Z-20.0000 F5000
G1 X54.9009 Y1468.3507 Z-20.0000 F5000
G1 X54.9009 Y1448.3492 Z-20.0000 F5000
G1 X52.8989 Y1448.3492 Z-20.0000 F5000
G1 X52.8989 Y1453.3487 Z-20.0000 F5000
G1 X5.9010 Y1453.3487 Z-20.0000 F5000
G1 X5.9010 Y1429.6930 Z-20.0000 F5000
G1 X11.2435 Y1424.3507 Z-20.0000 F5000
G1 X28.9009 Y1424.3507 Z-20.0000 F5000
G1 X28.9009 Y1422.3479 Z-20.0000 F5000
G1 X23.9009 Y1422.3479 Z-20.0000 F5000
G1 X23.9009 Y1164.2601 Z-20.0000 F5000
G1 X28.9009 Y1164.2601 Z-20.0000 F5000
G1 X28.9009 Y1162.2573 Z-20.0000 F5000
G1 X11.2435 Y1162.2573 Z-20.0000 F5000
G1 X5.9010 Y1156.9149 Z-20.0000 F5000
G1 X5.9010 Y1099.6027 Z-20.0000 F5000
G1 X11.2435 Y1094.2602 Z-20.0000 F5000
G1 X28.9009 Y1094.2602 Z-20.0000 F5000
G1 X28.9009 Y1092.2573 Z-20.0000 F5000
G1 X23.9009 Y1092.2573 Z-20.0000 F5000
G1 X23.9009 Y834.1696 Z-20.0000 F5000
G1 X28.9009 Y834.1696 Z-20.0000 F5000
G1 X28.9009 Y832.1666 Z-20.0000 F5000
G1 X11.2437 Y832.1666 Z-20.0000 F5000
G1 X5.9010 Y826.8246 Z-20.0000 F5000
G1 X5.9010 Y803.1688 Z-20.0000 F5000
G1 X52.8989 Y803.1688 Z-20.0000 F5000
G1 X52.8989 Y808.1683 Z-20.0000 F5000
G1 X54.9009 Y808.1683 Z-20.0000 F5000
G1 X54.9009 Y788.1667 Z-20.0000 F5000
G1 X52.8989 Y788.1667 Z-20.0000 F5000
G1 X52.8989 Y793.1663 Z-20.0000 F5000
G1 X5.9010 Y793.1663 Z-20.0000 F5000
G1 X5.9010 Y769.5119 Z-20.0000 F5000
G1 X11.2436 Y764.1698 Z-20.0000 F5000
G1 X28.9009 Y764.1698 Z-20.0000 F5000
G1 X28.9009 Y762.1669 Z-20.0000 F5000
G1 X23.9009 Y762.1669 Z-20.0000 F5000
G1 X23.9009 Y644.1687 Z-20.0000 F5000
G1 X46.9009 Y644.1687 Z-20.0000 F5000
G1 X46.9009 Y642.1660 Z-20.0000 F5000
G1 X41.9009 Y642.1660 Z-20.0000 F5000
G1 X41.9009 Y534.1701 Z-20.0000 F5000
G1 X46.9009 Y534.1701 Z-20.0000 F5000
G1 X46.9009 Y532.1672 Z-20.0000 F5000
G1 X11.2436 Y532.1672 Z-20.0000 F5000
G1 X5.9010 Y526.8251 Z-20.0000 F5000
G1 X5.9010 Y469.5124 Z-20.0000 F5000
G1 X11.2436 Y464.1704 Z-20.0000 F5000
G1 X46.9009 Y464.1704 Z-20.0000 F5000
G1 X46.9009 Y462.1676 Z-20.0000 F5000
G1 X41.9009 Y462.1676 Z-20.0000 F5000
G1 X41.9009 Y234.1707 Z-20.0000 F5000
G1 X46.9009 Y234.1707 Z-20.0000 F5000
G1 X46.9009 Y232.1676 Z-20.0000 F5000
G1 X11.2437 Y232.1676 Z-20.0000 F5000
G1 X5.9010 Y226.8257 Z-20.0000 F5000
G1 X5.9010 Y169.5132 Z-20.0000 F5000
G1 X11.2435 Y164.1707 Z-20.0000 F5000
G1 X46.9009 Y164.1707 Z-20.0000 F5000
G1 X46.9009 Y162.1679 Z-20.0000 F5000
G1 X41.9009 Y162.1679 Z-20.0000 F5000
G1 X41.9009 Y5.9010 Z-20.0000 F5000
G1 X127.8988 Y5.9010 Z-20.0000 F5000
G1 X127.8988 Y162.1679 Z-20.0000 F5000
G1 X122.8988 Y162.1679 Z-20.0000 F5000
G1 X122.8988 Y164.1707 Z-20.0000 F5000
G1 X158.5562 Y164.1707 Z-20.0000 F5000
G1 X163.8986 Y169.5132 Z-20.0000 F5000
G1 X163.8986 Y226.8257 Z-20.0000 F5000
G1 X158.5560 Y232.1676 Z-20.0000 F5000
G1 X122.8988 Y232.1676 Z-20.0000 F5000
G1 X122.8988 Y234.1707 Z-20.0000 F5000
G1 X127.8988 Y234.1707 Z-20.0000 F5000
G1 X127.8988 Y462.1676 Z-20.0000 F5000
G1 X122.8988 Y462.1676 Z-20.0000 F5000
G1 X122.8988 Y464.1704 Z-20.0000 F5000
G1 X158.5560 Y464.1704 Z-20.0000 F5000
G1 X163.8986 Y469.5124 Z-20.0000 F5000
G1 X163.8986 Y526.8251 Z-20.0000 F5000
G1 X158.5560 Y532.1672 Z-20.0000 F5000
G1 X122.8988 Y532.1672 Z-20.0000 F5000
G1 X122.8988 Y534.1701 Z-20.0000 F5000
G1 X127.8987 Y534.1701 Z-20.0000 F5000
G1 X127.9012 Y642.1660 Z-20.0000 F5000
G1 X122.9011 Y642.1660 Z-20.0000 F5000
G1 X122.9011 Y644.1687 Z-20.0000 F5000
G1 X145.8987 Y644.1687 Z-20.0000 F5000
G1 X145.8987 Y762.1669 Z-20.0000 F5000
G1 X140.8987 Y762.1669 Z-20.0000 F5000
G1 X140.8987 Y764.1698 Z-20.0000 F5000
G1 X158.5560 Y764.1698 Z-20.0000 F5000
G1 X163.8986 Y769.5119 Z-20.0000 F5000
G1 X163.8986 Y793.1663 Z-20.0000 F5000
G1 X116.9008 Y793.1663 Z-20.0000 F5000
G1 X116.9008 Y788.1667 Z-20.0000 F5000
G1 X114.8988 Y788.1667 Z-20.0000 F5000
G1 X114.8988 Y808.1683 Z-20.0000 F5000
G1 X116.9008 Y808.1683 Z-20.0000 F5000
G1 X116.9008 Y803.1688 Z-20.0000 F5000
G1 X163.8986 Y803.1688 Z-20.0000 F5000
G1 X163.8986 Y826.8246 Z-20.0000 F5000
G1 X158.5560 Y832.1666 Z-20.0000 F5000
G1 X140.8987 Y832.1666 Z-20.0000 F5000
G1 X140.8987 Y834.1696 Z-20.0000 F5000
G1 X145.8987 Y834.1696 Z-20.0000 F5000
G1 X145.8987 Y1092.2573 Z-20.0000 F5000
G1 X140.8987 Y1092.2573 Z-20.0000 F5000
G1 X140.8987 Y1094.2602 Z-20.0000 F5000
G1 X158.5561 Y1094.2602 Z-20.0000 F5000
G1 X163.8986 Y1099.6027 Z-20.0000 F5000
G1 X163.8986 Y1156.9149 Z-20.0000 F5000
G1 X158.5561 Y1162.2573 Z-20.0000 F5000
G1 X140.8987 Y1162.2573 Z-20.0000 F5000
G1 X140.8987 Y1164.2601 Z-20.0000 F5000
G1 X145.8987 Y1164.2601 Z-20.0000 F5000
G1 X145.8987 Y1293.3040 Z-20.0000 F5000
G1 X145.8987 Y1293.3040 Z10.0000 F9999
G1 X1178.1916 Y1293.3040 Z10.0000 F9999
G1 X1178.1916 Y1293.3040 Z1.0000 F2500
G1 X1178.1916 Y1332.2751 Z-9.5000 F2500
G1 X1178.1916 Y1293.3040 Z-20.0000 F2500
G1 X1178.1916 Y1422.3479 Z-20.0000 F5000
G1 X1173.1916 Y1422.3479 Z-20.0000 F5000
G1 X1173.1916 Y1424.3507 Z-20.0000 F5000
G1 X1190.8490 Y1424.3507 Z-20.0000 F5000
G1 X1196.1915 Y1429.6930 Z-20.0000 F5000
G1 X1196.1915 Y1453.3487 Z-20.0000 F5000
G1 X1149.1937 Y1453.3487 Z-20.0000 F5000
G1 X1149.1937 Y1448.3492 Z-20.0000 F5000
G1 X1147.1917 Y1448.3492 Z-20.0000 F5000
G1 X1147.1917 Y1468.3507 Z-20.0000 F5000
G1 X1149.1937 Y1468.3507 Z-20.0000 F5000
G1 X1149.1937 Y1463.3512 Z-20.0000 F5000
G1 X1196.1915 Y1463.3512 Z-20.0000 F5000
G1 X1196.1915 Y1487.0056 Z-20.0000 F5000
G1 X1190.8489 Y1492.3476 Z-20.0000 F5000
G1 X1173.1916 Y1492.3476 Z-20.0000 F5000
G1 X1173.1916 Y1494.3505 Z-20.0000 F5000
G1 X1178.1916 Y1494.3505 Z-20.0000 F5000
G1 X1178.1916 Y1612.3488 Z-20.0000 F5000
G1 X1155.1940 Y1612.3488 Z-20.0000 F5000
G1 X1155.1940 Y1614.3515 Z-20.0000 F5000
G1 X1160.1941 Y1614.3515 Z-20.0000 F5000
G1 X1160.1916 Y1722.3474 Z-20.0000 F5000
G1 X1155.1917 Y1722.3474 Z-20.0000 F5000
G1 X1155.1917 Y1724.3502 Z-20.0000 F5000
G1 X1190.8490 Y1724.3502 Z-20.0000 F5000
G1 X1196.1915 Y1729.6925 Z-20.0000 F5000
G1 X1196.1915 Y1787.0051 Z-20.0000 F5000
G1 X1190.8489 Y1792.3470 Z-20.0000 F5000
G1 X1155.1917 Y1792.3470 Z-20.0000 F5000
G1 X1155.1917 Y1794.3501 Z-20.0000 F5000
G1 X1160.1917 Y1794.3501 Z-20.0000 F5000
G1 X1160.1917 Y2022.3475 Z-20.0000 F5000
G1 X1155.1917 Y2022.3475 Z-20.0000 F5000
G1 X1155.1917 Y2024.3493 Z-20.0000 F5000
G1 X1190.8491 Y2024.3493 Z-20.0000 F5000
G1 X1196.1915 Y2029.6921 Z-20.0000 F5000
G1 X1196.1915 Y2087.0046 Z-20.0000 F5000
G1 X1190.8491 Y2092.3472 Z-20.0000 F5000
G1 X1155.1917 Y2092.3472 Z-20.0000 F5000
G1 X1155.1917 Y2094.3493 Z-20.0000 F5000
G1 X1160.1917 Y2094.3493 Z-20.0000 F5000
G1 X1160.1917 Y2282.7282 Z-20.0000 F5000
G1 X1074.1938 Y2282.7282 Z-20.0000 F5000
G1 X1074.1938 Y2094.3493 Z-20.0000 F5000
G1 X1079.1938 Y2094.3493 Z-20.0000 F5000
G1 X1079.1938 Y2092.3472 Z-20.0000 F5000
G1 X1043.5364 Y2092.3472 Z-20.0000 F5000
G1 X1038.1939 Y2087.0046 Z-20.0000 F5000
G1 X1038.1939 Y2029.6921 Z-20.0000 F5000
G1 X1043.5363 Y2024.3493 Z-20.0000 F5000
G1 X1079.1938 Y2024.3493 Z-20.0000 F5000
G1 X1079.1938 Y2022.3475 Z-20.0000 F5000
G1 X1074.1938 Y2022.3475 Z-20.0000 F5000
G1 X1074.1938 Y1794.3501 Z-20.0000 F5000
G1 X1079.1938 Y1794.3501 Z-20.0000 F5000
G1 X1079.1938 Y1792.3470 Z-20.0000 F5000
G1 X1043.5366 Y1792.3470 Z-20.0000 F5000
G1 X1038.1939 Y1787.0051 Z-20.0000 F5000
G1 X1038.1939 Y1729.6925 Z-20.0000 F5000
G1 X1043.5365 Y1724.3502 Z-20.0000 F5000
G1 X1079.1938 Y1724.3502 Z-20.0000 F5000
G1 X1079.1938 Y1722.3474 Z-20.0000 F5000
G1 X1074.1938 Y1722.3474 Z-20.0000 F5000
G1 X1074.1938 Y1614.3515 Z-20.0000 F5000
G1 X1079.1938 Y1614.3515 Z-20.0000 F5000
G1 X1079.1938 Y1612.3488 Z-20.0000 F5000
G1 X1056.1939 Y1612.3488 Z-20.0000 F5000
G1 X1056.1939 Y1494.3505 Z-20.0000 F5000
G1 X1061.1939 Y1494.3505 Z-20.0000 F5000
G1 X1061.1939 Y1492.3476 Z-20.0000 F5000
G1 X1043.5366 Y1492.3476 Z-20.0000 F5000
G1 X1038.1939 Y1487.0056 Z-20.0000 F5000
G1 X1038.1939 Y1463.3512 Z-20.0000 F5000
G1 X1085.1918 Y1463.3512 Z-20.0000 F5000
G1 X1085.1918 Y1468.3507 Z-20.0000 F5000
G1 X1087.1938 Y1468.3507 Z-20.0000 F5000
G1 X1087.1938 Y1448.3492 Z-20.0000 F5000
G1 X1085.1918 Y1448.3492 Z-20.0000 F5000
G1 X1085.1918 Y1453.3487 Z-20.0000 F5000
G1 X1038.1939 Y1453.3487 Z-20.0000 F5000
G1 X1038.1939 Y1429.6930 Z-20.0000 F5000
G1 X1043.5365 Y1424.3507 Z-20.0000 F5000
G1 X1061.1939 Y1424.3507 Z-20.0000 F5000
G1 X1061.1939 Y1422.3479 Z-20.0000 F5000
G1 X1056.1939 Y1422.3479 Z-20.0000 F5000
G1 X1056.1939 Y1164.2601 Z-20.0000 F5000
G1 X1061.1939 Y1164.2601 Z-20.0000 F5000
G1 X1061.1939 Y1162.2573 Z-20.0000 F5000
G1 X1043.5364 Y1162.2573 Z-20.0000 F5000
G1 X1038.1939 Y1156.9149 Z-20.0000 F5000
G1 X1038.1939 Y1099.6027 Z-20.0000 F5000
G1 X1043.5364 Y1094.2602 Z-20.0000 F5000
G1 X1061.1939 Y1094.2602 Z-20.0000 F5000
G1 X1061.1939 Y1092.2573 Z-20.0000 F5000
G1 X1056.1939 Y1092.2573 Z-20.0000 F5000
G1 X1056.1939 Y834.1696 Z-20.0000 F5000
G1 X1061.1939 Y834.1696 Z-20.0000 F5000
G1 X1061.1939 Y832.1666 Z-20.0000 F5000
G1 X1043.5366 Y832.1666 Z-20.0000 F5000
G1 X1038.1939 Y826.8246 Z-20.0000 F5000
G1 X1038.1939 Y803.1688 Z-20.0000 F5000
G1 X1085.1918 Y803.1688 Z-20.0000 F5000
G1 X1085.1918 Y808.1683 Z-20.0000 F5000
G1 X1087.1938 Y808.1683 Z-20.0000 F5000
G1 X1087.1938 Y788.1667 Z-20.0000 F5000
G1 X1085.1918 Y788.1667 Z-20.0000 F5000
G1 X1085.1918 Y793.1663 Z-20.0000 F5000
G1 X1038.1939 Y793.1663 Z-20.0000 F5000
G1 X1038.1939 Y769.5119 Z-20.0000 F5000
G1 X1043.5365 Y764.1698 Z-20.0000 F5000
G1 X1061.1939 Y764.1698 Z-20.0000 F5000
G1 X1061.1939 Y762.1669 Z-20.0000 F5000
G1 X1056.1939 Y762.1669 Z-20.0000 F5000
G1 X1056.1939 Y644.1687 Z-20.0000 F5000
G1 X1079.1938 Y644.1687 Z-20.0000 F5000
G1 X1079.1938 Y642.1660 Z-20.0000 F5000
G1 X1074.1938 Y642.1660 Z-20.0000 F5000
G1 X1074.1938 Y534.1701 Z-20.0000 F5000
G1 X1079.1938 Y534.1701 Z-20.0000 F5000
G1 X1079.1938 Y532.1672 Z-20.0000 F5000
G1 X1043.5365 Y532.1672 Z-20.0000 F5000
G1 X1038.1939 Y526.8251 Z-20.0000 F5000
G1 X1038.1939 Y469.5124 Z-20.0000 F5000
G1 X1043.5366 Y464.1704 Z-20.0000 F5000
G1 X1079.1938 Y464.1704 Z-20.0000 F5000
G1 X1079.1938 Y462.1676 Z-20.0000 F5000
G1 X1074.1938 Y462.1676 Z-20.0000 F5000
G1 X1074.1938 Y234.1707 Z-20.0000 F5000
G1 X1079.1938 Y234.1707 Z-20.0000 F5000
G1 X1079.1938 Y232.1676 Z-20.0000 F5000
G1 X1043.5366 Y232.1676 Z-20.0000 F5000
G1 X1038.1939 Y226.8257 Z-20.0000 F5000
G1 X1038.1939 Y169.5132 Z-20.0000 F5000
G1 X1043.5364 Y164.1707 Z-20.0000 F5000
G1 X1079.1938 Y164.1707 Z-20.0000 F5000
G1 X1079.1938 Y162.1679 Z-20.0000 F5000
G1 X1074.1938 Y162.1679 Z-20.0000 F5000
G1 X1074.1938 Y5.9010 Z-20.0000 F5000
G1 X1160.1917 Y5.9010 Z-20.0000 F5000
G1 X1160.1917 Y162.1679 Z-20.0000 F5000
G1 X1155.1917 Y162.1679 Z-20.0000 F5000
G1 X1155.1917 Y164.1707 Z-20.0000 F5000
G1 X1190.8491 Y164.1707 Z-20.0000 F5000
G1 X1196.1915 Y169.5132 Z-20.0000 F5000
G1 X1196.1915 Y226.8257 Z-20.0000 F5000
G1 X1190.8489 Y232.1676 Z-20.0000 F5000
G1 X1155.1917 Y232.1676 Z-20.0000 F5000
G1 X1155.1917 Y234.1707 Z-20.0000 F5000
G1 X1160.1917 Y234.1707 Z-20.0000 F5000
G1 X1160.1917 Y462.1676 Z-20.0000 F5000
G1 X1155.1917 Y462.1676 Z-20.0000 F5000
G1 X1155.1917 Y464.1704 Z-20.0000 F5000
G1 X1190.8489 Y464.1704 Z-20.0000 F5000
G1 X1196.1915 Y469.5124 Z-20.0000 F5000
G1 X1196.1915 Y526.8251 Z-20.0000 F5000
G1 X1190.8489 Y532.1672 Z-20.0000 F5000
G1 X1155.1917 Y532.1672 Z-20.0000 F5000
G1 X1155.1917 Y534.1701 Z-20.0000 F5000
G1 X1160.1916 Y534.1701 Z-20.0000 F5000
G1 X1160.1941 Y642.1660 Z-20.0000 F5000
G1 X1155.1940 Y642.1660 Z-20.0000 F5000
G1 X1155.1940 Y644.1687 Z-20.0000 F5000
G1 X1178.1916 Y644.1687 Z-20.0000 F5000
G1 X1178.1916 Y762.1669 Z-20.0000 F5000
G1 X1173.1916 Y762.1669 Z-20.0000 F5000
G1 X1173.1916 Y764.1698 Z-20.0000 F5000
G1 X1190.8489 Y764.1698 Z-20.0000 F5000
G1 X1196.1915 Y769.5119 Z-20.0000 F5000
G1 X1196.1915 Y793.1663 Z-20.0000 F5000
G1 X1149.1937 Y793.1663 Z-20.0000 F5000
G1 X1149.1937 Y788.1667 Z-20.0000 F5000
G1 X1147.1917 Y788.1667 Z-20.0000 F5000
G1 X1147.1917 Y808.1683 Z-20.0000 F5000
G1 X1149.1937 Y808.1683 Z-20.0000 F5000
G1 X1149.1937 Y803.1688 Z-20.0000 F5000
G1 X1196.1915 Y803.1688 Z-20.0000 F5000
G1 X1196.1915 Y826.8246 Z-20.0000 F5000
G1 X1190.8489 Y832.1666 Z-20.0000 F5000
G1 X1173.1916 Y832.1666 Z-20.0000 F5000
G1 X1173.1916 Y834.1696 Z-20.0000 F5000
G1 X1178.1916 Y834.1696 Z-20.0000 F5000
G1 X1178.1916 Y1092.2573 Z-20.0000 F5000
G1 X1173.1916 Y1092.2573 Z-20.0000 F5000
G1 X1173.1916 Y1094.2602 Z-20.0000 F5000
G1 X1190.8490 Y1094.2602 Z-20.0000 F5000
G1 X1196.1915 Y1099.6027 Z-20.0000 F5000
G1 X1196.1915 Y1156.9149 Z-20.0000 F5000
G1 X1190.8490 Y1162.2573 Z-20.0000 F5000
G1 X1173.1916 Y1162.2573 Z-20.0000 F5000
G1 X1173.1916 Y1164.2601 Z-20.0000 F5000
G1 X1178.1916 Y1164.2601 Z-20.0000 F5000
G1 X1178.1916 Y1293.3040 Z-20.0000 F5000
G1 X1178.1916 Y1293.3040 Z10.0000 F9999
G1 X489.9963 Y1293.3040 Z10.0000 F9999
G1 X489.9963 Y1293.3040 Z1.0000 F2500
G1 X489.9963 Y1332.2751 Z-9.5000 F2500
G1 X489.9963 Y1293.3040 Z-20.0000 F2500
G1 X489.9963 Y1422.3479 Z-20.0000 F5000
G1 X484.9963 Y1422.3479 Z-20.0000 F5000
G1 X484.9963 Y1424.3507 Z-20.0000 F5000
G1 X502.6537 Y1424.3507 Z-20.0000 F5000
G1 X507.9963 Y1429.6930 Z-20.0000 F5000
G1 X507.9963 Y1453.3487 Z-20.0000 F5000
G1 X460.9984 Y1453.3487 Z-20.0000 F5000
G1 X460.9984 Y1448.3492 Z-20.0000 F5000
G1 X458.9964 Y1448.3492 Z-20.0000 F5000
G1 X458.9964 Y1468.3507 Z-20.0000 F5000
G1 X460.9984 Y1468.3507 Z-20.0000 F5000
G1 X460.9984 Y1463.3512 Z-20.0000 F5000
G1 X507.9963 Y1463.3512 Z-20.0000 F5000
G1 X507.9963 Y1487.0056 Z-20.0000 F5000
G1 X502.6536 Y1492.3476 Z-20.0000 F5000
G1 X484.9963 Y1492.3476 Z-20.0000 F5000
G1 X484.9963 Y1494.3505 Z-20.0000 F5000
G1 X489.9963 Y1494.3505 Z-20.0000 F5000
G1 X489.9963 Y1612.3488 Z-20.0000 F5000
G1 X466.9987 Y1612.3488 Z-20.0000 F5000
G1 X466.9987 Y1614.3515 Z-20.0000 F5000
G1 X471.9988 Y1614.3515 Z-20.0000 F5000
G1 X471.9963 Y1722.3474 Z-20.0000 F5000
G1 X466.9964 Y1722.3474 Z-20.0000 F5000
G1 X466.9964 Y1724.3502 Z-20.0000 F5000
G1 X502.6537 Y1724.3502 Z-20.0000 F5000
G1 X507.9963 Y1729.6925 Z-20.0000 F5000
G1 X507.9963 Y1787.0051 Z-20.0000 F5000
G1 X502.6536 Y1792.3470 Z-20.0000 F5000
G1 X466.9964 Y1792.3470 Z-20.0000 F5000
G1 X466.9964 Y1794.3501 Z-20.0000 F5000
G1 X471.9964 Y1794.3501 Z-20.0000 F5000
G1 X471.9964 Y2022.3475 Z-20.0000 F5000
G1 X466.9964 Y2022.3475 Z-20.0000 F5000
G1 X466.9964 Y2024.3493 Z-20.0000 F5000
G1 X502.6539 Y2024.3493 Z-20.0000 F5000
G1 X507.9963 Y2029.6921 Z-20.0000 F5000
G1 X507.9963 Y2087.0046 Z-20.0000 F5000
G1 X502.6538 Y2092.3472 Z-20.0000 F5000
G1 X466.9964 Y2092.3472 Z-20.0000 F5000
G1 X466.9964 Y2094.3493 Z-20.0000 F5000
G1 X471.9964 Y2094.3493 Z-20.0000 F5000
G1 X471.9964 Y2282.7282 Z-20.0000 F5000
G1 X385.9985 Y2282.7282 Z-20.0000 F5000
G1 X385.9985 Y2094.3493 Z-20.0000 F5000
G1 X390.9985 Y2094.3493 Z-20.0000 F5000
G1 X390.9985 Y2092.3472 Z-20.0000 F5000
G1 X355.3411 Y2092.3472 Z-20.0000 F5000
G1 X349.9986 Y2087.0046 Z-20.0000 F5000
G1 X349.9986 Y2029.6921 Z-20.0000 F5000
G1 X355.3410 Y2024.3493 Z-20.0000 F5000
G1 X390.9985 Y2024.3493 Z-20.0000 F5000
G1 X390.9985 Y2022.3475 Z-20.0000 F5000
G1 X385.9985 Y2022.3475 Z-20.0000 F5000
G1 X385.9985 Y1794.3501 Z-20.0000 F5000
G1 X390.9985 Y1794.3501 Z-20.0000 F5000
G1 X390.9985 Y1792.3470 Z-20.0000 F5000
G1 X355.3413 Y1792.3470 Z-20.0000 F5000
G1 X349.9986 Y1787.0051 Z-20.0000 F5000
G1 X349.9986 Y1729.6925 Z-20.0000 F5000
G1 X355.3412 Y1724.3502 Z-20.0000 F5000
G1 X390.9985 Y1724.3502 Z-20.0000 F5000
G1 X390.9985 Y1722.3474 Z-20.0000 F5000
G1 X385.9985 Y1722.3474 Z-20.0000 F5000
G1 X385.9985 Y1614.3515 Z-20.0000 F5000
G1 X390.9985 Y1614.3515 Z-20.0000 F5000
G1 X390.9985 Y1612.3488 Z-20.0000 F5000
G1 X367.9986 Y1612.3488 Z-20.0000 F5000
G1 X367.9986 Y1494.3505 Z-20.0000 F5000
G1 X372.9986 Y1494.3505 Z-20.0000 F5000
G1 X372.9986 Y1492.3476 Z-20.0000 F5000
G1 X355.3413 Y1492.3476 Z-20.0000 F5000
G1 X349.9986 Y1487.0056 Z-20.0000 F5000
G1 X349.9986 Y1463.3512 Z-20.0000 F5000
G1 X396.9965 Y1463.3512 Z-20.0000 F5000
G1 X396.9965 Y1468.3507 Z-20.0000 F5000
G1 X398.9985 Y1468.3507 Z-20.0000 F5000
G1 X398.9985 Y1448.3492 Z-20.0000 F5000
G1 X396.9965 Y1448.3492 Z-20.0000 F5000
G1 X396.9965 Y1453.3487 Z-20.0000 F5000
G1 X349.9986 Y1453.3487 Z-20.0000 F5000
G1 X349.9986 Y1429.6930 Z-20.0000 F5000
G1 X355.3412 Y1424.3507 Z-20.0000 F5000
G1 X372.9986 Y1424.3507 Z-20.0000 F5000
G1 X372.9986 Y1422.3479 Z-20.0000 F5000
G1 X367.9986 Y1422.3479 Z-20.0000 F5000
G1 X367.9986 Y1164.2601 Z-20.0000 F5000
G1 X372.9986 Y1164.2601 Z-20.0000 F5000
G1 X372.9986 Y1162.2573 Z-20.0000 F5000
G1 X355.3412 Y1162.2573 Z-20.0000 F5000
G1 X349.9986 Y1156.9149 Z-20.0000 F5000
G1 X349.9986 Y1099.6027 Z-20.0000 F5000
G1 X355.3412 Y1094.2602 Z-20.0000 F5000
G1 X372.9986 Y1094.2602 Z-20.0000 F5000
G1 X372.9986 Y1092.2573 Z-20.0000 F5000
G1 X367.9986 Y1092.2573 Z-20.0000 F5000
G1 X367.9986 Y834.1696 Z-20.0000 F5000
G1 X372.9986 Y834.1696 Z-20.0000 F5000
G1 X372.9986 Y832.1666 Z-20.0000 F5000
G1 X355.3413 Y832.1666 Z-20.0000 F5000
G1 X349.9986 Y826.8246 Z-20.0000 F5000
G1 X349.9986 Y803.1688 Z-20.0000 F5000
G1 X396.9965 Y803.1688 Z-20.0000 F5000
G1 X396.9965 Y808.1683 Z-20.0000 F5000
G1 X398.9985 Y808.1683 Z-20.0000 F5000
G1 X398.9985 Y788.1667 Z-20.0000 F5000
G1 X396.9965 Y788.1667 Z-20.0000 F5000
G1 X396.9965 Y793.1663 Z-20.0000 F5000
G1 X349.9986 Y793.1663 Z-20.0000 F5000
G1 X349.9986 Y769.5119 Z-20.0000 F5000
G1 X355.3413 Y764.1698 Z-20.0000 F5000
G1 X372.9986 Y764.1698 Z-20.0000 F5000
G1 X372.9986 Y762.1669 Z-20.0000 F5000
G1 X367.9986 Y762.1669 Z-20.0000 F5000
G1 X367.9986 Y644.1687 Z-20.0000 F5000
G1 X390.9985 Y644.1687 Z-20.0000 F5000
G1 X390.9985 Y642.1660 Z-20.0000 F5000
G1 X385.9985 Y642.1660 Z-20.0000 F5000
G1 X385.9985 Y534.1701 Z-20.0000 F5000
G1 X390.9985 Y534.1701 Z-20.0000 F5000
G1 X390.9985 Y532.1672 Z-20.0000 F5000
G1 X355.3412 Y532.1672 Z-20.0000 F5000
G1 X349.9986 Y526.8251 Z-20.0000 F5000
G1 X349.9986 Y469.5124 Z-20.0000 F5000
G1 X355.3413 Y464.1704 Z-20.0000 F5000
G1 X390.9985 Y464.1704 Z-20.0000 F5000
G1 X390.9985 Y462.1676 Z-20.0000 F5000
G1 X385.9985 Y462.1676 Z-20.0000 F5000
G1 X385.9985 Y234.1707 Z-20.0000 F5000
G1 X390.9985 Y234.1707 Z-20.0000 F5000
G1 X390.9985 Y232.1676 Z-20.0000 F5000
G1 X355.3413 Y232.1676 Z-20.0000 F5000
G1 X349.9986 Y226.8257 Z-20.0000 F5000
G1 X349.9986 Y169.5132 Z-20.0000 F5000
G1 X355.3411 Y164.1707 Z-20.0000 F5000
G1 X390.9985 Y164.1707 Z-20.0000 F5000
G1 X390.9985 Y162.1679 Z-20.0000 F5000
G1 X385.9985 Y162.1679 Z-20.0000 F5000
G1 X385.9985 Y5.9010 Z-20.0000 F5000
G1 X471.9964 Y5.9010 Z-20.0000 F5000
G1 X471.9964 Y162.1679 Z-20.0000 F5000
G1 X466.9964 Y162.1679 Z-20.0000 F5000
G1 X466.9964 Y164.1707 Z-20.0000 F5000
G1 X502.6538 Y164.1707 Z-20.0000 F5000
G1 X507.9963 Y169.5132 Z-20.0000 F5000
G1 X507.9963 Y226.8257 Z-20.0000 F5000
G1 X502.6536 Y232.1676 Z-20.0000 F5000
G1 X466.9964 Y232.1676 Z-20.0000 F5000
G1 X466.9964 Y234.1707 Z-20.0000 F5000
G1 X471.9964 Y234.1707 Z-20.0000 F5000
G1 X471.9964 Y462.1676 Z-20.0000 F5000
G1 X466.9964 Y462.1676 Z-20.0000 F5000
G1 X466.9964 Y464.1704 Z-20.0000 F5000
G1 X502.6536 Y464.1704 Z-20.0000 F5000
G1 X507.9963 Y469.5124 Z-20.0000 F5000
G1 X507.9963 Y526.8251 Z-20.0000 F5000
G1 X502.6537 Y532.1672 Z-20.0000 F5000
G1 X466.9964 Y532.1672 Z-20.0000 F5000
G1 X466.9964 Y534.1701 Z-20.0000 F5000
G1 X471.9963 Y534.1701 Z-20.0000 F5000
G1 X471.9988 Y642.1660 Z-20.0000 F5000
G1 X466.9987 Y642.1660 Z-20.0000 F5000
G1 X466.9987 Y644.1687 Z-20.0000 F5000
G1 X489.9963 Y644.1687 Z-20.0000 F5000
G1 X489.9963 Y762.1669 Z-20.0000 F5000
G1 X484.9963 Y762.1669 Z-20.0000 F5000
G1 X484.9963 Y764.1698 Z-20.0000 F5000
G1 X502.6537 Y764.1698 Z-20.0000 F5000
G1 X507.9963 Y769.5119 Z-20.0000 F5000
G1 X507.9963 Y793.1663 Z-20.0000 F5000
G1 X460.9984 Y793.1663 Z-20.0000 F5000
G1 X460.9984 Y788.1667 Z-20.0000 F5000
G1 X458.9964 Y788.1667 Z-20.0000 F5000
G1 X458.9964 Y808.1683 Z-20.0000 F5000
G1 X460.9984 Y808.1683 Z-20.0000 F5000
G1 X460.9984 Y803.1688 Z-20.0000 F5000
G1 X507.9963 Y803.1688 Z-20.0000 F5000
G1 X507.9963 Y826.8246 Z-20.0000 F5000
G1 X502.6536 Y832.1666 Z-20.0000 F5000
G1 X484.9963 Y832.1666 Z-20.0000 F5000
G1 X484.9963 Y834.1696 Z-20.0000 F5000
G1 X489.9963 Y834.1696 Z-20.0000 F5000
G1 X489.9963 Y1092.2573 Z-20.0000 F5000
G1 X484.9963 Y1092.2573 Z-20.0000 F5000
G1 X484.9963 Y1094.2602 Z-20.0000 F5000
G1 X502.6537 Y1094.2602 Z-20.0000 F5000
G1 X507.9963 Y1099.6027 Z-20.0000 F5000
G1 X507.9963 Y1156.9149 Z-20.0000 F5000
G1 X502.6537 Y1162.2573 Z-20.0000 F5000
G1 X484.9963 Y1162.2573 Z-20.0000 F5000
G1 X484.9963 Y1164.2601 Z-20.0000 F5000
G1 X489.9963 Y1164.2601 Z-20.0000 F5000
G1 X489.9963 Y1293.3040 Z-20.0000 F5000
G1 X489.9963 Y1293.3040 Z10.0000 F9999
G1 X834.0940 Y1293.3040 Z10.0000 F9999
G1 X834.0940 Y1293.3040 Z1.0000 F2500
G1 X834.0940 Y1332.2751 Z-9.5000 F2500
G1 X834.0940 Y1293.3040 Z-20.0000 F2500
G1 X834.0940 Y1422.3479 Z-20.0000 F5000
G1 X829.0940 Y1422.3479 Z-20.0000 F5000
G1 X829.0940 Y1424.3507 Z-20.0000 F5000
G1 X846.7514 Y1424.3507 Z-20.0000 F5000
G1 X852.0939 Y1429.6930 Z-20.0000 F5000
G1 X852.0939 Y1453.3487 Z-20.0000 F5000
G1 X805.0960 Y1453.3487 Z-20.0000 F5000
G1 X805.0960 Y1448.3492 Z-20.0000 F5000
G1 X803.0940 Y1448.3492 Z-20.0000 F5000
G1 X803.0940 Y1468.3507 Z-20.0000 F5000
G1 X805.0960 Y1468.3507 Z-20.0000 F5000
G1 X805.0960 Y1463.3512 Z-20.0000 F5000
G1 X852.0939 Y1463.3512 Z-20.0000 F5000
G1 X852.0939 Y1487.0056 Z-20.0000 F5000
G1 X846.7513 Y1492.3476 Z-20.0000 F5000
G1 X829.0940 Y1492.3476 Z-20.0000 F5000
G1 X829.0940 Y1494.3505 Z-20.0000 F5000
G1 X834.0940 Y1494.3505 Z-20.0000 F5000
G1 X834.0940 Y1612.3488 Z-20.0000 F5000
G1 X811.0964 Y1612.3488 Z-20.0000 F5000
G1 X811.0964 Y1614.3515 Z-20.0000 F5000
G1 X816.0964 Y1614.3515 Z-20.0000 F5000
G1 X816.0939 Y1722.3474 Z-20.0000 F5000
G1 X811.0940 Y1722.3474 Z-20.0000 F5000
G1 X811.0940 Y1724.3502 Z-20.0000 F5000
G1 X846.7514 Y1724.3502 Z-20.0000 F5000
G1 X852.0939 Y1729.6925 Z-20.0000 F5000
G1 X852.0939 Y1787.0051 Z-20.0000 F5000
G1 X846.7513 Y1792.3470 Z-20.0000 F5000
G1 X811.0940 Y1792.3470 Z-20.0000 F5000
G1 X811.0940 Y1794.3501 Z-20.0000 F5000
G1 X816.0940 Y1794.3501 Z-20.0000 F5000
G1 X816.0940 Y2022.3475 Z-20.0000 F5000
G1 X811.0940 Y2022.3475 Z-20.0000 F5000
G1 X811.0940 Y2024.3493 Z-20.0000 F5000
G1 X846.7515 Y2024.3493 Z-20.0000 F5000
G1 X852.0939 Y2029.6921 Z-20.0000 F5000
G1 X852.0939 Y2087.0046 Z-20.0000 F5000
G1 X846.7514 Y2092.3472 Z-20.0000 F5000
G1 X811.0940 Y2092.3472 Z-20.0000 F5000
G1 X811.0940 Y2094.3493 Z-20.0000 F5000
G1 X816.0940 Y2094.3493 Z-20.0000 F5000
G1 X816.0940 Y2282.7282 Z-20.0000 F5000
G1 X730.0962 Y2282.7282 Z-20.0000 F5000
G1 X730.0962 Y2094.3493 Z-20.0000 F5000
G1 X735.0962 Y2094.3493 Z-20.0000 F5000
G1 X735.0962 Y2092.3472 Z-20.0000 F5000
G1 X699.4387 Y2092.3472 Z-20.0000 F5000
G1 X694.0963 Y2087.0046 Z-20.0000 F5000
G1 X694.0963 Y2029.6921 Z-20.0000 F5000
G1 X699.4387 Y2024.3493 Z-20.0000 F5000
G1 X735.0962 Y2024.3493 Z-20.0000 F5000
G1 X735.0962 Y2022.3475 Z-20.0000 F5000
G1 X730.0962 Y2022.3475 Z-20.0000 F5000
G1 X730.0962 Y1794.3501 Z-20.0000 F5000
G1 X735.0962 Y1794.3501 Z-20.0000 F5000
G1 X735.0962 Y1792.3470 Z-20.0000 F5000
G1 X699.4389 Y1792.3470 Z-20.0000 F5000
G1 X694.0963 Y1787.0051 Z-20.0000 F5000
G1 X694.0963 Y1729.6925 Z-20.0000 F5000
G1 X699.4388 Y1724.3502 Z-20.0000 F5000
G1 X735.0962 Y1724.3502 Z-20.0000 F5000
G1 X735.0962 Y1722.3474 Z-20.0000 F5000
G1 X730.0962 Y1722.3474 Z-20.0000 F5000
G1 X730.0962 Y1614.3515 Z-20.0000 F5000
G1 X735.0962 Y1614.3515 Z-20.0000 F5000
G1 X735.0962 Y1612.3488 Z-20.0000 F5000
G1 X712.0962 Y1612.3488 Z-20.0000 F5000
G1 X712.0962 Y1494.3505 Z-20.0000 F5000
G1 X717.0962 Y1494.3505 Z-20.0000 F5000
G1 X717.0962 Y1492.3476 Z-20.0000 F5000
G1 X699.4389 Y1492.3476 Z-20.0000 F5000
G1 X694.0963 Y1487.0056 Z-20.0000 F5000
G1 X694.0963 Y1463.3512 Z-20.0000 F5000
