(plotsheet 2n3_nested_153 sheets_final v1_0_sheet 99a_S99.1_text_CC8 - stepover 1mm)
(Material Size) (X=1220.000, Y=2440.000, Z=21.000)
(LinuxCNC_NoArcs_MM_TC_medium_50um_G1_verbose.con)
G90 G80 G21 G49
G64 P0.050
M6 T1
(Tool Number:1) (7.998 mm dia. slot drill)
G43 H1 G0Z80.0000
M3 S18000
G04 P10
G1 X877.3972 Y609.9631 Z10.0000 F9999
G1 X877.3972 Y609.9631 Z-1.0000 F2500
G1 X910.7917 Y587.7612 Z-1.0000 F4000
G1 X910.7917 Y616.5686 Z-1.0000 F4000
G1 X910.7917 Y587.7612 Z-1.0000 F4000
G1 X877.3972 Y609.9631 Z-1.0000 F4000
G1 X918.4981 Y609.9631 Z-1.0000 F4000
G1 X918.4981 Y609.9631 Z10.0000 F9999
G1 X918.4981 Y576.9906 Z10.0000 F9999
G1 X918.4981 Y576.9906 Z-1.0000 F2500
G1 X918.4981 Y564.3667 Z-1.0000 F4000
G1 X877.3972 Y564.3667 Z-1.0000 F4000
G1 X918.4981 Y564.3667 Z-1.0000 F4000
G1 X918.4981 Y564.3667 Z10.0000 F9999
G1 X877.3972 Y643.6328 Z10.0000 F9999
G1 X877.3972 Y643.6328 Z-1.0000 F2500
G1 X893.3605 Y632.3300 Z-1.0000 F4000
G1 X895.3224 Y630.9434 Z-1.0000 F4000
G1 X897.3238 Y629.6144 Z-1.0000 F4000
G1 X904.5348 Y627.6878 Z-1.0000 F4000
G1 X909.9660 Y628.7887 Z-1.0000 F4000
G1 X914.3881 Y631.7429 Z-1.0000 F4000
G1 X917.3972 Y636.1098 Z-1.0000 F4000
G1 X918.4981 Y641.5043 Z-1.0000 F4000
G1 X917.3972 Y646.8988 Z-1.0000 F4000
G1 X914.3881 Y651.3392 Z-1.0000 F4000
G1 X909.9660 Y654.3300 Z-1.0000 F4000
G1 X904.5348 Y655.4310 Z-1.0000 F4000
G1 X899.1220 Y654.3300 Z-1.0000 F4000
G1 X894.7000 Y651.3392 Z-1.0000 F4000
G1 X891.7275 Y646.8988 Z-1.0000 F4000
G1 X890.6266 Y641.5043 Z-1.0000 F4000
G1 X892.4798 Y634.5869 Z-1.0000 F4000
G1 X897.3238 Y629.6144 Z-1.0000 F4000
G1 X892.4798 Y634.5869 Z-1.0000 F4000
G1 X890.6266 Y641.5043 Z-1.0000 F4000
G1 X891.7275 Y646.8988 Z-1.0000 F4000
G1 X894.7000 Y651.3392 Z-1.0000 F4000
G1 X899.1220 Y654.3300 Z-1.0000 F4000
G1 X904.5348 Y655.4310 Z-1.0000 F4000
G1 X909.9660 Y654.3300 Z-1.0000 F4000
G1 X914.3881 Y651.3392 Z-1.0000 F4000
G1 X917.3972 Y646.8988 Z-1.0000 F4000
G1 X918.4981 Y641.5043 Z-1.0000 F4000
G1 X917.3972 Y636.1098 Z-1.0000 F4000
G1 X914.3881 Y631.7429 Z-1.0000 F4000
G1 X909.9660 Y628.7887 Z-1.0000 F4000
G1 X904.5348 Y627.6878 Z-1.0000 F4000
G1 X897.3238 Y629.6144 Z-1.0000 F4000
G1 X895.8743 Y630.5686 Z-1.0000 F4000
G1 X886.5899 Y637.1007 Z-1.0000 F4000
G1 X886.5899 Y637.1007 Z10.0000 F9999
G1 X462.2398 Y1084.6119 Z10.0000 F9999
G1 X462.2398 Y1084.6119 Z-1.0000 F2500
G1 X462.2398 Y1099.0523 Z-1.0000 F4000
G1 X462.2398 Y1084.6119 Z-1.0000 F4000
G1 X443.9462 Y1084.6119 Z-1.0000 F4000
G1 X443.9462 Y1099.7312 Z-1.0000 F4000
G1 X443.9462 Y1084.6119 Z-1.0000 F4000
G1 X485.0471 Y1084.6119 Z-1.0000 F4000
G1 X485.0471 Y1084.6119 Z10.0000 F9999
G1 X485.0471 Y1115.1440 Z10.0000 F9999
G1 X485.0471 Y1115.1440 Z-1.0000 F2500
G1 X443.9462 Y1115.1440 Z-1.0000 F4000
G1 X443.9462 Y1122.3000 Z-1.0000 F4000
G1 X444.5517 Y1126.1715 Z-1.0000 F4000
G1 X446.3682 Y1129.3825 Z-1.0000 F4000
G1 X449.5242 Y1131.6027 Z-1.0000 F4000
G1 X454.1664 Y1132.4467 Z-1.0000 F4000
G1 X458.8453 Y1131.2908 Z-1.0000 F4000
G1 X462.1664 Y1128.5201 Z-1.0000 F4000
G1 X464.1297 Y1125.1990 Z-1.0000 F4000
G1 X464.7902 Y1122.3000 Z-1.0000 F4000
G1 X464.7902 Y1115.1440 Z-1.0000 F4000
G1 X464.7902 Y1122.3000 Z-1.0000 F4000
G1 X464.1297 Y1125.1990 Z-1.0000 F4000
G1 X462.1664 Y1128.5201 Z-1.0000 F4000
G1 X458.8453 Y1131.2908 Z-1.0000 F4000
G1 X454.1664 Y1132.4467 Z-1.0000 F4000
G1 X449.5242 Y1131.6027 Z-1.0000 F4000
G1 X446.3682 Y1129.3825 Z-1.0000 F4000
G1 X444.5517 Y1126.1715 Z-1.0000 F4000
G1 X443.9462 Y1122.3000 Z-1.0000 F4000
G1 X443.9462 Y1115.1440 Z-1.0000 F4000
G1 X443.9462 Y1115.1440 Z10.0000 F9999
G1 X443.9462 Y1159.2541 Z10.0000 F9999
G1 X443.9462 Y1159.2541 Z-1.0000 F2500
G1 X485.0471 Y1175.3091 Z-1.0000 F4000
G1 X443.9462 Y1159.2541 Z-1.0000 F4000
G1 X485.0471 Y1143.2357 Z-1.0000 F4000
G1 X485.0471 Y1143.2357 Z10.0000 F9999
G1 X485.0471 Y1132.5568 Z10.0000 F9999
G1 X485.0471 Y1132.5568 Z-1.0000 F2500
G1 X464.9003 Y1119.3275 Z-1.0000 F4000
G1 X485.0471 Y1132.5568 Z-1.0000 F4000
G1 X485.0471 Y1132.5568 Z10.0000 F9999
G1 X470.3499 Y1169.5660 Z10.0000 F9999
G1 X470.3499 Y1169.5660 Z-1.0000 F2500
G1 X470.3499 Y1148.8688 Z-1.0000 F4000
G1 X470.3499 Y1169.5660 Z-1.0000 F4000
G1 X470.3499 Y1169.5660 Z10.0000 F9999
G1 X460.3866 Y1215.9330 Z10.0000 F9999
G1 X460.3866 Y1215.9330 Z-1.0000 F2500
G1 X460.3866 Y1186.6853 Z-1.0000 F4000
G1 X460.3866 Y1215.9330 Z-1.0000 F4000
G1 X460.3866 Y1215.9330 Z10.0000 F9999
G1 X443.9462 Y1242.6302 Z10.0000 F9999
G1 X443.9462 Y1242.6302 Z-1.0000 F2500
G1 X485.0471 Y1258.6853 Z-1.0000 F4000
G1 X443.9462 Y1242.6302 Z-1.0000 F4000
G1 X485.0471 Y1226.6119 Z-1.0000 F4000
G1 X485.0471 Y1226.6119 Z10.0000 F9999
G1 X470.3499 Y1252.9422 Z10.0000 F9999
G1 X470.3499 Y1252.9422 Z-1.0000 F2500
G1 X470.3499 Y1232.2449 Z-1.0000 F4000
G1 X470.3499 Y1252.9422 Z-1.0000 F4000
G1 X470.3499 Y1252.9422 Z10.0000 F9999
G1 X434.5517 Y1300.4467 Z10.0000 F9999
G1 X434.5517 Y1300.4467 Z-1.0000 F2500
G1 X487.3958 Y1270.0614 Z-1.0000 F4000
G1 X434.5517 Y1300.4467 Z-1.0000 F4000
G1 X434.5517 Y1300.4467 Z10.0000 F9999
G1 X462.2398 Y1315.9513 Z10.0000 F9999
G1 X462.2398 Y1315.9513 Z-1.0000 F2500
G1 X462.2398 Y1330.3917 Z-1.0000 F4000
G1 X462.2398 Y1315.9513 Z-1.0000 F4000
G1 X443.9462 Y1315.9513 Z-1.0000 F4000
G1 X443.9462 Y1331.0706 Z-1.0000 F4000
G1 X443.9462 Y1315.9513 Z-1.0000 F4000
G1 X485.0471 Y1315.9513 Z-1.0000 F4000
G1 X485.0471 Y1315.9513 Z10.0000 F9999
G1 X443.9462 Y1349.9330 Z10.0000 F9999
G1 X443.9462 Y1349.9330 Z-1.0000 F2500
G1 X443.9462 Y1344.1165 Z-1.0000 F4000
G1 X443.9462 Y1349.9330 Z-1.0000 F4000
G1 X485.0471 Y1349.9330 Z-1.0000 F4000
G1 X485.0471 Y1349.9330 Z10.0000 F9999
G1 X154.1658 Y1315.9513 Z10.0000 F9999
G1 X154.1658 Y1315.9513 Z-1.0000 F2500
G1 X154.1658 Y1330.3917 Z-1.0000 F4000
G1 X154.1658 Y1315.9513 Z-1.0000 F4000
G1 X135.8722 Y1315.9513 Z-1.0000 F4000
G1 X135.8722 Y1331.0706 Z-1.0000 F4000
G1 X135.8722 Y1315.9513 Z-1.0000 F4000
G1 X176.9731 Y1315.9513 Z-1.0000 F4000
G1 X176.9731 Y1315.9513 Z10.0000 F9999
G1 X126.4777 Y1300.4467 Z10.0000 F9999
G1 X126.4777 Y1300.4467 Z-1.0000 F2500
G1 X179.3217 Y1270.0614 Z-1.0000 F4000
G1 X126.4777 Y1300.4467 Z-1.0000 F4000
G1 X126.4777 Y1300.4467 Z10.0000 F9999
G1 X135.8722 Y1349.9330 Z10.0000 F9999
G1 X135.8722 Y1349.9330 Z-1.0000 F2500
G1 X135.8722 Y1344.1165 Z-1.0000 F4000
G1 X135.8722 Y1349.9330 Z-1.0000 F4000
G1 X176.9731 Y1349.9330 Z-1.0000 F4000
G1 X176.9731 Y1349.9330 Z10.0000 F9999
G1 X162.2759 Y1252.9422 Z10.0000 F9999
G1 X162.2759 Y1252.9422 Z-1.0000 F2500
G1 X162.2759 Y1232.2449 Z-1.0000 F4000
G1 X162.2759 Y1252.9422 Z-1.0000 F4000
G1 X162.2759 Y1252.9422 Z10.0000 F9999
G1 X135.8722 Y1242.6302 Z10.0000 F9999
G1 X135.8722 Y1242.6302 Z-1.0000 F2500
G1 X176.9731 Y1258.6853 Z-1.0000 F4000
G1 X135.8722 Y1242.6302 Z-1.0000 F4000
G1 X176.9731 Y1226.6119 Z-1.0000 F4000
G1 X176.9731 Y1226.6119 Z10.0000 F9999
G1 X152.3126 Y1215.9330 Z10.0000 F9999
G1 X152.3126 Y1215.9330 Z-1.0000 F2500
G1 X152.3126 Y1186.6853 Z-1.0000 F4000
G1 X152.3126 Y1215.9330 Z-1.0000 F4000
G1 X152.3126 Y1215.9330 Z10.0000 F9999
G1 X162.2759 Y1169.5660 Z10.0000 F9999
G1 X162.2759 Y1169.5660 Z-1.0000 F2500
G1 X162.2759 Y1148.8688 Z-1.0000 F4000
G1 X162.2759 Y1169.5660 Z-1.0000 F4000
G1 X162.2759 Y1169.5660 Z10.0000 F9999
G1 X135.8722 Y1159.2541 Z10.0000 F9999
G1 X135.8722 Y1159.2541 Z-1.0000 F2500
G1 X176.9731 Y1175.3091 Z-1.0000 F4000
G1 X135.8722 Y1159.2541 Z-1.0000 F4000
G1 X176.9731 Y1143.2357 Z-1.0000 F4000
G1 X176.9731 Y1143.2357 Z10.0000 F9999
G1 X176.9731 Y1132.5568 Z10.0000 F9999
G1 X176.9731 Y1132.5568 Z-1.0000 F2500
G1 X156.8263 Y1119.3275 Z-1.0000 F4000
G1 X176.9731 Y1132.5568 Z-1.0000 F4000
G1 X176.9731 Y1132.5568 Z10.0000 F9999
G1 X176.9731 Y1115.1440 Z10.0000 F9999
G1 X176.9731 Y1115.1440 Z-1.0000 F2500
G1 X135.8722 Y1115.1440 Z-1.0000 F4000
G1 X135.8722 Y1122.3000 Z-1.0000 F4000
G1 X136.4777 Y1126.1715 Z-1.0000 F4000
G1 X138.2942 Y1129.3825 Z-1.0000 F4000
G1 X141.4502 Y1131.6027 Z-1.0000 F4000
G1 X146.0924 Y1132.4467 Z-1.0000 F4000
G1 X150.7713 Y1131.2908 Z-1.0000 F4000
G1 X154.0924 Y1128.5201 Z-1.0000 F4000
G1 X156.0557 Y1125.1990 Z-1.0000 F4000
G1 X156.7162 Y1122.3000 Z-1.0000 F4000
G1 X156.7162 Y1115.1440 Z-1.0000 F4000
G1 X156.7162 Y1122.3000 Z-1.0000 F4000
G1 X156.0557 Y1125.1990 Z-1.0000 F4000
G1 X154.0924 Y1128.5201 Z-1.0000 F4000
G1 X150.7713 Y1131.2908 Z-1.0000 F4000
G1 X146.0924 Y1132.4467 Z-1.0000 F4000
G1 X141.4502 Y1131.6027 Z-1.0000 F4000
G1 X138.2942 Y1129.3825 Z-1.0000 F4000
G1 X136.4777 Y1126.1715 Z-1.0000 F4000
G1 X135.8722 Y1122.3000 Z-1.0000 F4000
G1 X135.8722 Y1115.1440 Z-1.0000 F4000
G1 X135.8722 Y1115.1440 Z10.0000 F9999
G1 X154.1658 Y1084.6119 Z10.0000 F9999
G1 X154.1658 Y1084.6119 Z-1.0000 F2500
G1 X154.1658 Y1099.0523 Z-1.0000 F4000
G1 X154.1658 Y1084.6119 Z-1.0000 F4000
G1 X135.8722 Y1084.6119 Z-1.0000 F4000
G1 X135.8722 Y1099.7312 Z-1.0000 F4000
G1 X135.8722 Y1084.6119 Z-1.0000 F4000
G1 X176.9731 Y1084.6119 Z-1.0000 F4000
G1 X176.9731 Y1084.6119 Z10.0000 F9999
G1 X934.0758 Y1656.0172 Z10.0000 F9999
G1 X934.0758 Y1656.0172 Z-1.0000 F2500
G1 X892.9749 Y1637.7603 Z-1.0000 F4000
G1 X934.0758 Y1619.5034 Z-1.0000 F4000
G1 X892.9749 Y1615.9438 Z-1.0000 F4000
G1 X934.0758 Y1619.5034 Z-1.0000 F4000
G1 X892.9749 Y1637.7603 Z-1.0000 F4000
G1 X934.0758 Y1656.0172 Z-1.0000 F4000
G1 X892.9749 Y1659.5218 Z-1.0000 F4000
G1 X892.9749 Y1659.5218 Z10.0000 F9999
G1 X943.4703 Y1672.6594 Z10.0000 F9999
G1 X943.4703 Y1672.6594 Z-1.0000 F2500
G1 X890.6263 Y1703.0447 Z-1.0000 F4000
G1 X943.4703 Y1672.6594 Z-1.0000 F4000
G1 X943.4703 Y1672.6594 Z10.0000 F9999
G1 X892.9749 Y1713.7236 Z10.0000 F9999
G1 X892.9749 Y1713.7236 Z-1.0000 F2500
G1 X913.1217 Y1726.9530 Z-1.0000 F4000
G1 X892.9749 Y1713.7236 Z-1.0000 F4000
G1 X892.9749 Y1713.7236 Z10.0000 F9999
G1 X892.9749 Y1731.1365 Z10.0000 F9999
G1 X892.9749 Y1731.1365 Z-1.0000 F2500
G1 X934.0758 Y1731.1365 Z-1.0000 F4000
G1 X934.0758 Y1723.9805 Z-1.0000 F4000
G1 X933.4703 Y1720.1089 Z-1.0000 F4000
G1 X931.6538 Y1716.8979 Z-1.0000 F4000
G1 X928.4978 Y1714.6778 Z-1.0000 F4000
G1 X923.8556 Y1713.8337 Z-1.0000 F4000
G1 X919.1767 Y1714.9897 Z-1.0000 F4000
G1 X915.8556 Y1717.7603 Z-1.0000 F4000
G1 X913.8923 Y1721.0814 Z-1.0000 F4000
G1 X913.2318 Y1723.9805 Z-1.0000 F4000
G1 X913.2318 Y1731.1365 Z-1.0000 F4000
G1 X913.2318 Y1723.9805 Z-1.0000 F4000
G1 X913.8923 Y1721.0814 Z-1.0000 F4000
G1 X915.8556 Y1717.7603 Z-1.0000 F4000
G1 X919.1767 Y1714.9897 Z-1.0000 F4000
G1 X923.8556 Y1713.8337 Z-1.0000 F4000
G1 X928.4978 Y1714.6778 Z-1.0000 F4000
G1 X931.6538 Y1716.8979 Z-1.0000 F4000
G1 X933.4703 Y1720.1089 Z-1.0000 F4000
G1 X934.0758 Y1723.9805 Z-1.0000 F4000
G1 X934.0758 Y1731.1365 Z-1.0000 F4000
G1 X934.0758 Y1731.1365 Z10.0000 F9999
G1 X892.9749 Y1768.7511 Z10.0000 F9999
G1 X892.9749 Y1768.7511 Z-1.0000 F2500
G1 X894.5712 Y1776.9530 Z-1.0000 F4000
G1 X898.9749 Y1783.6869 Z-1.0000 F4000
G1 X905.5070 Y1788.2557 Z-1.0000 F4000
G1 X913.4886 Y1789.9438 Z-1.0000 F4000
G1 X921.4703 Y1788.2557 Z-1.0000 F4000
G1 X928.0208 Y1783.6869 Z-1.0000 F4000
G1 X932.4428 Y1776.9530 Z-1.0000 F4000
G1 X934.0758 Y1768.7511 Z-1.0000 F4000
G1 X932.4428 Y1760.4943 Z-1.0000 F4000
G1 X928.0208 Y1753.7603 Z-1.0000 F4000
G1 X921.4703 Y1749.2282 Z-1.0000 F4000
G1 X913.4886 Y1747.5585 Z-1.0000 F4000
G1 X905.5070 Y1749.2282 Z-1.0000 F4000
G1 X898.9749 Y1753.7603 Z-1.0000 F4000
G1 X894.5712 Y1760.4943 Z-1.0000 F4000
G1 X892.9749 Y1768.7511 Z-1.0000 F4000
G1 X894.5712 Y1776.9530 Z-1.0000 F4000
G1 X898.9749 Y1783.6869 Z-1.0000 F4000
G1 X905.5070 Y1788.2557 Z-1.0000 F4000
G1 X913.4886 Y1789.9438 Z-1.0000 F4000
G1 X921.4703 Y1788.2557 Z-1.0000 F4000
G1 X928.0208 Y1783.6869 Z-1.0000 F4000
G1 X932.4428 Y1776.9530 Z-1.0000 F4000
G1 X934.0758 Y1768.7511 Z-1.0000 F4000
G1 X932.4428 Y1760.4943 Z-1.0000 F4000
G1 X928.0208 Y1753.7603 Z-1.0000 F4000
G1 X921.4703 Y1749.2282 Z-1.0000 F4000
G1 X913.4886 Y1747.5585 Z-1.0000 F4000
G1 X905.5070 Y1749.2282 Z-1.0000 F4000
G1 X898.9749 Y1753.7603 Z-1.0000 F4000
G1 X894.5712 Y1760.4943 Z-1.0000 F4000
G1 X892.9749 Y1768.7511 Z-1.0000 F4000
G1 X892.9749 Y1768.7511 Z10.0000 F9999
G1 X892.9749 Y1822.7695 Z10.0000 F9999
G1 X892.9749 Y1822.7695 Z-1.0000 F2500
G1 X894.5712 Y1830.9713 Z-1.0000 F4000
G1 X898.9749 Y1837.7053 Z-1.0000 F4000
G1 X905.5070 Y1842.2741 Z-1.0000 F4000
G1 X913.4886 Y1843.9622 Z-1.0000 F4000
G1 X921.4703 Y1842.2741 Z-1.0000 F4000
G1 X928.0208 Y1837.7053 Z-1.0000 F4000
G1 X932.4428 Y1830.9713 Z-1.0000 F4000
G1 X934.0758 Y1822.7695 Z-1.0000 F4000
G1 X932.4428 Y1814.5126 Z-1.0000 F4000
G1 X928.0208 Y1807.7787 Z-1.0000 F4000
G1 X921.4703 Y1803.2466 Z-1.0000 F4000
G1 X913.4886 Y1801.5768 Z-1.0000 F4000
G1 X905.5070 Y1803.2466 Z-1.0000 F4000
G1 X898.9749 Y1807.7787 Z-1.0000 F4000
G1 X894.5712 Y1814.5126 Z-1.0000 F4000
G1 X892.9749 Y1822.7695 Z-1.0000 F4000
G1 X894.5712 Y1830.9713 Z-1.0000 F4000
G1 X898.9749 Y1837.7053 Z-1.0000 F4000
G1 X905.5070 Y1842.2741 Z-1.0000 F4000
G1 X913.4886 Y1843.9622 Z-1.0000 F4000
G1 X921.4703 Y1842.2741 Z-1.0000 F4000
G1 X928.0208 Y1837.7053 Z-1.0000 F4000
G1 X932.4428 Y1830.9713 Z-1.0000 F4000
G1 X934.0758 Y1822.7695 Z-1.0000 F4000
G1 X932.4428 Y1814.5126 Z-1.0000 F4000
G1 X928.0208 Y1807.7787 Z-1.0000 F4000
G1 X921.4703 Y1803.2466 Z-1.0000 F4000
G1 X913.4886 Y1801.5768 Z-1.0000 F4000
G1 X905.5070 Y1803.2466 Z-1.0000 F4000
G1 X898.9749 Y1807.7787 Z-1.0000 F4000
G1 X894.5712 Y1814.5126 Z-1.0000 F4000
G1 X892.9749 Y1822.7695 Z-1.0000 F4000
G1 X892.9749 Y1822.7695 Z10.0000 F9999
G1 X892.9749 Y1854.7328 Z10.0000 F9999
G1 X892.9749 Y1854.7328 Z-1.0000 F2500
G1 X892.9749 Y1867.3567 Z-1.0000 F4000
G1 X934.0758 Y1867.3567 Z-1.0000 F4000
G1 X892.9749 Y1867.3567 Z-1.0000 F4000
G1 X892.9749 Y1867.3567 Z10.0000 F9999
G1 X915.7822 Y1897.8888 Z10.0000 F9999
G1 X915.7822 Y1897.8888 Z-1.0000 F2500
G1 X915.7822 Y1883.4484 Z-1.0000 F4000
G1 X915.7822 Y1897.8888 Z-1.0000 F4000
G1 X934.0758 Y1897.8888 Z-1.0000 F4000
G1 X934.0758 Y1882.7695 Z-1.0000 F4000
G1 X934.0758 Y1897.8888 Z-1.0000 F4000
G1 X892.9749 Y1897.8888 Z-1.0000 F4000
G1 X892.9749 Y1897.8888 Z10.0000 F9999
(Tool Number:1) (7.998 mm dia. slot drill)
M3 S9000
G1 X31.8999 Y131.6496 Z10.0000 F9999
G1 X31.8999 Y131.6496 Z1.0000 F2500
G1 X31.8989 Y164.6509 Z-7.4682 F2500
G1 X31.9009 Y162.6499 Z-7.9816 F2500
G1 X31.9432 Y162.0704 Z-8.1307 F2500
G1 X32.0774 Y161.4750 Z-8.2873 F2500
G1 X32.3113 Y160.8853 Z-8.4501 F2500
G1 X32.6454 Y160.3261 Z-8.6173 F2500
G1 X33.0722 Y159.8222 Z-8.7867 F2500
G1 X33.5761 Y159.3954 Z-8.9561 F2500
G1 X33.7228 Y159.3078 Z-9.0000 F2500
G1 X33.5761 Y159.3954 Z-9.0439 F2500
G1 X33.0722 Y159.8222 Z-9.2133 F2500
G1 X32.6454 Y160.3261 Z-9.3827 F2500
G1 X32.3113 Y160.8853 Z-9.5499 F2500
G1 X32.0774 Y161.4750 Z-9.7127 F2500
G1 X31.9432 Y162.0704 Z-9.8693 F2500
G1 X31.9009 Y162.6499 Z-10.0184 F2500
G1 X31.8989 Y164.6509 Z-10.5318 F2500
G1 X31.8999 Y131.6496 Z-19.0000 F2500
G1 X31.8989 Y164.6509 Z-19.0000 F4000
G1 X31.9009 Y162.6499 Z-19.0000 F4000
G1 X31.9432 Y162.0704 Z-19.0000 F4000
G1 X32.0774 Y161.4750 Z-19.0000 F4000
G1 X32.3113 Y160.8853 Z-19.0000 F4000
G1 X32.6454 Y160.3261 Z-19.0000 F4000
G1 X33.0722 Y159.8222 Z-19.0000 F4000
G1 X33.5761 Y159.3954 Z-19.0000 F4000
G1 X34.1353 Y159.0613 Z-19.0000 F4000
G1 X34.7250 Y158.8274 Z-19.0000 F4000
G1 X35.3204 Y158.6932 Z-19.0000 F4000
G1 X35.8999 Y158.6509 Z-19.0000 F4000
G1 X47.9009 Y158.6509 Z-19.0000 F4000
G1 X45.8999 Y158.6489 Z-19.0000 F4000
G1 X45.2820 Y158.6009 Z-19.0000 F4000
G1 X44.6679 Y158.4544 Z-19.0000 F4000
G1 X44.0809 Y158.2113 Z-19.0000 F4000
G1 X43.5430 Y157.8806 Z-19.0000 F4000
G1 X43.0722 Y157.4777 Z-19.0000 F4000
G1 X42.6692 Y157.0068 Z-19.0000 F4000
G1 X42.3386 Y156.4689 Z-19.0000 F4000
G1 X42.0954 Y155.8820 Z-19.0000 F4000
G1 X41.9489 Y155.2678 Z-19.0000 F4000
G1 X41.9009 Y154.6499 Z-19.0000 F4000
G1 X41.9009 Y110.6502 Z-19.0000 F4000
G1 X41.9431 Y110.0707 Z-19.0000 F4000
G1 X42.0774 Y109.4752 Z-19.0000 F4000
G1 X42.3113 Y108.8856 Z-19.0000 F4000
G1 X42.6454 Y108.3263 Z-19.0000 F4000
G1 X43.0722 Y107.8225 Z-19.0000 F4000
G1 X43.5761 Y107.3957 Z-19.0000 F4000
G1 X44.1353 Y107.0616 Z-19.0000 F4000
G1 X44.7250 Y106.8277 Z-19.0000 F4000
G1 X45.3204 Y106.6934 Z-19.0000 F4000
G1 X45.8999 Y106.6512 Z-19.0000 F4000
G1 X47.9009 Y106.6512 Z-19.0000 F4000
G1 X35.8999 Y106.6492 Z-19.0000 F4000
G1 X35.3204 Y106.6070 Z-19.0000 F4000
G1 X34.7250 Y106.4727 Z-19.0000 F4000
G1 X34.1353 Y106.2388 Z-19.0000 F4000
G1 X33.5761 Y105.9047 Z-19.0000 F4000
G1 X33.0722 Y105.4779 Z-19.0000 F4000
G1 X32.6454 Y104.9740 Z-19.0000 F4000
G1 X32.3113 Y104.4148 Z-19.0000 F4000
G1 X32.0774 Y103.8251 Z-19.0000 F4000
G1 X31.9432 Y103.2297 Z-19.0000 F4000
G1 X31.9009 Y102.6502 Z-19.0000 F4000
G1 X31.9009 Y100.6492 Z-19.0000 F4000
G1 X31.8999 Y131.6496 Z-19.0000 F4000
G1 X31.8999 Y131.6496 Z10.0000 F9999
G1 X152.8997 Y127.6488 Z10.0000 F9999
G1 X152.8997 Y127.6488 Z1.0000 F2500
G1 X126.8998 Y127.6488 Z-5.6716 F2500
G1 X126.3661 Y127.6130 Z-5.8088 F2500
G1 X125.8207 Y127.5004 Z-5.9517 F2500
G1 X125.2798 Y127.3060 Z-6.0992 F2500
G1 X124.7618 Y127.0293 Z-6.2499 F2500
G1 X124.2850 Y126.6754 Z-6.4023 F2500
G1 X123.8658 Y126.2549 Z-6.5546 F2500
G1 X123.5169 Y125.7824 Z-6.7053 F2500
G1 X123.2461 Y125.2755 Z-6.8528 F2500
G1 X123.0557 Y124.7521 Z-6.9957 F2500
G1 X122.9430 Y124.2293 Z-7.1330 F2500
G1 X122.8931 Y123.4397 Z-7.3360 F2500
G1 X122.9008 Y122.6486 Z-7.5390 F2500
G1 X120.8988 Y122.6486 Z-8.0527 F2500
G1 X120.8988 Y126.3404 Z-9.0000 F2500
G1 X120.8988 Y122.6486 Z-9.9473 F2500
G1 X122.9008 Y122.6486 Z-10.4610 F2500
G1 X122.8931 Y123.4397 Z-10.6640 F2500
G1 X122.9430 Y124.2293 Z-10.8670 F2500
G1 X123.0557 Y124.7521 Z-11.0043 F2500
G1 X123.2461 Y125.2755 Z-11.1472 F2500
G1 X123.5169 Y125.7824 Z-11.2947 F2500
G1 X123.8658 Y126.2549 Z-11.4454 F2500
G1 X124.2850 Y126.6754 Z-11.5977 F2500
G1 X124.7618 Y127.0293 Z-11.7501 F2500
G1 X125.2798 Y127.3060 Z-11.9008 F2500
G1 X125.8207 Y127.5004 Z-12.0483 F2500
G1 X126.3661 Y127.6130 Z-12.1912 F2500
G1 X126.8998 Y127.6488 Z-12.3284 F2500
G1 X152.8997 Y127.6488 Z-19.0000 F2500
G1 X126.8998 Y127.6488 Z-19.0000 F4000
G1 X126.3661 Y127.6130 Z-19.0000 F4000
G1 X125.8207 Y127.5004 Z-19.0000 F4000
G1 X125.2798 Y127.3060 Z-19.0000 F4000
G1 X124.7618 Y127.0293 Z-19.0000 F4000
G1 X124.2850 Y126.6754 Z-19.0000 F4000
G1 X123.8658 Y126.2549 Z-19.0000 F4000
G1 X123.5169 Y125.7824 Z-19.0000 F4000
G1 X123.2461 Y125.2755 Z-19.0000 F4000
G1 X123.0557 Y124.7521 Z-19.0000 F4000
G1 X122.9430 Y124.2293 Z-19.0000 F4000
G1 X122.8931 Y123.4397 Z-19.0000 F4000
G1 X122.9008 Y122.6486 Z-19.0000 F4000
G1 X120.8988 Y122.6486 Z-19.0000 F4000
G1 X120.8988 Y142.6506 Z-19.0000 F4000
G1 X122.9008 Y142.6506 Z-19.0000 F4000
G1 X122.8931 Y141.8597 Z-19.0000 F4000
G1 X122.9430 Y141.0702 Z-19.0000 F4000
G1 X123.0557 Y140.5474 Z-19.0000 F4000
G1 X123.2461 Y140.0241 Z-19.0000 F4000
G1 X123.5169 Y139.5171 Z-19.0000 F4000
G1 X123.8658 Y139.0446 Z-19.0000 F4000
G1 X124.2850 Y138.6241 Z-19.0000 F4000
G1 X124.7618 Y138.2702 Z-19.0000 F4000
G1 X125.2798 Y137.9935 Z-19.0000 F4000
G1 X125.8207 Y137.7991 Z-19.0000 F4000
G1 X126.3661 Y137.6865 Z-19.0000 F4000
G1 X126.8998 Y137.6508 Z-19.0000 F4000
G1 X178.8996 Y137.6508 Z-19.0000 F4000
G1 X179.4333 Y137.6865 Z-19.0000 F4000
G1 X179.9787 Y137.7991 Z-19.0000 F4000
G1 X180.5196 Y137.9935 Z-19.0000 F4000
G1 X181.0376 Y138.2702 Z-19.0000 F4000
G1 X181.5145 Y138.6241 Z-19.0000 F4000
G1 X181.9336 Y139.0446 Z-19.0000 F4000
G1 X182.2825 Y139.5171 Z-19.0000 F4000
G1 X182.5533 Y140.0241 Z-19.0000 F4000
G1 X182.7437 Y140.5474 Z-19.0000 F4000
G1 X182.8564 Y141.0702 Z-19.0000 F4000
G1 X182.9063 Y141.8597 Z-19.0000 F4000
G1 X182.8986 Y142.6506 Z-19.0000 F4000
G1 X184.9006 Y142.6506 Z-19.0000 F4000
G1 X184.9006 Y122.6486 Z-19.0000 F4000
G1 X182.8986 Y122.6486 Z-19.0000 F4000
G1 X182.9063 Y123.4397 Z-19.0000 F4000
G1 X182.8564 Y124.2293 Z-19.0000 F4000
G1 X182.7437 Y124.7521 Z-19.0000 F4000
G1 X182.5533 Y125.2755 Z-19.0000 F4000
G1 X182.2825 Y125.7824 Z-19.0000 F4000
G1 X181.9336 Y126.2549 Z-19.0000 F4000
G1 X181.5145 Y126.6754 Z-19.0000 F4000
G1 X181.0376 Y127.0293 Z-19.0000 F4000
G1 X180.5196 Y127.3060 Z-19.0000 F4000
G1 X179.9787 Y127.5004 Z-19.0000 F4000
G1 X179.4333 Y127.6130 Z-19.0000 F4000
G1 X178.8996 Y127.6488 Z-19.0000 F4000
G1 X152.8997 Y127.6488 Z-19.0000 F4000
G1 X152.8997 Y127.6488 Z10.0000 F9999
G1 X273.8994 Y133.6506 Z10.0000 F9999
G1 X273.8994 Y133.6506 Z1.0000 F2500
G1 X273.9004 Y100.6492 Z-7.4682 F2500
G1 X273.8984 Y102.6502 Z-7.9816 F2500
G1 X273.8504 Y103.2681 Z-8.1406 F2500
G1 X273.7039 Y103.8822 Z-8.3027 F2500
G1 X273.4608 Y104.4692 Z-8.4657 F2500
G1 X273.1301 Y105.0070 Z-8.6277 F2500
G1 X272.7271 Y105.4779 Z-8.7867 F2500
G1 X272.2563 Y105.8808 Z-8.9457 F2500
G1 X272.0762 Y105.9916 Z-9.0000 F2500
G1 X272.2563 Y105.8808 Z-9.0543 F2500
G1 X272.7271 Y105.4779 Z-9.2133 F2500
G1 X273.1301 Y105.0070 Z-9.3723 F2500
G1 X273.4608 Y104.4692 Z-9.5343 F2500
G1 X273.7039 Y103.8822 Z-9.6973 F2500
G1 X273.8504 Y103.2681 Z-9.8594 F2500
G1 X273.8984 Y102.6502 Z-10.0184 F2500
G1 X273.9004 Y100.6492 Z-10.5318 F2500
G1 X273.8994 Y133.6506 Z-19.0000 F2500
G1 X273.9004 Y100.6492 Z-19.0000 F4000
G1 X273.8984 Y102.6502 Z-19.0000 F4000
G1 X273.8504 Y103.2681 Z-19.0000 F4000
G1 X273.7039 Y103.8822 Z-19.0000 F4000
G1 X273.4608 Y104.4692 Z-19.0000 F4000
G1 X273.1301 Y105.0070 Z-19.0000 F4000
G1 X272.7271 Y105.4779 Z-19.0000 F4000
G1 X272.2563 Y105.8808 Z-19.0000 F4000
G1 X271.7184 Y106.2115 Z-19.0000 F4000
G1 X271.1314 Y106.4547 Z-19.0000 F4000
G1 X270.5173 Y106.6012 Z-19.0000 F4000
G1 X269.8994 Y106.6492 Z-19.0000 F4000
G1 X257.8985 Y106.6492 Z-19.0000 F4000
G1 X259.8995 Y106.6512 Z-19.0000 F4000
G1 X260.5173 Y106.6992 Z-19.0000 F4000
G1 X261.1315 Y106.8457 Z-19.0000 F4000
G1 X261.7185 Y107.0888 Z-19.0000 F4000
G1 X262.2563 Y107.4195 Z-19.0000 F4000
G1 X262.7272 Y107.8225 Z-19.0000 F4000
G1 X263.1301 Y108.2933 Z-19.0000 F4000
G1 X263.4608 Y108.8312 Z-19.0000 F4000
G1 X263.7039 Y109.4182 Z-19.0000 F4000
G1 X263.8504 Y110.0323 Z-19.0000 F4000
G1 X263.8985 Y110.6502 Z-19.0000 F4000
G1 X263.8985 Y154.6499 Z-19.0000 F4000
G1 X263.8562 Y155.2295 Z-19.0000 F4000
G1 X263.7220 Y155.8249 Z-19.0000 F4000
G1 X263.4881 Y156.4146 Z-19.0000 F4000
G1 X263.1539 Y156.9738 Z-19.0000 F4000
G1 X262.7272 Y157.4777 Z-19.0000 F4000
G1 X262.2233 Y157.9044 Z-19.0000 F4000
G1 X261.6641 Y158.2385 Z-19.0000 F4000
G1 X261.0744 Y158.4724 Z-19.0000 F4000
G1 X260.4790 Y158.6067 Z-19.0000 F4000
G1 X259.8995 Y158.6489 Z-19.0000 F4000
G1 X257.8985 Y158.6489 Z-19.0000 F4000
G1 X269.8994 Y158.6509 Z-19.0000 F4000
G1 X270.4790 Y158.6932 Z-19.0000 F4000
G1 X271.0744 Y158.8274 Z-19.0000 F4000
G1 X271.6641 Y159.0613 Z-19.0000 F4000
G1 X272.2233 Y159.3954 Z-19.0000 F4000
G1 X272.7271 Y159.8222 Z-19.0000 F4000
G1 X273.1539 Y160.3261 Z-19.0000 F4000
G1 X273.4880 Y160.8853 Z-19.0000 F4000
G1 X273.7219 Y161.4750 Z-19.0000 F4000
G1 X273.8562 Y162.0704 Z-19.0000 F4000
G1 X273.8984 Y162.6499 Z-19.0000 F4000
G1 X273.8984 Y164.6509 Z-19.0000 F4000
G1 X273.8994 Y133.6506 Z-19.0000 F4000
G1 X273.8994 Y133.6506 Z10.0000 F9999
G1 X339.9740 Y131.6496 Z10.0000 F9999
G1 X339.9740 Y131.6496 Z1.0000 F2500
G1 X339.9730 Y164.6509 Z-7.4682 F2500
G1 X339.9750 Y162.6499 Z-7.9816 F2500
G1 X340.0230 Y162.0321 Z-8.1406 F2500
G1 X340.1695 Y161.4179 Z-8.3027 F2500
G1 X340.4126 Y160.8309 Z-8.4657 F2500
G1 X340.7433 Y160.2931 Z-8.6277 F2500
G1 X341.1462 Y159.8222 Z-8.7867 F2500
G1 X341.6171 Y159.4193 Z-8.9457 F2500
G1 X341.7972 Y159.3085 Z-9.0000 F2500
G1 X341.6171 Y159.4193 Z-9.0543 F2500
G1 X341.1462 Y159.8222 Z-9.2133 F2500
G1 X340.7433 Y160.2931 Z-9.3723 F2500
G1 X340.4126 Y160.8309 Z-9.5343 F2500
G1 X340.1695 Y161.4179 Z-9.6973 F2500
G1 X340.0230 Y162.0321 Z-9.8594 F2500
G1 X339.9750 Y162.6499 Z-10.0184 F2500
G1 X339.9730 Y164.6509 Z-10.5318 F2500
G1 X339.9740 Y131.6496 Z-19.0000 F2500
G1 X339.9730 Y164.6509 Z-19.0000 F4000
G1 X339.9750 Y162.6499 Z-19.0000 F4000
G1 X340.0230 Y162.0321 Z-19.0000 F4000
G1 X340.1695 Y161.4179 Z-19.0000 F4000
G1 X340.4126 Y160.8309 Z-19.0000 F4000
G1 X340.7433 Y160.2931 Z-19.0000 F4000
G1 X341.1462 Y159.8222 Z-19.0000 F4000
G1 X341.6171 Y159.4193 Z-19.0000 F4000
G1 X342.1549 Y159.0886 Z-19.0000 F4000
G1 X342.7419 Y158.8455 Z-19.0000 F4000
G1 X343.3561 Y158.6990 Z-19.0000 F4000
G1 X343.9740 Y158.6509 Z-19.0000 F4000
G1 X355.9749 Y158.6509 Z-19.0000 F4000
G1 X353.9739 Y158.6489 Z-19.0000 F4000
G1 X353.3944 Y158.6067 Z-19.0000 F4000
G1 X352.7990 Y158.4724 Z-19.0000 F4000
G1 X352.2093 Y158.2385 Z-19.0000 F4000
G1 X351.6501 Y157.9044 Z-19.0000 F4000
G1 X351.1462 Y157.4777 Z-19.0000 F4000
G1 X350.7194 Y156.9738 Z-19.0000 F4000
G1 X350.3853 Y156.4146 Z-19.0000 F4000
G1 X350.1514 Y155.8249 Z-19.0000 F4000
G1 X350.0171 Y155.2295 Z-19.0000 F4000
G1 X349.9749 Y154.6499 Z-19.0000 F4000
G1 X349.9749 Y110.6502 Z-19.0000 F4000
G1 X350.0171 Y110.0707 Z-19.0000 F4000
G1 X350.1514 Y109.4752 Z-19.0000 F4000
G1 X350.3853 Y108.8856 Z-19.0000 F4000
G1 X350.7194 Y108.3263 Z-19.0000 F4000
G1 X351.1462 Y107.8225 Z-19.0000 F4000
G1 X351.6501 Y107.3957 Z-19.0000 F4000
G1 X352.2093 Y107.0616 Z-19.0000 F4000
G1 X352.7990 Y106.8277 Z-19.0000 F4000
G1 X353.3944 Y106.6934 Z-19.0000 F4000
G1 X353.9739 Y106.6512 Z-19.0000 F4000
G1 X355.9749 Y106.6512 Z-19.0000 F4000
G1 X343.9740 Y106.6492 Z-19.0000 F4000
G1 X343.3944 Y106.6070 Z-19.0000 F4000
G1 X342.7990 Y106.4727 Z-19.0000 F4000
G1 X342.2093 Y106.2388 Z-19.0000 F4000
G1 X341.6501 Y105.9047 Z-19.0000 F4000
G1 X341.1462 Y105.4779 Z-19.0000 F4000
G1 X340.7195 Y104.9740 Z-19.0000 F4000
G1 X340.3854 Y104.4148 Z-19.0000 F4000
G1 X340.1515 Y103.8251 Z-19.0000 F4000
G1 X340.0172 Y103.2297 Z-19.0000 F4000
G1 X339.9750 Y102.6502 Z-19.0000 F4000
G1 X339.9750 Y100.6492 Z-19.0000 F4000
G1 X339.9740 Y131.6496 Z-19.0000 F4000
G1 X339.9740 Y131.6496 Z10.0000 F9999
G1 X460.9737 Y127.6488 Z10.0000 F9999
G1 X460.9737 Y127.6488 Z1.0000 F2500
G1 X434.9738 Y127.6488 Z-5.6716 F2500
G1 X434.4402 Y127.6130 Z-5.8088 F2500
G1 X433.8947 Y127.5004 Z-5.9517 F2500
G1 X433.3539 Y127.3060 Z-6.0992 F2500
G1 X432.8358 Y127.0293 Z-6.2499 F2500
G1 X432.3590 Y126.6754 Z-6.4023 F2500
G1 X431.9398 Y126.2549 Z-6.5546 F2500
G1 X431.5909 Y125.7824 Z-6.7053 F2500
G1 X431.3201 Y125.2755 Z-6.8528 F2500
G1 X431.1297 Y124.7521 Z-6.9957 F2500
G1 X431.0170 Y124.2293 Z-7.1330 F2500
G1 X430.9671 Y123.4397 Z-7.3360 F2500
G1 X430.9748 Y122.6486 Z-7.5390 F2500
G1 X428.9728 Y122.6486 Z-8.0527 F2500
G1 X428.9728 Y126.3404 Z-9.0000 F2500
G1 X428.9728 Y122.6486 Z-9.9473 F2500
G1 X430.9748 Y122.6486 Z-10.4610 F2500
G1 X430.9671 Y123.4397 Z-10.6640 F2500
G1 X431.0170 Y124.2293 Z-10.8670 F2500
G1 X431.1297 Y124.7521 Z-11.0043 F2500
G1 X431.3201 Y125.2755 Z-11.1472 F2500
G1 X431.5909 Y125.7824 Z-11.2947 F2500
G1 X431.9398 Y126.2549 Z-11.4454 F2500
G1 X432.3590 Y126.6754 Z-11.5977 F2500
G1 X432.8358 Y127.0293 Z-11.7501 F2500
G1 X433.3539 Y127.3060 Z-11.9008 F2500
G1 X433.8947 Y127.5004 Z-12.0483 F2500
G1 X434.4402 Y127.6130 Z-12.1912 F2500
G1 X434.9738 Y127.6488 Z-12.3284 F2500
G1 X460.9737 Y127.6488 Z-19.0000 F2500
G1 X434.9738 Y127.6488 Z-19.0000 F4000
G1 X434.4402 Y127.6130 Z-19.0000 F4000
G1 X433.8947 Y127.5004 Z-19.0000 F4000
G1 X433.3539 Y127.3060 Z-19.0000 F4000
G1 X432.8358 Y127.0293 Z-19.0000 F4000
G1 X432.3590 Y126.6754 Z-19.0000 F4000
G1 X431.9398 Y126.2549 Z-19.0000 F4000
G1 X431.5909 Y125.7824 Z-19.0000 F4000
G1 X431.3201 Y125.2755 Z-19.0000 F4000
G1 X431.1297 Y124.7521 Z-19.0000 F4000
G1 X431.0170 Y124.2293 Z-19.0000 F4000
G1 X430.9671 Y123.4397 Z-19.0000 F4000
G1 X430.9748 Y122.6486 Z-19.0000 F4000
G1 X428.9728 Y122.6486 Z-19.0000 F4000
G1 X428.9728 Y142.6506 Z-19.0000 F4000
G1 X430.9748 Y142.6506 Z-19.0000 F4000
G1 X430.9671 Y141.8597 Z-19.0000 F4000
G1 X431.0170 Y141.0702 Z-19.0000 F4000
G1 X431.1297 Y140.5474 Z-19.0000 F4000
G1 X431.3201 Y140.0241 Z-19.0000 F4000
G1 X431.5909 Y139.5171 Z-19.0000 F4000
G1 X431.9398 Y139.0446 Z-19.0000 F4000
G1 X432.3590 Y138.6241 Z-19.0000 F4000
G1 X432.8358 Y138.2702 Z-19.0000 F4000
G1 X433.3539 Y137.9935 Z-19.0000 F4000
G1 X433.8947 Y137.7991 Z-19.0000 F4000
G1 X434.4402 Y137.6865 Z-19.0000 F4000
G1 X434.9738 Y137.6508 Z-19.0000 F4000
G1 X486.9737 Y137.6508 Z-19.0000 F4000
G1 X487.5073 Y137.6865 Z-19.0000 F4000
G1 X488.0527 Y137.7991 Z-19.0000 F4000
G1 X488.5936 Y137.9935 Z-19.0000 F4000
G1 X489.1116 Y138.2702 Z-19.0000 F4000
G1 X489.5885 Y138.6241 Z-19.0000 F4000
G1 X490.0077 Y139.0446 Z-19.0000 F4000
G1 X490.3565 Y139.5171 Z-19.0000 F4000
G1 X490.6273 Y140.0241 Z-19.0000 F4000
G1 X490.8177 Y140.5474 Z-19.0000 F4000
G1 X490.9304 Y141.0702 Z-19.0000 F4000
G1 X490.9803 Y141.8597 Z-19.0000 F4000
G1 X490.9727 Y142.6506 Z-19.0000 F4000
G1 X492.9746 Y142.6506 Z-19.0000 F4000
G1 X492.9746 Y122.6486 Z-19.0000 F4000
G1 X490.9727 Y122.6486 Z-19.0000 F4000
G1 X490.9803 Y123.4397 Z-19.0000 F4000
G1 X490.9304 Y124.2293 Z-19.0000 F4000
G1 X490.8177 Y124.7521 Z-19.0000 F4000
G1 X490.6273 Y125.2755 Z-19.0000 F4000
G1 X490.3565 Y125.7824 Z-19.0000 F4000
G1 X490.0077 Y126.2549 Z-19.0000 F4000
G1 X489.5885 Y126.6754 Z-19.0000 F4000
G1 X489.1116 Y127.0293 Z-19.0000 F4000
G1 X488.5936 Y127.3060 Z-19.0000 F4000
G1 X488.0527 Y127.5004 Z-19.0000 F4000
G1 X487.5073 Y127.6130 Z-19.0000 F4000
G1 X486.9737 Y127.6488 Z-19.0000 F4000
G1 X460.9737 Y127.6488 Z-19.0000 F4000
G1 X460.9737 Y127.6488 Z10.0000 F9999
G1 X581.9734 Y133.6506 Z10.0000 F9999
G1 X581.9734 Y133.6506 Z1.0000 F2500
G1 X581.9744 Y100.6492 Z-7.4682 F2500
G1 X581.9724 Y102.6502 Z-7.9816 F2500
G1 X581.9302 Y103.2297 Z-8.1307 F2500
G1 X581.7959 Y103.8251 Z-8.2873 F2500
G1 X581.5620 Y104.4148 Z-8.4501 F2500
G1 X581.2279 Y104.9740 Z-8.6173 F2500
G1 X580.8012 Y105.4779 Z-8.7867 F2500
G1 X580.2973 Y105.9047 Z-8.9561 F2500
G1 X580.1506 Y105.9923 Z-9.0000 F2500
G1 X580.2973 Y105.9047 Z-9.0439 F2500
G1 X580.8012 Y105.4779 Z-9.2133 F2500
G1 X581.2279 Y104.9740 Z-9.3827 F2500
G1 X581.5620 Y104.4148 Z-9.5499 F2500
G1 X581.7959 Y103.8251 Z-9.7127 F2500
G1 X581.9302 Y103.2297 Z-9.8693 F2500
G1 X581.9724 Y102.6502 Z-10.0184 F2500
G1 X581.9744 Y100.6492 Z-10.5318 F2500
G1 X581.9734 Y133.6506 Z-19.0000 F2500
G1 X581.9744 Y100.6492 Z-19.0000 F4000
G1 X581.9724 Y102.6502 Z-19.0000 F4000
G1 X581.9302 Y103.2297 Z-19.0000 F4000
G1 X581.7959 Y103.8251 Z-19.0000 F4000
G1 X581.5620 Y104.4148 Z-19.0000 F4000
G1 X581.2279 Y104.9740 Z-19.0000 F4000
G1 X580.8012 Y105.4779 Z-19.0000 F4000
G1 X580.2973 Y105.9047 Z-19.0000 F4000
G1 X579.7381 Y106.2388 Z-19.0000 F4000
G1 X579.1484 Y106.4727 Z-19.0000 F4000
G1 X578.5530 Y106.6070 Z-19.0000 F4000
G1 X577.9734 Y106.6492 Z-19.0000 F4000
G1 X565.9725 Y106.6492 Z-19.0000 F4000
G1 X567.9735 Y106.6512 Z-19.0000 F4000
G1 X568.5913 Y106.6992 Z-19.0000 F4000
G1 X569.2055 Y106.8457 Z-19.0000 F4000
G1 X569.7925 Y107.0888 Z-19.0000 F4000
G1 X570.3303 Y107.4195 Z-19.0000 F4000
G1 X570.8012 Y107.8225 Z-19.0000 F4000
G1 X571.2041 Y108.2933 Z-19.0000 F4000
G1 X571.5348 Y108.8312 Z-19.0000 F4000
G1 X571.7780 Y109.4182 Z-19.0000 F4000
G1 X571.9244 Y110.0323 Z-19.0000 F4000
G1 X571.9725 Y110.6502 Z-19.0000 F4000
G1 X571.9725 Y154.6499 Z-19.0000 F4000
G1 X571.9244 Y155.2678 Z-19.0000 F4000
G1 X571.7780 Y155.8820 Z-19.0000 F4000
G1 X571.5348 Y156.4689 Z-19.0000 F4000
G1 X571.2041 Y157.0068 Z-19.0000 F4000
G1 X570.8012 Y157.4777 Z-19.0000 F4000
G1 X570.3303 Y157.8806 Z-19.0000 F4000
G1 X569.7925 Y158.2113 Z-19.0000 F4000
G1 X569.2055 Y158.4544 Z-19.0000 F4000
G1 X568.5913 Y158.6009 Z-19.0000 F4000
G1 X567.9735 Y158.6489 Z-19.0000 F4000
G1 X565.9725 Y158.6489 Z-19.0000 F4000
G1 X577.9734 Y158.6509 Z-19.0000 F4000
G1 X578.5530 Y158.6932 Z-19.0000 F4000
G1 X579.1484 Y158.8274 Z-19.0000 F4000
G1 X579.7381 Y159.0613 Z-19.0000 F4000
G1 X580.2973 Y159.3954 Z-19.0000 F4000
G1 X580.8012 Y159.8222 Z-19.0000 F4000
G1 X581.2279 Y160.3261 Z-19.0000 F4000
G1 X581.5620 Y160.8853 Z-19.0000 F4000
G1 X581.7959 Y161.4750 Z-19.0000 F4000
G1 X581.9302 Y162.0704 Z-19.0000 F4000
G1 X581.9724 Y162.6499 Z-19.0000 F4000
G1 X581.9724 Y164.6509 Z-19.0000 F4000
G1 X581.9734 Y133.6506 Z-19.0000 F4000
G1 X581.9734 Y133.6506 Z10.0000 F9999
G1 X808.2977 Y80.9009 Z10.0000 F9999
G1 X808.2977 Y80.9009 Z1.0000 F2500
G1 X847.2688 Y80.9009 Z-9.0000 F2500
G1 X808.2977 Y80.9009 Z-19.0000 F2500
G1 X888.2975 Y80.9009 Z-19.0000 F4000
G1 X888.8312 Y80.9366 Z-19.0000 F4000
G1 X889.3766 Y81.0492 Z-19.0000 F4000
G1 X889.9175 Y81.2437 Z-19.0000 F4000
G1 X890.4355 Y81.5204 Z-19.0000 F4000
G1 X890.9124 Y81.8742 Z-19.0000 F4000
G1 X891.3315 Y82.2947 Z-19.0000 F4000
G1 X891.6804 Y82.7672 Z-19.0000 F4000
G1 X891.9512 Y83.2742 Z-19.0000 F4000
G1 X892.1416 Y83.7975 Z-19.0000 F4000
G1 X892.2543 Y84.3203 Z-19.0000 F4000
G1 X892.3042 Y85.1098 Z-19.0000 F4000
G1 X892.2965 Y85.9008 Z-19.0000 F4000
G1 X894.2985 Y85.9008 Z-19.0000 F4000
G1 X894.2985 Y47.8989 Z-19.0000 F4000
G1 X892.2965 Y47.8989 Z-19.0000 F4000
G1 X892.3042 Y48.6900 Z-19.0000 F4000
G1 X892.2543 Y49.4795 Z-19.0000 F4000
G1 X892.1416 Y50.0023 Z-19.0000 F4000
G1 X891.9512 Y50.5256 Z-19.0000 F4000
G1 X891.6804 Y51.0326 Z-19.0000 F4000
G1 X891.3315 Y51.5051 Z-19.0000 F4000
G1 X890.9124 Y51.9256 Z-19.0000 F4000
G1 X890.4355 Y52.2795 Z-19.0000 F4000
G1 X889.9175 Y52.5561 Z-19.0000 F4000
G1 X889.3766 Y52.7506 Z-19.0000 F4000
G1 X888.8312 Y52.8632 Z-19.0000 F4000
G1 X888.2975 Y52.8989 Z-19.0000 F4000
G1 X728.2978 Y52.8989 Z-19.0000 F4000
G1 X727.7642 Y52.8632 Z-19.0000 F4000
G1 X727.2187 Y52.7506 Z-19.0000 F4000
G1 X726.6779 Y52.5561 Z-19.0000 F4000
G1 X726.1598 Y52.2795 Z-19.0000 F4000
G1 X725.6830 Y51.9256 Z-19.0000 F4000
G1 X725.2638 Y51.5051 Z-19.0000 F4000
G1 X724.9149 Y51.0326 Z-19.0000 F4000
G1 X724.6441 Y50.5256 Z-19.0000 F4000
G1 X724.4537 Y50.0023 Z-19.0000 F4000
G1 X724.3410 Y49.4795 Z-19.0000 F4000
G1 X724.2912 Y48.6900 Z-19.0000 F4000
G1 X724.2988 Y47.8989 Z-19.0000 F4000
G1 X722.2968 Y47.8989 Z-19.0000 F4000
G1 X722.2968 Y85.9008 Z-19.0000 F4000
G1 X724.2988 Y85.9008 Z-19.0000 F4000
G1 X724.2912 Y85.1098 Z-19.0000 F4000
G1 X724.3410 Y84.3203 Z-19.0000 F4000
G1 X724.4537 Y83.7975 Z-19.0000 F4000
G1 X724.6441 Y83.2742 Z-19.0000 F4000
G1 X724.9149 Y82.7672 Z-19.0000 F4000
G1 X725.2638 Y82.2947 Z-19.0000 F4000
G1 X725.6830 Y81.8742 Z-19.0000 F4000
G1 X726.1598 Y81.5204 Z-19.0000 F4000
G1 X726.6779 Y81.2437 Z-19.0000 F4000
G1 X727.2187 Y81.0492 Z-19.0000 F4000
G1 X727.7642 Y80.9366 Z-19.0000 F4000
G1 X728.2978 Y80.9009 Z-19.0000 F4000
G1 X808.2977 Y80.9009 Z-19.0000 F4000
G1 X808.2977 Y80.9009 Z10.0000 F9999
G1 X581.9735 Y433.6497 Z10.0000 F9999
G1 X581.9735 Y433.6497 Z1.0000 F2500
G1 X581.9745 Y400.6483 Z-7.4682 F2500
G1 X581.9725 Y402.6493 Z-7.9816 F2500
G1 X581.9302 Y403.2289 Z-8.1307 F2500
G1 X581.7959 Y403.8243 Z-8.2873 F2500
G1 X581.5621 Y404.4140 Z-8.4501 F2500
G1 X581.2279 Y404.9732 Z-8.6173 F2500
G1 X580.8012 Y405.4770 Z-8.7867 F2500
G1 X580.2973 Y405.9038 Z-8.9561 F2500
G1 X580.1506 Y405.9915 Z-9.0000 F2500
G1 X580.2973 Y405.9038 Z-9.0439 F2500
G1 X580.8012 Y405.4770 Z-9.2133 F2500
G1 X581.2279 Y404.9732 Z-9.3827 F2500
G1 X581.5621 Y404.4140 Z-9.5499 F2500
G1 X581.7959 Y403.8243 Z-9.7127 F2500
G1 X581.9302 Y403.2289 Z-9.8693 F2500
G1 X581.9725 Y402.6493 Z-10.0184 F2500
G1 X581.9745 Y400.6483 Z-10.5318 F2500
G1 X581.9735 Y433.6497 Z-19.0000 F2500
G1 X581.9745 Y400.6483 Z-19.0000 F4000
G1 X581.9725 Y402.6493 Z-19.0000 F4000
G1 X581.9302 Y403.2289 Z-19.0000 F4000
G1 X581.7959 Y403.8243 Z-19.0000 F4000
G1 X581.5621 Y404.4140 Z-19.0000 F4000
G1 X581.2279 Y404.9732 Z-19.0000 F4000
G1 X580.8012 Y405.4770 Z-19.0000 F4000
G1 X580.2973 Y405.9038 Z-19.0000 F4000
G1 X579.7381 Y406.2379 Z-19.0000 F4000
G1 X579.1484 Y406.4718 Z-19.0000 F4000
G1 X578.5530 Y406.6061 Z-19.0000 F4000
G1 X577.9735 Y406.6483 Z-19.0000 F4000
G1 X565.9725 Y406.6483 Z-19.0000 F4000
G1 X567.9735 Y406.6503 Z-19.0000 F4000
G1 X568.5530 Y406.6925 Z-19.0000 F4000
G1 X569.1484 Y406.8268 Z-19.0000 F4000
G1 X569.7381 Y407.0607 Z-19.0000 F4000
G1 X570.2973 Y407.3948 Z-19.0000 F4000
G1 X570.8012 Y407.8216 Z-19.0000 F4000
G1 X571.2280 Y408.3255 Z-19.0000 F4000
G1 X571.5621 Y408.8847 Z-19.0000 F4000
G1 X571.7960 Y409.4744 Z-19.0000 F4000
G1 X571.9303 Y410.0698 Z-19.0000 F4000
G1 X571.9725 Y410.6493 Z-19.0000 F4000
G1 X571.9725 Y454.6491 Z-19.0000 F4000
G1 X571.9303 Y455.2286 Z-19.0000 F4000
G1 X571.7960 Y455.8240 Z-19.0000 F4000
G1 X571.5621 Y456.4137 Z-19.0000 F4000
G1 X571.2280 Y456.9729 Z-19.0000 F4000
G1 X570.8012 Y457.4768 Z-19.0000 F4000
G1 X570.2973 Y457.9036 Z-19.0000 F4000
G1 X569.7381 Y458.2377 Z-19.0000 F4000
G1 X569.1484 Y458.4716 Z-19.0000 F4000
G1 X568.5530 Y458.6059 Z-19.0000 F4000
G1 X567.9735 Y458.6481 Z-19.0000 F4000
G1 X565.9725 Y458.6481 Z-19.0000 F4000
G1 X577.9735 Y458.6501 Z-19.0000 F4000
G1 X578.5530 Y458.6923 Z-19.0000 F4000
G1 X579.1484 Y458.8266 Z-19.0000 F4000
G1 X579.7381 Y459.0605 Z-19.0000 F4000
G1 X580.2973 Y459.3946 Z-19.0000 F4000
G1 X580.8012 Y459.8214 Z-19.0000 F4000
G1 X581.2279 Y460.3252 Z-19.0000 F4000
G1 X581.5621 Y460.8845 Z-19.0000 F4000
G1 X581.7959 Y461.4741 Z-19.0000 F4000
G1 X581.9302 Y462.0696 Z-19.0000 F4000
G1 X581.9725 Y462.6491 Z-19.0000 F4000
G1 X581.9725 Y464.6501 Z-19.0000 F4000
G1 X581.9735 Y433.6497 Z-19.0000 F4000
G1 X581.9735 Y433.6497 Z10.0000 F9999
G1 X460.9715 Y427.6546 Z10.0000 F9999
G1 X460.9715 Y427.6546 Z1.0000 F2500
G1 X448.9715 Y427.6479 Z-2.0792 F2500
G1 X448.3922 Y427.6054 Z-2.2283 F2500
G1 X447.7970 Y427.4709 Z-2.3848 F2500
G1 X447.2076 Y427.2368 Z-2.5476 F2500
G1 X446.6487 Y426.9026 Z-2.7146 F2500
G1 X446.1452 Y426.4758 Z-2.8840 F2500
G1 X445.7187 Y425.9721 Z-3.0534 F2500
G1 X445.3848 Y425.4130 Z-3.2205 F2500
G1 X445.1511 Y424.8235 Z-3.3832 F2500
G1 X445.0169 Y424.2283 Z-3.5398 F2500
G1 X444.9747 Y423.6489 Z-3.6888 F2500
G1 X444.9747 Y421.6702 Z-4.1966 F2500
G1 X444.9730 Y440.3898 Z-9.0000 F2500
G1 X444.9747 Y421.6702 Z-13.8034 F2500
G1 X444.9747 Y423.6489 Z-14.3112 F2500
G1 X445.0169 Y424.2283 Z-14.4602 F2500
G1 X445.1511 Y424.8235 Z-14.6168 F2500
G1 X445.3848 Y425.4130 Z-14.7795 F2500
G1 X445.7187 Y425.9721 Z-14.9466 F2500
G1 X446.1452 Y426.4758 Z-15.1160 F2500
G1 X446.6487 Y426.9026 Z-15.2854 F2500
G1 X447.2076 Y427.2368 Z-15.4524 F2500
G1 X447.7970 Y427.4709 Z-15.6152 F2500
G1 X448.3922 Y427.6054 Z-15.7717 F2500
G1 X448.9715 Y427.6479 Z-15.9208 F2500
G1 X460.9715 Y427.6546 Z-19.0000 F2500
G1 X448.9715 Y427.6479 Z-19.0000 F4000
G1 X448.3922 Y427.6054 Z-19.0000 F4000
G1 X447.7970 Y427.4709 Z-19.0000 F4000
G1 X447.2076 Y427.2368 Z-19.0000 F4000
G1 X446.6487 Y426.9026 Z-19.0000 F4000
G1 X446.1452 Y426.4758 Z-19.0000 F4000
G1 X445.7187 Y425.9721 Z-19.0000 F4000
G1 X445.3848 Y425.4130 Z-19.0000 F4000
G1 X445.1511 Y424.8235 Z-19.0000 F4000
G1 X445.0169 Y424.2283 Z-19.0000 F4000
G1 X444.9747 Y423.6489 Z-19.0000 F4000
G1 X444.9747 Y421.6702 Z-19.0000 F4000
G1 X444.9727 Y443.6499 Z-19.0000 F4000
G1 X444.9747 Y441.6489 Z-19.0000 F4000
G1 X445.0169 Y441.0694 Z-19.0000 F4000
G1 X445.1512 Y440.4739 Z-19.0000 F4000
G1 X445.3851 Y439.8843 Z-19.0000 F4000
G1 X445.7192 Y439.3250 Z-19.0000 F4000
G1 X446.1460 Y438.8212 Z-19.0000 F4000
G1 X446.6499 Y438.3944 Z-19.0000 F4000
G1 X447.2091 Y438.0603 Z-19.0000 F4000
G1 X447.7988 Y437.8264 Z-19.0000 F4000
G1 X448.3942 Y437.6921 Z-19.0000 F4000
G1 X448.9737 Y437.6499 Z-19.0000 F4000
G1 X472.9737 Y437.6499 Z-19.0000 F4000
G1 X473.5533 Y437.6921 Z-19.0000 F4000
G1 X474.1487 Y437.8264 Z-19.0000 F4000
G1 X474.7383 Y438.0603 Z-19.0000 F4000
G1 X475.2976 Y438.3944 Z-19.0000 F4000
G1 X475.8014 Y438.8212 Z-19.0000 F4000
G1 X476.2282 Y439.3250 Z-19.0000 F4000
G1 X476.5623 Y439.8843 Z-19.0000 F4000
G1 X476.7962 Y440.4739 Z-19.0000 F4000
G1 X476.9305 Y441.0694 Z-19.0000 F4000
G1 X476.9727 Y441.6489 Z-19.0000 F4000
G1 X476.9727 Y443.6499 Z-19.0000 F4000
G1 X476.9747 Y421.6702 Z-19.0000 F4000
G1 X476.9727 Y421.6702 Z-19.0000 F4000
G1 X476.9727 Y423.6623 Z-19.0000 F4000
G1 X476.9247 Y424.2804 Z-19.0000 F4000
G1 X476.7781 Y424.8947 Z-19.0000 F4000
G1 X476.5348 Y425.4819 Z-19.0000 F4000
G1 X476.2039 Y426.0199 Z-19.0000 F4000
G1 X475.8007 Y426.4908 Z-19.0000 F4000
G1 X475.3295 Y426.8937 Z-19.0000 F4000
G1 X474.7913 Y427.2243 Z-19.0000 F4000
G1 X474.2040 Y427.4673 Z-19.0000 F4000
G1 X473.5896 Y427.6136 Z-19.0000 F4000
G1 X472.9715 Y427.6613 Z-19.0000 F4000
G1 X460.9715 Y427.6546 Z-19.0000 F4000
G1 X460.9715 Y427.6546 Z10.0000 F9999
G1 X339.9740 Y431.6487 Z10.0000 F9999
G1 X339.9740 Y431.6487 Z1.0000 F2500
G1 X339.9730 Y464.6501 Z-7.4682 F2500
G1 X339.9750 Y462.6491 Z-7.9816 F2500
G1 X340.0230 Y462.0312 Z-8.1406 F2500
G1 X340.1695 Y461.4171 Z-8.3027 F2500
G1 X340.4126 Y460.8301 Z-8.4657 F2500
G1 X340.7433 Y460.2922 Z-8.6277 F2500
G1 X341.1462 Y459.8214 Z-8.7867 F2500
G1 X341.6171 Y459.4184 Z-8.9457 F2500
G1 X341.7972 Y459.3077 Z-9.0000 F2500
G1 X341.6171 Y459.4184 Z-9.0543 F2500
G1 X341.1462 Y459.8214 Z-9.2133 F2500
G1 X340.7433 Y460.2922 Z-9.3723 F2500
G1 X340.4126 Y460.8301 Z-9.5343 F2500
G1 X340.1695 Y461.4171 Z-9.6973 F2500
G1 X340.0230 Y462.0312 Z-9.8594 F2500
G1 X339.9750 Y462.6491 Z-10.0184 F2500
G1 X339.9730 Y464.6501 Z-10.5318 F2500
G1 X339.9740 Y431.6487 Z-19.0000 F2500
G1 X339.9730 Y464.6501 Z-19.0000 F4000
G1 X339.9750 Y462.6491 Z-19.0000 F4000
G1 X340.0230 Y462.0312 Z-19.0000 F4000
G1 X340.1695 Y461.4171 Z-19.0000 F4000
G1 X340.4126 Y460.8301 Z-19.0000 F4000
G1 X340.7433 Y460.2922 Z-19.0000 F4000
G1 X341.1462 Y459.8214 Z-19.0000 F4000
G1 X341.6171 Y459.4184 Z-19.0000 F4000
G1 X342.1550 Y459.0877 Z-19.0000 F4000
G1 X342.7419 Y458.8446 Z-19.0000 F4000
G1 X343.3561 Y458.6981 Z-19.0000 F4000
G1 X343.9740 Y458.6501 Z-19.0000 F4000
G1 X355.9749 Y458.6501 Z-19.0000 F4000
G1 X353.9739 Y458.6481 Z-19.0000 F4000
G1 X353.3944 Y458.6059 Z-19.0000 F4000
G1 X352.7990 Y458.4716 Z-19.0000 F4000
G1 X352.2093 Y458.2377 Z-19.0000 F4000
G1 X351.6501 Y457.9036 Z-19.0000 F4000
G1 X351.1462 Y457.4768 Z-19.0000 F4000
G1 X350.7194 Y456.9729 Z-19.0000 F4000
G1 X350.3853 Y456.4137 Z-19.0000 F4000
G1 X350.1514 Y455.8240 Z-19.0000 F4000
G1 X350.0172 Y455.2286 Z-19.0000 F4000
G1 X349.9749 Y454.6491 Z-19.0000 F4000
G1 X349.9749 Y410.6493 Z-19.0000 F4000
G1 X350.0230 Y410.0315 Z-19.0000 F4000
G1 X350.1694 Y409.4173 Z-19.0000 F4000
G1 X350.4126 Y408.8303 Z-19.0000 F4000
G1 X350.7433 Y408.2925 Z-19.0000 F4000
G1 X351.1462 Y407.8216 Z-19.0000 F4000
G1 X351.6171 Y407.4187 Z-19.0000 F4000
G1 X352.1549 Y407.0880 Z-19.0000 F4000
G1 X352.7419 Y406.8448 Z-19.0000 F4000
G1 X353.3561 Y406.6983 Z-19.0000 F4000
G1 X353.9739 Y406.6503 Z-19.0000 F4000
G1 X355.9749 Y406.6503 Z-19.0000 F4000
G1 X343.9740 Y406.6483 Z-19.0000 F4000
G1 X343.3944 Y406.6061 Z-19.0000 F4000
G1 X342.7990 Y406.4718 Z-19.0000 F4000
G1 X342.2093 Y406.2379 Z-19.0000 F4000
G1 X341.6501 Y405.9038 Z-19.0000 F4000
G1 X341.1462 Y405.4770 Z-19.0000 F4000
G1 X340.7195 Y404.9732 Z-19.0000 F4000
G1 X340.3854 Y404.4140 Z-19.0000 F4000
G1 X340.1515 Y403.8243 Z-19.0000 F4000
G1 X340.0172 Y403.2289 Z-19.0000 F4000
G1 X339.9750 Y402.6493 Z-19.0000 F4000
G1 X339.9750 Y400.6483 Z-19.0000 F4000
G1 X339.9740 Y431.6487 Z-19.0000 F4000
G1 X339.9740 Y431.6487 Z10.0000 F9999
G1 X273.8994 Y433.6497 Z10.0000 F9999
G1 X273.8994 Y433.6497 Z1.0000 F2500
G1 X273.9004 Y400.6483 Z-7.4682 F2500
G1 X273.8984 Y402.6493 Z-7.9816 F2500
G1 X273.8504 Y403.2672 Z-8.1406 F2500
G1 X273.7039 Y403.8813 Z-8.3027 F2500
G1 X273.4608 Y404.4683 Z-8.4657 F2500
G1 X273.1301 Y405.0062 Z-8.6277 F2500
G1 X272.7272 Y405.4770 Z-8.7867 F2500
G1 X272.2563 Y405.8800 Z-8.9457 F2500
G1 X272.0762 Y405.9907 Z-9.0000 F2500
G1 X272.2563 Y405.8800 Z-9.0543 F2500
G1 X272.7272 Y405.4770 Z-9.2133 F2500
G1 X273.1301 Y405.0062 Z-9.3723 F2500
G1 X273.4608 Y404.4683 Z-9.5343 F2500
G1 X273.7039 Y403.8813 Z-9.6973 F2500
G1 X273.8504 Y403.2672 Z-9.8594 F2500
G1 X273.8984 Y402.6493 Z-10.0184 F2500
G1 X273.9004 Y400.6483 Z-10.5318 F2500
G1 X273.8994 Y433.6497 Z-19.0000 F2500
G1 X273.9004 Y400.6483 Z-19.0000 F4000
G1 X273.8984 Y402.6493 Z-19.0000 F4000
G1 X273.8504 Y403.2672 Z-19.0000 F4000
G1 X273.7039 Y403.8813 Z-19.0000 F4000
G1 X273.4608 Y404.4683 Z-19.0000 F4000
G1 X273.1301 Y405.0062 Z-19.0000 F4000
G1 X272.7272 Y405.4770 Z-19.0000 F4000
G1 X272.2563 Y405.8800 Z-19.0000 F4000
G1 X271.7184 Y406.2107 Z-19.0000 F4000
G1 X271.1315 Y406.4538 Z-19.0000 F4000
G1 X270.5173 Y406.6003 Z-19.0000 F4000
G1 X269.8994 Y406.6483 Z-19.0000 F4000
G1 X257.8985 Y406.6483 Z-19.0000 F4000
G1 X259.8995 Y406.6503 Z-19.0000 F4000
G1 X260.4790 Y406.6925 Z-19.0000 F4000
G1 X261.0744 Y406.8268 Z-19.0000 F4000
G1 X261.6641 Y407.0607 Z-19.0000 F4000
G1 X262.2233 Y407.3948 Z-19.0000 F4000
G1 X262.7272 Y407.8216 Z-19.0000 F4000
G1 X263.1540 Y408.3255 Z-19.0000 F4000
G1 X263.4881 Y408.8847 Z-19.0000 F4000
G1 X263.7220 Y409.4744 Z-19.0000 F4000
G1 X263.8563 Y410.0698 Z-19.0000 F4000
G1 X263.8985 Y410.6493 Z-19.0000 F4000
G1 X263.8985 Y454.6491 Z-19.0000 F4000
G1 X263.8563 Y455.2286 Z-19.0000 F4000
G1 X263.7220 Y455.8240 Z-19.0000 F4000
G1 X263.4881 Y456.4137 Z-19.0000 F4000
G1 X263.1540 Y456.9729 Z-19.0000 F4000
G1 X262.7272 Y457.4768 Z-19.0000 F4000
G1 X262.2233 Y457.9036 Z-19.0000 F4000
G1 X261.6641 Y458.2377 Z-19.0000 F4000
G1 X261.0744 Y458.4716 Z-19.0000 F4000
G1 X260.4790 Y458.6059 Z-19.0000 F4000
G1 X259.8995 Y458.6481 Z-19.0000 F4000
G1 X257.8985 Y458.6481 Z-19.0000 F4000
G1 X269.8994 Y458.6501 Z-19.0000 F4000
G1 X270.4790 Y458.6923 Z-19.0000 F4000
G1 X271.0744 Y458.8266 Z-19.0000 F4000
G1 X271.6641 Y459.0605 Z-19.0000 F4000
G1 X272.2233 Y459.3946 Z-19.0000 F4000
G1 X272.7272 Y459.8214 Z-19.0000 F4000
G1 X273.1539 Y460.3252 Z-19.0000 F4000
G1 X273.4880 Y460.8845 Z-19.0000 F4000
G1 X273.7219 Y461.4741 Z-19.0000 F4000
G1 X273.8562 Y462.0696 Z-19.0000 F4000
G1 X273.8984 Y462.6491 Z-19.0000 F4000
G1 X273.8984 Y464.6501 Z-19.0000 F4000
G1 X273.8994 Y433.6497 Z-19.0000 F4000
G1 X273.8994 Y433.6497 Z10.0000 F9999
G1 X152.8975 Y427.6546 Z10.0000 F9999
G1 X152.8975 Y427.6546 Z1.0000 F2500
G1 X140.8975 Y427.6479 Z-2.0792 F2500
G1 X140.3181 Y427.6054 Z-2.2283 F2500
G1 X139.7230 Y427.4709 Z-2.3848 F2500
G1 X139.1336 Y427.2368 Z-2.5476 F2500
G1 X138.5747 Y426.9026 Z-2.7146 F2500
G1 X138.0712 Y426.4758 Z-2.8840 F2500
G1 X137.6447 Y425.9721 Z-3.0534 F2500
G1 X137.3108 Y425.4130 Z-3.2205 F2500
G1 X137.0771 Y424.8235 Z-3.3832 F2500
G1 X136.9429 Y424.2283 Z-3.5398 F2500
G1 X136.9007 Y423.6489 Z-3.6888 F2500
G1 X136.9007 Y421.6702 Z-4.1966 F2500
G1 X136.8990 Y440.3898 Z-9.0000 F2500
G1 X136.9007 Y421.6702 Z-13.8034 F2500
G1 X136.9007 Y423.6489 Z-14.3112 F2500
G1 X136.9429 Y424.2283 Z-14.4602 F2500
G1 X137.0771 Y424.8235 Z-14.6168 F2500
G1 X137.3108 Y425.4130 Z-14.7795 F2500
G1 X137.6447 Y425.9721 Z-14.9466 F2500
G1 X138.0712 Y426.4758 Z-15.1160 F2500
G1 X138.5747 Y426.9026 Z-15.2854 F2500
G1 X139.1336 Y427.2368 Z-15.4524 F2500
G1 X139.7230 Y427.4709 Z-15.6152 F2500
G1 X140.3181 Y427.6054 Z-15.7717 F2500
G1 X140.8975 Y427.6479 Z-15.9208 F2500
G1 X152.8975 Y427.6546 Z-19.0000 F2500
G1 X140.8975 Y427.6479 Z-19.0000 F4000
G1 X140.3181 Y427.6054 Z-19.0000 F4000
G1 X139.7230 Y427.4709 Z-19.0000 F4000
G1 X139.1336 Y427.2368 Z-19.0000 F4000
G1 X138.5747 Y426.9026 Z-19.0000 F4000
G1 X138.0712 Y426.4758 Z-19.0000 F4000
G1 X137.6447 Y425.9721 Z-19.0000 F4000
G1 X137.3108 Y425.4130 Z-19.0000 F4000
G1 X137.0771 Y424.8235 Z-19.0000 F4000
G1 X136.9429 Y424.2283 Z-19.0000 F4000
G1 X136.9007 Y423.6489 Z-19.0000 F4000
G1 X136.9007 Y421.6702 Z-19.0000 F4000
G1 X136.8987 Y443.6499 Z-19.0000 F4000
G1 X136.9007 Y441.6489 Z-19.0000 F4000
G1 X136.9429 Y441.0694 Z-19.0000 F4000
G1 X137.0772 Y440.4739 Z-19.0000 F4000
G1 X137.3111 Y439.8843 Z-19.0000 F4000
G1 X137.6452 Y439.3250 Z-19.0000 F4000
G1 X138.0720 Y438.8212 Z-19.0000 F4000
G1 X138.5758 Y438.3944 Z-19.0000 F4000
G1 X139.1351 Y438.0603 Z-19.0000 F4000
G1 X139.7247 Y437.8264 Z-19.0000 F4000
G1 X140.3202 Y437.6921 Z-19.0000 F4000
G1 X140.8997 Y437.6499 Z-19.0000 F4000
G1 X164.8997 Y437.6499 Z-19.0000 F4000
G1 X165.5176 Y437.6979 Z-19.0000 F4000
G1 X166.1317 Y437.8444 Z-19.0000 F4000
G1 X166.7187 Y438.0876 Z-19.0000 F4000
G1 X167.2566 Y438.4182 Z-19.0000 F4000
G1 X167.7274 Y438.8212 Z-19.0000 F4000
G1 X168.1304 Y439.2920 Z-19.0000 F4000
G1 X168.4611 Y439.8299 Z-19.0000 F4000
G1 X168.7042 Y440.4169 Z-19.0000 F4000
G1 X168.8507 Y441.0310 Z-19.0000 F4000
G1 X168.8987 Y441.6489 Z-19.0000 F4000
G1 X168.8987 Y443.6499 Z-19.0000 F4000
G1 X168.9007 Y421.6702 Z-19.0000 F4000
G1 X168.8987 Y421.6702 Z-19.0000 F4000
G1 X168.8987 Y423.6623 Z-19.0000 F4000
G1 X168.8506 Y424.2804 Z-19.0000 F4000
G1 X168.7041 Y424.8947 Z-19.0000 F4000
G1 X168.4607 Y425.4819 Z-19.0000 F4000
G1 X168.1298 Y426.0199 Z-19.0000 F4000
G1 X167.7266 Y426.4908 Z-19.0000 F4000
G1 X167.2555 Y426.8937 Z-19.0000 F4000
G1 X166.7173 Y427.2243 Z-19.0000 F4000
G1 X166.1300 Y427.4673 Z-19.0000 F4000
G1 X165.5156 Y427.6136 Z-19.0000 F4000
G1 X164.8975 Y427.6613 Z-19.0000 F4000
G1 X152.8975 Y427.6546 Z-19.0000 F4000
G1 X152.8975 Y427.6546 Z10.0000 F9999
G1 X31.9000 Y431.6487 Z10.0000 F9999
G1 X31.9000 Y431.6487 Z1.0000 F2500
G1 X31.8990 Y464.6501 Z-7.4682 F2500
G1 X31.9010 Y462.6491 Z-7.9816 F2500
G1 X31.9432 Y462.0696 Z-8.1307 F2500
G1 X32.0775 Y461.4741 Z-8.2873 F2500
G1 X32.3113 Y460.8845 Z-8.4501 F2500
G1 X32.6455 Y460.3252 Z-8.6173 F2500
G1 X33.0722 Y459.8214 Z-8.7867 F2500
G1 X33.5761 Y459.3946 Z-8.9561 F2500
G1 X33.7228 Y459.3069 Z-9.0000 F2500
G1 X33.5761 Y459.3946 Z-9.0439 F2500
G1 X33.0722 Y459.8214 Z-9.2133 F2500
G1 X32.6455 Y460.3252 Z-9.3827 F2500
G1 X32.3113 Y460.8845 Z-9.5499 F2500
G1 X32.0775 Y461.4741 Z-9.7127 F2500
G1 X31.9432 Y462.0696 Z-9.8693 F2500
G1 X31.9010 Y462.6491 Z-10.0184 F2500
G1 X31.8990 Y464.6501 Z-10.5318 F2500
G1 X31.9000 Y431.6487 Z-19.0000 F2500
G1 X31.8990 Y464.6501 Z-19.0000 F4000
G1 X31.9010 Y462.6491 Z-19.0000 F4000
G1 X31.9432 Y462.0696 Z-19.0000 F4000
G1 X32.0775 Y461.4741 Z-19.0000 F4000
G1 X32.3113 Y460.8845 Z-19.0000 F4000
G1 X32.6455 Y460.3252 Z-19.0000 F4000
G1 X33.0722 Y459.8214 Z-19.0000 F4000
G1 X33.5761 Y459.3946 Z-19.0000 F4000
G1 X34.1353 Y459.0605 Z-19.0000 F4000
G1 X34.7250 Y458.8266 Z-19.0000 F4000
G1 X35.3204 Y458.6923 Z-19.0000 F4000
G1 X35.9000 Y458.6501 Z-19.0000 F4000
G1 X47.9009 Y458.6501 Z-19.0000 F4000
G1 X45.8999 Y458.6481 Z-19.0000 F4000
G1 X45.2821 Y458.6001 Z-19.0000 F4000
G1 X44.6679 Y458.4536 Z-19.0000 F4000
G1 X44.0809 Y458.2104 Z-19.0000 F4000
G1 X43.5431 Y457.8797 Z-19.0000 F4000
G1 X43.0722 Y457.4768 Z-19.0000 F4000
G1 X42.6693 Y457.0059 Z-19.0000 F4000
G1 X42.3386 Y456.4681 Z-19.0000 F4000
G1 X42.0954 Y455.8811 Z-19.0000 F4000
G1 X41.9489 Y455.2670 Z-19.0000 F4000
G1 X41.9009 Y454.6491 Z-19.0000 F4000
G1 X41.9009 Y410.6493 Z-19.0000 F4000
G1 X41.9431 Y410.0698 Z-19.0000 F4000
G1 X42.0774 Y409.4744 Z-19.0000 F4000
G1 X42.3113 Y408.8847 Z-19.0000 F4000
G1 X42.6454 Y408.3255 Z-19.0000 F4000
G1 X43.0722 Y407.8216 Z-19.0000 F4000
G1 X43.5761 Y407.3948 Z-19.0000 F4000
G1 X44.1353 Y407.0607 Z-19.0000 F4000
G1 X44.7250 Y406.8268 Z-19.0000 F4000
G1 X45.3204 Y406.6925 Z-19.0000 F4000
G1 X45.8999 Y406.6503 Z-19.0000 F4000
G1 X47.9009 Y406.6503 Z-19.0000 F4000
G1 X35.9000 Y406.6483 Z-19.0000 F4000
G1 X35.2821 Y406.6003 Z-19.0000 F4000
G1 X34.6679 Y406.4538 Z-19.0000 F4000
G1 X34.0809 Y406.2107 Z-19.0000 F4000
G1 X33.5431 Y405.8800 Z-19.0000 F4000
G1 X33.0722 Y405.4770 Z-19.0000 F4000
G1 X32.6693 Y405.0062 Z-19.0000 F4000
G1 X32.3386 Y404.4683 Z-19.0000 F4000
G1 X32.0955 Y403.8813 Z-19.0000 F4000
G1 X31.9490 Y403.2672 Z-19.0000 F4000
G1 X31.9010 Y402.6493 Z-19.0000 F4000
G1 X31.9010 Y400.6483 Z-19.0000 F4000
G1 X31.9000 Y431.6487 Z-19.0000 F4000
G1 X31.9000 Y431.6487 Z10.0000 F9999
G1 X31.9000 Y731.6482 Z10.0000 F9999
G1 X31.9000 Y731.6482 Z1.0000 F2500
G1 X31.8990 Y764.6496 Z-7.4682 F2500
G1 X31.9010 Y762.6486 Z-7.9816 F2500
G1 X31.9432 Y762.0691 Z-8.1307 F2500
G1 X32.0775 Y761.4736 Z-8.2873 F2500
G1 X32.3113 Y760.8840 Z-8.4501 F2500
G1 X32.6455 Y760.3247 Z-8.6173 F2500
G1 X33.0722 Y759.8209 Z-8.7867 F2500
G1 X33.5761 Y759.3941 Z-8.9561 F2500
G1 X33.7228 Y759.3065 Z-9.0000 F2500
G1 X33.5761 Y759.3941 Z-9.0439 F2500
G1 X33.0722 Y759.8209 Z-9.2133 F2500
G1 X32.6455 Y760.3247 Z-9.3827 F2500
G1 X32.3113 Y760.8840 Z-9.5499 F2500
G1 X32.0775 Y761.4736 Z-9.7127 F2500
G1 X31.9432 Y762.0691 Z-9.8693 F2500
G1 X31.9010 Y762.6486 Z-10.0184 F2500
G1 X31.8990 Y764.6496 Z-10.5318 F2500
G1 X31.9000 Y731.6482 Z-19.0000 F2500
G1 X31.8990 Y764.6496 Z-19.0000 F4000
G1 X31.9010 Y762.6486 Z-19.0000 F4000
G1 X31.9432 Y762.0691 Z-19.0000 F4000
G1 X32.0775 Y761.4736 Z-19.0000 F4000
G1 X32.3113 Y760.8840 Z-19.0000 F4000
G1 X32.6455 Y760.3247 Z-19.0000 F4000
G1 X33.0722 Y759.8209 Z-19.0000 F4000
G1 X33.5761 Y759.3941 Z-19.0000 F4000
G1 X34.1353 Y759.0600 Z-19.0000 F4000
G1 X34.7250 Y758.8261 Z-19.0000 F4000
G1 X35.3204 Y758.6918 Z-19.0000 F4000
G1 X35.9000 Y758.6496 Z-19.0000 F4000
G1 X47.9009 Y758.6496 Z-19.0000 F4000
G1 X45.8999 Y758.6476 Z-19.0000 F4000
G1 X45.2821 Y758.5996 Z-19.0000 F4000
G1 X44.6679 Y758.4531 Z-19.0000 F4000
G1 X44.0809 Y758.2099 Z-19.0000 F4000
G1 X43.5431 Y757.8793 Z-19.0000 F4000
G1 X43.0722 Y757.4763 Z-19.0000 F4000
G1 X42.6693 Y757.0055 Z-19.0000 F4000
G1 X42.3386 Y756.4676 Z-19.0000 F4000
G1 X42.0954 Y755.8806 Z-19.0000 F4000
G1 X41.9489 Y755.2665 Z-19.0000 F4000
G1 X41.9009 Y754.6486 Z-19.0000 F4000
G1 X41.9009 Y710.6488 Z-19.0000 F4000
G1 X41.9489 Y710.0310 Z-19.0000 F4000
G1 X42.0954 Y709.4168 Z-19.0000 F4000
G1 X42.3386 Y708.8298 Z-19.0000 F4000
G1 X42.6693 Y708.2920 Z-19.0000 F4000
G1 X43.0722 Y707.8211 Z-19.0000 F4000
G1 X43.5431 Y707.4182 Z-19.0000 F4000
G1 X44.0809 Y707.0875 Z-19.0000 F4000
G1 X44.6679 Y706.8444 Z-19.0000 F4000
G1 X45.2821 Y706.6979 Z-19.0000 F4000
G1 X45.8999 Y706.6498 Z-19.0000 F4000
G1 X47.9009 Y706.6498 Z-19.0000 F4000
G1 X35.9000 Y706.6478 Z-19.0000 F4000
G1 X35.3204 Y706.6056 Z-19.0000 F4000
G1 X34.7250 Y706.4713 Z-19.0000 F4000
G1 X34.1353 Y706.2374 Z-19.0000 F4000
G1 X33.5761 Y705.9033 Z-19.0000 F4000
G1 X33.0722 Y705.4766 Z-19.0000 F4000
G1 X32.6455 Y704.9727 Z-19.0000 F4000
G1 X32.3113 Y704.4135 Z-19.0000 F4000
G1 X32.0775 Y703.8238 Z-19.0000 F4000
G1 X31.9432 Y703.2284 Z-19.0000 F4000
G1 X31.9010 Y702.6488 Z-19.0000 F4000
G1 X31.9010 Y700.6478 Z-19.0000 F4000
G1 X31.9000 Y731.6482 Z-19.0000 F4000
G1 X31.9000 Y731.6482 Z10.0000 F9999
G1 X152.8997 Y737.6493 Z10.0000 F9999
G1 X152.8997 Y737.6493 Z1.0000 F2500
G1 X178.8996 Y737.6493 Z-5.6716 F2500
G1 X179.4333 Y737.6851 Z-5.8088 F2500
G1 X179.9787 Y737.7976 Z-5.9517 F2500
G1 X180.5196 Y737.9921 Z-6.0992 F2500
G1 X181.0376 Y738.2688 Z-6.2499 F2500
G1 X181.5145 Y738.6226 Z-6.4023 F2500
G1 X181.9336 Y739.0431 Z-6.5546 F2500
G1 X182.2825 Y739.5156 Z-6.7053 F2500
G1 X182.5533 Y740.0226 Z-6.8528 F2500
G1 X182.7437 Y740.5460 Z-6.9957 F2500
G1 X182.8564 Y741.0688 Z-7.1330 F2500
G1 X182.9063 Y741.8583 Z-7.3360 F2500
G1 X182.8986 Y742.6493 Z-7.5390 F2500
G1 X184.9006 Y742.6493 Z-8.0527 F2500
G1 X184.9006 Y738.9574 Z-9.0000 F2500
G1 X184.9006 Y742.6493 Z-9.9473 F2500
G1 X182.8986 Y742.6493 Z-10.4610 F2500
G1 X182.9063 Y741.8583 Z-10.6640 F2500
G1 X182.8564 Y741.0688 Z-10.8670 F2500
G1 X182.7437 Y740.5460 Z-11.0043 F2500
G1 X182.5533 Y740.0226 Z-11.1472 F2500
G1 X182.2825 Y739.5156 Z-11.2947 F2500
G1 X181.9336 Y739.0431 Z-11.4454 F2500
G1 X181.5145 Y738.6226 Z-11.5977 F2500
G1 X181.0376 Y738.2688 Z-11.7501 F2500
G1 X180.5196 Y737.9921 Z-11.9008 F2500
G1 X179.9787 Y737.7976 Z-12.0483 F2500
G1 X179.4333 Y737.6851 Z-12.1912 F2500
G1 X178.8996 Y737.6493 Z-12.3284 F2500
G1 X152.8997 Y737.6493 Z-19.0000 F2500
G1 X178.8996 Y737.6493 Z-19.0000 F4000
G1 X179.4333 Y737.6851 Z-19.0000 F4000
G1 X179.9787 Y737.7976 Z-19.0000 F4000
G1 X180.5196 Y737.9921 Z-19.0000 F4000
G1 X181.0376 Y738.2688 Z-19.0000 F4000
G1 X181.5145 Y738.6226 Z-19.0000 F4000
G1 X181.9336 Y739.0431 Z-19.0000 F4000
G1 X182.2825 Y739.5156 Z-19.0000 F4000
G1 X182.5533 Y740.0226 Z-19.0000 F4000
G1 X182.7437 Y740.5460 Z-19.0000 F4000
G1 X182.8564 Y741.0688 Z-19.0000 F4000
G1 X182.9063 Y741.8583 Z-19.0000 F4000
G1 X182.8986 Y742.6493 Z-19.0000 F4000
G1 X184.9006 Y742.6493 Z-19.0000 F4000
G1 X184.9006 Y722.6474 Z-19.0000 F4000
G1 X182.8986 Y722.6474 Z-19.0000 F4000
G1 X182.9063 Y723.4384 Z-19.0000 F4000
G1 X182.8564 Y724.2278 Z-19.0000 F4000
G1 X182.7437 Y724.7506 Z-19.0000 F4000
G1 X182.5533 Y725.2740 Z-19.0000 F4000
G1 X182.2825 Y725.7810 Z-19.0000 F4000
G1 X181.9336 Y726.2534 Z-19.0000 F4000
G1 X181.5145 Y726.6740 Z-19.0000 F4000
G1 X181.0376 Y727.0278 Z-19.0000 F4000
G1 X180.5196 Y727.3045 Z-19.0000 F4000
G1 X179.9787 Y727.4990 Z-19.0000 F4000
G1 X179.4333 Y727.6115 Z-19.0000 F4000
G1 X178.8996 Y727.6473 Z-19.0000 F4000
G1 X126.8998 Y727.6473 Z-19.0000 F4000
G1 X126.3661 Y727.6115 Z-19.0000 F4000
G1 X125.8207 Y727.4990 Z-19.0000 F4000
G1 X125.2798 Y727.3045 Z-19.0000 F4000
G1 X124.7618 Y727.0278 Z-19.0000 F4000
G1 X124.2850 Y726.6740 Z-19.0000 F4000
G1 X123.8658 Y726.2534 Z-19.0000 F4000
G1 X123.5169 Y725.7810 Z-19.0000 F4000
G1 X123.2461 Y725.2740 Z-19.0000 F4000
G1 X123.0557 Y724.7506 Z-19.0000 F4000
G1 X122.9430 Y724.2278 Z-19.0000 F4000
G1 X122.8931 Y723.4384 Z-19.0000 F4000
G1 X122.9008 Y722.6474 Z-19.0000 F4000
G1 X120.8988 Y722.6474 Z-19.0000 F4000
G1 X120.8988 Y742.6493 Z-19.0000 F4000
G1 X122.9008 Y742.6493 Z-19.0000 F4000
G1 X122.8931 Y741.8583 Z-19.0000 F4000
G1 X122.9430 Y741.0688 Z-19.0000 F4000
G1 X123.0557 Y740.5460 Z-19.0000 F4000
G1 X123.2461 Y740.0226 Z-19.0000 F4000
G1 X123.5169 Y739.5156 Z-19.0000 F4000
G1 X123.8658 Y739.0431 Z-19.0000 F4000
G1 X124.2850 Y738.6226 Z-19.0000 F4000
G1 X124.7618 Y738.2688 Z-19.0000 F4000
G1 X125.2798 Y737.9921 Z-19.0000 F4000
G1 X125.8207 Y737.7976 Z-19.0000 F4000
G1 X126.3661 Y737.6851 Z-19.0000 F4000
G1 X126.8998 Y737.6493 Z-19.0000 F4000
G1 X152.8997 Y737.6493 Z-19.0000 F4000
G1 X152.8997 Y737.6493 Z10.0000 F9999
G1 X273.8994 Y733.6492 Z10.0000 F9999
G1 X273.8994 Y733.6492 Z1.0000 F2500
G1 X273.9004 Y700.6478 Z-7.4682 F2500
G1 X273.8984 Y702.6488 Z-7.9816 F2500
G1 X273.8562 Y703.2284 Z-8.1307 F2500
G1 X273.7219 Y703.8238 Z-8.2873 F2500
G1 X273.4880 Y704.4135 Z-8.4501 F2500
G1 X273.1539 Y704.9727 Z-8.6173 F2500
G1 X272.7272 Y705.4766 Z-8.7867 F2500
G1 X272.2233 Y705.9033 Z-8.9561 F2500
G1 X272.0766 Y705.9910 Z-9.0000 F2500
G1 X272.2233 Y705.9033 Z-9.0439 F2500
G1 X272.7272 Y705.4766 Z-9.2133 F2500
G1 X273.1539 Y704.9727 Z-9.3827 F2500
G1 X273.4880 Y704.4135 Z-9.5499 F2500
G1 X273.7219 Y703.8238 Z-9.7127 F2500
G1 X273.8562 Y703.2284 Z-9.8693 F2500
G1 X273.8984 Y702.6488 Z-10.0184 F2500
G1 X273.9004 Y700.6478 Z-10.5318 F2500
G1 X273.8994 Y733.6492 Z-19.0000 F2500
G1 X273.9004 Y700.6478 Z-19.0000 F4000
G1 X273.8984 Y702.6488 Z-19.0000 F4000
G1 X273.8562 Y703.2284 Z-19.0000 F4000
G1 X273.7219 Y703.8238 Z-19.0000 F4000
G1 X273.4880 Y704.4135 Z-19.0000 F4000
G1 X273.1539 Y704.9727 Z-19.0000 F4000
G1 X272.7272 Y705.4766 Z-19.0000 F4000
G1 X272.2233 Y705.9033 Z-19.0000 F4000
G1 X271.6641 Y706.2374 Z-19.0000 F4000
G1 X271.0744 Y706.4713 Z-19.0000 F4000
G1 X270.4790 Y706.6056 Z-19.0000 F4000
G1 X269.8994 Y706.6478 Z-19.0000 F4000
G1 X257.8985 Y706.6478 Z-19.0000 F4000
G1 X259.8995 Y706.6498 Z-19.0000 F4000
G1 X260.5173 Y706.6979 Z-19.0000 F4000
G1 X261.1315 Y706.8444 Z-19.0000 F4000
G1 X261.7185 Y707.0875 Z-19.0000 F4000
G1 X262.2563 Y707.4182 Z-19.0000 F4000
G1 X262.7272 Y707.8211 Z-19.0000 F4000
G1 X263.1301 Y708.2920 Z-19.0000 F4000
G1 X263.4608 Y708.8298 Z-19.0000 F4000
G1 X263.7040 Y709.4168 Z-19.0000 F4000
G1 X263.8504 Y710.0310 Z-19.0000 F4000
G1 X263.8985 Y710.6488 Z-19.0000 F4000
G1 X263.8985 Y754.6486 Z-19.0000 F4000
G1 X263.8504 Y755.2665 Z-19.0000 F4000
G1 X263.7040 Y755.8806 Z-19.0000 F4000
G1 X263.4608 Y756.4676 Z-19.0000 F4000
G1 X263.1301 Y757.0055 Z-19.0000 F4000
G1 X262.7272 Y757.4763 Z-19.0000 F4000
G1 X262.2563 Y757.8793 Z-19.0000 F4000
G1 X261.7185 Y758.2099 Z-19.0000 F4000
G1 X261.1315 Y758.4531 Z-19.0000 F4000
G1 X260.5173 Y758.5996 Z-19.0000 F4000
G1 X259.8995 Y758.6476 Z-19.0000 F4000
G1 X257.8985 Y758.6476 Z-19.0000 F4000
G1 X269.8994 Y758.6496 Z-19.0000 F4000
G1 X270.4790 Y758.6918 Z-19.0000 F4000
G1 X271.0744 Y758.8261 Z-19.0000 F4000
G1 X271.6641 Y759.0600 Z-19.0000 F4000
G1 X272.2233 Y759.3941 Z-19.0000 F4000
G1 X272.7272 Y759.8209 Z-19.0000 F4000
G1 X273.1539 Y760.3247 Z-19.0000 F4000
G1 X273.4880 Y760.8840 Z-19.0000 F4000
G1 X273.7219 Y761.4736 Z-19.0000 F4000
G1 X273.8562 Y762.0691 Z-19.0000 F4000
G1 X273.8984 Y762.6486 Z-19.0000 F4000
G1 X273.8984 Y764.6496 Z-19.0000 F4000
G1 X273.8994 Y733.6492 Z-19.0000 F4000
G1 X273.8994 Y733.6492 Z10.0000 F9999
G1 X339.9740 Y731.6482 Z10.0000 F9999
G1 X339.9740 Y731.6482 Z1.0000 F2500
G1 X339.9730 Y764.6496 Z-7.4682 F2500
G1 X339.9750 Y762.6486 Z-7.9816 F2500
G1 X340.0230 Y762.0307 Z-8.1406 F2500
G1 X340.1695 Y761.4166 Z-8.3027 F2500
G1 X340.4126 Y760.8296 Z-8.4657 F2500
G1 X340.7433 Y760.2917 Z-8.6277 F2500
G1 X341.1462 Y759.8209 Z-8.7867 F2500
G1 X341.6171 Y759.4179 Z-8.9457 F2500
G1 X341.7972 Y759.3072 Z-9.0000 F2500
G1 X341.6171 Y759.4179 Z-9.0543 F2500
G1 X341.1462 Y759.8209 Z-9.2133 F2500
G1 X340.7433 Y760.2917 Z-9.3723 F2500
G1 X340.4126 Y760.8296 Z-9.5343 F2500
G1 X340.1695 Y761.4166 Z-9.6973 F2500
G1 X340.0230 Y762.0307 Z-9.8594 F2500
G1 X339.9750 Y762.6486 Z-10.0184 F2500
G1 X339.9730 Y764.6496 Z-10.5318 F2500
G1 X339.9740 Y731.6482 Z-19.0000 F2500
G1 X339.9730 Y764.6496 Z-19.0000 F4000
G1 X339.9750 Y762.6486 Z-19.0000 F4000
G1 X340.0230 Y762.0307 Z-19.0000 F4000
G1 X340.1695 Y761.4166 Z-19.0000 F4000
G1 X340.4126 Y760.8296 Z-19.0000 F4000
G1 X340.7433 Y760.2917 Z-19.0000 F4000
G1 X341.1462 Y759.8209 Z-19.0000 F4000
G1 X341.6171 Y759.4179 Z-19.0000 F4000
G1 X342.1550 Y759.0872 Z-19.0000 F4000
G1 X342.7419 Y758.8441 Z-19.0000 F4000
G1 X343.3561 Y758.6976 Z-19.0000 F4000
G1 X343.9740 Y758.6496 Z-19.0000 F4000
G1 X355.9749 Y758.6496 Z-19.0000 F4000
G1 X353.9739 Y758.6476 Z-19.0000 F4000
G1 X353.3944 Y758.6054 Z-19.0000 F4000
G1 X352.7990 Y758.4711 Z-19.0000 F4000
G1 X352.2093 Y758.2372 Z-19.0000 F4000
G1 X351.6501 Y757.9031 Z-19.0000 F4000
G1 X351.1462 Y757.4763 Z-19.0000 F4000
G1 X350.7194 Y756.9724 Z-19.0000 F4000
G1 X350.3853 Y756.4132 Z-19.0000 F4000
G1 X350.1514 Y755.8236 Z-19.0000 F4000
G1 X350.0172 Y755.2281 Z-19.0000 F4000
G1 X349.9749 Y754.6486 Z-19.0000 F4000
G1 X349.9749 Y710.6488 Z-19.0000 F4000
G1 X350.0230 Y710.0310 Z-19.0000 F4000
G1 X350.1694 Y709.4168 Z-19.0000 F4000
G1 X350.4126 Y708.8298 Z-19.0000 F4000
G1 X350.7433 Y708.2920 Z-19.0000 F4000
G1 X351.1462 Y707.8211 Z-19.0000 F4000
G1 X351.6171 Y707.4182 Z-19.0000 F4000
G1 X352.1549 Y707.0875 Z-19.0000 F4000
G1 X352.7419 Y706.8444 Z-19.0000 F4000
G1 X353.3561 Y706.6979 Z-19.0000 F4000
G1 X353.9739 Y706.6498 Z-19.0000 F4000
G1 X355.9749 Y706.6498 Z-19.0000 F4000
G1 X343.9740 Y706.6478 Z-19.0000 F4000
G1 X343.3944 Y706.6056 Z-19.0000 F4000
G1 X342.7990 Y706.4713 Z-19.0000 F4000
G1 X342.2093 Y706.2374 Z-19.0000 F4000
G1 X341.6501 Y705.9033 Z-19.0000 F4000
G1 X341.1462 Y705.4766 Z-19.0000 F4000
G1 X340.7195 Y704.9727 Z-19.0000 F4000
G1 X340.3854 Y704.4135 Z-19.0000 F4000
G1 X340.1515 Y703.8238 Z-19.0000 F4000
G1 X340.0172 Y703.2284 Z-19.0000 F4000
G1 X339.9750 Y702.6488 Z-19.0000 F4000
G1 X339.9750 Y700.6478 Z-19.0000 F4000
G1 X339.9740 Y731.6482 Z-19.0000 F4000
G1 X339.9740 Y731.6482 Z10.0000 F9999
G1 X460.9737 Y737.6493 Z10.0000 F9999
G1 X460.9737 Y737.6493 Z1.0000 F2500
G1 X486.9737 Y737.6493 Z-5.6716 F2500
G1 X487.5073 Y737.6851 Z-5.8088 F2500
G1 X488.0527 Y737.7976 Z-5.9517 F2500
G1 X488.5936 Y737.9921 Z-6.0992 F2500
G1 X489.1116 Y738.2688 Z-6.2499 F2500
G1 X489.5885 Y738.6226 Z-6.4023 F2500
G1 X490.0077 Y739.0431 Z-6.5546 F2500
G1 X490.3565 Y739.5156 Z-6.7053 F2500
G1 X490.6273 Y740.0226 Z-6.8528 F2500
G1 X490.8177 Y740.5460 Z-6.9957 F2500
G1 X490.9304 Y741.0688 Z-7.1330 F2500
G1 X490.9803 Y741.8583 Z-7.3360 F2500
G1 X490.9727 Y742.6493 Z-7.5390 F2500
G1 X492.9746 Y742.6493 Z-8.0527 F2500
G1 X492.9746 Y738.9574 Z-9.0000 F2500
G1 X492.9746 Y742.6493 Z-9.9473 F2500
G1 X490.9727 Y742.6493 Z-10.4610 F2500
G1 X490.9803 Y741.8583 Z-10.6640 F2500
G1 X490.9304 Y741.0688 Z-10.8670 F2500
G1 X490.8177 Y740.5460 Z-11.0043 F2500
G1 X490.6273 Y740.0226 Z-11.1472 F2500
G1 X490.3565 Y739.5156 Z-11.2947 F2500
G1 X490.0077 Y739.0431 Z-11.4454 F2500
G1 X489.5885 Y738.6226 Z-11.5977 F2500
G1 X489.1116 Y738.2688 Z-11.7501 F2500
G1 X488.5936 Y737.9921 Z-11.9008 F2500
G1 X488.0527 Y737.7976 Z-12.0483 F2500
G1 X487.5073 Y737.6851 Z-12.1912 F2500
G1 X486.9737 Y737.6493 Z-12.3284 F2500
G1 X460.9737 Y737.6493 Z-19.0000 F2500
G1 X486.9737 Y737.6493 Z-19.0000 F4000
G1 X487.5073 Y737.6851 Z-19.0000 F4000
G1 X488.0527 Y737.7976 Z-19.0000 F4000
G1 X488.5936 Y737.9921 Z-19.0000 F4000
G1 X489.1116 Y738.2688 Z-19.0000 F4000
G1 X489.5885 Y738.6226 Z-19.0000 F4000
G1 X490.0077 Y739.0431 Z-19.0000 F4000
G1 X490.3565 Y739.5156 Z-19.0000 F4000
G1 X490.6273 Y740.0226 Z-19.0000 F4000
G1 X490.8177 Y740.5460 Z-19.0000 F4000
G1 X490.9304 Y741.0688 Z-19.0000 F4000
G1 X490.9803 Y741.8583 Z-19.0000 F4000
G1 X490.9727 Y742.6493 Z-19.0000 F4000
G1 X492.9746 Y742.6493 Z-19.0000 F4000
G1 X492.9746 Y722.6474 Z-19.0000 F4000
G1 X490.9727 Y722.6474 Z-19.0000 F4000
G1 X490.9803 Y723.4384 Z-19.0000 F4000
G1 X490.9304 Y724.2278 Z-19.0000 F4000
G1 X490.8177 Y724.7506 Z-19.0000 F4000
G1 X490.6273 Y725.2740 Z-19.0000 F4000
G1 X490.3565 Y725.7810 Z-19.0000 F4000
G1 X490.0077 Y726.2534 Z-19.0000 F4000
G1 X489.5885 Y726.6740 Z-19.0000 F4000
G1 X489.1116 Y727.0278 Z-19.0000 F4000
G1 X488.5936 Y727.3045 Z-19.0000 F4000
G1 X488.0527 Y727.4990 Z-19.0000 F4000
G1 X487.5073 Y727.6115 Z-19.0000 F4000
G1 X486.9737 Y727.6473 Z-19.0000 F4000
G1 X434.9738 Y727.6473 Z-19.0000 F4000
G1 X434.4402 Y727.6115 Z-19.0000 F4000
G1 X433.8947 Y727.4990 Z-19.0000 F4000
G1 X433.3539 Y727.3045 Z-19.0000 F4000
G1 X432.8358 Y727.0278 Z-19.0000 F4000
G1 X432.3590 Y726.6740 Z-19.0000 F4000
G1 X431.9398 Y726.2534 Z-19.0000 F4000
G1 X431.5909 Y725.7810 Z-19.0000 F4000
G1 X431.3201 Y725.2740 Z-19.0000 F4000
G1 X431.1297 Y724.7506 Z-19.0000 F4000
G1 X431.0170 Y724.2278 Z-19.0000 F4000
G1 X430.9671 Y723.4384 Z-19.0000 F4000
G1 X430.9748 Y722.6474 Z-19.0000 F4000
G1 X428.9728 Y722.6474 Z-19.0000 F4000
G1 X428.9728 Y742.6493 Z-19.0000 F4000
G1 X430.9748 Y742.6493 Z-19.0000 F4000
G1 X430.9671 Y741.8583 Z-19.0000 F4000
G1 X431.0170 Y741.0688 Z-19.0000 F4000
G1 X431.1297 Y740.5460 Z-19.0000 F4000
G1 X431.3201 Y740.0226 Z-19.0000 F4000
G1 X431.5909 Y739.5156 Z-19.0000 F4000
G1 X431.9398 Y739.0431 Z-19.0000 F4000
G1 X432.3590 Y738.6226 Z-19.0000 F4000
G1 X432.8358 Y738.2688 Z-19.0000 F4000
G1 X433.3539 Y737.9921 Z-19.0000 F4000
G1 X433.8947 Y737.7976 Z-19.0000 F4000
G1 X434.4402 Y737.6851 Z-19.0000 F4000
G1 X434.9738 Y737.6493 Z-19.0000 F4000
G1 X460.9737 Y737.6493 Z-19.0000 F4000
G1 X460.9737 Y737.6493 Z10.0000 F9999
G1 X581.9735 Y733.6492 Z10.0000 F9999
G1 X581.9735 Y733.6492 Z1.0000 F2500
G1 X581.9745 Y700.6478 Z-7.4682 F2500
G1 X581.9725 Y702.6488 Z-7.9816 F2500
G1 X581.9302 Y703.2284 Z-8.1307 F2500
G1 X581.7959 Y703.8238 Z-8.2873 F2500
G1 X581.5621 Y704.4135 Z-8.4501 F2500
G1 X581.2279 Y704.9727 Z-8.6173 F2500
G1 X580.8012 Y705.4766 Z-8.7867 F2500
G1 X580.2973 Y705.9033 Z-8.9561 F2500
G1 X580.1506 Y705.9910 Z-9.0000 F2500
G1 X580.2973 Y705.9033 Z-9.0439 F2500
G1 X580.8012 Y705.4766 Z-9.2133 F2500
G1 X581.2279 Y704.9727 Z-9.3827 F2500
G1 X581.5621 Y704.4135 Z-9.5499 F2500
G1 X581.7959 Y703.8238 Z-9.7127 F2500
G1 X581.9302 Y703.2284 Z-9.8693 F2500
G1 X581.9725 Y702.6488 Z-10.0184 F2500
G1 X581.9745 Y700.6478 Z-10.5318 F2500
G1 X581.9735 Y733.6492 Z-19.0000 F2500
G1 X581.9745 Y700.6478 Z-19.0000 F4000
G1 X581.9725 Y702.6488 Z-19.0000 F4000
G1 X581.9302 Y703.2284 Z-19.0000 F4000
G1 X581.7959 Y703.8238 Z-19.0000 F4000
G1 X581.5621 Y704.4135 Z-19.0000 F4000
G1 X581.2279 Y704.9727 Z-19.0000 F4000
G1 X580.8012 Y705.4766 Z-19.0000 F4000
G1 X580.2973 Y705.9033 Z-19.0000 F4000
G1 X579.7381 Y706.2374 Z-19.0000 F4000
G1 X579.1484 Y706.4713 Z-19.0000 F4000
G1 X578.5530 Y706.6056 Z-19.0000 F4000
G1 X577.9735 Y706.6478 Z-19.0000 F4000
G1 X565.9725 Y706.6478 Z-19.0000 F4000
G1 X567.9735 Y706.6498 Z-19.0000 F4000
G1 X568.5530 Y706.6921 Z-19.0000 F4000
G1 X569.1484 Y706.8263 Z-19.0000 F4000
G1 X569.7381 Y707.0602 Z-19.0000 F4000
G1 X570.2973 Y707.3944 Z-19.0000 F4000
G1 X570.8012 Y707.8211 Z-19.0000 F4000
G1 X571.2280 Y708.3250 Z-19.0000 F4000
G1 X571.5621 Y708.8842 Z-19.0000 F4000
G1 X571.7960 Y709.4739 Z-19.0000 F4000
G1 X571.9303 Y710.0693 Z-19.0000 F4000
G1 X571.9725 Y710.6488 Z-19.0000 F4000
G1 X571.9725 Y754.6486 Z-19.0000 F4000
G1 X571.9303 Y755.2281 Z-19.0000 F4000
G1 X571.7960 Y755.8236 Z-19.0000 F4000
G1 X571.5621 Y756.4132 Z-19.0000 F4000
G1 X571.2280 Y756.9724 Z-19.0000 F4000
G1 X570.8012 Y757.4763 Z-19.0000 F4000
G1 X570.2973 Y757.9031 Z-19.0000 F4000
G1 X569.7381 Y758.2372 Z-19.0000 F4000
G1 X569.1484 Y758.4711 Z-19.0000 F4000
G1 X568.5530 Y758.6054 Z-19.0000 F4000
G1 X567.9735 Y758.6476 Z-19.0000 F4000
G1 X565.9725 Y758.6476 Z-19.0000 F4000
G1 X577.9735 Y758.6496 Z-19.0000 F4000
G1 X578.5913 Y758.6976 Z-19.0000 F4000
G1 X579.2055 Y758.8441 Z-19.0000 F4000
G1 X579.7925 Y759.0872 Z-19.0000 F4000
G1 X580.3303 Y759.4179 Z-19.0000 F4000
G1 X580.8012 Y759.8209 Z-19.0000 F4000
G1 X581.2041 Y760.2917 Z-19.0000 F4000
G1 X581.5348 Y760.8296 Z-19.0000 F4000
G1 X581.7779 Y761.4166 Z-19.0000 F4000
G1 X581.9244 Y762.0307 Z-19.0000 F4000
G1 X581.9725 Y762.6486 Z-19.0000 F4000
G1 X581.9725 Y764.6496 Z-19.0000 F4000
G1 X581.9735 Y733.6492 Z-19.0000 F4000
G1 X581.9735 Y733.6492 Z10.0000 F9999
G1 X581.9735 Y1033.6484 Z10.0000 F9999
G1 X581.9735 Y1033.6484 Z1.0000 F2500
G1 X581.9745 Y1000.6470 Z-7.4682 F2500
G1 X581.9725 Y1002.6480 Z-7.9816 F2500
G1 X581.9302 Y1003.2275 Z-8.1307 F2500
G1 X581.7960 Y1003.8229 Z-8.2873 F2500
G1 X581.5621 Y1004.4126 Z-8.4501 F2500
G1 X581.2280 Y1004.9718 Z-8.6173 F2500
G1 X580.8012 Y1005.4757 Z-8.7867 F2500
G1 X580.2973 Y1005.9025 Z-8.9561 F2500
G1 X580.1506 Y1005.9901 Z-9.0000 F2500
G1 X580.2973 Y1005.9025 Z-9.0439 F2500
G1 X580.8012 Y1005.4757 Z-9.2133 F2500
G1 X581.2280 Y1004.9718 Z-9.3827 F2500
G1 X581.5621 Y1004.4126 Z-9.5499 F2500
G1 X581.7960 Y1003.8229 Z-9.7127 F2500
G1 X581.9302 Y1003.2275 Z-9.8693 F2500
G1 X581.9725 Y1002.6480 Z-10.0184 F2500
G1 X581.9745 Y1000.6470 Z-10.5318 F2500
G1 X581.9735 Y1033.6484 Z-19.0000 F2500
G1 X581.9745 Y1000.6470 Z-19.0000 F4000
G1 X581.9725 Y1002.6480 Z-19.0000 F4000
G1 X581.9302 Y1003.2275 Z-19.0000 F4000
G1 X581.7960 Y1003.8229 Z-19.0000 F4000
G1 X581.5621 Y1004.4126 Z-19.0000 F4000
G1 X581.2280 Y1004.9718 Z-19.0000 F4000
G1 X580.8012 Y1005.4757 Z-19.0000 F4000
G1 X580.2973 Y1005.9025 Z-19.0000 F4000
G1 X579.7381 Y1006.2366 Z-19.0000 F4000
G1 X579.1484 Y1006.4705 Z-19.0000 F4000
G1 X578.5530 Y1006.6048 Z-19.0000 F4000
G1 X577.9735 Y1006.6470 Z-19.0000 F4000
G1 X565.9725 Y1006.6470 Z-19.0000 F4000
G1 X567.9735 Y1006.6490 Z-19.0000 F4000
G1 X568.5914 Y1006.6970 Z-19.0000 F4000
G1 X569.2055 Y1006.8435 Z-19.0000 F4000
G1 X569.7925 Y1007.0866 Z-19.0000 F4000
G1 X570.3304 Y1007.4173 Z-19.0000 F4000
G1 X570.8012 Y1007.8203 Z-19.0000 F4000
G1 X571.2042 Y1008.2911 Z-19.0000 F4000
G1 X571.5348 Y1008.8290 Z-19.0000 F4000
G1 X571.7780 Y1009.4160 Z-19.0000 F4000
G1 X571.9245 Y1010.0301 Z-19.0000 F4000
G1 X571.9725 Y1010.6480 Z-19.0000 F4000
G1 X571.9725 Y1054.6477 Z-19.0000 F4000
G1 X571.9303 Y1055.2273 Z-19.0000 F4000
G1 X571.7960 Y1055.8227 Z-19.0000 F4000
G1 X571.5621 Y1056.4124 Z-19.0000 F4000
G1 X571.2280 Y1056.9716 Z-19.0000 F4000
G1 X570.8012 Y1057.4755 Z-19.0000 F4000
G1 X570.2973 Y1057.9022 Z-19.0000 F4000
G1 X569.7381 Y1058.2363 Z-19.0000 F4000
G1 X569.1484 Y1058.4702 Z-19.0000 F4000
G1 X568.5530 Y1058.6045 Z-19.0000 F4000
G1 X567.9735 Y1058.6467 Z-19.0000 F4000
G1 X565.9725 Y1058.6467 Z-19.0000 F4000
G1 X577.9735 Y1058.6487 Z-19.0000 F4000
G1 X578.5913 Y1058.6968 Z-19.0000 F4000
G1 X579.2055 Y1058.8433 Z-19.0000 F4000
G1 X579.7925 Y1059.0864 Z-19.0000 F4000
G1 X580.3303 Y1059.4171 Z-19.0000 F4000
G1 X580.8012 Y1059.8200 Z-19.0000 F4000
G1 X581.2041 Y1060.2909 Z-19.0000 F4000
G1 X581.5348 Y1060.8287 Z-19.0000 F4000
G1 X581.7780 Y1061.4157 Z-19.0000 F4000
G1 X581.9244 Y1062.0299 Z-19.0000 F4000
G1 X581.9725 Y1062.6477 Z-19.0000 F4000
G1 X581.9725 Y1064.6487 Z-19.0000 F4000
G1 X581.9735 Y1033.6484 Z-19.0000 F4000
G1 X581.9735 Y1033.6484 Z10.0000 F9999
G1 X339.9740 Y1031.6474 Z10.0000 F9999
G1 X339.9740 Y1031.6474 Z1.0000 F2500
G1 X339.9730 Y1064.6487 Z-7.4682 F2500
G1 X339.9750 Y1062.6477 Z-7.9816 F2500
G1 X340.0172 Y1062.0682 Z-8.1307 F2500
G1 X340.1515 Y1061.4728 Z-8.2873 F2500
G1 X340.3854 Y1060.8831 Z-8.4501 F2500
G1 X340.7195 Y1060.3239 Z-8.6173 F2500
G1 X341.1463 Y1059.8200 Z-8.7867 F2500
G1 X341.6501 Y1059.3933 Z-8.9561 F2500
G1 X341.7968 Y1059.3056 Z-9.0000 F2500
G1 X341.6501 Y1059.3933 Z-9.0439 F2500
G1 X341.1463 Y1059.8200 Z-9.2133 F2500
G1 X340.7195 Y1060.3239 Z-9.3827 F2500
G1 X340.3854 Y1060.8831 Z-9.5499 F2500
G1 X340.1515 Y1061.4728 Z-9.7127 F2500
G1 X340.0172 Y1062.0682 Z-9.8693 F2500
G1 X339.9750 Y1062.6477 Z-10.0184 F2500
G1 X339.9730 Y1064.6487 Z-10.5318 F2500
G1 X339.9740 Y1031.6474 Z-19.0000 F2500
G1 X339.9730 Y1064.6487 Z-19.0000 F4000
G1 X339.9750 Y1062.6477 Z-19.0000 F4000
G1 X340.0172 Y1062.0682 Z-19.0000 F4000
G1 X340.1515 Y1061.4728 Z-19.0000 F4000
G1 X340.3854 Y1060.8831 Z-19.0000 F4000
G1 X340.7195 Y1060.3239 Z-19.0000 F4000
G1 X341.1463 Y1059.8200 Z-19.0000 F4000
G1 X341.6501 Y1059.3933 Z-19.0000 F4000
G1 X342.2094 Y1059.0591 Z-19.0000 F4000
G1 X342.7990 Y1058.8252 Z-19.0000 F4000
G1 X343.3944 Y1058.6910 Z-19.0000 F4000
G1 X343.9740 Y1058.6487 Z-19.0000 F4000
G1 X355.9750 Y1058.6487 Z-19.0000 F4000
G1 X353.9740 Y1058.6467 Z-19.0000 F4000
G1 X353.3944 Y1058.6045 Z-19.0000 F4000
G1 X352.7990 Y1058.4702 Z-19.0000 F4000
G1 X352.2093 Y1058.2363 Z-19.0000 F4000
G1 X351.6501 Y1057.9022 Z-19.0000 F4000
G1 X351.1462 Y1057.4755 Z-19.0000 F4000
G1 X350.7195 Y1056.9716 Z-19.0000 F4000
G1 X350.3853 Y1056.4124 Z-19.0000 F4000
G1 X350.1515 Y1055.8227 Z-19.0000 F4000
G1 X350.0172 Y1055.2273 Z-19.0000 F4000
G1 X349.9750 Y1054.6477 Z-19.0000 F4000
G1 X349.9750 Y1010.6480 Z-19.0000 F4000
G1 X350.0230 Y1010.0301 Z-19.0000 F4000
G1 X350.1695 Y1009.4160 Z-19.0000 F4000
G1 X350.4126 Y1008.8290 Z-19.0000 F4000
G1 X350.7433 Y1008.2911 Z-19.0000 F4000
G1 X351.1462 Y1007.8203 Z-19.0000 F4000
G1 X351.6171 Y1007.4173 Z-19.0000 F4000
G1 X352.1549 Y1007.0866 Z-19.0000 F4000
G1 X352.7419 Y1006.8435 Z-19.0000 F4000
G1 X353.3561 Y1006.6970 Z-19.0000 F4000
G1 X353.9740 Y1006.6490 Z-19.0000 F4000
G1 X355.9750 Y1006.6490 Z-19.0000 F4000
G1 X343.9740 Y1006.6470 Z-19.0000 F4000
G1 X343.3561 Y1006.5990 Z-19.0000 F4000
G1 X342.7420 Y1006.4525 Z-19.0000 F4000
G1 X342.1550 Y1006.2093 Z-19.0000 F4000
G1 X341.6171 Y1005.8787 Z-19.0000 F4000
G1 X341.1463 Y1005.4757 Z-19.0000 F4000
G1 X340.7433 Y1005.0048 Z-19.0000 F4000
G1 X340.4126 Y1004.4670 Z-19.0000 F4000
G1 X340.1695 Y1003.8800 Z-19.0000 F4000
G1 X340.0230 Y1003.2659 Z-19.0000 F4000
G1 X339.9750 Y1002.6480 Z-19.0000 F4000
G1 X339.9750 Y1000.6470 Z-19.0000 F4000
G1 X339.9740 Y1031.6474 Z-19.0000 F4000
G1 X339.9740 Y1031.6474 Z10.0000 F9999
G1 X273.8994 Y1033.6484 Z10.0000 F9999
G1 X273.8994 Y1033.6484 Z1.0000 F2500
G1 X273.9004 Y1000.6470 Z-7.4682 F2500
G1 X273.8984 Y1002.6480 Z-7.9816 F2500
G1 X273.8504 Y1003.2659 Z-8.1406 F2500
G1 X273.7039 Y1003.8800 Z-8.3027 F2500
G1 X273.4608 Y1004.4670 Z-8.4657 F2500
G1 X273.1301 Y1005.0048 Z-8.6277 F2500
G1 X272.7272 Y1005.4757 Z-8.7867 F2500
G1 X272.2563 Y1005.8787 Z-8.9457 F2500
G1 X272.0762 Y1005.9894 Z-9.0000 F2500
G1 X272.2563 Y1005.8787 Z-9.0543 F2500
G1 X272.7272 Y1005.4757 Z-9.2133 F2500
G1 X273.1301 Y1005.0048 Z-9.3723 F2500
G1 X273.4608 Y1004.4670 Z-9.5343 F2500
G1 X273.7039 Y1003.8800 Z-9.6973 F2500
G1 X273.8504 Y1003.2659 Z-9.8594 F2500
G1 X273.8984 Y1002.6480 Z-10.0184 F2500
G1 X273.9004 Y1000.6470 Z-10.5318 F2500
G1 X273.8994 Y1033.6484 Z-19.0000 F2500
G1 X273.9004 Y1000.6470 Z-19.0000 F4000
G1 X273.8984 Y1002.6480 Z-19.0000 F4000
G1 X273.8504 Y1003.2659 Z-19.0000 F4000
G1 X273.7039 Y1003.8800 Z-19.0000 F4000
G1 X273.4608 Y1004.4670 Z-19.0000 F4000
G1 X273.1301 Y1005.0048 Z-19.0000 F4000
G1 X272.7272 Y1005.4757 Z-19.0000 F4000
G1 X272.2563 Y1005.8787 Z-19.0000 F4000
G1 X271.7185 Y1006.2093 Z-19.0000 F4000
G1 X271.1315 Y1006.4525 Z-19.0000 F4000
G1 X270.5173 Y1006.5990 Z-19.0000 F4000
G1 X269.8994 Y1006.6470 Z-19.0000 F4000
G1 X257.8985 Y1006.6470 Z-19.0000 F4000
G1 X259.8995 Y1006.6490 Z-19.0000 F4000
G1 X260.5174 Y1006.6970 Z-19.0000 F4000
G1 X261.1315 Y1006.8435 Z-19.0000 F4000
G1 X261.7185 Y1007.0866 Z-19.0000 F4000
G1 X262.2563 Y1007.4173 Z-19.0000 F4000
G1 X262.7272 Y1007.8203 Z-19.0000 F4000
G1 X263.1301 Y1008.2911 Z-19.0000 F4000
G1 X263.4608 Y1008.8290 Z-19.0000 F4000
G1 X263.7040 Y1009.4160 Z-19.0000 F4000
G1 X263.8505 Y1010.0301 Z-19.0000 F4000
G1 X263.8985 Y1010.6480 Z-19.0000 F4000
G1 X263.8985 Y1054.6477 Z-19.0000 F4000
G1 X263.8563 Y1055.2273 Z-19.0000 F4000
G1 X263.7220 Y1055.8227 Z-19.0000 F4000
G1 X263.4881 Y1056.4124 Z-19.0000 F4000
G1 X263.1540 Y1056.9716 Z-19.0000 F4000
G1 X262.7272 Y1057.4755 Z-19.0000 F4000
G1 X262.2233 Y1057.9022 Z-19.0000 F4000
G1 X261.6641 Y1058.2363 Z-19.0000 F4000
G1 X261.0744 Y1058.4702 Z-19.0000 F4000
G1 X260.4790 Y1058.6045 Z-19.0000 F4000
G1 X259.8995 Y1058.6467 Z-19.0000 F4000
G1 X257.8985 Y1058.6467 Z-19.0000 F4000
G1 X269.8994 Y1058.6487 Z-19.0000 F4000
G1 X270.4790 Y1058.6910 Z-19.0000 F4000
G1 X271.0744 Y1058.8252 Z-19.0000 F4000
G1 X271.6641 Y1059.0591 Z-19.0000 F4000
G1 X272.2233 Y1059.3933 Z-19.0000 F4000
G1 X272.7272 Y1059.8200 Z-19.0000 F4000
G1 X273.1539 Y1060.3239 Z-19.0000 F4000
G1 X273.4881 Y1060.8831 Z-19.0000 F4000
G1 X273.7219 Y1061.4728 Z-19.0000 F4000
G1 X273.8562 Y1062.0682 Z-19.0000 F4000
G1 X273.8984 Y1062.6477 Z-19.0000 F4000
G1 X273.8984 Y1064.6487 Z-19.0000 F4000
G1 X273.8994 Y1033.6484 Z-19.0000 F4000
G1 X273.8994 Y1033.6484 Z10.0000 F9999
G1 X31.9000 Y1031.6474 Z10.0000 F9999
G1 X31.9000 Y1031.6474 Z1.0000 F2500
G1 X31.8990 Y1064.6487 Z-7.4682 F2500
G1 X31.9010 Y1062.6477 Z-7.9816 F2500
G1 X31.9432 Y1062.0682 Z-8.1307 F2500
G1 X32.0775 Y1061.4728 Z-8.2873 F2500
G1 X32.3114 Y1060.8831 Z-8.4501 F2500
G1 X32.6455 Y1060.3239 Z-8.6173 F2500
G1 X33.0722 Y1059.8200 Z-8.7867 F2500
G1 X33.5761 Y1059.3933 Z-8.9561 F2500
G1 X33.7228 Y1059.3056 Z-9.0000 F2500
G1 X33.5761 Y1059.3933 Z-9.0439 F2500
G1 X33.0722 Y1059.8200 Z-9.2133 F2500
G1 X32.6455 Y1060.3239 Z-9.3827 F2500
G1 X32.3114 Y1060.8831 Z-9.5499 F2500
G1 X32.0775 Y1061.4728 Z-9.7127 F2500
G1 X31.9432 Y1062.0682 Z-9.8693 F2500
G1 X31.9010 Y1062.6477 Z-10.0184 F2500
G1 X31.8990 Y1064.6487 Z-10.5318 F2500
G1 X31.9000 Y1031.6474 Z-19.0000 F2500
G1 X31.8990 Y1064.6487 Z-19.0000 F4000
G1 X31.9010 Y1062.6477 Z-19.0000 F4000
G1 X31.9432 Y1062.0682 Z-19.0000 F4000
G1 X32.0775 Y1061.4728 Z-19.0000 F4000
G1 X32.3114 Y1060.8831 Z-19.0000 F4000
G1 X32.6455 Y1060.3239 Z-19.0000 F4000
G1 X33.0722 Y1059.8200 Z-19.0000 F4000
G1 X33.5761 Y1059.3933 Z-19.0000 F4000
G1 X34.1353 Y1059.0591 Z-19.0000 F4000
G1 X34.7250 Y1058.8252 Z-19.0000 F4000
G1 X35.3204 Y1058.6910 Z-19.0000 F4000
G1 X35.9000 Y1058.6487 Z-19.0000 F4000
G1 X47.9009 Y1058.6487 Z-19.0000 F4000
G1 X45.8999 Y1058.6467 Z-19.0000 F4000
G1 X45.3204 Y1058.6045 Z-19.0000 F4000
G1 X44.7250 Y1058.4702 Z-19.0000 F4000
G1 X44.1353 Y1058.2363 Z-19.0000 F4000
G1 X43.5761 Y1057.9022 Z-19.0000 F4000
G1 X43.0722 Y1057.4755 Z-19.0000 F4000
G1 X42.6454 Y1056.9716 Z-19.0000 F4000
G1 X42.3113 Y1056.4124 Z-19.0000 F4000
G1 X42.0774 Y1055.8227 Z-19.0000 F4000
G1 X41.9432 Y1055.2273 Z-19.0000 F4000
G1 X41.9009 Y1054.6477 Z-19.0000 F4000
G1 X41.9009 Y1010.6480 Z-19.0000 F4000
G1 X41.9432 Y1010.0685 Z-19.0000 F4000
G1 X42.0774 Y1009.4730 Z-19.0000 F4000
G1 X42.3113 Y1008.8834 Z-19.0000 F4000
G1 X42.6454 Y1008.3241 Z-19.0000 F4000
G1 X43.0722 Y1007.8203 Z-19.0000 F4000
G1 X43.5761 Y1007.3935 Z-19.0000 F4000
G1 X44.1353 Y1007.0594 Z-19.0000 F4000
G1 X44.7250 Y1006.8255 Z-19.0000 F4000
G1 X45.3204 Y1006.6912 Z-19.0000 F4000
G1 X45.8999 Y1006.6490 Z-19.0000 F4000
G1 X47.9009 Y1006.6490 Z-19.0000 F4000
G1 X35.9000 Y1006.6470 Z-19.0000 F4000
G1 X35.2821 Y1006.5990 Z-19.0000 F4000
G1 X34.6679 Y1006.4525 Z-19.0000 F4000
G1 X34.0810 Y1006.2093 Z-19.0000 F4000
G1 X33.5431 Y1005.8787 Z-19.0000 F4000
G1 X33.0722 Y1005.4757 Z-19.0000 F4000
G1 X32.6693 Y1005.0048 Z-19.0000 F4000
G1 X32.3386 Y1004.4670 Z-19.0000 F4000
G1 X32.0955 Y1003.8800 Z-19.0000 F4000
G1 X31.9490 Y1003.2659 Z-19.0000 F4000
G1 X31.9010 Y1002.6480 Z-19.0000 F4000
G1 X31.9010 Y1000.6470 Z-19.0000 F4000
G1 X31.9000 Y1031.6474 Z-19.0000 F4000
G1 X31.9000 Y1031.6474 Z10.0000 F9999
G1 X31.9000 Y1331.6470 Z10.0000 F9999
G1 X31.9000 Y1331.6470 Z1.0000 F2500
G1 X31.8990 Y1364.6484 Z-7.4682 F2500
G1 X31.9010 Y1362.6474 Z-7.9816 F2500
G1 X31.9432 Y1362.0678 Z-8.1307 F2500
G1 X32.0775 Y1361.4724 Z-8.2873 F2500
G1 X32.3113 Y1360.8827 Z-8.4501 F2500
G1 X32.6455 Y1360.3235 Z-8.6173 F2500
G1 X33.0722 Y1359.8197 Z-8.7867 F2500
G1 X33.5761 Y1359.3929 Z-8.9561 F2500
G1 X33.7228 Y1359.3052 Z-9.0000 F2500
G1 X33.5761 Y1359.3929 Z-9.0439 F2500
G1 X33.0722 Y1359.8197 Z-9.2133 F2500
G1 X32.6455 Y1360.3235 Z-9.3827 F2500
G1 X32.3113 Y1360.8827 Z-9.5499 F2500
G1 X32.0775 Y1361.4724 Z-9.7127 F2500
G1 X31.9432 Y1362.0678 Z-9.8693 F2500
G1 X31.9010 Y1362.6474 Z-10.0184 F2500
G1 X31.8990 Y1364.6484 Z-10.5318 F2500
G1 X31.9000 Y1331.6470 Z-19.0000 F2500
G1 X31.8990 Y1364.6484 Z-19.0000 F4000
G1 X31.9010 Y1362.6474 Z-19.0000 F4000
G1 X31.9432 Y1362.0678 Z-19.0000 F4000
G1 X32.0775 Y1361.4724 Z-19.0000 F4000
G1 X32.3113 Y1360.8827 Z-19.0000 F4000
G1 X32.6455 Y1360.3235 Z-19.0000 F4000
G1 X33.0722 Y1359.8197 Z-19.0000 F4000
G1 X33.5761 Y1359.3929 Z-19.0000 F4000
G1 X34.1353 Y1359.0588 Z-19.0000 F4000
G1 X34.7250 Y1358.8249 Z-19.0000 F4000
G1 X35.3204 Y1358.6906 Z-19.0000 F4000
G1 X35.9000 Y1358.6484 Z-19.0000 F4000
G1 X47.9009 Y1358.6484 Z-19.0000 F4000
G1 X45.8999 Y1358.6464 Z-19.0000 F4000
G1 X45.2821 Y1358.5984 Z-19.0000 F4000
G1 X44.6679 Y1358.4519 Z-19.0000 F4000
G1 X44.0809 Y1358.2087 Z-19.0000 F4000
G1 X43.5431 Y1357.8780 Z-19.0000 F4000
G1 X43.0722 Y1357.4751 Z-19.0000 F4000
G1 X42.6693 Y1357.0042 Z-19.0000 F4000
G1 X42.3386 Y1356.4664 Z-19.0000 F4000
G1 X42.0954 Y1355.8794 Z-19.0000 F4000
G1 X41.9489 Y1355.2652 Z-19.0000 F4000
G1 X41.9009 Y1354.6474 Z-19.0000 F4000
G1 X41.9009 Y1310.6476 Z-19.0000 F4000
G1 X41.9431 Y1310.0681 Z-19.0000 F4000
G1 X42.0774 Y1309.4727 Z-19.0000 F4000
G1 X42.3113 Y1308.8830 Z-19.0000 F4000
G1 X42.6454 Y1308.3238 Z-19.0000 F4000
G1 X43.0722 Y1307.8199 Z-19.0000 F4000
G1 X43.5761 Y1307.3931 Z-19.0000 F4000
G1 X44.1353 Y1307.0590 Z-19.0000 F4000
G1 X44.7250 Y1306.8251 Z-19.0000 F4000
G1 X45.3204 Y1306.6908 Z-19.0000 F4000
G1 X45.8999 Y1306.6486 Z-19.0000 F4000
G1 X47.9009 Y1306.6486 Z-19.0000 F4000
G1 X35.9000 Y1306.6466 Z-19.0000 F4000
G1 X35.3204 Y1306.6044 Z-19.0000 F4000
G1 X34.7250 Y1306.4701 Z-19.0000 F4000
G1 X34.1353 Y1306.2362 Z-19.0000 F4000
G1 X33.5761 Y1305.9021 Z-19.0000 F4000
G1 X33.0722 Y1305.4753 Z-19.0000 F4000
G1 X32.6455 Y1304.9715 Z-19.0000 F4000
G1 X32.3113 Y1304.4122 Z-19.0000 F4000
G1 X32.0775 Y1303.8226 Z-19.0000 F4000
G1 X31.9432 Y1303.2272 Z-19.0000 F4000
G1 X31.9010 Y1302.6476 Z-19.0000 F4000
G1 X31.9010 Y1300.6466 Z-19.0000 F4000
G1 X31.9000 Y1331.6470 Z-19.0000 F4000
G1 X31.9000 Y1331.6470 Z10.0000 F9999
G1 X273.8994 Y1333.6480 Z10.0000 F9999
G1 X273.8994 Y1333.6480 Z1.0000 F2500
G1 X273.9004 Y1300.6466 Z-7.4682 F2500
G1 X273.8984 Y1302.6476 Z-7.9816 F2500
G1 X273.8562 Y1303.2272 Z-8.1307 F2500
G1 X273.7219 Y1303.8226 Z-8.2873 F2500
G1 X273.4880 Y1304.4122 Z-8.4501 F2500
G1 X273.1539 Y1304.9715 Z-8.6173 F2500
G1 X272.7272 Y1305.4753 Z-8.7867 F2500
G1 X272.2233 Y1305.9021 Z-8.9561 F2500
G1 X272.0766 Y1305.9898 Z-9.0000 F2500
G1 X272.2233 Y1305.9021 Z-9.0439 F2500
G1 X272.7272 Y1305.4753 Z-9.2133 F2500
G1 X273.1539 Y1304.9715 Z-9.3827 F2500
G1 X273.4880 Y1304.4122 Z-9.5499 F2500
G1 X273.7219 Y1303.8226 Z-9.7127 F2500
G1 X273.8562 Y1303.2272 Z-9.8693 F2500
G1 X273.8984 Y1302.6476 Z-10.0184 F2500
G1 X273.9004 Y1300.6466 Z-10.5318 F2500
G1 X273.8994 Y1333.6480 Z-19.0000 F2500
G1 X273.9004 Y1300.6466 Z-19.0000 F4000
G1 X273.8984 Y1302.6476 Z-19.0000 F4000
G1 X273.8562 Y1303.2272 Z-19.0000 F4000
G1 X273.7219 Y1303.8226 Z-19.0000 F4000
G1 X273.4880 Y1304.4122 Z-19.0000 F4000
G1 X273.1539 Y1304.9715 Z-19.0000 F4000
G1 X272.7272 Y1305.4753 Z-19.0000 F4000
G1 X272.2233 Y1305.9021 Z-19.0000 F4000
G1 X271.6641 Y1306.2362 Z-19.0000 F4000
G1 X271.0744 Y1306.4701 Z-19.0000 F4000
G1 X270.4790 Y1306.6044 Z-19.0000 F4000
G1 X269.8994 Y1306.6466 Z-19.0000 F4000
G1 X257.8985 Y1306.6466 Z-19.0000 F4000
G1 X259.8995 Y1306.6486 Z-19.0000 F4000
G1 X260.4790 Y1306.6908 Z-19.0000 F4000
G1 X261.0744 Y1306.8251 Z-19.0000 F4000
G1 X261.6641 Y1307.0590 Z-19.0000 F4000
G1 X262.2233 Y1307.3931 Z-19.0000 F4000
G1 X262.7272 Y1307.8199 Z-19.0000 F4000
G1 X263.1540 Y1308.3238 Z-19.0000 F4000
G1 X263.4881 Y1308.8830 Z-19.0000 F4000
G1 X263.7220 Y1309.4727 Z-19.0000 F4000
G1 X263.8563 Y1310.0681 Z-19.0000 F4000
G1 X263.8985 Y1310.6476 Z-19.0000 F4000
G1 X263.8985 Y1354.6474 Z-19.0000 F4000
G1 X263.8563 Y1355.2269 Z-19.0000 F4000
G1 X263.7220 Y1355.8223 Z-19.0000 F4000
G1 X263.4881 Y1356.4120 Z-19.0000 F4000
G1 X263.1540 Y1356.9712 Z-19.0000 F4000
G1 X262.7272 Y1357.4751 Z-19.0000 F4000
G1 X262.2233 Y1357.9019 Z-19.0000 F4000
G1 X261.6641 Y1358.2360 Z-19.0000 F4000
G1 X261.0744 Y1358.4699 Z-19.0000 F4000
G1 X260.4790 Y1358.6042 Z-19.0000 F4000
G1 X259.8995 Y1358.6464 Z-19.0000 F4000
G1 X257.8985 Y1358.6464 Z-19.0000 F4000
G1 X269.8994 Y1358.6484 Z-19.0000 F4000
G1 X270.5173 Y1358.6964 Z-19.0000 F4000
G1 X271.1315 Y1358.8429 Z-19.0000 F4000
G1 X271.7184 Y1359.0860 Z-19.0000 F4000
G1 X272.2563 Y1359.4167 Z-19.0000 F4000
G1 X272.7272 Y1359.8197 Z-19.0000 F4000
G1 X273.1301 Y1360.2905 Z-19.0000 F4000
G1 X273.4608 Y1360.8284 Z-19.0000 F4000
G1 X273.7039 Y1361.4154 Z-19.0000 F4000
G1 X273.8504 Y1362.0295 Z-19.0000 F4000
G1 X273.8984 Y1362.6474 Z-19.0000 F4000
G1 X273.8984 Y1364.6484 Z-19.0000 F4000
G1 X273.8994 Y1333.6480 Z-19.0000 F4000
G1 X273.8994 Y1333.6480 Z10.0000 F9999
G1 X339.9740 Y1331.6470 Z10.0000 F9999
G1 X339.9740 Y1331.6470 Z1.0000 F2500
G1 X339.9730 Y1364.6484 Z-7.4682 F2500
G1 X339.9750 Y1362.6474 Z-7.9816 F2500
G1 X340.0172 Y1362.0678 Z-8.1307 F2500
G1 X340.1515 Y1361.4724 Z-8.2873 F2500
G1 X340.3854 Y1360.8827 Z-8.4501 F2500
G1 X340.7195 Y1360.3235 Z-8.6173 F2500
G1 X341.1462 Y1359.8197 Z-8.7867 F2500
G1 X341.6501 Y1359.3929 Z-8.9561 F2500
G1 X341.7968 Y1359.3052 Z-9.0000 F2500
G1 X341.6501 Y1359.3929 Z-9.0439 F2500
G1 X341.1462 Y1359.8197 Z-9.2133 F2500
G1 X340.7195 Y1360.3235 Z-9.3827 F2500
G1 X340.3854 Y1360.8827 Z-9.5499 F2500
G1 X340.1515 Y1361.4724 Z-9.7127 F2500
G1 X340.0172 Y1362.0678 Z-9.8693 F2500
G1 X339.9750 Y1362.6474 Z-10.0184 F2500
G1 X339.9730 Y1364.6484 Z-10.5318 F2500
G1 X339.9740 Y1331.6470 Z-19.0000 F2500
G1 X339.9730 Y1364.6484 Z-19.0000 F4000
G1 X339.9750 Y1362.6474 Z-19.0000 F4000
G1 X340.0172 Y1362.0678 Z-19.0000 F4000
G1 X340.1515 Y1361.4724 Z-19.0000 F4000
G1 X340.3854 Y1360.8827 Z-19.0000 F4000
G1 X340.7195 Y1360.3235 Z-19.0000 F4000
G1 X341.1462 Y1359.8197 Z-19.0000 F4000
G1 X341.6501 Y1359.3929 Z-19.0000 F4000
G1 X342.2093 Y1359.0588 Z-19.0000 F4000
G1 X342.7990 Y1358.8249 Z-19.0000 F4000
G1 X343.3944 Y1358.6906 Z-19.0000 F4000
G1 X343.9740 Y1358.6484 Z-19.0000 F4000
G1 X355.9749 Y1358.6484 Z-19.0000 F4000
G1 X353.9739 Y1358.6464 Z-19.0000 F4000
G1 X353.3561 Y1358.5984 Z-19.0000 F4000
G1 X352.7419 Y1358.4519 Z-19.0000 F4000
G1 X352.1549 Y1358.2087 Z-19.0000 F4000
G1 X351.6171 Y1357.8780 Z-19.0000 F4000
G1 X351.1462 Y1357.4751 Z-19.0000 F4000
G1 X350.7433 Y1357.0042 Z-19.0000 F4000
G1 X350.4126 Y1356.4664 Z-19.0000 F4000
G1 X350.1694 Y1355.8794 Z-19.0000 F4000
G1 X350.0230 Y1355.2652 Z-19.0000 F4000
G1 X349.9749 Y1354.6474 Z-19.0000 F4000
G1 X349.9749 Y1310.6476 Z-19.0000 F4000
G1 X350.0172 Y1310.0681 Z-19.0000 F4000
G1 X350.1514 Y1309.4727 Z-19.0000 F4000
G1 X350.3853 Y1308.8830 Z-19.0000 F4000
G1 X350.7194 Y1308.3238 Z-19.0000 F4000
G1 X351.1462 Y1307.8199 Z-19.0000 F4000
G1 X351.6501 Y1307.3931 Z-19.0000 F4000
G1 X352.2093 Y1307.0590 Z-19.0000 F4000
G1 X352.7990 Y1306.8251 Z-19.0000 F4000
G1 X353.3944 Y1306.6908 Z-19.0000 F4000
G1 X353.9739 Y1306.6486 Z-19.0000 F4000
G1 X355.9749 Y1306.6486 Z-19.0000 F4000
G1 X343.9740 Y1306.6466 Z-19.0000 F4000
G1 X343.3561 Y1306.5986 Z-19.0000 F4000
G1 X342.7419 Y1306.4521 Z-19.0000 F4000
G1 X342.1550 Y1306.2090 Z-19.0000 F4000
G1 X341.6171 Y1305.8783 Z-19.0000 F4000
G1 X341.1462 Y1305.4753 Z-19.0000 F4000
G1 X340.7433 Y1305.0045 Z-19.0000 F4000
G1 X340.4126 Y1304.4666 Z-19.0000 F4000
G1 X340.1695 Y1303.8796 Z-19.0000 F4000
G1 X340.0230 Y1303.2655 Z-19.0000 F4000
G1 X339.9750 Y1302.6476 Z-19.0000 F4000
G1 X339.9750 Y1300.6466 Z-19.0000 F4000
G1 X339.9740 Y1331.6470 Z-19.0000 F4000
G1 X339.9740 Y1331.6470 Z10.0000 F9999
G1 X581.9735 Y1333.6480 Z10.0000 F9999
G1 X581.9735 Y1333.6480 Z1.0000 F2500
G1 X581.9745 Y1300.6466 Z-7.4682 F2500
G1 X581.9725 Y1302.6476 Z-7.9816 F2500
G1 X581.9302 Y1303.2272 Z-8.1307 F2500
G1 X581.7959 Y1303.8226 Z-8.2873 F2500
G1 X581.5621 Y1304.4122 Z-8.4501 F2500
G1 X581.2279 Y1304.9715 Z-8.6173 F2500
G1 X580.8012 Y1305.4753 Z-8.7867 F2500
G1 X580.2973 Y1305.9021 Z-8.9561 F2500
G1 X580.1506 Y1305.9898 Z-9.0000 F2500
G1 X580.2973 Y1305.9021 Z-9.0439 F2500
G1 X580.8012 Y1305.4753 Z-9.2133 F2500
G1 X581.2279 Y1304.9715 Z-9.3827 F2500
G1 X581.5621 Y1304.4122 Z-9.5499 F2500
G1 X581.7959 Y1303.8226 Z-9.7127 F2500
G1 X581.9302 Y1303.2272 Z-9.8693 F2500
G1 X581.9725 Y1302.6476 Z-10.0184 F2500
G1 X581.9745 Y1300.6466 Z-10.5318 F2500
G1 X581.9735 Y1333.6480 Z-19.0000 F2500
G1 X581.9745 Y1300.6466 Z-19.0000 F4000
G1 X581.9725 Y1302.6476 Z-19.0000 F4000
G1 X581.9302 Y1303.2272 Z-19.0000 F4000
G1 X581.7959 Y1303.8226 Z-19.0000 F4000
G1 X581.5621 Y1304.4122 Z-19.0000 F4000
G1 X581.2279 Y1304.9715 Z-19.0000 F4000
G1 X580.8012 Y1305.4753 Z-19.0000 F4000
G1 X580.2973 Y1305.9021 Z-19.0000 F4000
G1 X579.7381 Y1306.2362 Z-19.0000 F4000
G1 X579.1484 Y1306.4701 Z-19.0000 F4000
G1 X578.5530 Y1306.6044 Z-19.0000 F4000
G1 X577.9735 Y1306.6466 Z-19.0000 F4000
G1 X565.9725 Y1306.6466 Z-19.0000 F4000
G1 X567.9735 Y1306.6486 Z-19.0000 F4000
G1 X568.5914 Y1306.6966 Z-19.0000 F4000
G1 X569.2055 Y1306.8431 Z-19.0000 F4000
G1 X569.7925 Y1307.0863 Z-19.0000 F4000
G1 X570.3303 Y1307.4170 Z-19.0000 F4000
G1 X570.8012 Y1307.8199 Z-19.0000 F4000
G1 X571.2041 Y1308.2908 Z-19.0000 F4000
G1 X571.5348 Y1308.8286 Z-19.0000 F4000
G1 X571.7780 Y1309.4156 Z-19.0000 F4000
G1 X571.9245 Y1310.0297 Z-19.0000 F4000
G1 X571.9725 Y1310.6476 Z-19.0000 F4000
G1 X571.9725 Y1354.6474 Z-19.0000 F4000
G1 X571.9303 Y1355.2269 Z-19.0000 F4000
G1 X571.7960 Y1355.8223 Z-19.0000 F4000
G1 X571.5621 Y1356.4120 Z-19.0000 F4000
G1 X571.2280 Y1356.9712 Z-19.0000 F4000
G1 X570.8012 Y1357.4751 Z-19.0000 F4000
G1 X570.2973 Y1357.9019 Z-19.0000 F4000
G1 X569.7381 Y1358.2360 Z-19.0000 F4000
G1 X569.1484 Y1358.4699 Z-19.0000 F4000
G1 X568.5530 Y1358.6042 Z-19.0000 F4000
G1 X567.9735 Y1358.6464 Z-19.0000 F4000
G1 X565.9725 Y1358.6464 Z-19.0000 F4000
G1 X577.9735 Y1358.6484 Z-19.0000 F4000
G1 X578.5913 Y1358.6964 Z-19.0000 F4000
G1 X579.2055 Y1358.8429 Z-19.0000 F4000
G1 X579.7925 Y1359.0860 Z-19.0000 F4000
G1 X580.3303 Y1359.4167 Z-19.0000 F4000
G1 X580.8012 Y1359.8197 Z-19.0000 F4000
G1 X581.2041 Y1360.2905 Z-19.0000 F4000
G1 X581.5348 Y1360.8284 Z-19.0000 F4000
G1 X581.7779 Y1361.4154 Z-19.0000 F4000
G1 X581.9244 Y1362.0295 Z-19.0000 F4000
G1 X581.9725 Y1362.6474 Z-19.0000 F4000
G1 X581.9725 Y1364.6484 Z-19.0000 F4000
G1 X581.9735 Y1333.6480 Z-19.0000 F4000
G1 X581.9735 Y1333.6480 Z10.0000 F9999
G1 X808.2977 Y1166.8987 Z10.0000 F9999
G1 X808.2977 Y1166.8987 Z1.0000 F2500
G1 X847.2688 Y1166.8987 Z-9.0000 F2500
G1 X808.2977 Y1166.8987 Z-19.0000 F2500
G1 X888.2975 Y1166.8987 Z-19.0000 F4000
G1 X888.8312 Y1166.9344 Z-19.0000 F4000
G1 X889.3766 Y1167.0470 Z-19.0000 F4000
G1 X889.9175 Y1167.2415 Z-19.0000 F4000
G1 X890.4355 Y1167.5182 Z-19.0000 F4000
G1 X890.9124 Y1167.8720 Z-19.0000 F4000
G1 X891.3315 Y1168.2925 Z-19.0000 F4000
G1 X891.6804 Y1168.7650 Z-19.0000 F4000
G1 X891.9512 Y1169.2720 Z-19.0000 F4000
G1 X892.1416 Y1169.7954 Z-19.0000 F4000
G1 X892.2543 Y1170.3181 Z-19.0000 F4000
G1 X892.3042 Y1171.1076 Z-19.0000 F4000
G1 X892.2965 Y1171.8986 Z-19.0000 F4000
G1 X894.2985 Y1171.8986 Z-19.0000 F4000
G1 X894.2985 Y1133.8967 Z-19.0000 F4000
G1 X892.2965 Y1133.8967 Z-19.0000 F4000
G1 X892.3042 Y1134.6877 Z-19.0000 F4000
G1 X892.2543 Y1135.4772 Z-19.0000 F4000
G1 X892.1416 Y1136.0000 Z-19.0000 F4000
G1 X891.9512 Y1136.5234 Z-19.0000 F4000
G1 X891.6804 Y1137.0304 Z-19.0000 F4000
G1 X891.3315 Y1137.5028 Z-19.0000 F4000
G1 X890.9124 Y1137.9234 Z-19.0000 F4000
G1 X890.4355 Y1138.2772 Z-19.0000 F4000
G1 X889.9175 Y1138.5539 Z-19.0000 F4000
G1 X889.3766 Y1138.7483 Z-19.0000 F4000
G1 X888.8312 Y1138.8609 Z-19.0000 F4000
G1 X888.2975 Y1138.8967 Z-19.0000 F4000
G1 X728.2978 Y1138.8967 Z-19.0000 F4000
G1 X727.7642 Y1138.8609 Z-19.0000 F4000
G1 X727.2187 Y1138.7483 Z-19.0000 F4000
G1 X726.6779 Y1138.5539 Z-19.0000 F4000
G1 X726.1598 Y1138.2772 Z-19.0000 F4000
G1 X725.6830 Y1137.9234 Z-19.0000 F4000
G1 X725.2638 Y1137.5028 Z-19.0000 F4000
G1 X724.9149 Y1137.0304 Z-19.0000 F4000
G1 X724.6441 Y1136.5234 Z-19.0000 F4000
G1 X724.4537 Y1136.0000 Z-19.0000 F4000
G1 X724.3410 Y1135.4772 Z-19.0000 F4000
G1 X724.2912 Y1134.6877 Z-19.0000 F4000
G1 X724.2988 Y1133.8967 Z-19.0000 F4000
G1 X722.2968 Y1133.8967 Z-19.0000 F4000
G1 X722.2968 Y1171.8986 Z-19.0000 F4000
G1 X724.2988 Y1171.8986 Z-19.0000 F4000
G1 X724.2912 Y1171.1076 Z-19.0000 F4000
G1 X724.3410 Y1170.3181 Z-19.0000 F4000
G1 X724.4537 Y1169.7954 Z-19.0000 F4000
G1 X724.6441 Y1169.2720 Z-19.0000 F4000
G1 X724.9149 Y1168.7650 Z-19.0000 F4000
G1 X725.2638 Y1168.2925 Z-19.0000 F4000
G1 X725.6830 Y1167.8720 Z-19.0000 F4000
G1 X726.1598 Y1167.5182 Z-19.0000 F4000
G1 X726.6779 Y1167.2415 Z-19.0000 F4000
G1 X727.2187 Y1167.0470 Z-19.0000 F4000
G1 X727.7642 Y1166.9344 Z-19.0000 F4000
G1 X728.2978 Y1166.8987 Z-19.0000 F4000
G1 X808.2977 Y1166.8987 Z-19.0000 F4000
G1 X808.2977 Y1166.8987 Z10.0000 F9999
G1 X581.9735 Y1633.6471 Z10.0000 F9999
G1 X581.9735 Y1633.6471 Z1.0000 F2500
G1 X581.9745 Y1600.6458 Z-7.4682 F2500
G1 X581.9725 Y1602.6468 Z-7.9816 F2500
G1 X581.9302 Y1603.2263 Z-8.1307 F2500
G1 X581.7960 Y1603.8217 Z-8.2873 F2500
G1 X581.5621 Y1604.4114 Z-8.4501 F2500
G1 X581.2280 Y1604.9706 Z-8.6173 F2500
G1 X580.8012 Y1605.4745 Z-8.7867 F2500
G1 X580.2973 Y1605.9013 Z-8.9561 F2500
G1 X580.1506 Y1605.9889 Z-9.0000 F2500
G1 X580.2973 Y1605.9013 Z-9.0439 F2500
G1 X580.8012 Y1605.4745 Z-9.2133 F2500
G1 X581.2280 Y1604.9706 Z-9.3827 F2500
G1 X581.5621 Y1604.4114 Z-9.5499 F2500
G1 X581.7960 Y1603.8217 Z-9.7127 F2500
G1 X581.9302 Y1603.2263 Z-9.8693 F2500
G1 X581.9725 Y1602.6468 Z-10.0184 F2500
G1 X581.9745 Y1600.6458 Z-10.5318 F2500
G1 X581.9735 Y1633.6471 Z-19.0000 F2500
G1 X581.9745 Y1600.6458 Z-19.0000 F4000
G1 X581.9725 Y1602.6468 Z-19.0000 F4000
G1 X581.9302 Y1603.2263 Z-19.0000 F4000
G1 X581.7960 Y1603.8217 Z-19.0000 F4000
G1 X581.5621 Y1604.4114 Z-19.0000 F4000
G1 X581.2280 Y1604.9706 Z-19.0000 F4000
G1 X580.8012 Y1605.4745 Z-19.0000 F4000
G1 X580.2973 Y1605.9013 Z-19.0000 F4000
G1 X579.7381 Y1606.2354 Z-19.0000 F4000
G1 X579.1484 Y1606.4693 Z-19.0000 F4000
G1 X578.5530 Y1606.6035 Z-19.0000 F4000
G1 X577.9735 Y1606.6458 Z-19.0000 F4000
G1 X565.9725 Y1606.6458 Z-19.0000 F4000
G1 X567.9735 Y1606.6478 Z-19.0000 F4000
G1 X568.5530 Y1606.6900 Z-19.0000 F4000
G1 X569.1484 Y1606.8243 Z-19.0000 F4000
G1 X569.7381 Y1607.0582 Z-19.0000 F4000
G1 X570.2973 Y1607.3923 Z-19.0000 F4000
G1 X570.8012 Y1607.8190 Z-19.0000 F4000
G1 X571.2280 Y1608.3229 Z-19.0000 F4000
G1 X571.5621 Y1608.8821 Z-19.0000 F4000
G1 X571.7960 Y1609.4718 Z-19.0000 F4000
G1 X571.9303 Y1610.0672 Z-19.0000 F4000
G1 X571.9725 Y1610.6468 Z-19.0000 F4000
G1 X571.9725 Y1654.6465 Z-19.0000 F4000
G1 X571.9303 Y1655.2261 Z-19.0000 F4000
G1 X571.7960 Y1655.8215 Z-19.0000 F4000
G1 X571.5621 Y1656.4111 Z-19.0000 F4000
G1 X571.2280 Y1656.9704 Z-19.0000 F4000
G1 X570.8012 Y1657.4742 Z-19.0000 F4000
G1 X570.2973 Y1657.9010 Z-19.0000 F4000
G1 X569.7381 Y1658.2351 Z-19.0000 F4000
G1 X569.1484 Y1658.4690 Z-19.0000 F4000
G1 X568.5530 Y1658.6033 Z-19.0000 F4000
G1 X567.9735 Y1658.6455 Z-19.0000 F4000
G1 X565.9725 Y1658.6455 Z-19.0000 F4000
G1 X577.9735 Y1658.6475 Z-19.0000 F4000
G1 X578.5913 Y1658.6955 Z-19.0000 F4000
G1 X579.2055 Y1658.8420 Z-19.0000 F4000
G1 X579.7925 Y1659.0852 Z-19.0000 F4000
G1 X580.3303 Y1659.4159 Z-19.0000 F4000
G1 X580.8012 Y1659.8188 Z-19.0000 F4000
G1 X581.2041 Y1660.2897 Z-19.0000 F4000
G1 X581.5348 Y1660.8275 Z-19.0000 F4000
G1 X581.7780 Y1661.4145 Z-19.0000 F4000
G1 X581.9244 Y1662.0286 Z-19.0000 F4000
G1 X581.9725 Y1662.6465 Z-19.0000 F4000
G1 X581.9725 Y1664.6475 Z-19.0000 F4000
G1 X581.9735 Y1633.6471 Z-19.0000 F4000
G1 X581.9735 Y1633.6471 Z10.0000 F9999
G1 X460.9737 Y1637.6476 Z10.0000 F9999
G1 X460.9737 Y1637.6476 Z1.0000 F2500
G1 X486.9737 Y1637.6476 Z-5.6716 F2500
G1 X487.5073 Y1637.6834 Z-5.8088 F2500
G1 X488.0527 Y1637.7960 Z-5.9517 F2500
G1 X488.5936 Y1637.9904 Z-6.0992 F2500
G1 X489.1116 Y1638.2671 Z-6.2499 F2500
G1 X489.5885 Y1638.6210 Z-6.4023 F2500
G1 X490.0077 Y1639.0415 Z-6.5546 F2500
G1 X490.3565 Y1639.5140 Z-6.7053 F2500
G1 X490.6273 Y1640.0209 Z-6.8528 F2500
G1 X490.8177 Y1640.5443 Z-6.9957 F2500
G1 X490.9304 Y1641.0671 Z-7.1330 F2500
G1 X490.9803 Y1641.8566 Z-7.3360 F2500
G1 X490.9727 Y1642.6476 Z-7.5390 F2500
G1 X492.9746 Y1642.6476 Z-8.0527 F2500
G1 X492.9746 Y1638.9558 Z-9.0000 F2500
G1 X492.9746 Y1642.6476 Z-9.9473 F2500
G1 X490.9727 Y1642.6476 Z-10.4610 F2500
G1 X490.9803 Y1641.8566 Z-10.6640 F2500
G1 X490.9304 Y1641.0671 Z-10.8670 F2500
G1 X490.8177 Y1640.5443 Z-11.0043 F2500
G1 X490.6273 Y1640.0209 Z-11.1472 F2500
G1 X490.3565 Y1639.5140 Z-11.2947 F2500
G1 X490.0077 Y1639.0415 Z-11.4454 F2500
G1 X489.5885 Y1638.6210 Z-11.5977 F2500
G1 X489.1116 Y1638.2671 Z-11.7501 F2500
G1 X488.5936 Y1637.9904 Z-11.9008 F2500
G1 X488.0527 Y1637.7960 Z-12.0483 F2500
G1 X487.5073 Y1637.6834 Z-12.1912 F2500
G1 X486.9737 Y1637.6476 Z-12.3284 F2500
G1 X460.9737 Y1637.6476 Z-19.0000 F2500
G1 X486.9737 Y1637.6476 Z-19.0000 F4000
G1 X487.5073 Y1637.6834 Z-19.0000 F4000
G1 X488.0527 Y1637.7960 Z-19.0000 F4000
G1 X488.5936 Y1637.9904 Z-19.0000 F4000
G1 X489.1116 Y1638.2671 Z-19.0000 F4000
G1 X489.5885 Y1638.6210 Z-19.0000 F4000
G1 X490.0077 Y1639.0415 Z-19.0000 F4000
G1 X490.3565 Y1639.5140 Z-19.0000 F4000
G1 X490.6273 Y1640.0209 Z-19.0000 F4000
G1 X490.8177 Y1640.5443 Z-19.0000 F4000
G1 X490.9304 Y1641.0671 Z-19.0000 F4000
G1 X490.9803 Y1641.8566 Z-19.0000 F4000
G1 X490.9727 Y1642.6476 Z-19.0000 F4000
G1 X492.9746 Y1642.6476 Z-19.0000 F4000
G1 X492.9746 Y1622.6456 Z-19.0000 F4000
G1 X490.9727 Y1622.6456 Z-19.0000 F4000
G1 X490.9803 Y1623.4367 Z-19.0000 F4000
G1 X490.9304 Y1624.2262 Z-19.0000 F4000
G1 X490.8177 Y1624.7490 Z-19.0000 F4000
G1 X490.6273 Y1625.2724 Z-19.0000 F4000
G1 X490.3565 Y1625.7794 Z-19.0000 F4000
G1 X490.0077 Y1626.2519 Z-19.0000 F4000
G1 X489.5885 Y1626.6724 Z-19.0000 F4000
G1 X489.1116 Y1627.0262 Z-19.0000 F4000
G1 X488.5936 Y1627.3029 Z-19.0000 F4000
G1 X488.0527 Y1627.4974 Z-19.0000 F4000
G1 X487.5073 Y1627.6099 Z-19.0000 F4000
G1 X486.9737 Y1627.6457 Z-19.0000 F4000
G1 X434.9738 Y1627.6457 Z-19.0000 F4000
G1 X434.4402 Y1627.6099 Z-19.0000 F4000
G1 X433.8947 Y1627.4974 Z-19.0000 F4000
G1 X433.3539 Y1627.3029 Z-19.0000 F4000
G1 X432.8358 Y1627.0262 Z-19.0000 F4000
G1 X432.3590 Y1626.6724 Z-19.0000 F4000
G1 X431.9398 Y1626.2519 Z-19.0000 F4000
G1 X431.5909 Y1625.7794 Z-19.0000 F4000
G1 X431.3201 Y1625.2724 Z-19.0000 F4000
G1 X431.1297 Y1624.7490 Z-19.0000 F4000
G1 X431.0170 Y1624.2262 Z-19.0000 F4000
G1 X430.9671 Y1623.4367 Z-19.0000 F4000
G1 X430.9748 Y1622.6456 Z-19.0000 F4000
G1 X428.9728 Y1622.6456 Z-19.0000 F4000
G1 X428.9728 Y1642.6476 Z-19.0000 F4000
G1 X430.9748 Y1642.6476 Z-19.0000 F4000
G1 X430.9671 Y1641.8566 Z-19.0000 F4000
G1 X431.0170 Y1641.0671 Z-19.0000 F4000
G1 X431.1297 Y1640.5443 Z-19.0000 F4000
G1 X431.3201 Y1640.0209 Z-19.0000 F4000
G1 X431.5909 Y1639.5140 Z-19.0000 F4000
G1 X431.9398 Y1639.0415 Z-19.0000 F4000
G1 X432.3590 Y1638.6210 Z-19.0000 F4000
G1 X432.8358 Y1638.2671 Z-19.0000 F4000
G1 X433.3539 Y1637.9904 Z-19.0000 F4000
G1 X433.8947 Y1637.7960 Z-19.0000 F4000
G1 X434.4402 Y1637.6834 Z-19.0000 F4000
G1 X434.9738 Y1637.6476 Z-19.0000 F4000
G1 X460.9737 Y1637.6476 Z-19.0000 F4000
G1 X460.9737 Y1637.6476 Z10.0000 F9999
G1 X339.9740 Y1631.6461 Z10.0000 F9999
G1 X339.9740 Y1631.6461 Z1.0000 F2500
G1 X339.9730 Y1664.6475 Z-7.4682 F2500
G1 X339.9750 Y1662.6465 Z-7.9816 F2500
G1 X340.0172 Y1662.0670 Z-8.1307 F2500
G1 X340.1515 Y1661.4716 Z-8.2873 F2500
G1 X340.3854 Y1660.8819 Z-8.4501 F2500
