(plotsheet 2n3_nested_153 sheets_final v1_0_sheet 60 to 62_S60.0_6 screws_CC8 - stepover 1mm)
(Material Size) (X=1220.000, Y=2440.000, Z=21.000)
(LinuxCNC_NoArcs_MM_TC_medium_50um_G1_verbose.con)
G90 G80 G21 G49
G64 P0.050
M6 T1
(Tool Number:1) (7.998 mm dia. slot drill)
G43 H1 G0Z30.0000
M3 S19000
G04 P10
G1 X159.6181 Y81.2588 Z10.0000 F9999
G1 X159.6181 Y81.2588 Z2.0000 F9999
G1 X159.6181 Y81.2588 Z-2.0000 F2000
G1 X159.6181 Y81.2588 Z10.0000 F9999
G1 X1025.8699 Y74.3564 Z10.0000 F9999
G1 X1025.8699 Y74.3564 Z2.0000 F9999
G1 X1025.8699 Y74.3564 Z-2.0000 F2000
G1 X1025.8699 Y74.3564 Z10.0000 F9999
G1 X204.4837 Y1244.3140 Z10.0000 F9999
G1 X204.4837 Y1244.3140 Z2.0000 F9999
G1 X204.4837 Y1244.3140 Z-2.0000 F2000
G1 X204.4837 Y1244.3140 Z10.0000 F9999
G1 X88.8685 Y1496.2517 Z10.0000 F9999
G1 X88.8685 Y1496.2517 Z2.0000 F9999
G1 X88.8685 Y1496.2517 Z-2.0000 F2000
G1 X88.8685 Y1496.2517 Z10.0000 F9999
G1 X80.2405 Y2224.4556 Z10.0000 F9999
G1 X80.2405 Y2224.4556 Z2.0000 F9999
G1 X80.2405 Y2224.4556 Z-2.0000 F2000
G1 X80.2405 Y2224.4556 Z10.0000 F9999
G1 X825.7001 Y2217.5530 Z10.0000 F9999
G1 X825.7001 Y2217.5530 Z2.0000 F9999
G1 X825.7001 Y2217.5530 Z-2.0000 F2000
G1 X825.7001 Y2217.5530 Z10.0000 F9999
G1 X1900.0000 Y2800.0000 Z80.0000 F9999
G1 Z80.0000 F9999
G1 X1900.0000 Y2800.0000 F9999
M5
M30
