(plotsheet 2n3_nested_153 sheets_final v1_0_sheet 112a_S112.0_8 screws_CC8 - stepover 1mm)
(Material Size) (X=1220.000, Y=2440.000, Z=21.000)
(LinuxCNC_NoArcs_MM_TC_medium_50um_G1_verbose.con)
G90 G80 G21 G49
G64 P0.050
M6 T1
(Tool Number:1) (7.998 mm dia. slot drill)
G43 H1 G0Z80.0000
M3 S9000
G04 P10
G1 X170.8345 Y143.3805 Z10.0000 F9999
G1 X170.8345 Y143.3805 Z2.0000 F9999
G1 X170.8345 Y143.3805 Z-1.0000 F2500
G1 X170.8345 Y143.3805 Z10.0000 F9999
G1 X240.5658 Y488.5007 Z10.0000 F9999
G1 X240.5658 Y488.5007 Z2.0000 F9999
G1 X240.5658 Y488.5007 Z-1.0000 F2500
G1 X240.5658 Y488.5007 Z10.0000 F9999
G1 X781.6973 Y255.5446 Z10.0000 F9999
G1 X781.6973 Y255.5446 Z2.0000 F9999
G1 X781.6973 Y255.5446 Z-1.0000 F2500
G1 X781.6973 Y255.5446 Z10.0000 F9999
G1 X888.6846 Y831.8953 Z10.0000 F9999
G1 X888.6846 Y831.8953 Z2.0000 F9999
G1 X888.6846 Y831.8953 Z-1.0000 F2500
G1 X888.6846 Y831.8953 Z10.0000 F9999
G1 X348.5714 Y1107.9915 Z10.0000 F9999
G1 X348.5714 Y1107.9915 Z2.0000 F9999
G1 X348.5714 Y1107.9915 Z-1.0000 F2500
G1 X348.5714 Y1107.9915 Z10.0000 F9999
G1 X169.1089 Y1411.6973 Z10.0000 F9999
G1 X169.1089 Y1411.6973 Z2.0000 F9999
G1 X169.1089 Y1411.6973 Z-1.0000 F2500
G1 X169.1089 Y1411.6973 Z10.0000 F9999
G1 X776.5205 Y1530.7638 Z10.0000 F9999
G1 X776.5205 Y1530.7638 Z2.0000 F9999
G1 X776.5205 Y1530.7638 Z-1.0000 F2500
G1 X776.5205 Y1530.7638 Z10.0000 F9999
G1 X885.2334 Y2105.3889 Z10.0000 F9999
G1 X885.2334 Y2105.3889 Z2.0000 F9999
G1 X885.2334 Y2105.3889 Z-1.0000 F2500
G1 X885.2334 Y2105.3889 Z10.0000 F9999
G1 X1900.0000 Y2800.0000 Z80.0000 F9999
G1 Z80.0000 F9999
G1 X1900.0000 Y2800.0000 F9999
M5
M30
