(plotsheet 2n3_nested_153 sheets_final v1_0_sheet 145a_S145.1_text_CC8 - stepover 1mm)
(Material Size) (X=1220.000, Y=2440.000, Z=20.000)
(LinuxCNC_NoArcs_MM_TC_medium_50um_G1_verbose.con)
G90 G80 G21 G49
G64 P0.050
M6 T1
(Tool Number:1) (7.998 mm dia. slot drill)
G43 H1 G0Z80.0000
M3 S18000
G04 P10
G1 X85.3178 Y480.1746 Z10.0000 F9999
G1 X85.3178 Y480.1746 Z-1.0000 F2500
G1 X85.3178 Y494.6150 Z-1.0000 F5000
G1 X85.3178 Y480.1746 Z-1.0000 F5000
G1 X67.0242 Y480.1746 Z-1.0000 F5000
G1 X67.0242 Y495.2939 Z-1.0000 F5000
G1 X67.0242 Y480.1746 Z-1.0000 F5000
G1 X108.1251 Y480.1746 Z-1.0000 F5000
G1 X108.1251 Y480.1746 Z10.0000 F9999
G1 X108.1251 Y510.7067 Z10.0000 F9999
G1 X108.1251 Y510.7067 Z-1.0000 F2500
G1 X67.0242 Y510.7067 Z-1.0000 F5000
G1 X67.0242 Y517.8627 Z-1.0000 F5000
G1 X67.6297 Y521.7342 Z-1.0000 F5000
G1 X69.4462 Y524.9452 Z-1.0000 F5000
G1 X72.6022 Y527.1654 Z-1.0000 F5000
G1 X77.2444 Y528.0095 Z-1.0000 F5000
G1 X81.9233 Y526.8535 Z-1.0000 F5000
G1 X85.2444 Y524.0829 Z-1.0000 F5000
G1 X87.2077 Y520.7618 Z-1.0000 F5000
G1 X87.8682 Y517.8627 Z-1.0000 F5000
G1 X87.8682 Y510.7067 Z-1.0000 F5000
G1 X87.8682 Y517.8627 Z-1.0000 F5000
G1 X87.2077 Y520.7618 Z-1.0000 F5000
G1 X85.2444 Y524.0829 Z-1.0000 F5000
G1 X81.9233 Y526.8535 Z-1.0000 F5000
G1 X77.2444 Y528.0095 Z-1.0000 F5000
G1 X72.6022 Y527.1654 Z-1.0000 F5000
G1 X69.4462 Y524.9452 Z-1.0000 F5000
G1 X67.6297 Y521.7342 Z-1.0000 F5000
G1 X67.0242 Y517.8627 Z-1.0000 F5000
G1 X67.0242 Y510.7067 Z-1.0000 F5000
G1 X67.0242 Y510.7067 Z10.0000 F9999
G1 X67.0242 Y554.8168 Z10.0000 F9999
G1 X67.0242 Y554.8168 Z-1.0000 F2500
G1 X108.1251 Y570.8719 Z-1.0000 F5000
G1 X67.0242 Y554.8168 Z-1.0000 F5000
G1 X108.1251 Y538.7985 Z-1.0000 F5000
G1 X108.1251 Y538.7985 Z10.0000 F9999
G1 X108.1251 Y528.1196 Z10.0000 F9999
G1 X108.1251 Y528.1196 Z-1.0000 F2500
G1 X87.9783 Y514.8902 Z-1.0000 F5000
G1 X108.1251 Y528.1196 Z-1.0000 F5000
G1 X108.1251 Y528.1196 Z10.0000 F9999
G1 X93.4279 Y565.1287 Z10.0000 F9999
G1 X93.4279 Y565.1287 Z-1.0000 F2500
G1 X93.4279 Y544.4315 Z-1.0000 F5000
G1 X93.4279 Y565.1287 Z-1.0000 F5000
G1 X93.4279 Y565.1287 Z10.0000 F9999
G1 X101.2994 Y623.3489 Z10.0000 F9999
G1 X101.2994 Y623.3489 Z-1.0000 F2500
G1 X104.3453 Y625.2939 Z-1.0000 F5000
G1 X106.4003 Y627.7159 Z-1.0000 F5000
G1 X107.6481 Y630.8352 Z-1.0000 F5000
G1 X108.1251 Y634.9636 Z-1.0000 F5000
G1 X107.6664 Y639.4590 Z-1.0000 F5000
G1 X105.9233 Y643.2755 Z-1.0000 F5000
G1 X102.9325 Y645.9544 Z-1.0000 F5000
G1 X98.7673 Y647.0737 Z-1.0000 F5000
G1 X94.7673 Y646.5416 Z-1.0000 F5000
G1 X92.0884 Y645.0003 Z-1.0000 F5000
G1 X90.4003 Y642.9636 Z-1.0000 F5000
G1 X89.2994 Y641.0553 Z-1.0000 F5000
G1 X84.5655 Y631.8627 Z-1.0000 F5000
G1 X83.1526 Y629.4957 Z-1.0000 F5000
G1 X81.5013 Y627.6425 Z-1.0000 F5000
G1 X79.3178 Y626.3948 Z-1.0000 F5000
G1 X76.4370 Y625.8810 Z-1.0000 F5000
G1 X73.1526 Y626.4131 Z-1.0000 F5000
G1 X70.1251 Y628.2480 Z-1.0000 F5000
G1 X67.9049 Y631.3856 Z-1.0000 F5000
G1 X67.0242 Y635.7526 Z-1.0000 F5000
G1 X67.7031 Y640.0095 Z-1.0000 F5000
G1 X69.1710 Y642.8535 Z-1.0000 F5000
G1 X71.3178 Y644.9452 Z-1.0000 F5000
G1 X69.1710 Y642.8535 Z-1.0000 F5000
G1 X67.7031 Y640.0095 Z-1.0000 F5000
G1 X67.0242 Y635.7526 Z-1.0000 F5000
G1 X67.9049 Y631.3856 Z-1.0000 F5000
G1 X70.1251 Y628.2480 Z-1.0000 F5000
G1 X73.1526 Y626.4131 Z-1.0000 F5000
G1 X76.4370 Y625.8810 Z-1.0000 F5000
G1 X79.3178 Y626.3948 Z-1.0000 F5000
G1 X81.5013 Y627.6425 Z-1.0000 F5000
G1 X83.1526 Y629.4957 Z-1.0000 F5000
G1 X84.5655 Y631.8627 Z-1.0000 F5000
G1 X89.2994 Y641.0553 Z-1.0000 F5000
G1 X90.4003 Y642.9636 Z-1.0000 F5000
G1 X92.0884 Y645.0003 Z-1.0000 F5000
G1 X94.7673 Y646.5416 Z-1.0000 F5000
G1 X98.7673 Y647.0737 Z-1.0000 F5000
G1 X102.9325 Y645.9544 Z-1.0000 F5000
G1 X105.9233 Y643.2755 Z-1.0000 F5000
G1 X107.6664 Y639.4590 Z-1.0000 F5000
G1 X108.1251 Y634.9636 Z-1.0000 F5000
G1 X107.6481 Y630.8352 Z-1.0000 F5000
G1 X106.4003 Y627.7159 Z-1.0000 F5000
G1 X104.3453 Y625.2939 Z-1.0000 F5000
G1 X104.3453 Y625.2939 Z10.0000 F9999
G1 X57.6297 Y612.6333 Z10.0000 F9999
G1 X57.6297 Y612.6333 Z-1.0000 F2500
G1 X110.4737 Y582.2480 Z-1.0000 F5000
G1 X57.6297 Y612.6333 Z-1.0000 F5000
G1 X57.6297 Y612.6333 Z10.0000 F9999
G1 X67.0242 Y666.8168 Z10.0000 F9999
G1 X67.0242 Y666.8168 Z-1.0000 F2500
G1 X67.0242 Y661.0003 Z-1.0000 F5000
G1 X67.0242 Y666.8168 Z-1.0000 F5000
G1 X108.1251 Y666.8168 Z-1.0000 F5000
G1 X108.1251 Y666.8168 Z10.0000 F9999
G1 X57.6297 Y712.4498 Z10.0000 F9999
G1 X57.6297 Y712.4498 Z-1.0000 F2500
G1 X110.4737 Y682.0645 Z-1.0000 F5000
G1 X57.6297 Y712.4498 Z-1.0000 F5000
G1 X57.6297 Y712.4498 Z10.0000 F9999
G1 X67.0242 Y727.9544 Z10.0000 F9999
G1 X67.0242 Y727.9544 Z-1.0000 F2500
G1 X108.1251 Y727.9544 Z-1.0000 F5000
G1 X67.0242 Y727.9544 Z-1.0000 F5000
G1 X67.0242 Y727.9544 Z10.0000 F9999
G1 X67.0242 Y747.9177 Z10.0000 F9999
G1 X67.0242 Y747.9177 Z-1.0000 F2500
G1 X108.1251 Y785.0186 Z-1.0000 F5000
G1 X67.0242 Y785.0186 Z-1.0000 F5000
G1 X108.1251 Y785.0186 Z-1.0000 F5000
G1 X67.0242 Y747.9177 Z-1.0000 F5000
G1 X108.1251 Y747.9177 Z-1.0000 F5000
G1 X108.1251 Y747.9177 Z10.0000 F9999
G1 X231.3830 Y712.4498 Z10.0000 F9999
G1 X231.3830 Y712.4498 Z-1.0000 F2500
G1 X284.2270 Y682.0645 Z-1.0000 F5000
G1 X231.3830 Y712.4498 Z-1.0000 F5000
G1 X231.3830 Y712.4498 Z10.0000 F9999
G1 X240.7775 Y727.9544 Z10.0000 F9999
G1 X240.7775 Y727.9544 Z-1.0000 F2500
G1 X281.8784 Y727.9544 Z-1.0000 F5000
G1 X240.7775 Y727.9544 Z-1.0000 F5000
G1 X240.7775 Y727.9544 Z10.0000 F9999
G1 X240.7775 Y747.9177 Z10.0000 F9999
G1 X240.7775 Y747.9177 Z-1.0000 F2500
G1 X281.8784 Y785.0186 Z-1.0000 F5000
G1 X240.7775 Y785.0186 Z-1.0000 F5000
G1 X281.8784 Y785.0186 Z-1.0000 F5000
G1 X240.7775 Y747.9177 Z-1.0000 F5000
G1 X281.8784 Y747.9177 Z-1.0000 F5000
G1 X281.8784 Y747.9177 Z10.0000 F9999
G1 X240.7775 Y666.8168 Z10.0000 F9999
G1 X240.7775 Y666.8168 Z-1.0000 F2500
G1 X240.7775 Y661.0003 Z-1.0000 F5000
G1 X240.7775 Y666.8168 Z-1.0000 F5000
G1 X281.8784 Y666.8168 Z-1.0000 F5000
G1 X281.8784 Y666.8168 Z10.0000 F9999
G1 X275.0527 Y623.3489 Z10.0000 F9999
G1 X275.0527 Y623.3489 Z-1.0000 F2500
G1 X278.0986 Y625.2939 Z-1.0000 F5000
G1 X280.1536 Y627.7159 Z-1.0000 F5000
G1 X281.4014 Y630.8352 Z-1.0000 F5000
G1 X281.8784 Y634.9636 Z-1.0000 F5000
G1 X281.4197 Y639.4590 Z-1.0000 F5000
G1 X279.6766 Y643.2755 Z-1.0000 F5000
G1 X276.6858 Y645.9544 Z-1.0000 F5000
G1 X272.5206 Y647.0737 Z-1.0000 F5000
G1 X268.5206 Y646.5416 Z-1.0000 F5000
G1 X265.8417 Y645.0003 Z-1.0000 F5000
G1 X264.1536 Y642.9636 Z-1.0000 F5000
G1 X263.0527 Y641.0553 Z-1.0000 F5000
G1 X258.3188 Y631.8627 Z-1.0000 F5000
G1 X256.9059 Y629.4957 Z-1.0000 F5000
G1 X255.2546 Y627.6425 Z-1.0000 F5000
G1 X253.0711 Y626.3948 Z-1.0000 F5000
G1 X250.1903 Y625.8810 Z-1.0000 F5000
G1 X246.9059 Y626.4131 Z-1.0000 F5000
G1 X243.8784 Y628.2480 Z-1.0000 F5000
G1 X241.6582 Y631.3856 Z-1.0000 F5000
G1 X240.7775 Y635.7526 Z-1.0000 F5000
G1 X241.4564 Y640.0095 Z-1.0000 F5000
G1 X242.9243 Y642.8535 Z-1.0000 F5000
G1 X245.0711 Y644.9452 Z-1.0000 F5000
G1 X242.9243 Y642.8535 Z-1.0000 F5000
G1 X241.4564 Y640.0095 Z-1.0000 F5000
G1 X240.7775 Y635.7526 Z-1.0000 F5000
G1 X241.6582 Y631.3856 Z-1.0000 F5000
G1 X243.8784 Y628.2480 Z-1.0000 F5000
G1 X246.9059 Y626.4131 Z-1.0000 F5000
G1 X250.1903 Y625.8810 Z-1.0000 F5000
G1 X253.0711 Y626.3948 Z-1.0000 F5000
G1 X255.2546 Y627.6425 Z-1.0000 F5000
G1 X256.9059 Y629.4957 Z-1.0000 F5000
G1 X258.3188 Y631.8627 Z-1.0000 F5000
G1 X263.0527 Y641.0553 Z-1.0000 F5000
G1 X264.1536 Y642.9636 Z-1.0000 F5000
G1 X265.8417 Y645.0003 Z-1.0000 F5000
G1 X268.5206 Y646.5416 Z-1.0000 F5000
G1 X272.5206 Y647.0737 Z-1.0000 F5000
G1 X276.6858 Y645.9544 Z-1.0000 F5000
G1 X279.6766 Y643.2755 Z-1.0000 F5000
G1 X281.4197 Y639.4590 Z-1.0000 F5000
G1 X281.8784 Y634.9636 Z-1.0000 F5000
G1 X281.4014 Y630.8352 Z-1.0000 F5000
G1 X280.1536 Y627.7159 Z-1.0000 F5000
G1 X278.0986 Y625.2939 Z-1.0000 F5000
G1 X278.0986 Y625.2939 Z10.0000 F9999
G1 X231.3830 Y612.6333 Z10.0000 F9999
G1 X231.3830 Y612.6333 Z-1.0000 F2500
G1 X284.2270 Y582.2480 Z-1.0000 F5000
G1 X231.3830 Y612.6333 Z-1.0000 F5000
G1 X231.3830 Y612.6333 Z10.0000 F9999
G1 X240.7775 Y554.8168 Z10.0000 F9999
G1 X240.7775 Y554.8168 Z-1.0000 F2500
G1 X281.8784 Y570.8719 Z-1.0000 F5000
G1 X240.7775 Y554.8168 Z-1.0000 F5000
G1 X281.8784 Y538.7985 Z-1.0000 F5000
G1 X281.8784 Y538.7985 Z10.0000 F9999
G1 X281.8784 Y528.1196 Z10.0000 F9999
G1 X281.8784 Y528.1196 Z-1.0000 F2500
G1 X261.7316 Y514.8902 Z-1.0000 F5000
G1 X281.8784 Y528.1196 Z-1.0000 F5000
G1 X281.8784 Y528.1196 Z10.0000 F9999
G1 X281.8784 Y510.7067 Z10.0000 F9999
G1 X281.8784 Y510.7067 Z-1.0000 F2500
G1 X240.7775 Y510.7067 Z-1.0000 F5000
G1 X240.7775 Y517.8627 Z-1.0000 F5000
G1 X241.3830 Y521.7342 Z-1.0000 F5000
G1 X243.1995 Y524.9452 Z-1.0000 F5000
G1 X246.3555 Y527.1654 Z-1.0000 F5000
G1 X250.9977 Y528.0095 Z-1.0000 F5000
G1 X255.6766 Y526.8535 Z-1.0000 F5000
G1 X258.9977 Y524.0829 Z-1.0000 F5000
G1 X260.9610 Y520.7618 Z-1.0000 F5000
G1 X261.6215 Y517.8627 Z-1.0000 F5000
G1 X261.6215 Y510.7067 Z-1.0000 F5000
G1 X261.6215 Y517.8627 Z-1.0000 F5000
G1 X260.9610 Y520.7618 Z-1.0000 F5000
G1 X258.9977 Y524.0829 Z-1.0000 F5000
G1 X255.6766 Y526.8535 Z-1.0000 F5000
G1 X250.9977 Y528.0095 Z-1.0000 F5000
G1 X246.3555 Y527.1654 Z-1.0000 F5000
G1 X243.1995 Y524.9452 Z-1.0000 F5000
G1 X241.3830 Y521.7342 Z-1.0000 F5000
G1 X240.7775 Y517.8627 Z-1.0000 F5000
G1 X240.7775 Y510.7067 Z-1.0000 F5000
G1 X240.7775 Y510.7067 Z10.0000 F9999
G1 X259.0711 Y480.1746 Z10.0000 F9999
G1 X259.0711 Y480.1746 Z-1.0000 F2500
G1 X259.0711 Y494.6150 Z-1.0000 F5000
G1 X259.0711 Y480.1746 Z-1.0000 F5000
G1 X240.7775 Y480.1746 Z-1.0000 F5000
G1 X240.7775 Y495.2939 Z-1.0000 F5000
G1 X240.7775 Y480.1746 Z-1.0000 F5000
G1 X281.8784 Y480.1746 Z-1.0000 F5000
G1 X281.8784 Y480.1746 Z10.0000 F9999
G1 X267.1812 Y565.1287 Z10.0000 F9999
G1 X267.1812 Y565.1287 Z-1.0000 F2500
G1 X267.1812 Y544.4315 Z-1.0000 F5000
G1 X267.1812 Y565.1287 Z-1.0000 F5000
G1 X267.1812 Y565.1287 Z10.0000 F9999
G1 X404.3922 Y612.6333 Z10.0000 F9999
G1 X404.3922 Y612.6333 Z-1.0000 F2500
G1 X457.2362 Y582.2480 Z-1.0000 F5000
G1 X404.3922 Y612.6333 Z-1.0000 F5000
G1 X404.3922 Y612.6333 Z10.0000 F9999
G1 X448.0619 Y623.3489 Z10.0000 F9999
G1 X448.0619 Y623.3489 Z-1.0000 F2500
G1 X451.1078 Y625.2939 Z-1.0000 F5000
G1 X453.1628 Y627.7159 Z-1.0000 F5000
G1 X454.4105 Y630.8352 Z-1.0000 F5000
G1 X454.8876 Y634.9636 Z-1.0000 F5000
G1 X454.4289 Y639.4590 Z-1.0000 F5000
G1 X452.6858 Y643.2755 Z-1.0000 F5000
G1 X449.6949 Y645.9544 Z-1.0000 F5000
G1 X445.5298 Y647.0737 Z-1.0000 F5000
G1 X441.5298 Y646.5416 Z-1.0000 F5000
G1 X438.8509 Y645.0003 Z-1.0000 F5000
G1 X437.1628 Y642.9636 Z-1.0000 F5000
G1 X436.0619 Y641.0553 Z-1.0000 F5000
G1 X431.3280 Y631.8627 Z-1.0000 F5000
G1 X429.9151 Y629.4957 Z-1.0000 F5000
G1 X428.2637 Y627.6425 Z-1.0000 F5000
G1 X426.0802 Y626.3948 Z-1.0000 F5000
G1 X423.1995 Y625.8810 Z-1.0000 F5000
G1 X419.9151 Y626.4131 Z-1.0000 F5000
G1 X416.8876 Y628.2480 Z-1.0000 F5000
G1 X414.6674 Y631.3856 Z-1.0000 F5000
G1 X413.7867 Y635.7526 Z-1.0000 F5000
G1 X414.4656 Y640.0095 Z-1.0000 F5000
G1 X415.9335 Y642.8535 Z-1.0000 F5000
G1 X418.0802 Y644.9452 Z-1.0000 F5000
G1 X415.9335 Y642.8535 Z-1.0000 F5000
G1 X414.4656 Y640.0095 Z-1.0000 F5000
G1 X413.7867 Y635.7526 Z-1.0000 F5000
G1 X414.6674 Y631.3856 Z-1.0000 F5000
G1 X416.8876 Y628.2480 Z-1.0000 F5000
G1 X419.9151 Y626.4131 Z-1.0000 F5000
G1 X423.1995 Y625.8810 Z-1.0000 F5000
G1 X426.0802 Y626.3948 Z-1.0000 F5000
G1 X428.2637 Y627.6425 Z-1.0000 F5000
G1 X429.9151 Y629.4957 Z-1.0000 F5000
G1 X431.3280 Y631.8627 Z-1.0000 F5000
G1 X436.0619 Y641.0553 Z-1.0000 F5000
G1 X437.1628 Y642.9636 Z-1.0000 F5000
G1 X438.8509 Y645.0003 Z-1.0000 F5000
G1 X441.5298 Y646.5416 Z-1.0000 F5000
G1 X445.5298 Y647.0737 Z-1.0000 F5000
G1 X449.6949 Y645.9544 Z-1.0000 F5000
G1 X452.6858 Y643.2755 Z-1.0000 F5000
G1 X454.4289 Y639.4590 Z-1.0000 F5000
G1 X454.8876 Y634.9636 Z-1.0000 F5000
G1 X454.4105 Y630.8352 Z-1.0000 F5000
G1 X453.1628 Y627.7159 Z-1.0000 F5000
G1 X451.1078 Y625.2939 Z-1.0000 F5000
G1 X451.1078 Y625.2939 Z10.0000 F9999
G1 X413.7867 Y666.8168 Z10.0000 F9999
G1 X413.7867 Y666.8168 Z-1.0000 F2500
G1 X413.7867 Y661.0003 Z-1.0000 F5000
G1 X413.7867 Y666.8168 Z-1.0000 F5000
G1 X454.8876 Y666.8168 Z-1.0000 F5000
G1 X454.8876 Y666.8168 Z10.0000 F9999
G1 X404.3922 Y712.4498 Z10.0000 F9999
G1 X404.3922 Y712.4498 Z-1.0000 F2500
G1 X457.2362 Y682.0645 Z-1.0000 F5000
G1 X404.3922 Y712.4498 Z-1.0000 F5000
G1 X404.3922 Y712.4498 Z10.0000 F9999
G1 X413.7867 Y727.9544 Z10.0000 F9999
G1 X413.7867 Y727.9544 Z-1.0000 F2500
G1 X454.8876 Y727.9544 Z-1.0000 F5000
G1 X413.7867 Y727.9544 Z-1.0000 F5000
G1 X413.7867 Y727.9544 Z10.0000 F9999
G1 X413.7867 Y747.9177 Z10.0000 F9999
G1 X413.7867 Y747.9177 Z-1.0000 F2500
G1 X454.8876 Y785.0186 Z-1.0000 F5000
G1 X413.7867 Y785.0186 Z-1.0000 F5000
G1 X454.8876 Y785.0186 Z-1.0000 F5000
G1 X413.7867 Y747.9177 Z-1.0000 F5000
G1 X454.8876 Y747.9177 Z-1.0000 F5000
G1 X454.8876 Y747.9177 Z10.0000 F9999
G1 X575.9220 Y746.7535 Z10.0000 F9999
G1 X575.9220 Y746.7535 Z-1.0000 F2500
G1 X628.7660 Y716.3682 Z-1.0000 F5000
G1 X575.9220 Y746.7535 Z-1.0000 F5000
G1 X575.9220 Y746.7535 Z10.0000 F9999
G1 X585.3165 Y698.6434 Z10.0000 F9999
G1 X585.3165 Y698.6434 Z-1.0000 F2500
G1 X618.7110 Y676.4415 Z-1.0000 F5000
G1 X618.7110 Y705.2489 Z-1.0000 F5000
G1 X618.7110 Y676.4415 Z-1.0000 F5000
G1 X585.3165 Y698.6434 Z-1.0000 F5000
G1 X626.4174 Y698.6434 Z-1.0000 F5000
G1 X626.4174 Y698.6434 Z10.0000 F9999
G1 X619.5917 Y641.2122 Z10.0000 F9999
G1 X619.5917 Y641.2122 Z-1.0000 F2500
G1 X622.6376 Y643.1571 Z-1.0000 F5000
G1 X624.6926 Y645.5792 Z-1.0000 F5000
G1 X625.9403 Y648.6984 Z-1.0000 F5000
G1 X626.4174 Y652.8269 Z-1.0000 F5000
G1 X625.9587 Y657.3223 Z-1.0000 F5000
G1 X624.2156 Y661.1388 Z-1.0000 F5000
G1 X621.2247 Y663.8177 Z-1.0000 F5000
G1 X617.0596 Y664.9370 Z-1.0000 F5000
G1 X613.0596 Y664.4048 Z-1.0000 F5000
G1 X610.3807 Y662.8636 Z-1.0000 F5000
G1 X608.6926 Y660.8269 Z-1.0000 F5000
G1 X607.5917 Y658.9186 Z-1.0000 F5000
G1 X602.8578 Y649.7260 Z-1.0000 F5000
G1 X601.4449 Y647.3590 Z-1.0000 F5000
G1 X599.7935 Y645.5058 Z-1.0000 F5000
G1 X597.6100 Y644.2581 Z-1.0000 F5000
G1 X594.7293 Y643.7443 Z-1.0000 F5000
G1 X591.4449 Y644.2764 Z-1.0000 F5000
G1 X588.4174 Y646.1113 Z-1.0000 F5000
G1 X586.1972 Y649.2489 Z-1.0000 F5000
G1 X585.3165 Y653.6159 Z-1.0000 F5000
G1 X585.9954 Y657.8727 Z-1.0000 F5000
G1 X587.4633 Y660.7168 Z-1.0000 F5000
G1 X589.6100 Y662.8085 Z-1.0000 F5000
G1 X587.4633 Y660.7168 Z-1.0000 F5000
G1 X585.9954 Y657.8727 Z-1.0000 F5000
G1 X585.3165 Y653.6159 Z-1.0000 F5000
G1 X586.1972 Y649.2489 Z-1.0000 F5000
G1 X588.4174 Y646.1113 Z-1.0000 F5000
G1 X591.4449 Y644.2764 Z-1.0000 F5000
G1 X594.7293 Y643.7443 Z-1.0000 F5000
G1 X597.6100 Y644.2581 Z-1.0000 F5000
G1 X599.7935 Y645.5058 Z-1.0000 F5000
G1 X601.4449 Y647.3590 Z-1.0000 F5000
G1 X602.8578 Y649.7260 Z-1.0000 F5000
G1 X607.5917 Y658.9186 Z-1.0000 F5000
G1 X608.6926 Y660.8269 Z-1.0000 F5000
G1 X610.3807 Y662.8636 Z-1.0000 F5000
G1 X613.0596 Y664.4048 Z-1.0000 F5000
G1 X617.0596 Y664.9370 Z-1.0000 F5000
G1 X621.2247 Y663.8177 Z-1.0000 F5000
G1 X624.2156 Y661.1388 Z-1.0000 F5000
G1 X625.9587 Y657.3223 Z-1.0000 F5000
G1 X626.4174 Y652.8269 Z-1.0000 F5000
G1 X625.9403 Y648.6984 Z-1.0000 F5000
G1 X624.6926 Y645.5792 Z-1.0000 F5000
G1 X622.6376 Y643.1571 Z-1.0000 F5000
G1 X622.6376 Y643.1571 Z10.0000 F9999
G1 X575.9220 Y630.4966 Z10.0000 F9999
G1 X575.9220 Y630.4966 Z-1.0000 F2500
G1 X628.7660 Y600.1113 Z-1.0000 F5000
G1 X575.9220 Y630.4966 Z-1.0000 F5000
G1 X575.9220 Y630.4966 Z10.0000 F9999
G1 X585.3165 Y572.6801 Z10.0000 F9999
G1 X585.3165 Y572.6801 Z-1.0000 F2500
G1 X626.4174 Y588.7351 Z-1.0000 F5000
G1 X585.3165 Y572.6801 Z-1.0000 F5000
G1 X626.4174 Y556.6617 Z-1.0000 F5000
G1 X626.4174 Y556.6617 Z10.0000 F9999
G1 X601.7568 Y545.9828 Z10.0000 F9999
G1 X601.7568 Y545.9828 Z-1.0000 F2500
G1 X601.7568 Y516.7351 Z-1.0000 F5000
G1 X601.7568 Y545.9828 Z-1.0000 F5000
G1 X601.7568 Y545.9828 Z10.0000 F9999
G1 X611.7201 Y582.9920 Z10.0000 F9999
G1 X611.7201 Y582.9920 Z-1.0000 F2500
G1 X611.7201 Y562.2948 Z-1.0000 F5000
G1 X611.7201 Y582.9920 Z-1.0000 F5000
G1 X611.7201 Y582.9920 Z10.0000 F9999
G1 X611.7201 Y499.6159 Z10.0000 F9999
G1 X611.7201 Y499.6159 Z-1.0000 F2500
G1 X611.7201 Y478.9186 Z-1.0000 F5000
G1 X611.7201 Y499.6159 Z-1.0000 F5000
G1 X611.7201 Y499.6159 Z10.0000 F9999
G1 X585.3165 Y489.3039 Z10.0000 F9999
G1 X585.3165 Y489.3039 Z-1.0000 F2500
G1 X626.4174 Y505.3590 Z-1.0000 F5000
G1 X585.3165 Y489.3039 Z-1.0000 F5000
G1 X626.4174 Y473.2856 Z-1.0000 F5000
G1 X626.4174 Y473.2856 Z10.0000 F9999
G1 X626.4174 Y462.6067 Z10.0000 F9999
G1 X626.4174 Y462.6067 Z-1.0000 F2500
G1 X606.2706 Y449.3773 Z-1.0000 F5000
G1 X626.4174 Y462.6067 Z-1.0000 F5000
G1 X626.4174 Y462.6067 Z10.0000 F9999
G1 X626.4174 Y445.1938 Z10.0000 F9999
G1 X626.4174 Y445.1938 Z-1.0000 F2500
G1 X585.3165 Y445.1938 Z-1.0000 F5000
G1 X585.3165 Y452.3498 Z-1.0000 F5000
G1 X585.9220 Y456.2214 Z-1.0000 F5000
G1 X587.7385 Y459.4324 Z-1.0000 F5000
G1 X590.8945 Y461.6526 Z-1.0000 F5000
G1 X595.5367 Y462.4966 Z-1.0000 F5000
G1 X600.2156 Y461.3406 Z-1.0000 F5000
G1 X603.5367 Y458.5700 Z-1.0000 F5000
G1 X605.5000 Y455.2489 Z-1.0000 F5000
G1 X606.1605 Y452.3498 Z-1.0000 F5000
G1 X606.1605 Y445.1938 Z-1.0000 F5000
G1 X606.1605 Y452.3498 Z-1.0000 F5000
G1 X605.5000 Y455.2489 Z-1.0000 F5000
G1 X603.5367 Y458.5700 Z-1.0000 F5000
G1 X600.2156 Y461.3406 Z-1.0000 F5000
G1 X595.5367 Y462.4966 Z-1.0000 F5000
G1 X590.8945 Y461.6526 Z-1.0000 F5000
G1 X587.7385 Y459.4324 Z-1.0000 F5000
G1 X585.9220 Y456.2214 Z-1.0000 F5000
G1 X585.3165 Y452.3498 Z-1.0000 F5000
G1 X585.3165 Y445.1938 Z-1.0000 F5000
G1 X585.3165 Y445.1938 Z10.0000 F9999
G1 X603.6100 Y414.6617 Z10.0000 F9999
G1 X603.6100 Y414.6617 Z-1.0000 F2500
G1 X603.6100 Y429.1021 Z-1.0000 F5000
G1 X603.6100 Y414.6617 Z-1.0000 F5000
G1 X585.3165 Y414.6617 Z-1.0000 F5000
G1 X585.3165 Y429.7810 Z-1.0000 F5000
G1 X585.3165 Y414.6617 Z-1.0000 F5000
G1 X626.4174 Y414.6617 Z-1.0000 F5000
G1 X626.4174 Y414.6617 Z10.0000 F9999
G1 X774.9111 Y414.6617 Z10.0000 F9999
G1 X774.9111 Y414.6617 Z-1.0000 F2500
G1 X774.9111 Y429.1021 Z-1.0000 F5000
G1 X774.9111 Y414.6617 Z-1.0000 F5000
G1 X756.6175 Y414.6617 Z-1.0000 F5000
G1 X756.6175 Y429.7810 Z-1.0000 F5000
G1 X756.6175 Y414.6617 Z-1.0000 F5000
G1 X797.7184 Y414.6617 Z-1.0000 F5000
G1 X797.7184 Y414.6617 Z10.0000 F9999
G1 X797.7184 Y445.1938 Z10.0000 F9999
G1 X797.7184 Y445.1938 Z-1.0000 F2500
G1 X756.6175 Y445.1938 Z-1.0000 F5000
G1 X756.6175 Y452.3498 Z-1.0000 F5000
G1 X757.2230 Y456.2214 Z-1.0000 F5000
G1 X759.0395 Y459.4324 Z-1.0000 F5000
G1 X762.1955 Y461.6526 Z-1.0000 F5000
G1 X766.8377 Y462.4966 Z-1.0000 F5000
G1 X771.5166 Y461.3406 Z-1.0000 F5000
G1 X774.8377 Y458.5700 Z-1.0000 F5000
G1 X776.8010 Y455.2489 Z-1.0000 F5000
G1 X777.4615 Y452.3498 Z-1.0000 F5000
G1 X777.4615 Y445.1938 Z-1.0000 F5000
G1 X777.4615 Y452.3498 Z-1.0000 F5000
G1 X776.8010 Y455.2489 Z-1.0000 F5000
G1 X774.8377 Y458.5700 Z-1.0000 F5000
G1 X771.5166 Y461.3406 Z-1.0000 F5000
G1 X766.8377 Y462.4966 Z-1.0000 F5000
G1 X762.1955 Y461.6526 Z-1.0000 F5000
G1 X759.0395 Y459.4324 Z-1.0000 F5000
G1 X757.2230 Y456.2214 Z-1.0000 F5000
G1 X756.6175 Y452.3498 Z-1.0000 F5000
G1 X756.6175 Y445.1938 Z-1.0000 F5000
G1 X756.6175 Y445.1938 Z10.0000 F9999
G1 X756.6175 Y489.3039 Z10.0000 F9999
G1 X756.6175 Y489.3039 Z-1.0000 F2500
G1 X797.7184 Y505.3590 Z-1.0000 F5000
G1 X756.6175 Y489.3039 Z-1.0000 F5000
G1 X797.7184 Y473.2856 Z-1.0000 F5000
G1 X797.7184 Y473.2856 Z10.0000 F9999
G1 X797.7184 Y462.6067 Z10.0000 F9999
G1 X797.7184 Y462.6067 Z-1.0000 F2500
G1 X777.5716 Y449.3773 Z-1.0000 F5000
G1 X797.7184 Y462.6067 Z-1.0000 F5000
G1 X797.7184 Y462.6067 Z10.0000 F9999
G1 X783.0211 Y499.6159 Z10.0000 F9999
G1 X783.0211 Y499.6159 Z-1.0000 F2500
G1 X783.0211 Y478.9186 Z-1.0000 F5000
G1 X783.0211 Y499.6159 Z-1.0000 F5000
G1 X783.0211 Y499.6159 Z10.0000 F9999
G1 X773.0578 Y545.9828 Z10.0000 F9999
G1 X773.0578 Y545.9828 Z-1.0000 F2500
G1 X773.0578 Y516.7351 Z-1.0000 F5000
G1 X773.0578 Y545.9828 Z-1.0000 F5000
G1 X773.0578 Y545.9828 Z10.0000 F9999
G1 X756.6175 Y572.6801 Z10.0000 F9999
G1 X756.6175 Y572.6801 Z-1.0000 F2500
G1 X797.7184 Y588.7351 Z-1.0000 F5000
G1 X756.6175 Y572.6801 Z-1.0000 F5000
G1 X797.7184 Y556.6617 Z-1.0000 F5000
G1 X797.7184 Y556.6617 Z10.0000 F9999
G1 X783.0211 Y582.9920 Z10.0000 F9999
G1 X783.0211 Y582.9920 Z-1.0000 F2500
G1 X783.0211 Y562.2948 Z-1.0000 F5000
G1 X783.0211 Y582.9920 Z-1.0000 F5000
G1 X783.0211 Y582.9920 Z10.0000 F9999
G1 X790.8927 Y641.2122 Z10.0000 F9999
G1 X790.8927 Y641.2122 Z-1.0000 F2500
G1 X793.9386 Y643.1571 Z-1.0000 F5000
G1 X795.9936 Y645.5792 Z-1.0000 F5000
G1 X797.2413 Y648.6984 Z-1.0000 F5000
G1 X797.7184 Y652.8269 Z-1.0000 F5000
G1 X797.2597 Y657.3223 Z-1.0000 F5000
G1 X795.5166 Y661.1388 Z-1.0000 F5000
G1 X792.5257 Y663.8177 Z-1.0000 F5000
G1 X788.3606 Y664.9370 Z-1.0000 F5000
G1 X784.3606 Y664.4048 Z-1.0000 F5000
G1 X781.6817 Y662.8636 Z-1.0000 F5000
G1 X779.9936 Y660.8269 Z-1.0000 F5000
G1 X778.8927 Y658.9186 Z-1.0000 F5000
G1 X774.1588 Y649.7260 Z-1.0000 F5000
G1 X772.7459 Y647.3590 Z-1.0000 F5000
G1 X771.0945 Y645.5058 Z-1.0000 F5000
G1 X768.9111 Y644.2581 Z-1.0000 F5000
G1 X766.0303 Y643.7443 Z-1.0000 F5000
G1 X762.7459 Y644.2764 Z-1.0000 F5000
G1 X759.7184 Y646.1113 Z-1.0000 F5000
G1 X757.4982 Y649.2489 Z-1.0000 F5000
G1 X756.6175 Y653.6159 Z-1.0000 F5000
G1 X757.2964 Y657.8727 Z-1.0000 F5000
G1 X758.7643 Y660.7168 Z-1.0000 F5000
G1 X760.9111 Y662.8085 Z-1.0000 F5000
G1 X758.7643 Y660.7168 Z-1.0000 F5000
G1 X757.2964 Y657.8727 Z-1.0000 F5000
G1 X756.6175 Y653.6159 Z-1.0000 F5000
G1 X757.4982 Y649.2489 Z-1.0000 F5000
G1 X759.7184 Y646.1113 Z-1.0000 F5000
G1 X762.7459 Y644.2764 Z-1.0000 F5000
G1 X766.0303 Y643.7443 Z-1.0000 F5000
G1 X768.9111 Y644.2581 Z-1.0000 F5000
G1 X771.0945 Y645.5058 Z-1.0000 F5000
G1 X772.7459 Y647.3590 Z-1.0000 F5000
G1 X774.1588 Y649.7260 Z-1.0000 F5000
G1 X778.8927 Y658.9186 Z-1.0000 F5000
G1 X779.9936 Y660.8269 Z-1.0000 F5000
G1 X781.6817 Y662.8636 Z-1.0000 F5000
G1 X784.3606 Y664.4048 Z-1.0000 F5000
G1 X788.3606 Y664.9370 Z-1.0000 F5000
G1 X792.5257 Y663.8177 Z-1.0000 F5000
G1 X795.5166 Y661.1388 Z-1.0000 F5000
G1 X797.2597 Y657.3223 Z-1.0000 F5000
G1 X797.7184 Y652.8269 Z-1.0000 F5000
G1 X797.2413 Y648.6984 Z-1.0000 F5000
G1 X795.9936 Y645.5792 Z-1.0000 F5000
G1 X793.9386 Y643.1571 Z-1.0000 F5000
G1 X793.9386 Y643.1571 Z10.0000 F9999
G1 X747.2230 Y630.4966 Z10.0000 F9999
G1 X747.2230 Y630.4966 Z-1.0000 F2500
G1 X800.0670 Y600.1113 Z-1.0000 F5000
G1 X747.2230 Y630.4966 Z-1.0000 F5000
G1 X747.2230 Y630.4966 Z10.0000 F9999
G1 X756.6175 Y698.6434 Z10.0000 F9999
G1 X756.6175 Y698.6434 Z-1.0000 F2500
G1 X790.0120 Y676.4415 Z-1.0000 F5000
G1 X790.0120 Y705.2489 Z-1.0000 F5000
G1 X790.0120 Y676.4415 Z-1.0000 F5000
G1 X756.6175 Y698.6434 Z-1.0000 F5000
G1 X797.7184 Y698.6434 Z-1.0000 F5000
G1 X797.7184 Y698.6434 Z10.0000 F9999
G1 X797.7184 Y762.2581 Z10.0000 F9999
G1 X797.7184 Y762.2581 Z-1.0000 F2500
G1 X774.9111 Y762.2581 Z-1.0000 F5000
G1 X774.9111 Y778.7168 Z-1.0000 F5000
G1 X774.9111 Y762.2581 Z-1.0000 F5000
G1 X756.6175 Y762.2581 Z-1.0000 F5000
G1 X756.6175 Y780.0195 Z-1.0000 F5000
G1 X756.6175 Y762.2581 Z-1.0000 F5000
G1 X797.7184 Y762.2581 Z-1.0000 F5000
G1 X797.7184 Y780.0195 Z-1.0000 F5000
G1 X797.7184 Y780.0195 Z10.0000 F9999
G1 X776.5074 Y802.4232 Z10.0000 F9999
G1 X776.5074 Y802.4232 Z-1.0000 F2500
G1 X797.7184 Y814.3682 Z-1.0000 F5000
G1 X776.5074 Y802.4232 Z-1.0000 F5000
G1 X756.6175 Y814.3682 Z-1.0000 F5000
G1 X776.5074 Y802.4232 Z-1.0000 F5000
G1 X756.6175 Y790.3498 Z-1.0000 F5000
G1 X776.5074 Y802.4232 Z-1.0000 F5000
G1 X797.7184 Y790.3498 Z-1.0000 F5000
G1 X797.7184 Y790.3498 Z10.0000 F9999
G1 X747.2230 Y746.7535 Z10.0000 F9999
G1 X747.2230 Y746.7535 Z-1.0000 F2500
G1 X800.0670 Y716.3682 Z-1.0000 F5000
G1 X747.2230 Y746.7535 Z-1.0000 F5000
G1 X747.2230 Y746.7535 Z10.0000 F9999
G1 X626.4174 Y762.2581 Z10.0000 F9999
G1 X626.4174 Y762.2581 Z-1.0000 F2500
G1 X603.6100 Y762.2581 Z-1.0000 F5000
G1 X603.6100 Y778.7168 Z-1.0000 F5000
G1 X603.6100 Y762.2581 Z-1.0000 F5000
G1 X585.3165 Y762.2581 Z-1.0000 F5000
G1 X585.3165 Y780.0195 Z-1.0000 F5000
G1 X585.3165 Y762.2581 Z-1.0000 F5000
G1 X626.4174 Y762.2581 Z-1.0000 F5000
G1 X626.4174 Y780.0195 Z-1.0000 F5000
G1 X626.4174 Y780.0195 Z10.0000 F9999
G1 X605.2064 Y802.4232 Z10.0000 F9999
G1 X605.2064 Y802.4232 Z-1.0000 F2500
G1 X626.4174 Y814.3682 Z-1.0000 F5000
G1 X605.2064 Y802.4232 Z-1.0000 F5000
G1 X585.3165 Y814.3682 Z-1.0000 F5000
G1 X605.2064 Y802.4232 Z-1.0000 F5000
G1 X585.3165 Y790.3498 Z-1.0000 F5000
G1 X605.2064 Y802.4232 Z-1.0000 F5000
G1 X626.4174 Y790.3498 Z-1.0000 F5000
G1 X626.4174 Y790.3498 Z10.0000 F9999
G1 X440.1903 Y565.1287 Z10.0000 F9999
G1 X440.1903 Y565.1287 Z-1.0000 F2500
G1 X440.1903 Y544.4315 Z-1.0000 F5000
G1 X440.1903 Y565.1287 Z-1.0000 F5000
G1 X440.1903 Y565.1287 Z10.0000 F9999
G1 X413.7867 Y554.8168 Z10.0000 F9999
G1 X413.7867 Y554.8168 Z-1.0000 F2500
G1 X454.8876 Y570.8719 Z-1.0000 F5000
G1 X413.7867 Y554.8168 Z-1.0000 F5000
G1 X454.8876 Y538.7985 Z-1.0000 F5000
G1 X454.8876 Y538.7985 Z10.0000 F9999
G1 X454.8876 Y528.1196 Z10.0000 F9999
G1 X454.8876 Y528.1196 Z-1.0000 F2500
G1 X434.7408 Y514.8902 Z-1.0000 F5000
G1 X454.8876 Y528.1196 Z-1.0000 F5000
G1 X454.8876 Y528.1196 Z10.0000 F9999
G1 X454.8876 Y510.7067 Z10.0000 F9999
G1 X454.8876 Y510.7067 Z-1.0000 F2500
G1 X413.7867 Y510.7067 Z-1.0000 F5000
G1 X413.7867 Y517.8627 Z-1.0000 F5000
G1 X414.3922 Y521.7342 Z-1.0000 F5000
G1 X416.2087 Y524.9452 Z-1.0000 F5000
G1 X419.3647 Y527.1654 Z-1.0000 F5000
G1 X424.0069 Y528.0095 Z-1.0000 F5000
G1 X428.6858 Y526.8535 Z-1.0000 F5000
G1 X432.0069 Y524.0829 Z-1.0000 F5000
G1 X433.9702 Y520.7618 Z-1.0000 F5000
G1 X434.6307 Y517.8627 Z-1.0000 F5000
G1 X434.6307 Y510.7067 Z-1.0000 F5000
G1 X434.6307 Y517.8627 Z-1.0000 F5000
G1 X433.9702 Y520.7618 Z-1.0000 F5000
G1 X432.0069 Y524.0829 Z-1.0000 F5000
G1 X428.6858 Y526.8535 Z-1.0000 F5000
G1 X424.0069 Y528.0095 Z-1.0000 F5000
G1 X419.3647 Y527.1654 Z-1.0000 F5000
G1 X416.2087 Y524.9452 Z-1.0000 F5000
G1 X414.3922 Y521.7342 Z-1.0000 F5000
G1 X413.7867 Y517.8627 Z-1.0000 F5000
G1 X413.7867 Y510.7067 Z-1.0000 F5000
G1 X413.7867 Y510.7067 Z10.0000 F9999
G1 X432.0802 Y480.1746 Z10.0000 F9999
G1 X432.0802 Y480.1746 Z-1.0000 F2500
G1 X432.0802 Y494.6150 Z-1.0000 F5000
G1 X432.0802 Y480.1746 Z-1.0000 F5000
G1 X413.7867 Y480.1746 Z-1.0000 F5000
G1 X413.7867 Y495.2939 Z-1.0000 F5000
G1 X413.7867 Y480.1746 Z-1.0000 F5000
G1 X454.8876 Y480.1746 Z-1.0000 F5000
G1 X454.8876 Y480.1746 Z10.0000 F9999
G1 X926.8842 Y489.3039 Z10.0000 F9999
G1 X926.8842 Y489.3039 Z-1.0000 F2500
G1 X967.9851 Y505.3590 Z-1.0000 F5000
G1 X926.8842 Y489.3039 Z-1.0000 F5000
G1 X967.9851 Y473.2856 Z-1.0000 F5000
G1 X967.9851 Y473.2856 Z10.0000 F9999
G1 X967.9851 Y462.6067 Z10.0000 F9999
G1 X967.9851 Y462.6067 Z-1.0000 F2500
G1 X947.8383 Y449.3773 Z-1.0000 F5000
G1 X967.9851 Y462.6067 Z-1.0000 F5000
G1 X967.9851 Y462.6067 Z10.0000 F9999
G1 X967.9851 Y445.1938 Z10.0000 F9999
G1 X967.9851 Y445.1938 Z-1.0000 F2500
G1 X926.8842 Y445.1938 Z-1.0000 F5000
G1 X926.8842 Y452.3498 Z-1.0000 F5000
G1 X927.4897 Y456.2214 Z-1.0000 F5000
G1 X929.3062 Y459.4324 Z-1.0000 F5000
G1 X932.4622 Y461.6526 Z-1.0000 F5000
G1 X937.1044 Y462.4966 Z-1.0000 F5000
G1 X941.7833 Y461.3406 Z-1.0000 F5000
G1 X945.1044 Y458.5700 Z-1.0000 F5000
G1 X947.0677 Y455.2489 Z-1.0000 F5000
G1 X947.7282 Y452.3498 Z-1.0000 F5000
G1 X947.7282 Y445.1938 Z-1.0000 F5000
G1 X947.7282 Y452.3498 Z-1.0000 F5000
G1 X947.0677 Y455.2489 Z-1.0000 F5000
G1 X945.1044 Y458.5700 Z-1.0000 F5000
G1 X941.7833 Y461.3406 Z-1.0000 F5000
G1 X937.1044 Y462.4966 Z-1.0000 F5000
G1 X932.4622 Y461.6526 Z-1.0000 F5000
G1 X929.3062 Y459.4324 Z-1.0000 F5000
G1 X927.4897 Y456.2214 Z-1.0000 F5000
G1 X926.8842 Y452.3498 Z-1.0000 F5000
G1 X926.8842 Y445.1938 Z-1.0000 F5000
G1 X926.8842 Y445.1938 Z10.0000 F9999
G1 X945.1778 Y414.6617 Z10.0000 F9999
G1 X945.1778 Y414.6617 Z-1.0000 F2500
G1 X945.1778 Y429.1021 Z-1.0000 F5000
G1 X945.1778 Y414.6617 Z-1.0000 F5000
G1 X926.8842 Y414.6617 Z-1.0000 F5000
G1 X926.8842 Y429.7810 Z-1.0000 F5000
G1 X926.8842 Y414.6617 Z-1.0000 F5000
G1 X967.9851 Y414.6617 Z-1.0000 F5000
G1 X967.9851 Y414.6617 Z10.0000 F9999
G1 X953.2879 Y499.6159 Z10.0000 F9999
G1 X953.2879 Y499.6159 Z-1.0000 F2500
G1 X953.2879 Y478.9186 Z-1.0000 F5000
G1 X953.2879 Y499.6159 Z-1.0000 F5000
G1 X953.2879 Y499.6159 Z10.0000 F9999
G1 X943.3246 Y545.9828 Z10.0000 F9999
G1 X943.3246 Y545.9828 Z-1.0000 F2500
G1 X943.3246 Y516.7351 Z-1.0000 F5000
G1 X943.3246 Y545.9828 Z-1.0000 F5000
G1 X943.3246 Y545.9828 Z10.0000 F9999
G1 X926.8842 Y572.6801 Z10.0000 F9999
G1 X926.8842 Y572.6801 Z-1.0000 F2500
G1 X967.9851 Y588.7351 Z-1.0000 F5000
G1 X926.8842 Y572.6801 Z-1.0000 F5000
G1 X967.9851 Y556.6617 Z-1.0000 F5000
G1 X967.9851 Y556.6617 Z10.0000 F9999
G1 X953.2879 Y582.9920 Z10.0000 F9999
G1 X953.2879 Y582.9920 Z-1.0000 F2500
G1 X953.2879 Y562.2948 Z-1.0000 F5000
G1 X953.2879 Y582.9920 Z-1.0000 F5000
G1 X953.2879 Y582.9920 Z10.0000 F9999
G1 X961.1594 Y641.2122 Z10.0000 F9999
G1 X961.1594 Y641.2122 Z-1.0000 F2500
G1 X964.2053 Y643.1571 Z-1.0000 F5000
G1 X966.2603 Y645.5792 Z-1.0000 F5000
G1 X967.5080 Y648.6984 Z-1.0000 F5000
G1 X967.9851 Y652.8269 Z-1.0000 F5000
G1 X967.5264 Y657.3223 Z-1.0000 F5000
G1 X965.7833 Y661.1388 Z-1.0000 F5000
G1 X962.7924 Y663.8177 Z-1.0000 F5000
G1 X958.6273 Y664.9370 Z-1.0000 F5000
G1 X954.6273 Y664.4048 Z-1.0000 F5000
G1 X951.9484 Y662.8636 Z-1.0000 F5000
G1 X950.2603 Y660.8269 Z-1.0000 F5000
G1 X949.1594 Y658.9186 Z-1.0000 F5000
G1 X944.4255 Y649.7260 Z-1.0000 F5000
G1 X943.0126 Y647.3590 Z-1.0000 F5000
G1 X941.3612 Y645.5058 Z-1.0000 F5000
G1 X939.1778 Y644.2581 Z-1.0000 F5000
G1 X936.2970 Y643.7443 Z-1.0000 F5000
G1 X933.0126 Y644.2764 Z-1.0000 F5000
G1 X929.9851 Y646.1113 Z-1.0000 F5000
G1 X927.7649 Y649.2489 Z-1.0000 F5000
G1 X926.8842 Y653.6159 Z-1.0000 F5000
G1 X927.5631 Y657.8727 Z-1.0000 F5000
G1 X929.0310 Y660.7168 Z-1.0000 F5000
G1 X931.1778 Y662.8085 Z-1.0000 F5000
G1 X929.0310 Y660.7168 Z-1.0000 F5000
G1 X927.5631 Y657.8727 Z-1.0000 F5000
G1 X926.8842 Y653.6159 Z-1.0000 F5000
G1 X927.7649 Y649.2489 Z-1.0000 F5000
G1 X929.9851 Y646.1113 Z-1.0000 F5000
G1 X933.0126 Y644.2764 Z-1.0000 F5000
G1 X936.2970 Y643.7443 Z-1.0000 F5000
G1 X939.1778 Y644.2581 Z-1.0000 F5000
G1 X941.3612 Y645.5058 Z-1.0000 F5000
G1 X943.0126 Y647.3590 Z-1.0000 F5000
G1 X944.4255 Y649.7260 Z-1.0000 F5000
G1 X949.1594 Y658.9186 Z-1.0000 F5000
G1 X950.2603 Y660.8269 Z-1.0000 F5000
G1 X951.9484 Y662.8636 Z-1.0000 F5000
G1 X954.6273 Y664.4048 Z-1.0000 F5000
G1 X958.6273 Y664.9370 Z-1.0000 F5000
G1 X962.7924 Y663.8177 Z-1.0000 F5000
G1 X965.7833 Y661.1388 Z-1.0000 F5000
G1 X967.5264 Y657.3223 Z-1.0000 F5000
G1 X967.9851 Y652.8269 Z-1.0000 F5000
G1 X967.5080 Y648.6984 Z-1.0000 F5000
G1 X966.2603 Y645.5792 Z-1.0000 F5000
G1 X964.2053 Y643.1571 Z-1.0000 F5000
G1 X964.2053 Y643.1571 Z10.0000 F9999
G1 X917.4897 Y630.4966 Z10.0000 F9999
G1 X917.4897 Y630.4966 Z-1.0000 F2500
G1 X970.3337 Y600.1113 Z-1.0000 F5000
G1 X917.4897 Y630.4966 Z-1.0000 F5000
G1 X917.4897 Y630.4966 Z10.0000 F9999
G1 X926.8842 Y698.6434 Z10.0000 F9999
G1 X926.8842 Y698.6434 Z-1.0000 F2500
G1 X960.2787 Y676.4415 Z-1.0000 F5000
G1 X960.2787 Y705.2489 Z-1.0000 F5000
G1 X960.2787 Y676.4415 Z-1.0000 F5000
G1 X926.8842 Y698.6434 Z-1.0000 F5000
G1 X967.9851 Y698.6434 Z-1.0000 F5000
G1 X967.9851 Y698.6434 Z10.0000 F9999
G1 X967.9851 Y762.2581 Z10.0000 F9999
G1 X967.9851 Y762.2581 Z-1.0000 F2500
G1 X945.1778 Y762.2581 Z-1.0000 F5000
G1 X945.1778 Y778.7168 Z-1.0000 F5000
G1 X945.1778 Y762.2581 Z-1.0000 F5000
G1 X926.8842 Y762.2581 Z-1.0000 F5000
G1 X926.8842 Y780.0195 Z-1.0000 F5000
G1 X926.8842 Y762.2581 Z-1.0000 F5000
G1 X967.9851 Y762.2581 Z-1.0000 F5000
G1 X967.9851 Y780.0195 Z-1.0000 F5000
G1 X967.9851 Y780.0195 Z10.0000 F9999
G1 X946.7741 Y802.4232 Z10.0000 F9999
G1 X946.7741 Y802.4232 Z-1.0000 F2500
G1 X967.9851 Y814.3682 Z-1.0000 F5000
G1 X946.7741 Y802.4232 Z-1.0000 F5000
G1 X926.8842 Y814.3682 Z-1.0000 F5000
G1 X946.7741 Y802.4232 Z-1.0000 F5000
G1 X926.8842 Y790.3498 Z-1.0000 F5000
G1 X946.7741 Y802.4232 Z-1.0000 F5000
G1 X967.9851 Y790.3498 Z-1.0000 F5000
G1 X967.9851 Y790.3498 Z10.0000 F9999
G1 X917.4897 Y746.7535 Z10.0000 F9999
G1 X917.4897 Y746.7535 Z-1.0000 F2500
G1 X970.3337 Y716.3682 Z-1.0000 F5000
G1 X917.4897 Y746.7535 Z-1.0000 F5000
G1 X917.4897 Y746.7535 Z10.0000 F9999
G1 X1089.6633 Y746.7535 Z10.0000 F9999
G1 X1089.6633 Y746.7535 Z-1.0000 F2500
G1 X1142.5073 Y716.3682 Z-1.0000 F5000
G1 X1089.6633 Y746.7535 Z-1.0000 F5000
G1 X1089.6633 Y746.7535 Z10.0000 F9999
G1 X1099.0578 Y698.6434 Z10.0000 F9999
G1 X1099.0578 Y698.6434 Z-1.0000 F2500
G1 X1132.4523 Y676.4415 Z-1.0000 F5000
G1 X1132.4523 Y705.2489 Z-1.0000 F5000
G1 X1132.4523 Y676.4415 Z-1.0000 F5000
G1 X1099.0578 Y698.6434 Z-1.0000 F5000
G1 X1140.1587 Y698.6434 Z-1.0000 F5000
G1 X1140.1587 Y698.6434 Z10.0000 F9999
G1 X1133.3330 Y641.2122 Z10.0000 F9999
G1 X1133.3330 Y641.2122 Z-1.0000 F2500
G1 X1136.3789 Y643.1571 Z-1.0000 F5000
G1 X1138.4339 Y645.5792 Z-1.0000 F5000
G1 X1139.6816 Y648.6984 Z-1.0000 F5000
G1 X1140.1587 Y652.8269 Z-1.0000 F5000
G1 X1139.7000 Y657.3223 Z-1.0000 F5000
G1 X1137.9569 Y661.1388 Z-1.0000 F5000
G1 X1134.9661 Y663.8177 Z-1.0000 F5000
G1 X1130.8009 Y664.9370 Z-1.0000 F5000
G1 X1126.8009 Y664.4048 Z-1.0000 F5000
G1 X1124.1220 Y662.8636 Z-1.0000 F5000
G1 X1122.4339 Y660.8269 Z-1.0000 F5000
G1 X1121.3330 Y658.9186 Z-1.0000 F5000
G1 X1116.5991 Y649.7260 Z-1.0000 F5000
G1 X1115.1862 Y647.3590 Z-1.0000 F5000
G1 X1113.5349 Y645.5058 Z-1.0000 F5000
G1 X1111.3514 Y644.2581 Z-1.0000 F5000
G1 X1108.4706 Y643.7443 Z-1.0000 F5000
G1 X1105.1862 Y644.2764 Z-1.0000 F5000
G1 X1102.1587 Y646.1113 Z-1.0000 F5000
G1 X1099.9385 Y649.2489 Z-1.0000 F5000
G1 X1099.0578 Y653.6159 Z-1.0000 F5000
G1 X1099.7367 Y657.8727 Z-1.0000 F5000
G1 X1101.2046 Y660.7168 Z-1.0000 F5000
G1 X1103.3514 Y662.8085 Z-1.0000 F5000
G1 X1101.2046 Y660.7168 Z-1.0000 F5000
G1 X1099.7367 Y657.8727 Z-1.0000 F5000
G1 X1099.0578 Y653.6159 Z-1.0000 F5000
G1 X1099.9385 Y649.2489 Z-1.0000 F5000
G1 X1102.1587 Y646.1113 Z-1.0000 F5000
G1 X1105.1862 Y644.2764 Z-1.0000 F5000
G1 X1108.4706 Y643.7443 Z-1.0000 F5000
G1 X1111.3514 Y644.2581 Z-1.0000 F5000
G1 X1113.5349 Y645.5058 Z-1.0000 F5000
G1 X1115.1862 Y647.3590 Z-1.0000 F5000
G1 X1116.5991 Y649.7260 Z-1.0000 F5000
G1 X1121.3330 Y658.9186 Z-1.0000 F5000
G1 X1122.4339 Y660.8269 Z-1.0000 F5000
G1 X1124.1220 Y662.8636 Z-1.0000 F5000
G1 X1126.8009 Y664.4048 Z-1.0000 F5000
G1 X1130.8009 Y664.9370 Z-1.0000 F5000
G1 X1134.9661 Y663.8177 Z-1.0000 F5000
G1 X1137.9569 Y661.1388 Z-1.0000 F5000
G1 X1139.7000 Y657.3223 Z-1.0000 F5000
G1 X1140.1587 Y652.8269 Z-1.0000 F5000
G1 X1139.6816 Y648.6984 Z-1.0000 F5000
G1 X1138.4339 Y645.5792 Z-1.0000 F5000
G1 X1136.3789 Y643.1571 Z-1.0000 F5000
G1 X1136.3789 Y643.1571 Z10.0000 F9999
G1 X1089.6633 Y630.4966 Z10.0000 F9999
G1 X1089.6633 Y630.4966 Z-1.0000 F2500
G1 X1142.5073 Y600.1113 Z-1.0000 F5000
G1 X1089.6633 Y630.4966 Z-1.0000 F5000
G1 X1089.6633 Y630.4966 Z10.0000 F9999
G1 X1099.0578 Y572.6801 Z10.0000 F9999
G1 X1099.0578 Y572.6801 Z-1.0000 F2500
G1 X1140.1587 Y588.7351 Z-1.0000 F5000
G1 X1099.0578 Y572.6801 Z-1.0000 F5000
G1 X1140.1587 Y556.6617 Z-1.0000 F5000
G1 X1140.1587 Y556.6617 Z10.0000 F9999
G1 X1115.4982 Y545.9828 Z10.0000 F9999
G1 X1115.4982 Y545.9828 Z-1.0000 F2500
G1 X1115.4982 Y516.7351 Z-1.0000 F5000
G1 X1115.4982 Y545.9828 Z-1.0000 F5000
G1 X1115.4982 Y545.9828 Z10.0000 F9999
G1 X1125.4615 Y582.9920 Z10.0000 F9999
G1 X1125.4615 Y582.9920 Z-1.0000 F2500
G1 X1125.4615 Y562.2948 Z-1.0000 F5000
G1 X1125.4615 Y582.9920 Z-1.0000 F5000
G1 X1125.4615 Y582.9920 Z10.0000 F9999
G1 X1125.4615 Y499.6159 Z10.0000 F9999
G1 X1125.4615 Y499.6159 Z-1.0000 F2500
G1 X1125.4615 Y478.9186 Z-1.0000 F5000
G1 X1125.4615 Y499.6159 Z-1.0000 F5000
G1 X1125.4615 Y499.6159 Z10.0000 F9999
G1 X1099.0578 Y489.3039 Z10.0000 F9999
G1 X1099.0578 Y489.3039 Z-1.0000 F2500
G1 X1140.1587 Y505.3590 Z-1.0000 F5000
G1 X1099.0578 Y489.3039 Z-1.0000 F5000
G1 X1140.1587 Y473.2856 Z-1.0000 F5000
G1 X1140.1587 Y473.2856 Z10.0000 F9999
G1 X1140.1587 Y462.6067 Z10.0000 F9999
G1 X1140.1587 Y462.6067 Z-1.0000 F2500
G1 X1120.0119 Y449.3773 Z-1.0000 F5000
G1 X1140.1587 Y462.6067 Z-1.0000 F5000
G1 X1140.1587 Y462.6067 Z10.0000 F9999
G1 X1140.1587 Y445.1938 Z10.0000 F9999
G1 X1140.1587 Y445.1938 Z-1.0000 F2500
G1 X1099.0578 Y445.1938 Z-1.0000 F5000
G1 X1099.0578 Y452.3498 Z-1.0000 F5000
G1 X1099.6633 Y456.2214 Z-1.0000 F5000
G1 X1101.4798 Y459.4324 Z-1.0000 F5000
G1 X1104.6358 Y461.6526 Z-1.0000 F5000
G1 X1109.2780 Y462.4966 Z-1.0000 F5000
G1 X1113.9569 Y461.3406 Z-1.0000 F5000
G1 X1117.2780 Y458.5700 Z-1.0000 F5000
G1 X1119.2413 Y455.2489 Z-1.0000 F5000
G1 X1119.9018 Y452.3498 Z-1.0000 F5000
G1 X1119.9018 Y445.1938 Z-1.0000 F5000
G1 X1119.9018 Y452.3498 Z-1.0000 F5000
G1 X1119.2413 Y455.2489 Z-1.0000 F5000
G1 X1117.2780 Y458.5700 Z-1.0000 F5000
G1 X1113.9569 Y461.3406 Z-1.0000 F5000
G1 X1109.2780 Y462.4966 Z-1.0000 F5000
G1 X1104.6358 Y461.6526 Z-1.0000 F5000
G1 X1101.4798 Y459.4324 Z-1.0000 F5000
G1 X1099.6633 Y456.2214 Z-1.0000 F5000
G1 X1099.0578 Y452.3498 Z-1.0000 F5000
G1 X1099.0578 Y445.1938 Z-1.0000 F5000
G1 X1099.0578 Y445.1938 Z10.0000 F9999
G1 X1117.3514 Y414.6617 Z10.0000 F9999
G1 X1117.3514 Y414.6617 Z-1.0000 F2500
G1 X1117.3514 Y429.1021 Z-1.0000 F5000
G1 X1117.3514 Y414.6617 Z-1.0000 F5000
G1 X1099.0578 Y414.6617 Z-1.0000 F5000
G1 X1099.0578 Y429.7810 Z-1.0000 F5000
G1 X1099.0578 Y414.6617 Z-1.0000 F5000
G1 X1140.1587 Y414.6617 Z-1.0000 F5000
G1 X1140.1587 Y414.6617 Z10.0000 F9999
G1 X1140.1587 Y762.2581 Z10.0000 F9999
G1 X1140.1587 Y762.2581 Z-1.0000 F2500
G1 X1117.3514 Y762.2581 Z-1.0000 F5000
G1 X1117.3514 Y778.7168 Z-1.0000 F5000
G1 X1117.3514 Y762.2581 Z-1.0000 F5000
G1 X1099.0578 Y762.2581 Z-1.0000 F5000
G1 X1099.0578 Y780.0195 Z-1.0000 F5000
G1 X1099.0578 Y762.2581 Z-1.0000 F5000
G1 X1140.1587 Y762.2581 Z-1.0000 F5000
G1 X1140.1587 Y780.0195 Z-1.0000 F5000
G1 X1140.1587 Y780.0195 Z10.0000 F9999
G1 X1118.9477 Y802.4232 Z10.0000 F9999
G1 X1118.9477 Y802.4232 Z-1.0000 F2500
G1 X1140.1587 Y814.3682 Z-1.0000 F5000
G1 X1118.9477 Y802.4232 Z-1.0000 F5000
G1 X1099.0578 Y814.3682 Z-1.0000 F5000
G1 X1118.9477 Y802.4232 Z-1.0000 F5000
G1 X1099.0578 Y790.3498 Z-1.0000 F5000
G1 X1118.9477 Y802.4232 Z-1.0000 F5000
G1 X1140.1587 Y790.3498 Z-1.0000 F5000
G1 X1140.1587 Y790.3498 Z10.0000 F9999
(Tool Number:1) (7.998 mm dia. slot drill)
M3 S9000
G1 X0.0000 Y2012.9137 Z10.0000 F9999
G1 X0.0000 Y2012.9137 Z1.0000 F2500
G1 X38.9711 Y2012.9137 Z-9.5000 F2500
G1 X0.0000 Y2012.9137 Z-20.0000 F2500
G1 X1220.0000 Y2012.9137 Z-20.0000 F5000
G1 X1220.0000 Y2012.9137 Z10.0000 F9999
(Tool Number:1) (7.998 mm dia. slot drill)
M3 S9000
G1 X195.9498 Y1079.8978 Z10.0000 F9999
G1 X195.9498 Y1079.8978 Z1.0000 F2500
G1 X195.9498 Y1040.9266 Z-9.5000 F2500
G1 X195.9498 Y1079.8978 Z-20.0000 F2500
G1 X195.9498 Y965.8990 Z-20.0000 F5000
G1 X200.9498 Y965.8990 Z-20.0000 F5000
G1 X200.9498 Y963.8970 Z-20.0000 F5000
G1 X183.2923 Y963.8970 Z-20.0000 F5000
G1 X177.9498 Y958.5545 Z-20.0000 F5000
G1 X177.9498 Y934.8990 Z-20.0000 F5000
G1 X224.9477 Y934.8990 Z-20.0000 F5000
G1 X224.9477 Y939.8991 Z-20.0000 F5000
G1 X226.9497 Y939.8991 Z-20.0000 F5000
G1 X226.9497 Y919.8971 Z-20.0000 F5000
G1 X224.9477 Y919.8971 Z-20.0000 F5000
G1 X224.9477 Y924.8972 Z-20.0000 F5000
G1 X177.9498 Y924.8972 Z-20.0000 F5000
G1 X177.9498 Y901.2418 Z-20.0000 F5000
G1 X183.2923 Y895.8992 Z-20.0000 F5000
G1 X200.9498 Y895.8992 Z-20.0000 F5000
G1 X200.9498 Y893.8972 Z-20.0000 F5000
G1 X195.9498 Y893.8972 Z-20.0000 F5000
G1 X195.9498 Y665.8997 Z-20.0000 F5000
G1 X200.9498 Y665.8997 Z-20.0000 F5000
G1 X200.9498 Y663.8977 Z-20.0000 F5000
G1 X183.2923 Y663.8977 Z-20.0000 F5000
G1 X177.9498 Y658.5551 Z-20.0000 F5000
G1 X177.9498 Y601.2423 Z-20.0000 F5000
G1 X183.2923 Y595.8998 Z-20.0000 F5000
G1 X200.9498 Y595.8998 Z-20.0000 F5000
G1 X200.9498 Y593.8978 Z-20.0000 F5000
G1 X195.9498 Y593.8978 Z-20.0000 F5000
G1 X195.9498 Y365.9003 Z-20.0000 F5000
G1 X200.9498 Y365.9003 Z-20.0000 F5000
G1 X200.9498 Y363.8983 Z-20.0000 F5000
G1 X183.2923 Y363.8983 Z-20.0000 F5000
G1 X177.9498 Y358.5557 Z-20.0000 F5000
G1 X177.9498 Y334.7773 Z-20.0000 F5000
G1 X177.9498 Y334.7773 Z-10.0000 F9999
G1 X177.9498 Y318.7793 Z-10.0000 F5000
G1 X177.9498 Y318.7793 Z-20.0000 F2500
G1 X177.9498 Y301.2430 Z-20.0000 F5000
G1 X183.2923 Y295.9004 Z-20.0000 F5000
G1 X200.9498 Y295.9004 Z-20.0000 F5000
G1 X200.9498 Y293.8984 Z-20.0000 F5000
G1 X195.9498 Y293.8984 Z-20.0000 F5000
G1 X195.9498 Y65.9009 Z-20.0000 F5000
G1 X200.9498 Y65.9009 Z-20.0000 F5000
G1 X200.9498 Y63.8989 Z-20.0000 F5000
G1 X183.2923 Y63.8989 Z-20.0000 F5000
G1 X177.9498 Y58.5563 Z-20.0000 F5000
G1 X177.9498 Y25.9010 Z-20.0000 F5000
G1 X239.5891 Y25.9010 Z-20.0000 F5000
G1 X240.1368 Y25.8215 Z-20.0000 F5000
G1 X240.3963 Y25.7039 Z-20.0000 F5000
G1 X240.6141 Y25.5100 Z-20.0000 F5000
G1 X240.7610 Y25.2659 Z-20.0000 F5000
G1 X240.8297 Y24.9894 Z-20.0000 F5000
G1 X240.8128 Y24.6984 Z-20.0000 F5000
G1 X240.7126 Y24.4316 Z-20.0000 F5000
G1 X240.3814 Y23.9882 Z-20.0000 F5000
G1 X237.4525 Y21.0593 Z-20.0000 F5000
G1 X236.0665 Y19.2031 Z-20.0000 F5000
G1 X235.1488 Y16.6645 Z-20.0000 F5000
G1 X235.0252 Y13.9681 Z-20.0000 F5000
G1 X235.6671 Y11.4402 Z-20.0000 F5000
G1 X237.0006 Y9.1988 Z-20.0000 F5000
G1 X238.9948 Y7.3796 Z-20.0000 F5000
G1 X241.4386 Y6.2334 Z-20.0000 F5000
G1 X243.7314 Y5.9010 Z-20.0000 F5000
G1 X270.1659 Y5.9010 Z-20.0000 F5000
G1 X272.4586 Y6.2334 Z-20.0000 F5000
G1 X274.9025 Y7.3796 Z-20.0000 F5000
G1 X276.8966 Y9.1988 Z-20.0000 F5000
G1 X278.2302 Y11.4402 Z-20.0000 F5000
G1 X278.8721 Y13.9681 Z-20.0000 F5000
G1 X278.7485 Y16.6645 Z-20.0000 F5000
G1 X277.8308 Y19.2031 Z-20.0000 F5000
G1 X276.4447 Y21.0593 Z-20.0000 F5000
G1 X273.5158 Y23.9882 Z-20.0000 F5000
G1 X273.1847 Y24.4316 Z-20.0000 F5000
G1 X273.0844 Y24.6984 Z-20.0000 F5000
G1 X273.0675 Y24.9894 Z-20.0000 F5000
G1 X273.1363 Y25.2659 Z-20.0000 F5000
G1 X273.2832 Y25.5100 Z-20.0000 F5000
G1 X273.5009 Y25.7039 Z-20.0000 F5000
G1 X273.7604 Y25.8215 Z-20.0000 F5000
G1 X274.3082 Y25.9010 Z-20.0000 F5000
G1 X335.9475 Y25.9010 Z-20.0000 F5000
G1 X335.9475 Y58.5563 Z-20.0000 F5000
G1 X330.6050 Y63.8989 Z-20.0000 F5000
G1 X312.9475 Y63.8989 Z-20.0000 F5000
G1 X312.9475 Y65.9009 Z-20.0000 F5000
G1 X317.9475 Y65.9009 Z-20.0000 F5000
G1 X317.9475 Y293.8984 Z-20.0000 F5000
G1 X312.9475 Y293.8984 Z-20.0000 F5000
G1 X312.9475 Y295.9004 Z-20.0000 F5000
G1 X330.6050 Y295.9004 Z-20.0000 F5000
G1 X335.9475 Y301.2430 Z-20.0000 F5000
G1 X335.9475 Y318.1890 Z-20.0000 F5000
G1 X335.9475 Y318.1890 Z-10.0000 F9999
G1 X335.9475 Y334.1870 Z-10.0000 F5000
G1 X335.9475 Y334.1870 Z-20.0000 F2500
G1 X335.9475 Y358.5557 Z-20.0000 F5000
G1 X330.6050 Y363.8983 Z-20.0000 F5000
G1 X312.9475 Y363.8983 Z-20.0000 F5000
G1 X312.9475 Y365.9003 Z-20.0000 F5000
G1 X317.9475 Y365.9003 Z-20.0000 F5000
G1 X317.9475 Y593.8978 Z-20.0000 F5000
G1 X312.9475 Y593.8978 Z-20.0000 F5000
G1 X312.9475 Y595.8998 Z-20.0000 F5000
G1 X330.6050 Y595.8998 Z-20.0000 F5000
G1 X335.9475 Y601.2423 Z-20.0000 F5000
G1 X335.9475 Y658.5551 Z-20.0000 F5000
G1 X330.6050 Y663.8977 Z-20.0000 F5000
G1 X312.9475 Y663.8977 Z-20.0000 F5000
G1 X312.9475 Y665.8997 Z-20.0000 F5000
G1 X317.9475 Y665.8997 Z-20.0000 F5000
G1 X317.9475 Y893.8972 Z-20.0000 F5000
G1 X312.9475 Y893.8972 Z-20.0000 F5000
G1 X312.9475 Y895.8992 Z-20.0000 F5000
G1 X330.6050 Y895.8992 Z-20.0000 F5000
G1 X335.9475 Y901.2418 Z-20.0000 F5000
G1 X335.9475 Y924.8972 Z-20.0000 F5000
G1 X288.9496 Y924.8972 Z-20.0000 F5000
G1 X288.9496 Y919.8971 Z-20.0000 F5000
G1 X286.9476 Y919.8971 Z-20.0000 F5000
G1 X286.9476 Y939.8991 Z-20.0000 F5000
G1 X288.9496 Y939.8991 Z-20.0000 F5000
G1 X288.9496 Y934.8990 Z-20.0000 F5000
G1 X335.9475 Y934.8990 Z-20.0000 F5000
G1 X335.9475 Y958.5545 Z-20.0000 F5000
G1 X330.6050 Y963.8970 Z-20.0000 F5000
G1 X312.9475 Y963.8970 Z-20.0000 F5000
G1 X312.9475 Y965.8990 Z-20.0000 F5000
G1 X317.9475 Y965.8990 Z-20.0000 F5000
G1 X317.9475 Y1193.8966 Z-20.0000 F5000
G1 X312.9475 Y1193.8966 Z-20.0000 F5000
G1 X312.9475 Y1195.8986 Z-20.0000 F5000
G1 X330.6050 Y1195.8986 Z-20.0000 F5000
G1 X335.9475 Y1201.2411 Z-20.0000 F5000
G1 X335.9475 Y1258.5539 Z-20.0000 F5000
G1 X330.6050 Y1263.8964 Z-20.0000 F5000
G1 X312.9475 Y1263.8964 Z-20.0000 F5000
G1 X312.9475 Y1265.8984 Z-20.0000 F5000
G1 X317.9475 Y1265.8984 Z-20.0000 F5000
G1 X317.9475 Y1383.8963 Z-20.0000 F5000
G1 X294.9499 Y1383.8963 Z-20.0000 F5000
G1 X294.9499 Y1385.8983 Z-20.0000 F5000
G1 X299.9500 Y1385.8983 Z-20.0000 F5000
G1 X299.9475 Y1493.8959 Z-20.0000 F5000
G1 X294.9476 Y1493.8959 Z-20.0000 F5000
G1 X294.9476 Y1495.8979 Z-20.0000 F5000
G1 X330.6050 Y1495.8979 Z-20.0000 F5000
G1 X335.9475 Y1501.2405 Z-20.0000 F5000
G1 X335.9475 Y1558.5532 Z-20.0000 F5000
G1 X330.6050 Y1563.8958 Z-20.0000 F5000
G1 X294.9476 Y1563.8958 Z-20.0000 F5000
G1 X294.9476 Y1565.8978 Z-20.0000 F5000
G1 X299.9476 Y1565.8978 Z-20.0000 F5000
G1 X299.9476 Y1793.8953 Z-20.0000 F5000
G1 X294.9476 Y1793.8953 Z-20.0000 F5000
G1 X294.9476 Y1795.8973 Z-20.0000 F5000
G1 X330.6050 Y1795.8973 Z-20.0000 F5000
G1 X335.9475 Y1801.2399 Z-20.0000 F5000
G1 X335.9475 Y1818.9517 Z-20.0000 F5000
G1 X335.9475 Y1818.9517 Z-10.0000 F9999
G1 X335.9475 Y1834.9497 Z-10.0000 F5000
G1 X335.9475 Y1834.9497 Z-20.0000 F2500
G1 X335.9475 Y1858.5528 Z-20.0000 F5000
G1 X330.6050 Y1863.8953 Z-20.0000 F5000
G1 X294.9476 Y1863.8953 Z-20.0000 F5000
G1 X294.9476 Y1865.8972 Z-20.0000 F5000
G1 X299.9476 Y1865.8972 Z-20.0000 F5000
G1 X299.9476 Y1995.3950 Z-20.0000 F5000
G1 X213.9497 Y1995.3950 Z-20.0000 F5000
G1 X213.9497 Y1865.8972 Z-20.0000 F5000
G1 X218.9497 Y1865.8972 Z-20.0000 F5000
G1 X218.9497 Y1863.8953 Z-20.0000 F5000
G1 X183.2923 Y1863.8953 Z-20.0000 F5000
G1 X177.9498 Y1858.5528 Z-20.0000 F5000
G1 X177.9498 Y1835.8373 Z-20.0000 F5000
G1 X177.9498 Y1835.8373 Z-10.0000 F9999
G1 X177.9498 Y1819.8393 Z-10.0000 F5000
G1 X177.9498 Y1819.8393 Z-20.0000 F2500
G1 X177.9498 Y1801.2399 Z-20.0000 F5000
G1 X183.2923 Y1795.8973 Z-20.0000 F5000
G1 X218.9497 Y1795.8973 Z-20.0000 F5000
G1 X218.9497 Y1793.8953 Z-20.0000 F5000
G1 X213.9497 Y1793.8953 Z-20.0000 F5000
G1 X213.9497 Y1565.8978 Z-20.0000 F5000
G1 X218.9497 Y1565.8978 Z-20.0000 F5000
G1 X218.9497 Y1563.8958 Z-20.0000 F5000
G1 X183.2923 Y1563.8958 Z-20.0000 F5000
G1 X177.9498 Y1558.5532 Z-20.0000 F5000
G1 X177.9498 Y1501.2405 Z-20.0000 F5000
G1 X183.2923 Y1495.8979 Z-20.0000 F5000
G1 X218.9497 Y1495.8979 Z-20.0000 F5000
G1 X218.9497 Y1493.8959 Z-20.0000 F5000
G1 X213.9497 Y1493.8959 Z-20.0000 F5000
G1 X213.9497 Y1385.8983 Z-20.0000 F5000
G1 X218.9497 Y1385.8983 Z-20.0000 F5000
G1 X218.9497 Y1383.8963 Z-20.0000 F5000
G1 X195.9498 Y1383.8963 Z-20.0000 F5000
G1 X195.9498 Y1265.8984 Z-20.0000 F5000
G1 X200.9498 Y1265.8984 Z-20.0000 F5000
G1 X200.9498 Y1263.8964 Z-20.0000 F5000
G1 X183.2923 Y1263.8964 Z-20.0000 F5000
G1 X177.9498 Y1258.5539 Z-20.0000 F5000
G1 X177.9498 Y1201.2411 Z-20.0000 F5000
G1 X183.2923 Y1195.8986 Z-20.0000 F5000
G1 X200.9498 Y1195.8986 Z-20.0000 F5000
G1 X200.9498 Y1193.8966 Z-20.0000 F5000
G1 X195.9498 Y1193.8966 Z-20.0000 F5000
G1 X195.9498 Y1079.8978 Z-20.0000 F5000
G1 X195.9498 Y1079.8978 Z10.0000 F9999
G1 X540.0474 Y779.8984 Z10.0000 F9999
G1 X540.0474 Y779.8984 Z1.0000 F2500
G1 X540.0474 Y740.9273 Z-9.5000 F2500
G1 X540.0474 Y779.8984 Z-20.0000 F2500
G1 X540.0474 Y665.8997 Z-20.0000 F5000
G1 X545.0474 Y665.8997 Z-20.0000 F5000
G1 X545.0474 Y663.8975 Z-20.0000 F5000
G1 X527.3900 Y663.8975 Z-20.0000 F5000
G1 X522.0475 Y658.5551 Z-20.0000 F5000
G1 X522.0475 Y601.2424 Z-20.0000 F5000
G1 X527.3899 Y595.8998 Z-20.0000 F5000
G1 X545.0474 Y595.8998 Z-20.0000 F5000
G1 X545.0474 Y593.8978 Z-20.0000 F5000
G1 X540.0474 Y593.8978 Z-20.0000 F5000
G1 X540.0474 Y365.9003 Z-20.0000 F5000
G1 X545.0474 Y365.9003 Z-20.0000 F5000
G1 X545.0474 Y363.8983 Z-20.0000 F5000
G1 X527.3899 Y363.8983 Z-20.0000 F5000
G1 X522.0475 Y358.5557 Z-20.0000 F5000
G1 X522.0475 Y334.9003 Z-20.0000 F5000
G1 X569.0453 Y334.9003 Z-20.0000 F5000
G1 X569.0453 Y339.9003 Z-20.0000 F5000
G1 X571.0473 Y339.9003 Z-20.0000 F5000
G1 X571.0473 Y319.8983 Z-20.0000 F5000
G1 X569.0453 Y319.8983 Z-20.0000 F5000
G1 X569.0453 Y324.8983 Z-20.0000 F5000
G1 X522.0475 Y324.8983 Z-20.0000 F5000
G1 X522.0475 Y301.2430 Z-20.0000 F5000
G1 X527.3899 Y295.9003 Z-20.0000 F5000
G1 X545.0474 Y295.9003 Z-20.0000 F5000
G1 X545.0474 Y293.8984 Z-20.0000 F5000
G1 X540.0474 Y293.8984 Z-20.0000 F5000
G1 X540.0474 Y225.5741 Z-20.0000 F5000
G1 X540.0474 Y225.5741 Z-10.0000 F9999
G1 X540.0474 Y209.5761 Z-10.0000 F5000
G1 X540.0474 Y209.5761 Z-20.0000 F2500
G1 X540.0474 Y175.9006 Z-20.0000 F5000
G1 X563.0473 Y175.9006 Z-20.0000 F5000
G1 X563.0473 Y173.8988 Z-20.0000 F5000
G1 X558.0473 Y173.8988 Z-20.0000 F5000
G1 X558.0473 Y65.9008 Z-20.0000 F5000
G1 X563.0473 Y65.9008 Z-20.0000 F5000
G1 X563.0473 Y63.8989 Z-20.0000 F5000
G1 X527.3899 Y63.8989 Z-20.0000 F5000
G1 X522.0475 Y58.5561 Z-20.0000 F5000
G1 X522.0475 Y25.9008 Z-20.0000 F5000
G1 X583.6870 Y25.9008 Z-20.0000 F5000
G1 X584.2345 Y25.8214 Z-20.0000 F5000
G1 X584.4940 Y25.7038 Z-20.0000 F5000
G1 X584.7117 Y25.5100 Z-20.0000 F5000
G1 X584.8587 Y25.2658 Z-20.0000 F5000
G1 X584.9274 Y24.9893 Z-20.0000 F5000
G1 X584.9105 Y24.6983 Z-20.0000 F5000
G1 X584.8102 Y24.4316 Z-20.0000 F5000
G1 X584.4791 Y23.9881 Z-20.0000 F5000
G1 X581.5502 Y21.0591 Z-20.0000 F5000
G1 X580.1642 Y19.2032 Z-20.0000 F5000
G1 X579.2464 Y16.6648 Z-20.0000 F5000
G1 X579.1228 Y13.9677 Z-20.0000 F5000
G1 X579.7648 Y11.4403 Z-20.0000 F5000
G1 X581.0983 Y9.1985 Z-20.0000 F5000
G1 X583.0926 Y7.3797 Z-20.0000 F5000
G1 X585.5361 Y6.2335 Z-20.0000 F5000
G1 X587.8289 Y5.9010 Z-20.0000 F5000
G1 X614.2636 Y5.9010 Z-20.0000 F5000
G1 X616.5564 Y6.2335 Z-20.0000 F5000
G1 X619.0000 Y7.3797 Z-20.0000 F5000
G1 X620.9942 Y9.1985 Z-20.0000 F5000
G1 X622.3278 Y11.4403 Z-20.0000 F5000
G1 X622.9697 Y13.9677 Z-20.0000 F5000
G1 X622.8461 Y16.6648 Z-20.0000 F5000
G1 X621.9283 Y19.2032 Z-20.0000 F5000
G1 X620.5423 Y21.0591 Z-20.0000 F5000
G1 X617.6135 Y23.9881 Z-20.0000 F5000
G1 X617.2823 Y24.4316 Z-20.0000 F5000
G1 X617.1820 Y24.6983 Z-20.0000 F5000
G1 X617.1651 Y24.9893 Z-20.0000 F5000
G1 X617.2339 Y25.2658 Z-20.0000 F5000
G1 X617.3808 Y25.5100 Z-20.0000 F5000
G1 X617.5986 Y25.7038 Z-20.0000 F5000
G1 X617.8581 Y25.8214 Z-20.0000 F5000
G1 X618.4056 Y25.9008 Z-20.0000 F5000
G1 X680.0451 Y25.9008 Z-20.0000 F5000
G1 X680.0451 Y58.5561 Z-20.0000 F5000
G1 X674.7027 Y63.8989 Z-20.0000 F5000
G1 X639.0452 Y63.8989 Z-20.0000 F5000
G1 X639.0452 Y65.9008 Z-20.0000 F5000
G1 X644.0452 Y65.9008 Z-20.0000 F5000
G1 X644.0452 Y173.8988 Z-20.0000 F5000
G1 X639.0452 Y173.8988 Z-20.0000 F5000
G1 X639.0452 Y175.9006 Z-20.0000 F5000
G1 X662.0452 Y175.9006 Z-20.0000 F5000
G1 X662.0452 Y209.5761 Z-20.0000 F5000
G1 X662.0452 Y209.5761 Z-10.0000 F9999
G1 X662.0452 Y225.5741 Z-10.0000 F5000
G1 X662.0452 Y225.5741 Z-20.0000 F2500
G1 X662.0452 Y293.8984 Z-20.0000 F5000
G1 X657.0452 Y293.8984 Z-20.0000 F5000
G1 X657.0452 Y295.9003 Z-20.0000 F5000
G1 X674.7027 Y295.9003 Z-20.0000 F5000
G1 X680.0451 Y301.2430 Z-20.0000 F5000
G1 X680.0451 Y324.8983 Z-20.0000 F5000
G1 X633.0472 Y324.8983 Z-20.0000 F5000
G1 X633.0472 Y319.8983 Z-20.0000 F5000
G1 X631.0452 Y319.8983 Z-20.0000 F5000
G1 X631.0452 Y339.9003 Z-20.0000 F5000
G1 X633.0472 Y339.9003 Z-20.0000 F5000
G1 X633.0472 Y334.9003 Z-20.0000 F5000
G1 X680.0451 Y334.9003 Z-20.0000 F5000
G1 X680.0451 Y358.5557 Z-20.0000 F5000
G1 X674.7026 Y363.8983 Z-20.0000 F5000
G1 X657.0452 Y363.8983 Z-20.0000 F5000
G1 X657.0452 Y365.9003 Z-20.0000 F5000
G1 X662.0452 Y365.9003 Z-20.0000 F5000
G1 X662.0452 Y593.8978 Z-20.0000 F5000
G1 X657.0452 Y593.8978 Z-20.0000 F5000
G1 X657.0452 Y595.8998 Z-20.0000 F5000
G1 X674.7026 Y595.8998 Z-20.0000 F5000
G1 X680.0451 Y601.2424 Z-20.0000 F5000
G1 X680.0451 Y658.5551 Z-20.0000 F5000
G1 X674.7026 Y663.8975 Z-20.0000 F5000
G1 X657.0452 Y663.8975 Z-20.0000 F5000
G1 X657.0452 Y665.8997 Z-20.0000 F5000
G1 X662.0452 Y665.8997 Z-20.0000 F5000
G1 X662.0452 Y893.8972 Z-20.0000 F5000
G1 X657.0452 Y893.8972 Z-20.0000 F5000
G1 X657.0452 Y895.8992 Z-20.0000 F5000
G1 X674.7026 Y895.8992 Z-20.0000 F5000
G1 X680.0451 Y901.2416 Z-20.0000 F5000
G1 X680.0451 Y924.8970 Z-20.0000 F5000
G1 X633.0472 Y924.8970 Z-20.0000 F5000
G1 X633.0472 Y919.8970 Z-20.0000 F5000
G1 X631.0452 Y919.8970 Z-20.0000 F5000
G1 X631.0452 Y939.8990 Z-20.0000 F5000
G1 X633.0472 Y939.8990 Z-20.0000 F5000
G1 X633.0472 Y934.8990 Z-20.0000 F5000
G1 X680.0451 Y934.8990 Z-20.0000 F5000
G1 X680.0451 Y958.5545 Z-20.0000 F5000
G1 X674.7026 Y963.8970 Z-20.0000 F5000
G1 X657.0452 Y963.8970 Z-20.0000 F5000
G1 X657.0452 Y965.8990 Z-20.0000 F5000
G1 X662.0452 Y965.8990 Z-20.0000 F5000
G1 X662.0452 Y1083.8968 Z-20.0000 F5000
G1 X639.0452 Y1083.8968 Z-20.0000 F5000
G1 X639.0452 Y1085.8987 Z-20.0000 F5000
G1 X644.0452 Y1085.8987 Z-20.0000 F5000
G1 X644.0452 Y1193.8966 Z-20.0000 F5000
G1 X639.0452 Y1193.8966 Z-20.0000 F5000
G1 X639.0452 Y1195.8986 Z-20.0000 F5000
G1 X674.7026 Y1195.8986 Z-20.0000 F5000
G1 X680.0451 Y1201.2411 Z-20.0000 F5000
G1 X680.0451 Y1258.5539 Z-20.0000 F5000
G1 X674.7026 Y1263.8964 Z-20.0000 F5000
G1 X639.0452 Y1263.8964 Z-20.0000 F5000
G1 X639.0452 Y1265.8984 Z-20.0000 F5000
G1 X644.0452 Y1265.8984 Z-20.0000 F5000
G1 X644.0452 Y1493.8959 Z-20.0000 F5000
G1 X639.0452 Y1493.8959 Z-20.0000 F5000
G1 X639.0452 Y1495.8979 Z-20.0000 F5000
G1 X674.7026 Y1495.8979 Z-20.0000 F5000
G1 X680.0451 Y1501.2405 Z-20.0000 F5000
G1 X680.0451 Y1558.5532 Z-20.0000 F5000
G1 X674.7026 Y1563.8958 Z-20.0000 F5000
G1 X639.0452 Y1563.8958 Z-20.0000 F5000
G1 X639.0452 Y1565.8978 Z-20.0000 F5000
G1 X644.0452 Y1565.8978 Z-20.0000 F5000
G1 X644.0452 Y1793.8953 Z-20.0000 F5000
G1 X639.0452 Y1793.8953 Z-20.0000 F5000
G1 X639.0452 Y1795.8973 Z-20.0000 F5000
G1 X674.7026 Y1795.8973 Z-20.0000 F5000
G1 X680.0451 Y1801.2399 Z-20.0000 F5000
G1 X680.0451 Y1822.3723 Z-20.0000 F5000
G1 X680.0451 Y1822.3723 Z-10.0000 F9999
G1 X680.0451 Y1838.3703 Z-10.0000 F5000
G1 X680.0451 Y1838.3703 Z-20.0000 F2500
G1 X680.0451 Y1858.5526 Z-20.0000 F5000
G1 X674.7026 Y1863.8952 Z-20.0000 F5000
G1 X639.0452 Y1863.8952 Z-20.0000 F5000
G1 X639.0452 Y1865.8972 Z-20.0000 F5000
G1 X644.0452 Y1865.8972 Z-20.0000 F5000
G1 X644.0452 Y1931.8951 Z-20.0000 F5000
G1 X558.0473 Y1931.8951 Z-20.0000 F5000
G1 X558.0473 Y1865.8972 Z-20.0000 F5000
G1 X563.0473 Y1865.8972 Z-20.0000 F5000
G1 X563.0473 Y1863.8952 Z-20.0000 F5000
G1 X527.3899 Y1863.8952 Z-20.0000 F5000
G1 X522.0475 Y1858.5526 Z-20.0000 F5000
G1 X522.0475 Y1838.2525 Z-20.0000 F5000
G1 X522.0475 Y1838.2525 Z-10.0000 F9999
G1 X522.0475 Y1822.2545 Z-10.0000 F5000
G1 X522.0475 Y1822.2545 Z-20.0000 F2500
G1 X522.0475 Y1801.2399 Z-20.0000 F5000
G1 X527.3899 Y1795.8973 Z-20.0000 F5000
G1 X563.0473 Y1795.8973 Z-20.0000 F5000
G1 X563.0473 Y1793.8953 Z-20.0000 F5000
G1 X558.0473 Y1793.8953 Z-20.0000 F5000
G1 X558.0473 Y1565.8978 Z-20.0000 F5000
G1 X563.0473 Y1565.8978 Z-20.0000 F5000
G1 X563.0473 Y1563.8958 Z-20.0000 F5000
G1 X527.3899 Y1563.8958 Z-20.0000 F5000
G1 X522.0475 Y1558.5532 Z-20.0000 F5000
G1 X522.0475 Y1501.2405 Z-20.0000 F5000
G1 X527.3899 Y1495.8979 Z-20.0000 F5000
G1 X563.0473 Y1495.8979 Z-20.0000 F5000
G1 X563.0473 Y1493.8959 Z-20.0000 F5000
G1 X558.0473 Y1493.8959 Z-20.0000 F5000
G1 X558.0473 Y1265.8984 Z-20.0000 F5000
G1 X563.0473 Y1265.8984 Z-20.0000 F5000
G1 X563.0473 Y1263.8964 Z-20.0000 F5000
G1 X527.3899 Y1263.8964 Z-20.0000 F5000
G1 X522.0475 Y1258.5539 Z-20.0000 F5000
G1 X522.0475 Y1201.2411 Z-20.0000 F5000
G1 X527.3899 Y1195.8986 Z-20.0000 F5000
G1 X563.0473 Y1195.8986 Z-20.0000 F5000
G1 X563.0473 Y1193.8966 Z-20.0000 F5000
G1 X558.0473 Y1193.8966 Z-20.0000 F5000
G1 X558.0473 Y1085.8987 Z-20.0000 F5000
G1 X563.0473 Y1085.8987 Z-20.0000 F5000
G1 X563.0473 Y1083.8968 Z-20.0000 F5000
G1 X540.0474 Y1083.8968 Z-20.0000 F5000
G1 X540.0474 Y965.8990 Z-20.0000 F5000
G1 X545.0474 Y965.8990 Z-20.0000 F5000
G1 X545.0474 Y963.8970 Z-20.0000 F5000
G1 X527.3899 Y963.8970 Z-20.0000 F5000
G1 X522.0475 Y958.5545 Z-20.0000 F5000
G1 X522.0475 Y934.8990 Z-20.0000 F5000
G1 X569.0453 Y934.8990 Z-20.0000 F5000
G1 X569.0453 Y939.8990 Z-20.0000 F5000
G1 X571.0473 Y939.8990 Z-20.0000 F5000
G1 X571.0473 Y919.8970 Z-20.0000 F5000
G1 X569.0453 Y919.8970 Z-20.0000 F5000
G1 X569.0453 Y924.8970 Z-20.0000 F5000
G1 X522.0475 Y924.8970 Z-20.0000 F5000
G1 X522.0475 Y901.2416 Z-20.0000 F5000
G1 X527.3900 Y895.8992 Z-20.0000 F5000
G1 X545.0474 Y895.8992 Z-20.0000 F5000
G1 X545.0474 Y893.8972 Z-20.0000 F5000
G1 X540.0474 Y893.8972 Z-20.0000 F5000
G1 X540.0474 Y779.8984 Z-20.0000 F5000
G1 X540.0474 Y779.8984 Z10.0000 F9999
G1 X884.1450 Y779.8984 Z10.0000 F9999
G1 X884.1450 Y779.8984 Z1.0000 F2500
G1 X884.1450 Y740.9273 Z-9.5000 F2500
G1 X884.1450 Y779.8984 Z-20.0000 F2500
G1 X884.1450 Y665.8997 Z-20.0000 F5000
G1 X889.1450 Y665.8997 Z-20.0000 F5000
G1 X889.1450 Y663.8975 Z-20.0000 F5000
G1 X871.4876 Y663.8975 Z-20.0000 F5000
G1 X866.1451 Y658.5551 Z-20.0000 F5000
G1 X866.1451 Y601.2424 Z-20.0000 F5000
G1 X871.4876 Y595.8998 Z-20.0000 F5000
G1 X889.1450 Y595.8998 Z-20.0000 F5000
G1 X889.1450 Y593.8978 Z-20.0000 F5000
G1 X884.1450 Y593.8978 Z-20.0000 F5000
G1 X884.1450 Y365.9003 Z-20.0000 F5000
G1 X889.1450 Y365.9003 Z-20.0000 F5000
G1 X889.1450 Y363.8983 Z-20.0000 F5000
G1 X871.4876 Y363.8983 Z-20.0000 F5000
G1 X866.1451 Y358.5557 Z-20.0000 F5000
G1 X866.1451 Y334.9003 Z-20.0000 F5000
G1 X913.1430 Y334.9003 Z-20.0000 F5000
G1 X913.1430 Y339.9003 Z-20.0000 F5000
G1 X915.1450 Y339.9003 Z-20.0000 F5000
G1 X915.1450 Y319.8983 Z-20.0000 F5000
G1 X913.1430 Y319.8983 Z-20.0000 F5000
G1 X913.1430 Y324.8983 Z-20.0000 F5000
G1 X866.1451 Y324.8983 Z-20.0000 F5000
G1 X866.1451 Y301.2430 Z-20.0000 F5000
G1 X871.4875 Y295.9003 Z-20.0000 F5000
G1 X889.1450 Y295.9003 Z-20.0000 F5000
G1 X889.1450 Y293.8984 Z-20.0000 F5000
G1 X884.1450 Y293.8984 Z-20.0000 F5000
G1 X884.1450 Y225.5741 Z-20.0000 F5000
G1 X884.1450 Y225.5741 Z-10.0000 F9999
G1 X884.1450 Y209.5761 Z-10.0000 F5000
G1 X884.1450 Y209.5761 Z-20.0000 F2500
G1 X884.1450 Y175.9006 Z-20.0000 F5000
G1 X907.1450 Y175.9006 Z-20.0000 F5000
G1 X907.1450 Y173.8988 Z-20.0000 F5000
G1 X902.1450 Y173.8988 Z-20.0000 F5000
G1 X902.1450 Y65.9008 Z-20.0000 F5000
G1 X907.1450 Y65.9008 Z-20.0000 F5000
G1 X907.1450 Y63.8989 Z-20.0000 F5000
G1 X871.4875 Y63.8989 Z-20.0000 F5000
G1 X866.1451 Y58.5561 Z-20.0000 F5000
G1 X866.1451 Y25.9008 Z-20.0000 F5000
G1 X927.7846 Y25.9008 Z-20.0000 F5000
G1 X928.3321 Y25.8214 Z-20.0000 F5000
G1 X928.5916 Y25.7038 Z-20.0000 F5000
G1 X928.8094 Y25.5100 Z-20.0000 F5000
G1 X928.9563 Y25.2658 Z-20.0000 F5000
G1 X929.0251 Y24.9893 Z-20.0000 F5000
G1 X929.0082 Y24.6983 Z-20.0000 F5000
G1 X928.9079 Y24.4316 Z-20.0000 F5000
G1 X928.5767 Y23.9881 Z-20.0000 F5000
G1 X925.6479 Y21.0591 Z-20.0000 F5000
G1 X924.2619 Y19.2032 Z-20.0000 F5000
G1 X923.3441 Y16.6648 Z-20.0000 F5000
G1 X923.2205 Y13.9677 Z-20.0000 F5000
G1 X923.8624 Y11.4403 Z-20.0000 F5000
G1 X925.1960 Y9.1985 Z-20.0000 F5000
G1 X927.1902 Y7.3797 Z-20.0000 F5000
G1 X929.6338 Y6.2335 Z-20.0000 F5000
G1 X931.9266 Y5.9010 Z-20.0000 F5000
G1 X958.3612 Y5.9010 Z-20.0000 F5000
G1 X960.6541 Y6.2335 Z-20.0000 F5000
G1 X963.0976 Y7.3797 Z-20.0000 F5000
G1 X965.0919 Y9.1985 Z-20.0000 F5000
G1 X966.4254 Y11.4403 Z-20.0000 F5000
G1 X967.0674 Y13.9677 Z-20.0000 F5000
G1 X966.9438 Y16.6648 Z-20.0000 F5000
G1 X966.0259 Y19.2032 Z-20.0000 F5000
G1 X964.6399 Y21.0591 Z-20.0000 F5000
G1 X961.7111 Y23.9881 Z-20.0000 F5000
G1 X961.3799 Y24.4316 Z-20.0000 F5000
G1 X961.2797 Y24.6983 Z-20.0000 F5000
G1 X961.2628 Y24.9893 Z-20.0000 F5000
G1 X961.3315 Y25.2658 Z-20.0000 F5000
G1 X961.4785 Y25.5100 Z-20.0000 F5000
G1 X961.6962 Y25.7038 Z-20.0000 F5000
G1 X961.9557 Y25.8214 Z-20.0000 F5000
G1 X962.5032 Y25.9008 Z-20.0000 F5000
G1 X1024.1427 Y25.9008 Z-20.0000 F5000
G1 X1024.1427 Y58.5561 Z-20.0000 F5000
G1 X1018.8003 Y63.8989 Z-20.0000 F5000
G1 X983.1429 Y63.8989 Z-20.0000 F5000
G1 X983.1429 Y65.9008 Z-20.0000 F5000
G1 X988.1429 Y65.9008 Z-20.0000 F5000
G1 X988.1429 Y173.8988 Z-20.0000 F5000
G1 X983.1429 Y173.8988 Z-20.0000 F5000
G1 X983.1429 Y175.9006 Z-20.0000 F5000
G1 X1006.1428 Y175.9006 Z-20.0000 F5000
G1 X1006.1428 Y207.2149 Z-20.0000 F5000
G1 X1006.1428 Y207.2149 Z-10.0000 F9999
G1 X1006.1428 Y223.2129 Z-10.0000 F5000
G1 X1006.1428 Y223.2129 Z-20.0000 F2500
G1 X1006.1428 Y293.8984 Z-20.0000 F5000
G1 X1001.1428 Y293.8984 Z-20.0000 F5000
G1 X1001.1428 Y295.9003 Z-20.0000 F5000
G1 X1018.8003 Y295.9003 Z-20.0000 F5000
G1 X1024.1427 Y301.2430 Z-20.0000 F5000
G1 X1024.1427 Y324.8983 Z-20.0000 F5000
G1 X977.1449 Y324.8983 Z-20.0000 F5000
G1 X977.1449 Y319.8983 Z-20.0000 F5000
G1 X975.1429 Y319.8983 Z-20.0000 F5000
G1 X975.1429 Y339.9003 Z-20.0000 F5000
G1 X977.1449 Y339.9003 Z-20.0000 F5000
G1 X977.1449 Y334.9003 Z-20.0000 F5000
G1 X1024.1427 Y334.9003 Z-20.0000 F5000
G1 X1024.1427 Y358.5557 Z-20.0000 F5000
G1 X1018.8003 Y363.8983 Z-20.0000 F5000
G1 X1001.1428 Y363.8983 Z-20.0000 F5000
G1 X1001.1428 Y365.9003 Z-20.0000 F5000
G1 X1006.1428 Y365.9003 Z-20.0000 F5000
G1 X1006.1428 Y593.8978 Z-20.0000 F5000
G1 X1001.1428 Y593.8978 Z-20.0000 F5000
G1 X1001.1428 Y595.8998 Z-20.0000 F5000
G1 X1018.8003 Y595.8998 Z-20.0000 F5000
G1 X1024.1427 Y601.2424 Z-20.0000 F5000
G1 X1024.1427 Y658.5551 Z-20.0000 F5000
G1 X1018.8002 Y663.8975 Z-20.0000 F5000
G1 X1001.1428 Y663.8975 Z-20.0000 F5000
G1 X1001.1428 Y665.8997 Z-20.0000 F5000
G1 X1006.1428 Y665.8997 Z-20.0000 F5000
G1 X1006.1428 Y893.8972 Z-20.0000 F5000
G1 X1001.1428 Y893.8972 Z-20.0000 F5000
G1 X1001.1428 Y895.8992 Z-20.0000 F5000
G1 X1018.8002 Y895.8992 Z-20.0000 F5000
G1 X1024.1427 Y901.2416 Z-20.0000 F5000
G1 X1024.1427 Y924.8970 Z-20.0000 F5000
G1 X977.1449 Y924.8970 Z-20.0000 F5000
G1 X977.1449 Y919.8970 Z-20.0000 F5000
G1 X975.1429 Y919.8970 Z-20.0000 F5000
G1 X975.1429 Y939.8990 Z-20.0000 F5000
G1 X977.1449 Y939.8990 Z-20.0000 F5000
G1 X977.1449 Y934.8990 Z-20.0000 F5000
G1 X1024.1427 Y934.8990 Z-20.0000 F5000
G1 X1024.1427 Y958.5545 Z-20.0000 F5000
G1 X1018.8003 Y963.8970 Z-20.0000 F5000
G1 X1001.1428 Y963.8970 Z-20.0000 F5000
G1 X1001.1428 Y965.8990 Z-20.0000 F5000
G1 X1006.1428 Y965.8990 Z-20.0000 F5000
G1 X1006.1428 Y1083.8968 Z-20.0000 F5000
G1 X983.1429 Y1083.8968 Z-20.0000 F5000
G1 X983.1429 Y1085.8987 Z-20.0000 F5000
G1 X988.1429 Y1085.8987 Z-20.0000 F5000
G1 X988.1429 Y1193.8966 Z-20.0000 F5000
G1 X983.1429 Y1193.8966 Z-20.0000 F5000
G1 X983.1429 Y1195.8986 Z-20.0000 F5000
G1 X1018.8003 Y1195.8986 Z-20.0000 F5000
G1 X1024.1427 Y1201.2411 Z-20.0000 F5000
G1 X1024.1427 Y1258.5539 Z-20.0000 F5000
G1 X1018.8003 Y1263.8964 Z-20.0000 F5000
G1 X983.1429 Y1263.8964 Z-20.0000 F5000
G1 X983.1429 Y1265.8984 Z-20.0000 F5000
G1 X988.1429 Y1265.8984 Z-20.0000 F5000
G1 X988.1429 Y1493.8959 Z-20.0000 F5000
G1 X983.1429 Y1493.8959 Z-20.0000 F5000
G1 X983.1429 Y1495.8979 Z-20.0000 F5000
G1 X1018.8003 Y1495.8979 Z-20.0000 F5000
G1 X1024.1427 Y1501.2405 Z-20.0000 F5000
G1 X1024.1427 Y1558.5532 Z-20.0000 F5000
G1 X1018.8003 Y1563.8958 Z-20.0000 F5000
G1 X983.1429 Y1563.8958 Z-20.0000 F5000
G1 X983.1429 Y1565.8978 Z-20.0000 F5000
G1 X988.1429 Y1565.8978 Z-20.0000 F5000
G1 X988.1429 Y1793.8953 Z-20.0000 F5000
G1 X983.1429 Y1793.8953 Z-20.0000 F5000
G1 X983.1429 Y1795.8973 Z-20.0000 F5000
G1 X1018.8003 Y1795.8973 Z-20.0000 F5000
G1 X1024.1427 Y1801.2399 Z-20.0000 F5000
G1 X1024.1427 Y1819.6743 Z-20.0000 F5000
G1 X1024.1427 Y1819.6743 Z-10.0000 F9999
G1 X1024.1427 Y1835.6723 Z-10.0000 F5000
G1 X1024.1427 Y1835.6723 Z-20.0000 F2500
G1 X1024.1427 Y1858.5526 Z-20.0000 F5000
G1 X1018.8003 Y1863.8952 Z-20.0000 F5000
G1 X983.1429 Y1863.8952 Z-20.0000 F5000
G1 X983.1429 Y1865.8972 Z-20.0000 F5000
G1 X988.1429 Y1865.8972 Z-20.0000 F5000
G1 X988.1429 Y1931.8951 Z-20.0000 F5000
G1 X902.1450 Y1931.8951 Z-20.0000 F5000
G1 X902.1450 Y1865.8972 Z-20.0000 F5000
G1 X907.1450 Y1865.8972 Z-20.0000 F5000
G1 X907.1450 Y1863.8952 Z-20.0000 F5000
G1 X871.4876 Y1863.8952 Z-20.0000 F5000
G1 X866.1451 Y1858.5526 Z-20.0000 F5000
G1 X866.1451 Y1838.0167 Z-20.0000 F5000
G1 X866.1451 Y1838.0167 Z-10.0000 F9999
G1 X866.1451 Y1822.0187 Z-10.0000 F5000
G1 X866.1451 Y1822.0187 Z-20.0000 F2500
G1 X866.1451 Y1801.2399 Z-20.0000 F5000
G1 X871.4876 Y1795.8973 Z-20.0000 F5000
G1 X907.1450 Y1795.8973 Z-20.0000 F5000
G1 X907.1450 Y1793.8953 Z-20.0000 F5000
G1 X902.1450 Y1793.8953 Z-20.0000 F5000
G1 X902.1450 Y1565.8978 Z-20.0000 F5000
G1 X907.1450 Y1565.8978 Z-20.0000 F5000
G1 X907.1450 Y1563.8958 Z-20.0000 F5000
G1 X871.4876 Y1563.8958 Z-20.0000 F5000
G1 X866.1451 Y1558.5532 Z-20.0000 F5000
G1 X866.1451 Y1501.2405 Z-20.0000 F5000
G1 X871.4876 Y1495.8979 Z-20.0000 F5000
G1 X907.1450 Y1495.8979 Z-20.0000 F5000
G1 X907.1450 Y1493.8959 Z-20.0000 F5000
G1 X902.1450 Y1493.8959 Z-20.0000 F5000
G1 X902.1450 Y1265.8984 Z-20.0000 F5000
G1 X907.1450 Y1265.8984 Z-20.0000 F5000
G1 X907.1450 Y1263.8964 Z-20.0000 F5000
G1 X871.4876 Y1263.8964 Z-20.0000 F5000
G1 X866.1451 Y1258.5539 Z-20.0000 F5000
G1 X866.1451 Y1201.2411 Z-20.0000 F5000
G1 X871.4876 Y1195.8986 Z-20.0000 F5000
G1 X907.1450 Y1195.8986 Z-20.0000 F5000
G1 X907.1450 Y1193.8966 Z-20.0000 F5000
G1 X902.1450 Y1193.8966 Z-20.0000 F5000
G1 X902.1450 Y1085.8987 Z-20.0000 F5000
G1 X907.1450 Y1085.8987 Z-20.0000 F5000
G1 X907.1450 Y1083.8968 Z-20.0000 F5000
G1 X884.1450 Y1083.8968 Z-20.0000 F5000
G1 X884.1450 Y965.8990 Z-20.0000 F5000
G1 X889.1450 Y965.8990 Z-20.0000 F5000
G1 X889.1450 Y963.8970 Z-20.0000 F5000
G1 X871.4876 Y963.8970 Z-20.0000 F5000
G1 X866.1451 Y958.5545 Z-20.0000 F5000
G1 X866.1451 Y934.8990 Z-20.0000 F5000
G1 X913.1430 Y934.8990 Z-20.0000 F5000
G1 X913.1430 Y939.8990 Z-20.0000 F5000
G1 X915.1450 Y939.8990 Z-20.0000 F5000
G1 X915.1450 Y919.8970 Z-20.0000 F5000
G1 X913.1430 Y919.8970 Z-20.0000 F5000
G1 X913.1430 Y924.8970 Z-20.0000 F5000
G1 X866.1451 Y924.8970 Z-20.0000 F5000
G1 X866.1451 Y901.2416 Z-20.0000 F5000
G1 X871.4876 Y895.8992 Z-20.0000 F5000
G1 X889.1450 Y895.8992 Z-20.0000 F5000
G1 X889.1450 Y893.8972 Z-20.0000 F5000
G1 X884.1450 Y893.8972 Z-20.0000 F5000
G1 X884.1450 Y779.8984 Z-20.0000 F5000
G1 X884.1450 Y779.8984 Z10.0000 F9999
G1 X1056.1939 Y779.8984 Z10.0000 F9999
G1 X1056.1939 Y779.8984 Z1.0000 F2500
G1 X1056.1939 Y740.9273 Z-9.5000 F2500
G1 X1056.1939 Y779.8984 Z-20.0000 F2500
G1 X1056.1939 Y665.8997 Z-20.0000 F5000
G1 X1061.1939 Y665.8997 Z-20.0000 F5000
G1 X1061.1939 Y663.8975 Z-20.0000 F5000
G1 X1043.5364 Y663.8975 Z-20.0000 F5000
G1 X1038.1939 Y658.5551 Z-20.0000 F5000
G1 X1038.1939 Y601.2424 Z-20.0000 F5000
G1 X1043.5364 Y595.8998 Z-20.0000 F5000
G1 X1061.1939 Y595.8998 Z-20.0000 F5000
G1 X1061.1939 Y593.8978 Z-20.0000 F5000
G1 X1056.1939 Y593.8978 Z-20.0000 F5000
G1 X1056.1939 Y365.9003 Z-20.0000 F5000
G1 X1061.1939 Y365.9003 Z-20.0000 F5000
G1 X1061.1939 Y363.8983 Z-20.0000 F5000
G1 X1043.5364 Y363.8983 Z-20.0000 F5000
G1 X1038.1939 Y358.5557 Z-20.0000 F5000
G1 X1038.1939 Y334.9003 Z-20.0000 F5000
G1 X1085.1918 Y334.9003 Z-20.0000 F5000
G1 X1085.1918 Y339.9003 Z-20.0000 F5000
G1 X1087.1938 Y339.9003 Z-20.0000 F5000
G1 X1087.1938 Y319.8983 Z-20.0000 F5000
G1 X1085.1918 Y319.8983 Z-20.0000 F5000
G1 X1085.1918 Y324.8983 Z-20.0000 F5000
G1 X1038.1939 Y324.8983 Z-20.0000 F5000
G1 X1038.1939 Y301.2430 Z-20.0000 F5000
G1 X1043.5363 Y295.9003 Z-20.0000 F5000
G1 X1061.1939 Y295.9003 Z-20.0000 F5000
G1 X1061.1939 Y293.8984 Z-20.0000 F5000
G1 X1056.1939 Y293.8984 Z-20.0000 F5000
G1 X1056.1939 Y175.9006 Z-20.0000 F5000
G1 X1079.1938 Y175.9006 Z-20.0000 F5000
G1 X1079.1938 Y173.8988 Z-20.0000 F5000
G1 X1074.1938 Y173.8988 Z-20.0000 F5000
G1 X1074.1938 Y65.9008 Z-20.0000 F5000
G1 X1079.1938 Y65.9008 Z-20.0000 F5000
G1 X1079.1938 Y63.8989 Z-20.0000 F5000
G1 X1043.5363 Y63.8989 Z-20.0000 F5000
G1 X1038.1939 Y58.5561 Z-20.0000 F5000
G1 X1038.1939 Y25.9008 Z-20.0000 F5000
G1 X1099.8334 Y25.9008 Z-20.0000 F5000
G1 X1100.3809 Y25.8214 Z-20.0000 F5000
G1 X1100.6404 Y25.7038 Z-20.0000 F5000
G1 X1100.8582 Y25.5100 Z-20.0000 F5000
G1 X1101.0051 Y25.2658 Z-20.0000 F5000
G1 X1101.0739 Y24.9893 Z-20.0000 F5000
G1 X1101.0570 Y24.6983 Z-20.0000 F5000
G1 X1100.9567 Y24.4316 Z-20.0000 F5000
G1 X1100.6255 Y23.9881 Z-20.0000 F5000
G1 X1097.6967 Y21.0591 Z-20.0000 F5000
G1 X1096.3107 Y19.2032 Z-20.0000 F5000
G1 X1095.3929 Y16.6648 Z-20.0000 F5000
G1 X1095.2693 Y13.9677 Z-20.0000 F5000
G1 X1095.9112 Y11.4403 Z-20.0000 F5000
G1 X1097.2448 Y9.1985 Z-20.0000 F5000
G1 X1099.2391 Y7.3797 Z-20.0000 F5000
G1 X1101.6826 Y6.2335 Z-20.0000 F5000
G1 X1103.9754 Y5.9010 Z-20.0000 F5000
G1 X1130.4101 Y5.9010 Z-20.0000 F5000
G1 X1132.7029 Y6.2335 Z-20.0000 F5000
G1 X1135.1464 Y7.3797 Z-20.0000 F5000
G1 X1137.1407 Y9.1985 Z-20.0000 F5000
G1 X1138.4742 Y11.4403 Z-20.0000 F5000
G1 X1139.1162 Y13.9677 Z-20.0000 F5000
G1 X1138.9926 Y16.6648 Z-20.0000 F5000
G1 X1138.0748 Y19.2032 Z-20.0000 F5000
G1 X1136.6888 Y21.0591 Z-20.0000 F5000
G1 X1133.7599 Y23.9881 Z-20.0000 F5000
G1 X1133.4288 Y24.4316 Z-20.0000 F5000
G1 X1133.3285 Y24.6983 Z-20.0000 F5000
G1 X1133.3116 Y24.9893 Z-20.0000 F5000
G1 X1133.3803 Y25.2658 Z-20.0000 F5000
G1 X1133.5273 Y25.5100 Z-20.0000 F5000
G1 X1133.7450 Y25.7038 Z-20.0000 F5000
G1 X1134.0045 Y25.8214 Z-20.0000 F5000
G1 X1134.5520 Y25.9008 Z-20.0000 F5000
G1 X1196.1915 Y25.9008 Z-20.0000 F5000
G1 X1196.1915 Y58.5561 Z-20.0000 F5000
G1 X1190.8491 Y63.8989 Z-20.0000 F5000
G1 X1155.1917 Y63.8989 Z-20.0000 F5000
G1 X1155.1917 Y65.9008 Z-20.0000 F5000
G1 X1160.1917 Y65.9008 Z-20.0000 F5000
G1 X1160.1917 Y173.8988 Z-20.0000 F5000
G1 X1155.1917 Y173.8988 Z-20.0000 F5000
G1 X1155.1917 Y175.9006 Z-20.0000 F5000
G1 X1178.1916 Y175.9006 Z-20.0000 F5000
G1 X1178.1916 Y293.8984 Z-20.0000 F5000
G1 X1173.1916 Y293.8984 Z-20.0000 F5000
G1 X1173.1916 Y295.9003 Z-20.0000 F5000
G1 X1190.8491 Y295.9003 Z-20.0000 F5000
G1 X1196.1915 Y301.2430 Z-20.0000 F5000
G1 X1196.1915 Y324.8983 Z-20.0000 F5000
G1 X1149.1937 Y324.8983 Z-20.0000 F5000
G1 X1149.1937 Y319.8983 Z-20.0000 F5000
G1 X1147.1917 Y319.8983 Z-20.0000 F5000
G1 X1147.1917 Y339.9003 Z-20.0000 F5000
G1 X1149.1937 Y339.9003 Z-20.0000 F5000
G1 X1149.1937 Y334.9003 Z-20.0000 F5000
G1 X1196.1915 Y334.9003 Z-20.0000 F5000
G1 X1196.1915 Y358.5557 Z-20.0000 F5000
G1 X1190.8491 Y363.8983 Z-20.0000 F5000
G1 X1173.1916 Y363.8983 Z-20.0000 F5000
G1 X1173.1916 Y365.9003 Z-20.0000 F5000
G1 X1178.1916 Y365.9003 Z-20.0000 F5000
G1 X1178.1916 Y593.8978 Z-20.0000 F5000
G1 X1173.1916 Y593.8978 Z-20.0000 F5000
G1 X1173.1916 Y595.8998 Z-20.0000 F5000
G1 X1190.8491 Y595.8998 Z-20.0000 F5000
G1 X1196.1915 Y601.2424 Z-20.0000 F5000
G1 X1196.1915 Y658.5551 Z-20.0000 F5000
G1 X1190.8490 Y663.8975 Z-20.0000 F5000
G1 X1173.1916 Y663.8975 Z-20.0000 F5000
G1 X1173.1916 Y665.8997 Z-20.0000 F5000
G1 X1178.1916 Y665.8997 Z-20.0000 F5000
G1 X1178.1916 Y893.8972 Z-20.0000 F5000
G1 X1173.1916 Y893.8972 Z-20.0000 F5000
G1 X1173.1916 Y895.8992 Z-20.0000 F5000
G1 X1190.8490 Y895.8992 Z-20.0000 F5000
G1 X1196.1915 Y901.2416 Z-20.0000 F5000
G1 X1196.1915 Y924.8970 Z-20.0000 F5000
G1 X1149.1937 Y924.8970 Z-20.0000 F5000
G1 X1149.1937 Y919.8970 Z-20.0000 F5000
G1 X1147.1917 Y919.8970 Z-20.0000 F5000
G1 X1147.1917 Y939.8990 Z-20.0000 F5000
G1 X1149.1937 Y939.8990 Z-20.0000 F5000
G1 X1149.1937 Y934.8990 Z-20.0000 F5000
G1 X1196.1915 Y934.8990 Z-20.0000 F5000
G1 X1196.1915 Y958.5545 Z-20.0000 F5000
G1 X1190.8491 Y963.8970 Z-20.0000 F5000
G1 X1173.1916 Y963.8970 Z-20.0000 F5000
G1 X1173.1916 Y965.8990 Z-20.0000 F5000
G1 X1178.1916 Y965.8990 Z-20.0000 F5000
G1 X1178.1916 Y1083.8968 Z-20.0000 F5000
G1 X1155.1917 Y1083.8968 Z-20.0000 F5000
G1 X1155.1917 Y1085.8987 Z-20.0000 F5000
G1 X1160.1917 Y1085.8987 Z-20.0000 F5000
G1 X1160.1917 Y1193.8966 Z-20.0000 F5000
G1 X1155.1917 Y1193.8966 Z-20.0000 F5000
G1 X1155.1917 Y1195.8986 Z-20.0000 F5000
G1 X1190.8491 Y1195.8986 Z-20.0000 F5000
G1 X1196.1915 Y1201.2411 Z-20.0000 F5000
G1 X1196.1915 Y1258.5539 Z-20.0000 F5000
G1 X1190.8491 Y1263.8964 Z-20.0000 F5000
G1 X1155.1917 Y1263.8964 Z-20.0000 F5000
G1 X1155.1917 Y1265.8984 Z-20.0000 F5000
G1 X1160.1917 Y1265.8984 Z-20.0000 F5000
G1 X1160.1917 Y1493.8959 Z-20.0000 F5000
G1 X1155.1917 Y1493.8959 Z-20.0000 F5000
G1 X1155.1917 Y1495.8979 Z-20.0000 F5000
G1 X1190.8491 Y1495.8979 Z-20.0000 F5000
G1 X1196.1915 Y1501.2405 Z-20.0000 F5000
G1 X1196.1915 Y1558.5532 Z-20.0000 F5000
G1 X1190.8491 Y1563.8958 Z-20.0000 F5000
G1 X1155.1917 Y1563.8958 Z-20.0000 F5000
G1 X1155.1917 Y1565.8978 Z-20.0000 F5000
G1 X1160.1917 Y1565.8978 Z-20.0000 F5000
G1 X1160.1917 Y1793.8953 Z-20.0000 F5000
G1 X1155.1917 Y1793.8953 Z-20.0000 F5000
G1 X1155.1917 Y1795.8973 Z-20.0000 F5000
G1 X1190.8491 Y1795.8973 Z-20.0000 F5000
G1 X1196.1915 Y1801.2399 Z-20.0000 F5000
G1 X1196.1915 Y1858.5526 Z-20.0000 F5000
G1 X1190.8491 Y1863.8952 Z-20.0000 F5000
G1 X1155.1917 Y1863.8952 Z-20.0000 F5000
G1 X1155.1917 Y1865.8972 Z-20.0000 F5000
G1 X1160.1917 Y1865.8972 Z-20.0000 F5000
G1 X1160.1917 Y1931.8951 Z-20.0000 F5000
G1 X1074.1938 Y1931.8951 Z-20.0000 F5000
G1 X1074.1938 Y1865.8972 Z-20.0000 F5000
G1 X1079.1938 Y1865.8972 Z-20.0000 F5000
G1 X1079.1938 Y1863.8952 Z-20.0000 F5000
G1 X1043.5364 Y1863.8952 Z-20.0000 F5000
G1 X1038.1939 Y1858.5526 Z-20.0000 F5000
G1 X1038.1939 Y1801.2399 Z-20.0000 F5000
G1 X1043.5364 Y1795.8973 Z-20.0000 F5000
G1 X1079.1938 Y1795.8973 Z-20.0000 F5000
G1 X1079.1938 Y1793.8953 Z-20.0000 F5000
G1 X1074.1938 Y1793.8953 Z-20.0000 F5000
G1 X1074.1938 Y1565.8978 Z-20.0000 F5000
G1 X1079.1938 Y1565.8978 Z-20.0000 F5000
G1 X1079.1938 Y1563.8958 Z-20.0000 F5000
G1 X1043.5364 Y1563.8958 Z-20.0000 F5000
G1 X1038.1939 Y1558.5532 Z-20.0000 F5000
G1 X1038.1939 Y1501.2405 Z-20.0000 F5000
G1 X1043.5364 Y1495.8979 Z-20.0000 F5000
G1 X1079.1938 Y1495.8979 Z-20.0000 F5000
G1 X1079.1938 Y1493.8959 Z-20.0000 F5000
G1 X1074.1938 Y1493.8959 Z-20.0000 F5000
G1 X1074.1938 Y1265.8984 Z-20.0000 F5000
G1 X1079.1938 Y1265.8984 Z-20.0000 F5000
G1 X1079.1938 Y1263.8964 Z-20.0000 F5000
G1 X1043.5364 Y1263.8964 Z-20.0000 F5000
G1 X1038.1939 Y1258.5539 Z-20.0000 F5000
G1 X1038.1939 Y1201.2411 Z-20.0000 F5000
G1 X1043.5364 Y1195.8986 Z-20.0000 F5000
G1 X1079.1938 Y1195.8986 Z-20.0000 F5000
G1 X1079.1938 Y1193.8966 Z-20.0000 F5000
G1 X1074.1938 Y1193.8966 Z-20.0000 F5000
G1 X1074.1938 Y1085.8987 Z-20.0000 F5000
G1 X1079.1938 Y1085.8987 Z-20.0000 F5000
G1 X1079.1938 Y1083.8968 Z-20.0000 F5000
G1 X1056.1939 Y1083.8968 Z-20.0000 F5000
G1 X1056.1939 Y965.8990 Z-20.0000 F5000
G1 X1061.1939 Y965.8990 Z-20.0000 F5000
G1 X1061.1939 Y963.8970 Z-20.0000 F5000
G1 X1043.5364 Y963.8970 Z-20.0000 F5000
G1 X1038.1939 Y958.5545 Z-20.0000 F5000
G1 X1038.1939 Y934.8990 Z-20.0000 F5000
G1 X1085.1918 Y934.8990 Z-20.0000 F5000
G1 X1085.1918 Y939.8990 Z-20.0000 F5000
G1 X1087.1938 Y939.8990 Z-20.0000 F5000
G1 X1087.1938 Y919.8970 Z-20.0000 F5000
G1 X1085.1918 Y919.8970 Z-20.0000 F5000
G1 X1085.1918 Y924.8970 Z-20.0000 F5000
G1 X1038.1939 Y924.8970 Z-20.0000 F5000
G1 X1038.1939 Y901.2416 Z-20.0000 F5000
G1 X1043.5364 Y895.8992 Z-20.0000 F5000
G1 X1061.1939 Y895.8992 Z-20.0000 F5000
G1 X1061.1939 Y893.8972 Z-20.0000 F5000
G1 X1056.1939 Y893.8972 Z-20.0000 F5000
G1 X1056.1939 Y779.8984 Z-20.0000 F5000
G1 X1056.1939 Y779.8984 Z10.0000 F9999
G1 X23.9009 Y1079.8978 Z10.0000 F9999
G1 X23.9009 Y1079.8978 Z1.0000 F2500
G1 X23.9009 Y1040.9266 Z-9.5000 F2500
G1 X23.9009 Y1079.8978 Z-20.0000 F2500
G1 X23.9009 Y965.8990 Z-20.0000 F5000
G1 X28.9009 Y965.8990 Z-20.0000 F5000
G1 X28.9009 Y963.8970 Z-20.0000 F5000
G1 X11.2435 Y963.8970 Z-20.0000 F5000
G1 X5.9010 Y958.5545 Z-20.0000 F5000
G1 X5.9010 Y934.8990 Z-20.0000 F5000
G1 X52.8989 Y934.8990 Z-20.0000 F5000
G1 X52.8989 Y939.8991 Z-20.0000 F5000
G1 X54.9009 Y939.8991 Z-20.0000 F5000
G1 X54.9009 Y919.8971 Z-20.0000 F5000
G1 X52.8989 Y919.8971 Z-20.0000 F5000
G1 X52.8989 Y924.8972 Z-20.0000 F5000
G1 X5.9010 Y924.8972 Z-20.0000 F5000
G1 X5.9010 Y901.2418 Z-20.0000 F5000
G1 X11.2435 Y895.8992 Z-20.0000 F5000
G1 X28.9009 Y895.8992 Z-20.0000 F5000
G1 X28.9009 Y893.8972 Z-20.0000 F5000
G1 X23.9009 Y893.8972 Z-20.0000 F5000
G1 X23.9009 Y665.8997 Z-20.0000 F5000
G1 X28.9009 Y665.8997 Z-20.0000 F5000
G1 X28.9009 Y663.8977 Z-20.0000 F5000
G1 X11.2435 Y663.8977 Z-20.0000 F5000
G1 X5.9010 Y658.5551 Z-20.0000 F5000
G1 X5.9010 Y601.2423 Z-20.0000 F5000
G1 X11.2435 Y595.8998 Z-20.0000 F5000
G1 X28.9009 Y595.8998 Z-20.0000 F5000
G1 X28.9009 Y593.8978 Z-20.0000 F5000
G1 X23.9009 Y593.8978 Z-20.0000 F5000
G1 X23.9009 Y365.9003 Z-20.0000 F5000
G1 X28.9009 Y365.9003 Z-20.0000 F5000
G1 X28.9009 Y363.8983 Z-20.0000 F5000
G1 X11.2435 Y363.8983 Z-20.0000 F5000
G1 X5.9010 Y358.5557 Z-20.0000 F5000
G1 X5.9010 Y301.2430 Z-20.0000 F5000
G1 X11.2435 Y295.9004 Z-20.0000 F5000
G1 X28.9009 Y295.9004 Z-20.0000 F5000
G1 X28.9009 Y293.8984 Z-20.0000 F5000
G1 X23.9009 Y293.8984 Z-20.0000 F5000
G1 X23.9009 Y65.9009 Z-20.0000 F5000
G1 X28.9009 Y65.9009 Z-20.0000 F5000
G1 X28.9009 Y63.8989 Z-20.0000 F5000
G1 X11.2435 Y63.8989 Z-20.0000 F5000
G1 X5.9010 Y58.5563 Z-20.0000 F5000
G1 X5.9010 Y25.9010 Z-20.0000 F5000
G1 X67.5403 Y25.9010 Z-20.0000 F5000
G1 X68.0880 Y25.8215 Z-20.0000 F5000
G1 X68.3475 Y25.7039 Z-20.0000 F5000
G1 X68.5652 Y25.5100 Z-20.0000 F5000
G1 X68.7122 Y25.2659 Z-20.0000 F5000
G1 X68.7809 Y24.9894 Z-20.0000 F5000
G1 X68.7640 Y24.6984 Z-20.0000 F5000
G1 X68.6637 Y24.4316 Z-20.0000 F5000
G1 X68.3326 Y23.9882 Z-20.0000 F5000
G1 X65.4037 Y21.0593 Z-20.0000 F5000
G1 X64.0177 Y19.2031 Z-20.0000 F5000
G1 X63.1000 Y16.6645 Z-20.0000 F5000
G1 X62.9764 Y13.9681 Z-20.0000 F5000
G1 X63.6183 Y11.4402 Z-20.0000 F5000
G1 X64.9518 Y9.1988 Z-20.0000 F5000
G1 X66.9460 Y7.3796 Z-20.0000 F5000
G1 X69.3898 Y6.2334 Z-20.0000 F5000
G1 X71.6825 Y5.9010 Z-20.0000 F5000
G1 X98.1171 Y5.9010 Z-20.0000 F5000
G1 X100.4098 Y6.2334 Z-20.0000 F5000
G1 X102.8537 Y7.3796 Z-20.0000 F5000
G1 X104.8478 Y9.1988 Z-20.0000 F5000
G1 X106.1813 Y11.4402 Z-20.0000 F5000
G1 X106.8233 Y13.9681 Z-20.0000 F5000
G1 X106.6997 Y16.6645 Z-20.0000 F5000
G1 X105.7820 Y19.2031 Z-20.0000 F5000
G1 X104.3959 Y21.0593 Z-20.0000 F5000
G1 X101.4670 Y23.9882 Z-20.0000 F5000
G1 X101.1359 Y24.4316 Z-20.0000 F5000
G1 X101.0356 Y24.6984 Z-20.0000 F5000
G1 X101.0187 Y24.9894 Z-20.0000 F5000
G1 X101.0874 Y25.2659 Z-20.0000 F5000
G1 X101.2344 Y25.5100 Z-20.0000 F5000
G1 X101.4521 Y25.7039 Z-20.0000 F5000
G1 X101.7116 Y25.8215 Z-20.0000 F5000
G1 X102.2593 Y25.9010 Z-20.0000 F5000
G1 X163.8986 Y25.9010 Z-20.0000 F5000
G1 X163.8986 Y58.5563 Z-20.0000 F5000
G1 X158.5562 Y63.8989 Z-20.0000 F5000
G1 X140.8987 Y63.8989 Z-20.0000 F5000
G1 X140.8987 Y65.9009 Z-20.0000 F5000
G1 X145.8987 Y65.9009 Z-20.0000 F5000
G1 X145.8987 Y293.8984 Z-20.0000 F5000
G1 X140.8987 Y293.8984 Z-20.0000 F5000
G1 X140.8987 Y295.9004 Z-20.0000 F5000
G1 X158.5562 Y295.9004 Z-20.0000 F5000
G1 X163.8986 Y301.2430 Z-20.0000 F5000
G1 X163.8986 Y358.5557 Z-20.0000 F5000
G1 X158.5562 Y363.8983 Z-20.0000 F5000
G1 X140.8987 Y363.8983 Z-20.0000 F5000
G1 X140.8987 Y365.9003 Z-20.0000 F5000
G1 X145.8987 Y365.9003 Z-20.0000 F5000
G1 X145.8987 Y593.8978 Z-20.0000 F5000
G1 X140.8987 Y593.8978 Z-20.0000 F5000
G1 X140.8987 Y595.8998 Z-20.0000 F5000
G1 X158.5561 Y595.8998 Z-20.0000 F5000
G1 X163.8986 Y601.2423 Z-20.0000 F5000
G1 X163.8986 Y658.5551 Z-20.0000 F5000
G1 X158.5562 Y663.8977 Z-20.0000 F5000
G1 X140.8987 Y663.8977 Z-20.0000 F5000
G1 X140.8987 Y665.8997 Z-20.0000 F5000
G1 X145.8987 Y665.8997 Z-20.0000 F5000
G1 X145.8987 Y893.8972 Z-20.0000 F5000
G1 X140.8987 Y893.8972 Z-20.0000 F5000
G1 X140.8987 Y895.8992 Z-20.0000 F5000
G1 X158.5562 Y895.8992 Z-20.0000 F5000
G1 X163.8986 Y901.2418 Z-20.0000 F5000
G1 X163.8986 Y924.8972 Z-20.0000 F5000
G1 X116.9008 Y924.8972 Z-20.0000 F5000
G1 X116.9008 Y919.8971 Z-20.0000 F5000
G1 X114.8988 Y919.8971 Z-20.0000 F5000
G1 X114.8988 Y939.8991 Z-20.0000 F5000
G1 X116.9008 Y939.8991 Z-20.0000 F5000
G1 X116.9008 Y934.8990 Z-20.0000 F5000
G1 X163.8986 Y934.8990 Z-20.0000 F5000
G1 X163.8986 Y958.5545 Z-20.0000 F5000
G1 X158.5562 Y963.8970 Z-20.0000 F5000
G1 X140.8987 Y963.8970 Z-20.0000 F5000
G1 X140.8987 Y965.8990 Z-20.0000 F5000
G1 X145.8987 Y965.8990 Z-20.0000 F5000
G1 X145.8987 Y1193.8966 Z-20.0000 F5000
G1 X140.8987 Y1193.8966 Z-20.0000 F5000
G1 X140.8987 Y1195.8986 Z-20.0000 F5000
G1 X158.5562 Y1195.8986 Z-20.0000 F5000
G1 X163.8986 Y1201.2411 Z-20.0000 F5000
G1 X163.8986 Y1258.5539 Z-20.0000 F5000
G1 X158.5562 Y1263.8964 Z-20.0000 F5000
G1 X140.8987 Y1263.8964 Z-20.0000 F5000
G1 X140.8987 Y1265.8984 Z-20.0000 F5000
G1 X145.8987 Y1265.8984 Z-20.0000 F5000
G1 X145.8987 Y1383.8963 Z-20.0000 F5000
G1 X122.9011 Y1383.8963 Z-20.0000 F5000
G1 X122.9011 Y1385.8983 Z-20.0000 F5000
G1 X127.9012 Y1385.8983 Z-20.0000 F5000
G1 X127.8987 Y1493.8959 Z-20.0000 F5000
G1 X122.8988 Y1493.8959 Z-20.0000 F5000
G1 X122.8988 Y1495.8979 Z-20.0000 F5000
G1 X158.5562 Y1495.8979 Z-20.0000 F5000
G1 X163.8986 Y1501.2405 Z-20.0000 F5000
G1 X163.8986 Y1558.5532 Z-20.0000 F5000
G1 X158.5562 Y1563.8958 Z-20.0000 F5000
G1 X122.8988 Y1563.8958 Z-20.0000 F5000
G1 X122.8988 Y1565.8978 Z-20.0000 F5000
G1 X127.8988 Y1565.8978 Z-20.0000 F5000
G1 X127.8988 Y1793.8953 Z-20.0000 F5000
G1 X122.8988 Y1793.8953 Z-20.0000 F5000
G1 X122.8988 Y1795.8973 Z-20.0000 F5000
G1 X158.5562 Y1795.8973 Z-20.0000 F5000
G1 X163.8986 Y1801.2399 Z-20.0000 F5000
G1 X163.8986 Y1858.5528 Z-20.0000 F5000
G1 X158.5562 Y1863.8953 Z-20.0000 F5000
G1 X122.8988 Y1863.8953 Z-20.0000 F5000
G1 X122.8988 Y1865.8972 Z-20.0000 F5000
G1 X127.8988 Y1865.8972 Z-20.0000 F5000
G1 X127.8988 Y1995.3950 Z-20.0000 F5000
G1 X41.9009 Y1995.3950 Z-20.0000 F5000
G1 X41.9009 Y1865.8972 Z-20.0000 F5000
G1 X46.9009 Y1865.8972 Z-20.0000 F5000
G1 X46.9009 Y1863.8953 Z-20.0000 F5000
G1 X11.2435 Y1863.8953 Z-20.0000 F5000
G1 X5.9010 Y1858.5528 Z-20.0000 F5000
G1 X5.9010 Y1801.2399 Z-20.0000 F5000
G1 X11.2435 Y1795.8973 Z-20.0000 F5000
G1 X46.9009 Y1795.8973 Z-20.0000 F5000
G1 X46.9009 Y1793.8953 Z-20.0000 F5000
G1 X41.9009 Y1793.8953 Z-20.0000 F5000
G1 X41.9009 Y1565.8978 Z-20.0000 F5000
G1 X46.9009 Y1565.8978 Z-20.0000 F5000
G1 X46.9009 Y1563.8958 Z-20.0000 F5000
G1 X11.2435 Y1563.8958 Z-20.0000 F5000
G1 X5.9010 Y1558.5532 Z-20.0000 F5000
G1 X5.9010 Y1501.2405 Z-20.0000 F5000
G1 X11.2435 Y1495.8979 Z-20.0000 F5000
G1 X46.9009 Y1495.8979 Z-20.0000 F5000
G1 X46.9009 Y1493.8959 Z-20.0000 F5000
G1 X41.9009 Y1493.8959 Z-20.0000 F5000
G1 X41.9009 Y1385.8983 Z-20.0000 F5000
G1 X46.9009 Y1385.8983 Z-20.0000 F5000
G1 X46.9009 Y1383.8963 Z-20.0000 F5000
G1 X23.9009 Y1383.8963 Z-20.0000 F5000
G1 X23.9009 Y1265.8984 Z-20.0000 F5000
G1 X28.9009 Y1265.8984 Z-20.0000 F5000
G1 X28.9009 Y1263.8964 Z-20.0000 F5000
G1 X11.2435 Y1263.8964 Z-20.0000 F5000
G1 X5.9010 Y1258.5539 Z-20.0000 F5000
G1 X5.9010 Y1201.2411 Z-20.0000 F5000
G1 X11.2435 Y1195.8986 Z-20.0000 F5000
G1 X28.9009 Y1195.8986 Z-20.0000 F5000
G1 X28.9009 Y1193.8966 Z-20.0000 F5000
G1 X23.9009 Y1193.8966 Z-20.0000 F5000
G1 X23.9009 Y1079.8978 Z-20.0000 F5000
G1 X23.9009 Y1079.8978 Z10.0000 F9999
G1 X367.9986 Y1079.8978 Z10.0000 F9999
G1 X367.9986 Y1079.8978 Z1.0000 F2500
G1 X367.9986 Y1040.9266 Z-9.5000 F2500
G1 X367.9986 Y1079.8978 Z-20.0000 F2500
G1 X367.9986 Y965.8990 Z-20.0000 F5000
G1 X372.9986 Y965.8990 Z-20.0000 F5000
G1 X372.9986 Y963.8970 Z-20.0000 F5000
G1 X355.3411 Y963.8970 Z-20.0000 F5000
G1 X349.9986 Y958.5545 Z-20.0000 F5000
G1 X349.9986 Y934.8990 Z-20.0000 F5000
G1 X396.9965 Y934.8990 Z-20.0000 F5000
G1 X396.9965 Y939.8991 Z-20.0000 F5000
G1 X398.9985 Y939.8991 Z-20.0000 F5000
G1 X398.9985 Y919.8971 Z-20.0000 F5000
G1 X396.9965 Y919.8971 Z-20.0000 F5000
G1 X396.9965 Y924.8972 Z-20.0000 F5000
G1 X349.9986 Y924.8972 Z-20.0000 F5000
G1 X349.9986 Y901.2418 Z-20.0000 F5000
G1 X355.3411 Y895.8992 Z-20.0000 F5000
G1 X372.9986 Y895.8992 Z-20.0000 F5000
G1 X372.9986 Y893.8972 Z-20.0000 F5000
G1 X367.9986 Y893.8972 Z-20.0000 F5000
G1 X367.9986 Y665.8997 Z-20.0000 F5000
G1 X372.9986 Y665.8997 Z-20.0000 F5000
G1 X372.9986 Y663.8977 Z-20.0000 F5000
G1 X355.3411 Y663.8977 Z-20.0000 F5000
G1 X349.9986 Y658.5551 Z-20.0000 F5000
G1 X349.9986 Y601.2423 Z-20.0000 F5000
G1 X355.3411 Y595.8998 Z-20.0000 F5000
G1 X372.9986 Y595.8998 Z-20.0000 F5000
G1 X372.9986 Y593.8978 Z-20.0000 F5000
G1 X367.9986 Y593.8978 Z-20.0000 F5000
G1 X367.9986 Y365.9003 Z-20.0000 F5000
G1 X372.9986 Y365.9003 Z-20.0000 F5000
G1 X372.9986 Y363.8983 Z-20.0000 F5000
G1 X355.3411 Y363.8983 Z-20.0000 F5000
G1 X349.9986 Y358.5557 Z-20.0000 F5000
G1 X349.9986 Y301.2430 Z-20.0000 F5000
G1 X355.3411 Y295.9004 Z-20.0000 F5000
G1 X372.9986 Y295.9004 Z-20.0000 F5000
G1 X372.9986 Y293.8984 Z-20.0000 F5000
G1 X367.9986 Y293.8984 Z-20.0000 F5000
G1 X367.9986 Y65.9009 Z-20.0000 F5000
G1 X372.9986 Y65.9009 Z-20.0000 F5000
G1 X372.9986 Y63.8989 Z-20.0000 F5000
G1 X355.3411 Y63.8989 Z-20.0000 F5000
G1 X349.9986 Y58.5563 Z-20.0000 F5000
G1 X349.9986 Y25.9010 Z-20.0000 F5000
G1 X411.6379 Y25.9010 Z-20.0000 F5000
G1 X412.1856 Y25.8215 Z-20.0000 F5000
G1 X412.4452 Y25.7039 Z-20.0000 F5000
G1 X412.6629 Y25.5100 Z-20.0000 F5000
G1 X412.8098 Y25.2659 Z-20.0000 F5000
G1 X412.8786 Y24.9894 Z-20.0000 F5000
G1 X412.8617 Y24.6984 Z-20.0000 F5000
G1 X412.7614 Y24.4316 Z-20.0000 F5000
G1 X412.4303 Y23.9882 Z-20.0000 F5000
G1 X409.5014 Y21.0593 Z-20.0000 F5000
G1 X408.1153 Y19.2031 Z-20.0000 F5000
G1 X407.1976 Y16.6645 Z-20.0000 F5000
G1 X407.0740 Y13.9681 Z-20.0000 F5000
G1 X407.7159 Y11.4402 Z-20.0000 F5000
G1 X409.0494 Y9.1988 Z-20.0000 F5000
G1 X411.0436 Y7.3796 Z-20.0000 F5000
G1 X413.4875 Y6.2334 Z-20.0000 F5000
G1 X415.7802 Y5.9010 Z-20.0000 F5000
G1 X442.2147 Y5.9010 Z-20.0000 F5000
G1 X444.5074 Y6.2334 Z-20.0000 F5000
G1 X446.9513 Y7.3796 Z-20.0000 F5000
G1 X448.9455 Y9.1988 Z-20.0000 F5000
G1 X450.2790 Y11.4402 Z-20.0000 F5000
G1 X450.9209 Y13.9681 Z-20.0000 F5000
G1 X450.7973 Y16.6645 Z-20.0000 F5000
G1 X449.8796 Y19.2031 Z-20.0000 F5000
G1 X448.4935 Y21.0593 Z-20.0000 F5000
G1 X445.5647 Y23.9882 Z-20.0000 F5000
G1 X445.2335 Y24.4316 Z-20.0000 F5000
G1 X445.1332 Y24.6984 Z-20.0000 F5000
G1 X445.1163 Y24.9894 Z-20.0000 F5000
G1 X445.1851 Y25.2659 Z-20.0000 F5000
G1 X445.3320 Y25.5100 Z-20.0000 F5000
G1 X445.5498 Y25.7039 Z-20.0000 F5000
G1 X445.8093 Y25.8215 Z-20.0000 F5000
G1 X446.3570 Y25.9010 Z-20.0000 F5000
G1 X507.9963 Y25.9010 Z-20.0000 F5000
G1 X507.9963 Y58.5563 Z-20.0000 F5000
G1 X502.6538 Y63.8989 Z-20.0000 F5000
G1 X484.9963 Y63.8989 Z-20.0000 F5000
G1 X484.9963 Y65.9009 Z-20.0000 F5000
G1 X489.9963 Y65.9009 Z-20.0000 F5000
G1 X489.9963 Y293.8984 Z-20.0000 F5000
G1 X484.9963 Y293.8984 Z-20.0000 F5000
G1 X484.9963 Y295.9004 Z-20.0000 F5000
G1 X502.6538 Y295.9004 Z-20.0000 F5000
G1 X507.9963 Y301.2430 Z-20.0000 F5000
G1 X507.9963 Y358.5557 Z-20.0000 F5000
G1 X502.6538 Y363.8983 Z-20.0000 F5000
G1 X484.9963 Y363.8983 Z-20.0000 F5000
G1 X484.9963 Y365.9003 Z-20.0000 F5000
G1 X489.9963 Y365.9003 Z-20.0000 F5000
G1 X489.9963 Y593.8978 Z-20.0000 F5000
G1 X484.9963 Y593.8978 Z-20.0000 F5000
G1 X484.9963 Y595.8998 Z-20.0000 F5000
G1 X502.6538 Y595.8998 Z-20.0000 F5000
G1 X507.9963 Y601.2423 Z-20.0000 F5000
G1 X507.9963 Y658.5551 Z-20.0000 F5000
G1 X502.6538 Y663.8977 Z-20.0000 F5000
G1 X484.9963 Y663.8977 Z-20.0000 F5000
G1 X484.9963 Y665.8997 Z-20.0000 F5000
G1 X489.9963 Y665.8997 Z-20.0000 F5000
G1 X489.9963 Y893.8972 Z-20.0000 F5000
G1 X484.9963 Y893.8972 Z-20.0000 F5000
G1 X484.9963 Y895.8992 Z-20.0000 F5000
G1 X502.6538 Y895.8992 Z-20.0000 F5000
G1 X507.9963 Y901.2418 Z-20.0000 F5000
G1 X507.9963 Y924.8972 Z-20.0000 F5000
G1 X460.9984 Y924.8972 Z-20.0000 F5000
G1 X460.9984 Y919.8971 Z-20.0000 F5000
G1 X458.9964 Y919.8971 Z-20.0000 F5000
G1 X458.9964 Y939.8991 Z-20.0000 F5000
G1 X460.9984 Y939.8991 Z-20.0000 F5000
G1 X460.9984 Y934.8990 Z-20.0000 F5000
G1 X507.9963 Y934.8990 Z-20.0000 F5000
G1 X507.9963 Y958.5545 Z-20.0000 F5000
G1 X502.6538 Y963.8970 Z-20.0000 F5000
G1 X484.9963 Y963.8970 Z-20.0000 F5000
G1 X484.9963 Y965.8990 Z-20.0000 F5000
G1 X489.9963 Y965.8990 Z-20.0000 F5000
G1 X489.9963 Y1193.8966 Z-20.0000 F5000
G1 X484.9963 Y1193.8966 Z-20.0000 F5000
G1 X484.9963 Y1195.8986 Z-20.0000 F5000
G1 X502.6538 Y1195.8986 Z-20.0000 F5000
G1 X507.9963 Y1201.2411 Z-20.0000 F5000
G1 X507.9963 Y1258.5539 Z-20.0000 F5000
G1 X502.6538 Y1263.8964 Z-20.0000 F5000
G1 X484.9963 Y1263.8964 Z-20.0000 F5000
G1 X484.9963 Y1265.8984 Z-20.0000 F5000
G1 X489.9963 Y1265.8984 Z-20.0000 F5000
G1 X489.9963 Y1383.8963 Z-20.0000 F5000
G1 X466.9987 Y1383.8963 Z-20.0000 F5000
G1 X466.9987 Y1385.8983 Z-20.0000 F5000
G1 X471.9988 Y1385.8983 Z-20.0000 F5000
G1 X471.9963 Y1493.8959 Z-20.0000 F5000
G1 X466.9964 Y1493.8959 Z-20.0000 F5000
G1 X466.9964 Y1495.8979 Z-20.0000 F5000
G1 X502.6538 Y1495.8979 Z-20.0000 F5000
G1 X507.9963 Y1501.2405 Z-20.0000 F5000
G1 X507.9963 Y1558.5532 Z-20.0000 F5000
G1 X502.6538 Y1563.8958 Z-20.0000 F5000
G1 X466.9964 Y1563.8958 Z-20.0000 F5000
G1 X466.9964 Y1565.8978 Z-20.0000 F5000
G1 X471.9964 Y1565.8978 Z-20.0000 F5000
G1 X471.9964 Y1793.8953 Z-20.0000 F5000
G1 X466.9964 Y1793.8953 Z-20.0000 F5000
G1 X466.9964 Y1795.8973 Z-20.0000 F5000
G1 X502.6538 Y1795.8973 Z-20.0000 F5000
G1 X507.9963 Y1801.2399 Z-20.0000 F5000
G1 X507.9963 Y1858.5528 Z-20.0000 F5000
G1 X502.6538 Y1863.8953 Z-20.0000 F5000
G1 X466.9964 Y1863.8953 Z-20.0000 F5000
G1 X466.9964 Y1865.8972 Z-20.0000 F5000
G1 X471.9964 Y1865.8972 Z-20.0000 F5000
G1 X471.9964 Y1995.3950 Z-20.0000 F5000
G1 X385.9985 Y1995.3950 Z-20.0000 F5000
G1 X385.9985 Y1865.8972 Z-20.0000 F5000
G1 X390.9985 Y1865.8972 Z-20.0000 F5000
G1 X390.9985 Y1863.8953 Z-20.0000 F5000
G1 X355.3411 Y1863.8953 Z-20.0000 F5000
G1 X349.9986 Y1858.5528 Z-20.0000 F5000
G1 X349.9986 Y1801.2399 Z-20.0000 F5000
G1 X355.3411 Y1795.8973 Z-20.0000 F5000
G1 X390.9985 Y1795.8973 Z-20.0000 F5000
G1 X390.9985 Y1793.8953 Z-20.0000 F5000
G1 X385.9985 Y1793.8953 Z-20.0000 F5000
G1 X385.9985 Y1565.8978 Z-20.0000 F5000
G1 X390.9985 Y1565.8978 Z-20.0000 F5000
G1 X390.9985 Y1563.8958 Z-20.0000 F5000
G1 X355.3411 Y1563.8958 Z-20.0000 F5000
G1 X349.9986 Y1558.5532 Z-20.0000 F5000
G1 X349.9986 Y1501.2405 Z-20.0000 F5000
G1 X355.3411 Y1495.8979 Z-20.0000 F5000
G1 X390.9985 Y1495.8979 Z-20.0000 F5000
G1 X390.9985 Y1493.8959 Z-20.0000 F5000
G1 X385.9985 Y1493.8959 Z-20.0000 F5000
G1 X385.9985 Y1385.8983 Z-20.0000 F5000
G1 X390.9985 Y1385.8983 Z-20.0000 F5000
G1 X390.9985 Y1383.8963 Z-20.0000 F5000
G1 X367.9986 Y1383.8963 Z-20.0000 F5000
G1 X367.9986 Y1265.8984 Z-20.0000 F5000
G1 X372.9986 Y1265.8984 Z-20.0000 F5000
G1 X372.9986 Y1263.8964 Z-20.0000 F5000
G1 X355.3411 Y1263.8964 Z-20.0000 F5000
G1 X349.9986 Y1258.5539 Z-20.0000 F5000
G1 X349.9986 Y1201.2411 Z-20.0000 F5000
G1 X355.3411 Y1195.8986 Z-20.0000 F5000
G1 X372.9986 Y1195.8986 Z-20.0000 F5000
G1 X372.9986 Y1193.8966 Z-20.0000 F5000
G1 X367.9986 Y1193.8966 Z-20.0000 F5000
G1 X367.9986 Y1079.8978 Z-20.0000 F5000
G1 X367.9986 Y1079.8978 Z10.0000 F9999
G1 X712.0962 Y779.8984 Z10.0000 F9999
G1 X712.0962 Y779.8984 Z1.0000 F2500
G1 X712.0962 Y740.9273 Z-9.5000 F2500
G1 X712.0962 Y779.8984 Z-20.0000 F2500
G1 X712.0962 Y665.8997 Z-20.0000 F5000
G1 X717.0962 Y665.8997 Z-20.0000 F5000
G1 X717.0962 Y663.8975 Z-20.0000 F5000
G1 X699.4388 Y663.8975 Z-20.0000 F5000
G1 X694.0963 Y658.5551 Z-20.0000 F5000
G1 X694.0963 Y601.2424 Z-20.0000 F5000
G1 X699.4388 Y595.8998 Z-20.0000 F5000
G1 X717.0962 Y595.8998 Z-20.0000 F5000
G1 X717.0962 Y593.8978 Z-20.0000 F5000
G1 X712.0962 Y593.8978 Z-20.0000 F5000
G1 X712.0962 Y365.9003 Z-20.0000 F5000
G1 X717.0962 Y365.9003 Z-20.0000 F5000
G1 X717.0962 Y363.8983 Z-20.0000 F5000
G1 X699.4388 Y363.8983 Z-20.0000 F5000
G1 X694.0963 Y358.5557 Z-20.0000 F5000
G1 X694.0963 Y334.9003 Z-20.0000 F5000
G1 X741.0942 Y334.9003 Z-20.0000 F5000
G1 X741.0942 Y339.9003 Z-20.0000 F5000
G1 X743.0962 Y339.9003 Z-20.0000 F5000
G1 X743.0962 Y319.8983 Z-20.0000 F5000
G1 X741.0942 Y319.8983 Z-20.0000 F5000
G1 X741.0942 Y324.8983 Z-20.0000 F5000
G1 X694.0963 Y324.8983 Z-20.0000 F5000
G1 X694.0963 Y301.2430 Z-20.0000 F5000
G1 X699.4387 Y295.9003 Z-20.0000 F5000
G1 X717.0962 Y295.9003 Z-20.0000 F5000
G1 X717.0962 Y293.8984 Z-20.0000 F5000
G1 X712.0962 Y293.8984 Z-20.0000 F5000
G1 X712.0962 Y175.9006 Z-20.0000 F5000
G1 X735.0962 Y175.9006 Z-20.0000 F5000
G1 X735.0962 Y173.8988 Z-20.0000 F5000
G1 X730.0962 Y173.8988 Z-20.0000 F5000
G1 X730.0962 Y65.9008 Z-20.0000 F5000
G1 X735.0962 Y65.9008 Z-20.0000 F5000
G1 X735.0962 Y63.8989 Z-20.0000 F5000
G1 X699.4387 Y63.8989 Z-20.0000 F5000
G1 X694.0963 Y58.5561 Z-20.0000 F5000
G1 X694.0963 Y25.9008 Z-20.0000 F5000
G1 X755.7358 Y25.9008 Z-20.0000 F5000
G1 X756.2833 Y25.8214 Z-20.0000 F5000
G1 X756.5428 Y25.7038 Z-20.0000 F5000
G1 X756.7605 Y25.5100 Z-20.0000 F5000
G1 X756.9075 Y25.2658 Z-20.0000 F5000
G1 X756.9762 Y24.9893 Z-20.0000 F5000
G1 X756.9593 Y24.6983 Z-20.0000 F5000
G1 X756.8591 Y24.4316 Z-20.0000 F5000
G1 X756.5279 Y23.9881 Z-20.0000 F5000
G1 X753.5991 Y21.0591 Z-20.0000 F5000
G1 X752.2131 Y19.2032 Z-20.0000 F5000
G1 X751.2952 Y16.6648 Z-20.0000 F5000
G1 X751.1716 Y13.9677 Z-20.0000 F5000
G1 X751.8136 Y11.4403 Z-20.0000 F5000
G1 X753.1471 Y9.1985 Z-20.0000 F5000
G1 X755.1414 Y7.3797 Z-20.0000 F5000
G1 X757.5850 Y6.2335 Z-20.0000 F5000
G1 X759.8778 Y5.9010 Z-20.0000 F5000
G1 X786.3124 Y5.9010 Z-20.0000 F5000
G1 X788.6052 Y6.2335 Z-20.0000 F5000
G1 X791.0488 Y7.3797 Z-20.0000 F5000
G1 X793.0430 Y9.1985 Z-20.0000 F5000
G1 X794.3766 Y11.4403 Z-20.0000 F5000
G1 X795.0185 Y13.9677 Z-20.0000 F5000
G1 X794.8950 Y16.6648 Z-20.0000 F5000
G1 X793.9771 Y19.2032 Z-20.0000 F5000
G1 X792.5911 Y21.0591 Z-20.0000 F5000
G1 X789.6623 Y23.9881 Z-20.0000 F5000
G1 X789.3311 Y24.4316 Z-20.0000 F5000
G1 X789.2308 Y24.6983 Z-20.0000 F5000
G1 X789.2140 Y24.9893 Z-20.0000 F5000
G1 X789.2827 Y25.2658 Z-20.0000 F5000
G1 X789.4296 Y25.5100 Z-20.0000 F5000
G1 X789.6474 Y25.7038 Z-20.0000 F5000
G1 X789.9069 Y25.8214 Z-20.0000 F5000
G1 X790.4544 Y25.9008 Z-20.0000 F5000
G1 X852.0939 Y25.9008 Z-20.0000 F5000
G1 X852.0939 Y58.5561 Z-20.0000 F5000
G1 X846.7515 Y63.8989 Z-20.0000 F5000
G1 X811.0940 Y63.8989 Z-20.0000 F5000
G1 X811.0940 Y65.9008 Z-20.0000 F5000
G1 X816.0940 Y65.9008 Z-20.0000 F5000
G1 X816.0940 Y173.8988 Z-20.0000 F5000
G1 X811.0940 Y173.8988 Z-20.0000 F5000
G1 X811.0940 Y175.9006 Z-20.0000 F5000
G1 X834.0940 Y175.9006 Z-20.0000 F5000
G1 X834.0940 Y293.8984 Z-20.0000 F5000
G1 X829.0940 Y293.8984 Z-20.0000 F5000
G1 X829.0940 Y295.9003 Z-20.0000 F5000
G1 X846.7515 Y295.9003 Z-20.0000 F5000
G1 X852.0939 Y301.2430 Z-20.0000 F5000
G1 X852.0939 Y324.8983 Z-20.0000 F5000
G1 X805.0960 Y324.8983 Z-20.0000 F5000
G1 X805.0960 Y319.8983 Z-20.0000 F5000
G1 X803.0940 Y319.8983 Z-20.0000 F5000
G1 X803.0940 Y339.9003 Z-20.0000 F5000
G1 X805.0960 Y339.9003 Z-20.0000 F5000
G1 X805.0960 Y334.9003 Z-20.0000 F5000
G1 X852.0939 Y334.9003 Z-20.0000 F5000
G1 X852.0939 Y358.5557 Z-20.0000 F5000
G1 X846.7514 Y363.8983 Z-20.0000 F5000
G1 X829.0940 Y363.8983 Z-20.0000 F5000
G1 X829.0940 Y365.9003 Z-20.0000 F5000
G1 X834.0940 Y365.9003 Z-20.0000 F5000
G1 X834.0940 Y593.8978 Z-20.0000 F5000
G1 X829.0940 Y593.8978 Z-20.0000 F5000
G1 X829.0940 Y595.8998 Z-20.0000 F5000
G1 X846.7514 Y595.8998 Z-20.0000 F5000
G1 X852.0939 Y601.2424 Z-20.0000 F5000
G1 X852.0939 Y658.5551 Z-20.0000 F5000
G1 X846.7514 Y663.8975 Z-20.0000 F5000
G1 X829.0940 Y663.8975 Z-20.0000 F5000
G1 X829.0940 Y665.8997 Z-20.0000 F5000
G1 X834.0940 Y665.8997 Z-20.0000 F5000
G1 X834.0940 Y893.8972 Z-20.0000 F5000
G1 X829.0940 Y893.8972 Z-20.0000 F5000
G1 X829.0940 Y895.8992 Z-20.0000 F5000
G1 X846.7514 Y895.8992 Z-20.0000 F5000
G1 X852.0939 Y901.2416 Z-20.0000 F5000
G1 X852.0939 Y924.8970 Z-20.0000 F5000
G1 X805.0960 Y924.8970 Z-20.0000 F5000
G1 X805.0960 Y919.8970 Z-20.0000 F5000
G1 X803.0940 Y919.8970 Z-20.0000 F5000
G1 X803.0940 Y939.8990 Z-20.0000 F5000
G1 X805.0960 Y939.8990 Z-20.0000 F5000
G1 X805.0960 Y934.8990 Z-20.0000 F5000
G1 X852.0939 Y934.8990 Z-20.0000 F5000
G1 X852.0939 Y958.5545 Z-20.0000 F5000
G1 X846.7514 Y963.8970 Z-20.0000 F5000
G1 X829.0940 Y963.8970 Z-20.0000 F5000
G1 X829.0940 Y965.8990 Z-20.0000 F5000
G1 X834.0940 Y965.8990 Z-20.0000 F5000
G1 X834.0940 Y1083.8968 Z-20.0000 F5000
G1 X811.0940 Y1083.8968 Z-20.0000 F5000
G1 X811.0940 Y1085.8987 Z-20.0000 F5000
G1 X816.0940 Y1085.8987 Z-20.0000 F5000
G1 X816.0940 Y1193.8966 Z-20.0000 F5000
G1 X811.0940 Y1193.8966 Z-20.0000 F5000
G1 X811.0940 Y1195.8986 Z-20.0000 F5000
G1 X846.7514 Y1195.8986 Z-20.0000 F5000
G1 X852.0939 Y1201.2411 Z-20.0000 F5000
G1 X852.0939 Y1258.5539 Z-20.0000 F5000
G1 X846.7514 Y1263.8964 Z-20.0000 F5000
G1 X811.0940 Y1263.8964 Z-20.0000 F5000
G1 X811.0940 Y1265.8984 Z-20.0000 F5000
G1 X816.0940 Y1265.8984 Z-20.0000 F5000
G1 X816.0940 Y1493.8959 Z-20.0000 F5000
G1 X811.0940 Y1493.8959 Z-20.0000 F5000
G1 X811.0940 Y1495.8979 Z-20.0000 F5000
G1 X846.7514 Y1495.8979 Z-20.0000 F5000
G1 X852.0939 Y1501.2405 Z-20.0000 F5000
G1 X852.0939 Y1558.5532 Z-20.0000 F5000
G1 X846.7514 Y1563.8958 Z-20.0000 F5000
G1 X811.0940 Y1563.8958 Z-20.0000 F5000
G1 X811.0940 Y1565.8978 Z-20.0000 F5000
G1 X816.0940 Y1565.8978 Z-20.0000 F5000
G1 X816.0940 Y1793.8953 Z-20.0000 F5000
G1 X811.0940 Y1793.8953 Z-20.0000 F5000
G1 X811.0940 Y1795.8973 Z-20.0000 F5000
G1 X846.7514 Y1795.8973 Z-20.0000 F5000
G1 X852.0939 Y1801.2399 Z-20.0000 F5000
G1 X852.0939 Y1858.5526 Z-20.0000 F5000
G1 X846.7514 Y1863.8952 Z-20.0000 F5000
G1 X811.0940 Y1863.8952 Z-20.0000 F5000
G1 X811.0940 Y1865.8972 Z-20.0000 F5000
G1 X816.0940 Y1865.8972 Z-20.0000 F5000
G1 X816.0940 Y1931.8951 Z-20.0000 F5000
G1 X730.0962 Y1931.8951 Z-20.0000 F5000
G1 X730.0962 Y1865.8972 Z-20.0000 F5000
G1 X735.0962 Y1865.8972 Z-20.0000 F5000
G1 X735.0962 Y1863.8952 Z-20.0000 F5000
G1 X699.4388 Y1863.8952 Z-20.0000 F5000
G1 X694.0963 Y1858.5526 Z-20.0000 F5000
G1 X694.0963 Y1801.2399 Z-20.0000 F5000
G1 X699.4388 Y1795.8973 Z-20.0000 F5000
G1 X735.0962 Y1795.8973 Z-20.0000 F5000
G1 X735.0962 Y1793.8953 Z-20.0000 F5000
G1 X730.0962 Y1793.8953 Z-20.0000 F5000
G1 X730.0962 Y1565.8978 Z-20.0000 F5000
G1 X735.0962 Y1565.8978 Z-20.0000 F5000
G1 X735.0962 Y1563.8958 Z-20.0000 F5000
G1 X699.4388 Y1563.8958 Z-20.0000 F5000
G1 X694.0963 Y1558.5532 Z-20.0000 F5000
G1 X694.0963 Y1501.2405 Z-20.0000 F5000
G1 X699.4388 Y1495.8979 Z-20.0000 F5000
G1 X735.0962 Y1495.8979 Z-20.0000 F5000
G1 X735.0962 Y1493.8959 Z-20.0000 F5000
G1 X730.0962 Y1493.8959 Z-20.0000 F5000
G1 X730.0962 Y1265.8984 Z-20.0000 F5000
G1 X735.0962 Y1265.8984 Z-20.0000 F5000
G1 X735.0962 Y1263.8964 Z-20.0000 F5000
G1 X699.4388 Y1263.8964 Z-20.0000 F5000
G1 X694.0963 Y1258.5539 Z-20.0000 F5000
G1 X694.0963 Y1201.2411 Z-20.0000 F5000
G1 X699.4388 Y1195.8986 Z-20.0000 F5000
G1 X735.0962 Y1195.8986 Z-20.0000 F5000
G1 X735.0962 Y1193.8966 Z-20.0000 F5000
G1 X730.0962 Y1193.8966 Z-20.0000 F5000
G1 X730.0962 Y1085.8987 Z-20.0000 F5000
G1 X735.0962 Y1085.8987 Z-20.0000 F5000
G1 X735.0962 Y1083.8968 Z-20.0000 F5000
G1 X712.0962 Y1083.8968 Z-20.0000 F5000
G1 X712.0962 Y965.8990 Z-20.0000 F5000
G1 X717.0962 Y965.8990 Z-20.0000 F5000
G1 X717.0962 Y963.8970 Z-20.0000 F5000
G1 X699.4388 Y963.8970 Z-20.0000 F5000
G1 X694.0963 Y958.5545 Z-20.0000 F5000
G1 X694.0963 Y934.8990 Z-20.0000 F5000
G1 X741.0942 Y934.8990 Z-20.0000 F5000
G1 X741.0942 Y939.8990 Z-20.0000 F5000
G1 X743.0962 Y939.8990 Z-20.0000 F5000
G1 X743.0962 Y919.8970 Z-20.0000 F5000
G1 X741.0942 Y919.8970 Z-20.0000 F5000
G1 X741.0942 Y924.8970 Z-20.0000 F5000
G1 X694.0963 Y924.8970 Z-20.0000 F5000
G1 X694.0963 Y901.2416 Z-20.0000 F5000
G1 X699.4388 Y895.8992 Z-20.0000 F5000
G1 X717.0962 Y895.8992 Z-20.0000 F5000
G1 X717.0962 Y893.8972 Z-20.0000 F5000
G1 X712.0962 Y893.8972 Z-20.0000 F5000
G1 X712.0962 Y779.8984 Z-20.0000 F5000
G1 X712.0962 Y779.8984 Z10.0000 F9999
G1 X1900.0000 Y2800.0000 Z80.0000 F9999
G1 Z80.0000 F9999
G1 X1900.0000 Y2800.0000 F9999
M5
M30
