(plotsheet 2n3_nested_153 sheets_final v1_0_sheet 152b_S152.1_text_CC8 - stepover 1mm)
(Material Size) (X=1220.000, Y=2440.000, Z=20.000)
(LinuxCNC_NoArcs_MM_TC_medium_50um_G1_verbose.con)
G90 G80 G21 G49
G64 P0.050
M6 T1
(Tool Number:1) (7.998 mm dia. slot drill)
G43 H1 G0Z80.0000
M3 S18000
G04 P10
G1 X107.7115 Y153.0059 Z10.0000 F9999
G1 X107.7115 Y153.0059 Z-1.0000 F2500
G1 X66.6105 Y115.9050 Z-1.0000 F5000
G1 X107.7115 Y115.9050 Z-1.0000 F5000
G1 X66.6105 Y115.9050 Z-1.0000 F5000
G1 X107.7115 Y153.0059 Z-1.0000 F5000
G1 X66.6105 Y153.0059 Z-1.0000 F5000
G1 X66.6105 Y153.0059 Z10.0000 F9999
G1 X107.7115 Y172.9692 Z10.0000 F9999
G1 X107.7115 Y172.9692 Z-1.0000 F2500
G1 X66.6105 Y172.9692 Z-1.0000 F5000
G1 X107.7115 Y172.9692 Z-1.0000 F5000
G1 X107.7115 Y172.9692 Z10.0000 F9999
G1 X117.1060 Y188.4738 Z10.0000 F9999
G1 X117.1060 Y188.4738 Z-1.0000 F2500
G1 X64.2619 Y218.8591 Z-1.0000 F5000
G1 X117.1060 Y188.4738 Z-1.0000 F5000
G1 X117.1060 Y188.4738 Z10.0000 F9999
G1 X66.6105 Y251.7399 Z10.0000 F9999
G1 X66.6105 Y251.7399 Z-1.0000 F2500
G1 X84.2252 Y235.9968 Z-1.0000 F5000
G1 X86.2434 Y234.2481 Z-1.0000 F5000
G1 X88.3170 Y232.5656 Z-1.0000 F5000
G1 X89.8767 Y231.5457 Z-1.0000 F5000
G1 X91.4729 Y230.5839 Z-1.0000 F5000
G1 X93.9317 Y229.6481 Z-1.0000 F5000
G1 X97.2161 Y229.2445 Z-1.0000 F5000
G1 X100.9592 Y229.8683 Z-1.0000 F5000
G1 X104.3353 Y231.7949 Z-1.0000 F5000
G1 X106.7757 Y235.1344 Z-1.0000 F5000
G1 X107.7115 Y240.1252 Z-1.0000 F5000
G1 X105.1060 Y248.8408 Z-1.0000 F5000
G1 X98.3537 Y251.6298 Z-1.0000 F5000
G1 X105.1060 Y248.8408 Z-1.0000 F5000
G1 X107.7115 Y240.1252 Z-1.0000 F5000
G1 X106.7757 Y235.1344 Z-1.0000 F5000
G1 X104.3353 Y231.7949 Z-1.0000 F5000
G1 X100.9592 Y229.8683 Z-1.0000 F5000
G1 X97.2161 Y229.2445 Z-1.0000 F5000
G1 X93.9317 Y229.6481 Z-1.0000 F5000
G1 X91.4729 Y230.5839 Z-1.0000 F5000
G1 X89.8767 Y231.5457 Z-1.0000 F5000
G1 X88.3170 Y232.5656 Z-1.0000 F5000
G1 X86.2434 Y234.2481 Z-1.0000 F5000
G1 X84.2252 Y235.9968 Z-1.0000 F5000
G1 X66.6105 Y251.7399 Z-1.0000 F5000
G1 X66.6105 Y229.5380 Z-1.0000 F5000
G1 X66.6105 Y229.5380 Z10.0000 F9999
G1 X73.4362 Y286.9692 Z10.0000 F9999
G1 X73.4362 Y286.9692 Z-1.0000 F2500
G1 X70.3904 Y285.0243 Z-1.0000 F5000
G1 X68.3353 Y282.6023 Z-1.0000 F5000
G1 X67.0876 Y279.4830 Z-1.0000 F5000
G1 X66.6105 Y275.3546 Z-1.0000 F5000
G1 X67.0693 Y270.8591 Z-1.0000 F5000
G1 X68.8124 Y267.0426 Z-1.0000 F5000
G1 X71.8032 Y264.3637 Z-1.0000 F5000
G1 X75.9683 Y263.2445 Z-1.0000 F5000
G1 X79.9683 Y263.7766 Z-1.0000 F5000
G1 X82.6472 Y265.3179 Z-1.0000 F5000
G1 X84.3353 Y267.3546 Z-1.0000 F5000
G1 X85.4362 Y269.2628 Z-1.0000 F5000
G1 X90.1702 Y278.4555 Z-1.0000 F5000
G1 X91.5830 Y280.8224 Z-1.0000 F5000
G1 X93.2344 Y282.6757 Z-1.0000 F5000
G1 X95.4179 Y283.9234 Z-1.0000 F5000
G1 X98.2986 Y284.4371 Z-1.0000 F5000
G1 X101.5830 Y283.9050 Z-1.0000 F5000
G1 X104.6105 Y282.0702 Z-1.0000 F5000
G1 X106.8307 Y278.9325 Z-1.0000 F5000
G1 X107.7115 Y274.5656 Z-1.0000 F5000
G1 X107.0326 Y270.3087 Z-1.0000 F5000
G1 X105.5647 Y267.4646 Z-1.0000 F5000
G1 X103.4179 Y265.3729 Z-1.0000 F5000
G1 X105.5647 Y267.4646 Z-1.0000 F5000
G1 X107.0326 Y270.3087 Z-1.0000 F5000
G1 X107.7115 Y274.5656 Z-1.0000 F5000
G1 X106.8307 Y278.9325 Z-1.0000 F5000
G1 X104.6105 Y282.0702 Z-1.0000 F5000
G1 X101.5830 Y283.9050 Z-1.0000 F5000
G1 X98.2986 Y284.4371 Z-1.0000 F5000
G1 X95.4179 Y283.9234 Z-1.0000 F5000
G1 X93.2344 Y282.6757 Z-1.0000 F5000
G1 X91.5830 Y280.8224 Z-1.0000 F5000
G1 X90.1702 Y278.4555 Z-1.0000 F5000
G1 X85.4362 Y269.2628 Z-1.0000 F5000
G1 X84.3353 Y267.3546 Z-1.0000 F5000
G1 X82.6472 Y265.3179 Z-1.0000 F5000
G1 X79.9683 Y263.7766 Z-1.0000 F5000
G1 X75.9683 Y263.2445 Z-1.0000 F5000
G1 X71.8032 Y264.3637 Z-1.0000 F5000
G1 X68.8124 Y267.0426 Z-1.0000 F5000
G1 X67.0693 Y270.8591 Z-1.0000 F5000
G1 X66.6105 Y275.3546 Z-1.0000 F5000
G1 X67.0876 Y279.4830 Z-1.0000 F5000
G1 X68.3353 Y282.6023 Z-1.0000 F5000
G1 X70.3904 Y285.0243 Z-1.0000 F5000
G1 X70.3904 Y285.0243 Z10.0000 F9999
G1 X117.1060 Y297.6848 Z10.0000 F9999
G1 X117.1060 Y297.6848 Z-1.0000 F2500
G1 X64.2619 Y328.0702 Z-1.0000 F5000
G1 X117.1060 Y297.6848 Z-1.0000 F5000
G1 X117.1060 Y297.6848 Z10.0000 F9999
G1 X107.7115 Y355.5013 Z10.0000 F9999
G1 X107.7115 Y355.5013 Z-1.0000 F2500
G1 X66.6105 Y339.4463 Z-1.0000 F5000
G1 X107.7115 Y355.5013 Z-1.0000 F5000
G1 X66.6105 Y371.5197 Z-1.0000 F5000
G1 X66.6105 Y371.5197 Z10.0000 F9999
G1 X91.2711 Y382.1986 Z10.0000 F9999
G1 X91.2711 Y382.1986 Z-1.0000 F2500
G1 X91.2711 Y411.4463 Z-1.0000 F5000
G1 X91.2711 Y382.1986 Z-1.0000 F5000
G1 X91.2711 Y382.1986 Z10.0000 F9999
G1 X81.3078 Y345.1894 Z10.0000 F9999
G1 X81.3078 Y345.1894 Z-1.0000 F2500
G1 X81.3078 Y365.8867 Z-1.0000 F5000
G1 X81.3078 Y345.1894 Z-1.0000 F5000
G1 X81.3078 Y345.1894 Z10.0000 F9999
G1 X81.3078 Y428.5656 Z10.0000 F9999
G1 X81.3078 Y428.5656 Z-1.0000 F2500
G1 X81.3078 Y449.2628 Z-1.0000 F5000
G1 X81.3078 Y428.5656 Z-1.0000 F5000
G1 X81.3078 Y428.5656 Z10.0000 F9999
G1 X107.7115 Y438.8775 Z10.0000 F9999
G1 X107.7115 Y438.8775 Z-1.0000 F2500
G1 X66.6105 Y422.8224 Z-1.0000 F5000
G1 X107.7115 Y438.8775 Z-1.0000 F5000
G1 X66.6105 Y454.8958 Z-1.0000 F5000
G1 X66.6105 Y454.8958 Z10.0000 F9999
G1 X66.6105 Y465.5747 Z10.0000 F9999
G1 X66.6105 Y465.5747 Z-1.0000 F2500
G1 X86.7573 Y478.8041 Z-1.0000 F5000
G1 X66.6105 Y465.5747 Z-1.0000 F5000
G1 X66.6105 Y465.5747 Z10.0000 F9999
G1 X66.6105 Y482.9876 Z10.0000 F9999
G1 X66.6105 Y482.9876 Z-1.0000 F2500
G1 X107.7115 Y482.9876 Z-1.0000 F5000
G1 X107.7115 Y475.8316 Z-1.0000 F5000
G1 X107.1060 Y471.9601 Z-1.0000 F5000
G1 X105.2894 Y468.7491 Z-1.0000 F5000
G1 X102.1335 Y466.5289 Z-1.0000 F5000
G1 X97.4913 Y465.6848 Z-1.0000 F5000
G1 X92.8124 Y466.8408 Z-1.0000 F5000
G1 X89.4913 Y469.6114 Z-1.0000 F5000
G1 X87.5280 Y472.9325 Z-1.0000 F5000
G1 X86.8674 Y475.8316 Z-1.0000 F5000
G1 X86.8674 Y482.9876 Z-1.0000 F5000
G1 X86.8674 Y475.8316 Z-1.0000 F5000
G1 X87.5280 Y472.9325 Z-1.0000 F5000
G1 X89.4913 Y469.6114 Z-1.0000 F5000
G1 X92.8124 Y466.8408 Z-1.0000 F5000
G1 X97.4913 Y465.6848 Z-1.0000 F5000
G1 X102.1335 Y466.5289 Z-1.0000 F5000
G1 X105.2894 Y468.7491 Z-1.0000 F5000
G1 X107.1060 Y471.9601 Z-1.0000 F5000
G1 X107.7115 Y475.8316 Z-1.0000 F5000
G1 X107.7115 Y482.9876 Z-1.0000 F5000
G1 X107.7115 Y482.9876 Z10.0000 F9999
G1 X89.4179 Y513.5197 Z10.0000 F9999
G1 X89.4179 Y513.5197 Z-1.0000 F2500
G1 X89.4179 Y499.0793 Z-1.0000 F5000
G1 X89.4179 Y513.5197 Z-1.0000 F5000
G1 X107.7115 Y513.5197 Z-1.0000 F5000
G1 X107.7115 Y498.4004 Z-1.0000 F5000
G1 X107.7115 Y513.5197 Z-1.0000 F5000
G1 X66.6105 Y513.5197 Z-1.0000 F5000
G1 X66.6105 Y513.5197 Z10.0000 F9999
G1 X232.8752 Y482.9876 Z10.0000 F9999
G1 X232.8752 Y482.9876 Z-1.0000 F2500
G1 X273.9762 Y482.9876 Z-1.0000 F5000
G1 X273.9762 Y475.8316 Z-1.0000 F5000
G1 X273.3707 Y471.9601 Z-1.0000 F5000
G1 X271.5541 Y468.7491 Z-1.0000 F5000
G1 X268.3982 Y466.5289 Z-1.0000 F5000
G1 X263.7560 Y465.6848 Z-1.0000 F5000
G1 X259.0771 Y466.8408 Z-1.0000 F5000
G1 X255.7560 Y469.6114 Z-1.0000 F5000
G1 X253.7927 Y472.9325 Z-1.0000 F5000
G1 X253.1321 Y475.8316 Z-1.0000 F5000
G1 X253.1321 Y482.9876 Z-1.0000 F5000
G1 X253.1321 Y475.8316 Z-1.0000 F5000
G1 X253.7927 Y472.9325 Z-1.0000 F5000
G1 X255.7560 Y469.6114 Z-1.0000 F5000
G1 X259.0771 Y466.8408 Z-1.0000 F5000
G1 X263.7560 Y465.6848 Z-1.0000 F5000
G1 X268.3982 Y466.5289 Z-1.0000 F5000
G1 X271.5541 Y468.7491 Z-1.0000 F5000
G1 X273.3707 Y471.9601 Z-1.0000 F5000
G1 X273.9762 Y475.8316 Z-1.0000 F5000
G1 X273.9762 Y482.9876 Z-1.0000 F5000
G1 X273.9762 Y482.9876 Z10.0000 F9999
G1 X255.6826 Y513.5197 Z10.0000 F9999
G1 X255.6826 Y513.5197 Z-1.0000 F2500
G1 X255.6826 Y499.0793 Z-1.0000 F5000
G1 X255.6826 Y513.5197 Z-1.0000 F5000
G1 X273.9762 Y513.5197 Z-1.0000 F5000
G1 X273.9762 Y498.4004 Z-1.0000 F5000
G1 X273.9762 Y513.5197 Z-1.0000 F5000
G1 X232.8752 Y513.5197 Z-1.0000 F5000
G1 X232.8752 Y513.5197 Z10.0000 F9999
G1 X232.8752 Y465.5747 Z10.0000 F9999
G1 X232.8752 Y465.5747 Z-1.0000 F2500
G1 X253.0220 Y478.8041 Z-1.0000 F5000
G1 X232.8752 Y465.5747 Z-1.0000 F5000
G1 X232.8752 Y465.5747 Z10.0000 F9999
G1 X247.5725 Y428.5656 Z10.0000 F9999
G1 X247.5725 Y428.5656 Z-1.0000 F2500
G1 X247.5725 Y449.2628 Z-1.0000 F5000
G1 X247.5725 Y428.5656 Z-1.0000 F5000
G1 X247.5725 Y428.5656 Z10.0000 F9999
G1 X273.9762 Y438.8775 Z10.0000 F9999
G1 X273.9762 Y438.8775 Z-1.0000 F2500
G1 X232.8752 Y422.8224 Z-1.0000 F5000
G1 X273.9762 Y438.8775 Z-1.0000 F5000
G1 X232.8752 Y454.8958 Z-1.0000 F5000
G1 X232.8752 Y454.8958 Z10.0000 F9999
G1 X257.5358 Y382.1986 Z10.0000 F9999
G1 X257.5358 Y382.1986 Z-1.0000 F2500
G1 X257.5358 Y411.4463 Z-1.0000 F5000
G1 X257.5358 Y382.1986 Z-1.0000 F5000
G1 X257.5358 Y382.1986 Z10.0000 F9999
G1 X273.9762 Y355.5013 Z10.0000 F9999
G1 X273.9762 Y355.5013 Z-1.0000 F2500
G1 X232.8752 Y339.4463 Z-1.0000 F5000
G1 X273.9762 Y355.5013 Z-1.0000 F5000
G1 X232.8752 Y371.5197 Z-1.0000 F5000
G1 X232.8752 Y371.5197 Z10.0000 F9999
G1 X247.5725 Y345.1894 Z10.0000 F9999
G1 X247.5725 Y345.1894 Z-1.0000 F2500
G1 X247.5725 Y365.8867 Z-1.0000 F5000
G1 X247.5725 Y345.1894 Z-1.0000 F5000
G1 X247.5725 Y345.1894 Z10.0000 F9999
G1 X239.7009 Y286.9692 Z10.0000 F9999
G1 X239.7009 Y286.9692 Z-1.0000 F2500
G1 X236.6551 Y285.0243 Z-1.0000 F5000
G1 X234.6000 Y282.6023 Z-1.0000 F5000
G1 X233.3523 Y279.4830 Z-1.0000 F5000
G1 X232.8752 Y275.3546 Z-1.0000 F5000
G1 X233.3340 Y270.8591 Z-1.0000 F5000
G1 X235.0771 Y267.0426 Z-1.0000 F5000
G1 X238.0679 Y264.3637 Z-1.0000 F5000
G1 X242.2330 Y263.2445 Z-1.0000 F5000
G1 X246.2330 Y263.7766 Z-1.0000 F5000
G1 X248.9119 Y265.3179 Z-1.0000 F5000
G1 X250.6000 Y267.3546 Z-1.0000 F5000
G1 X251.7009 Y269.2628 Z-1.0000 F5000
G1 X256.4349 Y278.4555 Z-1.0000 F5000
G1 X257.8477 Y280.8224 Z-1.0000 F5000
G1 X259.4991 Y282.6757 Z-1.0000 F5000
G1 X261.6826 Y283.9234 Z-1.0000 F5000
G1 X264.5633 Y284.4371 Z-1.0000 F5000
G1 X267.8477 Y283.9050 Z-1.0000 F5000
G1 X270.8752 Y282.0702 Z-1.0000 F5000
G1 X273.0954 Y278.9325 Z-1.0000 F5000
G1 X273.9762 Y274.5656 Z-1.0000 F5000
G1 X273.2973 Y270.3087 Z-1.0000 F5000
G1 X271.8294 Y267.4646 Z-1.0000 F5000
G1 X269.6826 Y265.3729 Z-1.0000 F5000
G1 X271.8294 Y267.4646 Z-1.0000 F5000
G1 X273.2973 Y270.3087 Z-1.0000 F5000
G1 X273.9762 Y274.5656 Z-1.0000 F5000
G1 X273.0954 Y278.9325 Z-1.0000 F5000
G1 X270.8752 Y282.0702 Z-1.0000 F5000
G1 X267.8477 Y283.9050 Z-1.0000 F5000
G1 X264.5633 Y284.4371 Z-1.0000 F5000
G1 X261.6826 Y283.9234 Z-1.0000 F5000
G1 X259.4991 Y282.6757 Z-1.0000 F5000
G1 X257.8477 Y280.8224 Z-1.0000 F5000
G1 X256.4349 Y278.4555 Z-1.0000 F5000
G1 X251.7009 Y269.2628 Z-1.0000 F5000
G1 X250.6000 Y267.3546 Z-1.0000 F5000
G1 X248.9119 Y265.3179 Z-1.0000 F5000
G1 X246.2330 Y263.7766 Z-1.0000 F5000
G1 X242.2330 Y263.2445 Z-1.0000 F5000
G1 X238.0679 Y264.3637 Z-1.0000 F5000
G1 X235.0771 Y267.0426 Z-1.0000 F5000
G1 X233.3340 Y270.8591 Z-1.0000 F5000
G1 X232.8752 Y275.3546 Z-1.0000 F5000
G1 X233.3523 Y279.4830 Z-1.0000 F5000
G1 X234.6000 Y282.6023 Z-1.0000 F5000
G1 X236.6551 Y285.0243 Z-1.0000 F5000
G1 X236.6551 Y285.0243 Z10.0000 F9999
G1 X232.8752 Y251.7399 Z10.0000 F9999
G1 X232.8752 Y251.7399 Z-1.0000 F2500
G1 X250.4899 Y235.9968 Z-1.0000 F5000
G1 X252.5081 Y234.2481 Z-1.0000 F5000
G1 X254.5817 Y232.5656 Z-1.0000 F5000
G1 X256.1414 Y231.5457 Z-1.0000 F5000
G1 X257.7376 Y230.5839 Z-1.0000 F5000
G1 X260.1963 Y229.6481 Z-1.0000 F5000
G1 X263.4807 Y229.2445 Z-1.0000 F5000
G1 X267.2239 Y229.8683 Z-1.0000 F5000
G1 X270.6000 Y231.7949 Z-1.0000 F5000
G1 X273.0404 Y235.1344 Z-1.0000 F5000
G1 X273.9762 Y240.1252 Z-1.0000 F5000
G1 X271.3707 Y248.8408 Z-1.0000 F5000
G1 X264.6184 Y251.6298 Z-1.0000 F5000
G1 X271.3707 Y248.8408 Z-1.0000 F5000
G1 X273.9762 Y240.1252 Z-1.0000 F5000
G1 X273.0404 Y235.1344 Z-1.0000 F5000
G1 X270.6000 Y231.7949 Z-1.0000 F5000
G1 X267.2239 Y229.8683 Z-1.0000 F5000
G1 X263.4807 Y229.2445 Z-1.0000 F5000
G1 X260.1963 Y229.6481 Z-1.0000 F5000
G1 X257.7376 Y230.5839 Z-1.0000 F5000
G1 X256.1414 Y231.5457 Z-1.0000 F5000
G1 X254.5817 Y232.5656 Z-1.0000 F5000
G1 X252.5081 Y234.2481 Z-1.0000 F5000
G1 X250.4899 Y235.9968 Z-1.0000 F5000
G1 X232.8752 Y251.7399 Z-1.0000 F5000
G1 X232.8752 Y229.5380 Z-1.0000 F5000
G1 X232.8752 Y229.5380 Z10.0000 F9999
G1 X283.3707 Y188.4738 Z10.0000 F9999
G1 X283.3707 Y188.4738 Z-1.0000 F2500
G1 X230.5266 Y218.8591 Z-1.0000 F5000
G1 X283.3707 Y188.4738 Z-1.0000 F5000
G1 X283.3707 Y188.4738 Z10.0000 F9999
G1 X273.9762 Y172.9692 Z10.0000 F9999
G1 X273.9762 Y172.9692 Z-1.0000 F2500
G1 X232.8752 Y172.9692 Z-1.0000 F5000
G1 X273.9762 Y172.9692 Z-1.0000 F5000
G1 X273.9762 Y172.9692 Z10.0000 F9999
G1 X273.9762 Y153.0059 Z10.0000 F9999
G1 X273.9762 Y153.0059 Z-1.0000 F2500
G1 X232.8752 Y115.9050 Z-1.0000 F5000
G1 X273.9762 Y115.9050 Z-1.0000 F5000
G1 X232.8752 Y115.9050 Z-1.0000 F5000
G1 X273.9762 Y153.0059 Z-1.0000 F5000
G1 X232.8752 Y153.0059 Z-1.0000 F5000
G1 X232.8752 Y153.0059 Z10.0000 F9999
G1 X283.3707 Y297.6848 Z10.0000 F9999
G1 X283.3707 Y297.6848 Z-1.0000 F2500
G1 X230.5266 Y328.0702 Z-1.0000 F5000
G1 X283.3707 Y297.6848 Z-1.0000 F5000
G1 X283.3707 Y297.6848 Z10.0000 F9999
G1 X417.5339 Y286.9692 Z10.0000 F9999
G1 X417.5339 Y286.9692 Z-1.0000 F2500
G1 X414.4880 Y285.0243 Z-1.0000 F5000
G1 X412.4330 Y282.6023 Z-1.0000 F5000
G1 X411.1853 Y279.4830 Z-1.0000 F5000
G1 X410.7082 Y275.3546 Z-1.0000 F5000
G1 X411.1669 Y270.8591 Z-1.0000 F5000
G1 X412.9100 Y267.0426 Z-1.0000 F5000
G1 X415.9008 Y264.3637 Z-1.0000 F5000
G1 X420.0660 Y263.2445 Z-1.0000 F5000
G1 X424.0660 Y263.7766 Z-1.0000 F5000
G1 X426.7449 Y265.3179 Z-1.0000 F5000
G1 X428.4330 Y267.3546 Z-1.0000 F5000
G1 X429.5339 Y269.2628 Z-1.0000 F5000
G1 X434.2678 Y278.4555 Z-1.0000 F5000
G1 X435.6807 Y280.8224 Z-1.0000 F5000
G1 X437.3320 Y282.6757 Z-1.0000 F5000
G1 X439.5155 Y283.9234 Z-1.0000 F5000
G1 X442.3963 Y284.4371 Z-1.0000 F5000
G1 X445.6807 Y283.9050 Z-1.0000 F5000
G1 X448.7082 Y282.0702 Z-1.0000 F5000
G1 X450.9284 Y278.9325 Z-1.0000 F5000
G1 X451.8091 Y274.5656 Z-1.0000 F5000
G1 X451.1302 Y270.3087 Z-1.0000 F5000
G1 X449.6623 Y267.4646 Z-1.0000 F5000
G1 X447.5155 Y265.3729 Z-1.0000 F5000
G1 X449.6623 Y267.4646 Z-1.0000 F5000
G1 X451.1302 Y270.3087 Z-1.0000 F5000
G1 X451.8091 Y274.5656 Z-1.0000 F5000
G1 X450.9284 Y278.9325 Z-1.0000 F5000
G1 X448.7082 Y282.0702 Z-1.0000 F5000
G1 X445.6807 Y283.9050 Z-1.0000 F5000
G1 X442.3963 Y284.4371 Z-1.0000 F5000
G1 X439.5155 Y283.9234 Z-1.0000 F5000
G1 X437.3320 Y282.6757 Z-1.0000 F5000
G1 X435.6807 Y280.8224 Z-1.0000 F5000
G1 X434.2678 Y278.4555 Z-1.0000 F5000
G1 X429.5339 Y269.2628 Z-1.0000 F5000
G1 X428.4330 Y267.3546 Z-1.0000 F5000
G1 X426.7449 Y265.3179 Z-1.0000 F5000
G1 X424.0660 Y263.7766 Z-1.0000 F5000
G1 X420.0660 Y263.2445 Z-1.0000 F5000
G1 X415.9008 Y264.3637 Z-1.0000 F5000
G1 X412.9100 Y267.0426 Z-1.0000 F5000
G1 X411.1669 Y270.8591 Z-1.0000 F5000
G1 X410.7082 Y275.3546 Z-1.0000 F5000
G1 X411.1853 Y279.4830 Z-1.0000 F5000
G1 X412.4330 Y282.6023 Z-1.0000 F5000
G1 X414.4880 Y285.0243 Z-1.0000 F5000
G1 X414.4880 Y285.0243 Z10.0000 F9999
G1 X410.7082 Y251.7399 Z10.0000 F9999
G1 X410.7082 Y251.7399 Z-1.0000 F2500
G1 X428.3229 Y235.9968 Z-1.0000 F5000
G1 X430.3410 Y234.2481 Z-1.0000 F5000
G1 X432.4146 Y232.5656 Z-1.0000 F5000
G1 X433.9744 Y231.5457 Z-1.0000 F5000
G1 X435.5706 Y230.5839 Z-1.0000 F5000
G1 X438.0293 Y229.6481 Z-1.0000 F5000
G1 X441.3137 Y229.2445 Z-1.0000 F5000
G1 X445.0568 Y229.8683 Z-1.0000 F5000
G1 X448.4330 Y231.7949 Z-1.0000 F5000
G1 X450.8733 Y235.1344 Z-1.0000 F5000
G1 X451.8091 Y240.1252 Z-1.0000 F5000
G1 X449.2036 Y248.8408 Z-1.0000 F5000
G1 X442.4513 Y251.6298 Z-1.0000 F5000
G1 X449.2036 Y248.8408 Z-1.0000 F5000
G1 X451.8091 Y240.1252 Z-1.0000 F5000
G1 X450.8733 Y235.1344 Z-1.0000 F5000
G1 X448.4330 Y231.7949 Z-1.0000 F5000
G1 X445.0568 Y229.8683 Z-1.0000 F5000
G1 X441.3137 Y229.2445 Z-1.0000 F5000
G1 X438.0293 Y229.6481 Z-1.0000 F5000
G1 X435.5706 Y230.5839 Z-1.0000 F5000
G1 X433.9744 Y231.5457 Z-1.0000 F5000
G1 X432.4146 Y232.5656 Z-1.0000 F5000
G1 X430.3410 Y234.2481 Z-1.0000 F5000
G1 X428.3229 Y235.9968 Z-1.0000 F5000
G1 X410.7082 Y251.7399 Z-1.0000 F5000
G1 X410.7082 Y229.5380 Z-1.0000 F5000
G1 X410.7082 Y229.5380 Z10.0000 F9999
G1 X461.2036 Y188.4738 Z10.0000 F9999
G1 X461.2036 Y188.4738 Z-1.0000 F2500
G1 X408.3596 Y218.8591 Z-1.0000 F5000
G1 X461.2036 Y188.4738 Z-1.0000 F5000
G1 X461.2036 Y188.4738 Z10.0000 F9999
G1 X451.8091 Y172.9692 Z10.0000 F9999
G1 X451.8091 Y172.9692 Z-1.0000 F2500
G1 X410.7082 Y172.9692 Z-1.0000 F5000
G1 X451.8091 Y172.9692 Z-1.0000 F5000
G1 X451.8091 Y172.9692 Z10.0000 F9999
G1 X451.8091 Y153.0059 Z10.0000 F9999
G1 X451.8091 Y153.0059 Z-1.0000 F2500
G1 X410.7082 Y115.9050 Z-1.0000 F5000
G1 X451.8091 Y115.9050 Z-1.0000 F5000
G1 X410.7082 Y115.9050 Z-1.0000 F5000
G1 X451.8091 Y153.0059 Z-1.0000 F5000
G1 X410.7082 Y153.0059 Z-1.0000 F5000
G1 X410.7082 Y153.0059 Z10.0000 F9999
G1 X461.2036 Y297.6848 Z10.0000 F9999
G1 X461.2036 Y297.6848 Z-1.0000 F2500
G1 X408.3596 Y328.0702 Z-1.0000 F5000
G1 X461.2036 Y297.6848 Z-1.0000 F5000
G1 X461.2036 Y297.6848 Z10.0000 F9999
G1 X451.8091 Y355.5013 Z10.0000 F9999
G1 X451.8091 Y355.5013 Z-1.0000 F2500
G1 X410.7082 Y339.4463 Z-1.0000 F5000
G1 X451.8091 Y355.5013 Z-1.0000 F5000
G1 X410.7082 Y371.5197 Z-1.0000 F5000
G1 X410.7082 Y371.5197 Z10.0000 F9999
G1 X435.3687 Y382.1986 Z10.0000 F9999
G1 X435.3687 Y382.1986 Z-1.0000 F2500
G1 X435.3687 Y411.4463 Z-1.0000 F5000
G1 X435.3687 Y382.1986 Z-1.0000 F5000
G1 X435.3687 Y382.1986 Z10.0000 F9999
G1 X425.4054 Y345.1894 Z10.0000 F9999
G1 X425.4054 Y345.1894 Z-1.0000 F2500
G1 X425.4054 Y365.8867 Z-1.0000 F5000
G1 X425.4054 Y345.1894 Z-1.0000 F5000
G1 X425.4054 Y345.1894 Z10.0000 F9999
G1 X425.4054 Y428.5656 Z10.0000 F9999
G1 X425.4054 Y428.5656 Z-1.0000 F2500
G1 X425.4054 Y449.2628 Z-1.0000 F5000
G1 X425.4054 Y428.5656 Z-1.0000 F5000
G1 X425.4054 Y428.5656 Z10.0000 F9999
G1 X451.8091 Y438.8775 Z10.0000 F9999
G1 X451.8091 Y438.8775 Z-1.0000 F2500
G1 X410.7082 Y422.8224 Z-1.0000 F5000
G1 X451.8091 Y438.8775 Z-1.0000 F5000
G1 X410.7082 Y454.8958 Z-1.0000 F5000
G1 X410.7082 Y454.8958 Z10.0000 F9999
G1 X410.7082 Y465.5747 Z10.0000 F9999
G1 X410.7082 Y465.5747 Z-1.0000 F2500
G1 X430.8550 Y478.8041 Z-1.0000 F5000
G1 X410.7082 Y465.5747 Z-1.0000 F5000
G1 X410.7082 Y465.5747 Z10.0000 F9999
G1 X410.7082 Y482.9876 Z10.0000 F9999
G1 X410.7082 Y482.9876 Z-1.0000 F2500
G1 X451.8091 Y482.9876 Z-1.0000 F5000
G1 X451.8091 Y475.8316 Z-1.0000 F5000
G1 X451.2036 Y471.9601 Z-1.0000 F5000
G1 X449.3871 Y468.7491 Z-1.0000 F5000
G1 X446.2311 Y466.5289 Z-1.0000 F5000
G1 X441.5889 Y465.6848 Z-1.0000 F5000
G1 X436.9100 Y466.8408 Z-1.0000 F5000
G1 X433.5889 Y469.6114 Z-1.0000 F5000
G1 X431.6256 Y472.9325 Z-1.0000 F5000
G1 X430.9651 Y475.8316 Z-1.0000 F5000
G1 X430.9651 Y482.9876 Z-1.0000 F5000
G1 X430.9651 Y475.8316 Z-1.0000 F5000
G1 X431.6256 Y472.9325 Z-1.0000 F5000
G1 X433.5889 Y469.6114 Z-1.0000 F5000
G1 X436.9100 Y466.8408 Z-1.0000 F5000
G1 X441.5889 Y465.6848 Z-1.0000 F5000
G1 X446.2311 Y466.5289 Z-1.0000 F5000
G1 X449.3871 Y468.7491 Z-1.0000 F5000
G1 X451.2036 Y471.9601 Z-1.0000 F5000
G1 X451.8091 Y475.8316 Z-1.0000 F5000
G1 X451.8091 Y482.9876 Z-1.0000 F5000
G1 X451.8091 Y482.9876 Z10.0000 F9999
G1 X433.5155 Y513.5197 Z10.0000 F9999
G1 X433.5155 Y513.5197 Z-1.0000 F2500
G1 X433.5155 Y499.0793 Z-1.0000 F5000
G1 X433.5155 Y513.5197 Z-1.0000 F5000
G1 X451.8091 Y513.5197 Z-1.0000 F5000
G1 X451.8091 Y498.4004 Z-1.0000 F5000
G1 X451.8091 Y513.5197 Z-1.0000 F5000
G1 X410.7082 Y513.5197 Z-1.0000 F5000
G1 X410.7082 Y513.5197 Z10.0000 F9999
G1 X576.9729 Y515.8093 Z10.0000 F9999
G1 X576.9729 Y515.8093 Z-1.0000 F2500
G1 X594.5876 Y500.0662 Z-1.0000 F5000
G1 X596.6057 Y498.3175 Z-1.0000 F5000
G1 X598.6793 Y496.6350 Z-1.0000 F5000
G1 X600.2391 Y495.6151 Z-1.0000 F5000
G1 X601.8353 Y494.6533 Z-1.0000 F5000
G1 X604.2940 Y493.7175 Z-1.0000 F5000
G1 X607.5784 Y493.3139 Z-1.0000 F5000
G1 X611.3215 Y493.9377 Z-1.0000 F5000
G1 X614.6976 Y495.8643 Z-1.0000 F5000
G1 X617.1380 Y499.2038 Z-1.0000 F5000
G1 X618.0738 Y504.1946 Z-1.0000 F5000
G1 X615.4683 Y512.9102 Z-1.0000 F5000
G1 X608.7160 Y515.6992 Z-1.0000 F5000
G1 X615.4683 Y512.9102 Z-1.0000 F5000
G1 X618.0738 Y504.1946 Z-1.0000 F5000
G1 X617.1380 Y499.2038 Z-1.0000 F5000
G1 X614.6976 Y495.8643 Z-1.0000 F5000
G1 X611.3215 Y493.9377 Z-1.0000 F5000
G1 X607.5784 Y493.3139 Z-1.0000 F5000
G1 X604.2940 Y493.7175 Z-1.0000 F5000
G1 X601.8353 Y494.6533 Z-1.0000 F5000
G1 X600.2391 Y495.6151 Z-1.0000 F5000
G1 X598.6793 Y496.6350 Z-1.0000 F5000
G1 X596.6057 Y498.3175 Z-1.0000 F5000
G1 X594.5876 Y500.0662 Z-1.0000 F5000
G1 X576.9729 Y515.8093 Z-1.0000 F5000
G1 X576.9729 Y493.6075 Z-1.0000 F5000
G1 X576.9729 Y493.6075 Z10.0000 F9999
G1 X576.9729 Y437.0386 Z10.0000 F9999
G1 X576.9729 Y437.0386 Z-1.0000 F2500
G1 X599.7802 Y437.0386 Z-1.0000 F5000
G1 X599.7802 Y420.5799 Z-1.0000 F5000
G1 X599.7802 Y437.0386 Z-1.0000 F5000
G1 X618.0738 Y437.0386 Z-1.0000 F5000
G1 X618.0738 Y419.2772 Z-1.0000 F5000
G1 X618.0738 Y437.0386 Z-1.0000 F5000
G1 X576.9729 Y437.0386 Z-1.0000 F5000
G1 X576.9729 Y419.2772 Z-1.0000 F5000
G1 X576.9729 Y419.2772 Z10.0000 F9999
G1 X598.1839 Y396.8735 Z10.0000 F9999
G1 X598.1839 Y396.8735 Z-1.0000 F2500
G1 X576.9729 Y384.9286 Z-1.0000 F5000
G1 X598.1839 Y396.8735 Z-1.0000 F5000
G1 X618.0738 Y384.9286 Z-1.0000 F5000
G1 X598.1839 Y396.8735 Z-1.0000 F5000
G1 X618.0738 Y408.9469 Z-1.0000 F5000
G1 X598.1839 Y396.8735 Z-1.0000 F5000
G1 X576.9729 Y408.9469 Z-1.0000 F5000
G1 X576.9729 Y408.9469 Z10.0000 F9999
G1 X627.4683 Y452.5432 Z10.0000 F9999
G1 X627.4683 Y452.5432 Z-1.0000 F2500
G1 X574.6243 Y482.9286 Z-1.0000 F5000
G1 X627.4683 Y452.5432 Z-1.0000 F5000
G1 X627.4683 Y452.5432 Z10.0000 F9999
G1 X583.7986 Y551.0386 Z10.0000 F9999
G1 X583.7986 Y551.0386 Z-1.0000 F2500
G1 X580.7527 Y549.0937 Z-1.0000 F5000
G1 X578.6976 Y546.6717 Z-1.0000 F5000
G1 X577.4499 Y543.5524 Z-1.0000 F5000
G1 X576.9729 Y539.4240 Z-1.0000 F5000
G1 X577.4316 Y534.9286 Z-1.0000 F5000
G1 X579.1747 Y531.1120 Z-1.0000 F5000
G1 X582.1655 Y528.4331 Z-1.0000 F5000
G1 X586.3307 Y527.3139 Z-1.0000 F5000
G1 X590.3307 Y527.8460 Z-1.0000 F5000
G1 X593.0096 Y529.3873 Z-1.0000 F5000
G1 X594.6976 Y531.4240 Z-1.0000 F5000
G1 X595.7986 Y533.3322 Z-1.0000 F5000
G1 X600.5325 Y542.5249 Z-1.0000 F5000
G1 X601.9454 Y544.8919 Z-1.0000 F5000
G1 X603.5967 Y546.7451 Z-1.0000 F5000
G1 X605.7802 Y547.9928 Z-1.0000 F5000
G1 X608.6610 Y548.5065 Z-1.0000 F5000
G1 X611.9454 Y547.9744 Z-1.0000 F5000
G1 X614.9729 Y546.1396 Z-1.0000 F5000
G1 X617.1931 Y543.0019 Z-1.0000 F5000
G1 X618.0738 Y538.6350 Z-1.0000 F5000
G1 X617.3949 Y534.3781 Z-1.0000 F5000
G1 X615.9270 Y531.5341 Z-1.0000 F5000
G1 X613.7802 Y529.4423 Z-1.0000 F5000
G1 X615.9270 Y531.5341 Z-1.0000 F5000
G1 X617.3949 Y534.3781 Z-1.0000 F5000
G1 X618.0738 Y538.6350 Z-1.0000 F5000
G1 X617.1931 Y543.0019 Z-1.0000 F5000
G1 X614.9729 Y546.1396 Z-1.0000 F5000
G1 X611.9454 Y547.9744 Z-1.0000 F5000
G1 X608.6610 Y548.5065 Z-1.0000 F5000
G1 X605.7802 Y547.9928 Z-1.0000 F5000
G1 X603.5967 Y546.7451 Z-1.0000 F5000
G1 X601.9454 Y544.8919 Z-1.0000 F5000
G1 X600.5325 Y542.5249 Z-1.0000 F5000
G1 X595.7986 Y533.3322 Z-1.0000 F5000
G1 X594.6976 Y531.4240 Z-1.0000 F5000
G1 X593.0096 Y529.3873 Z-1.0000 F5000
G1 X590.3307 Y527.8460 Z-1.0000 F5000
G1 X586.3307 Y527.3139 Z-1.0000 F5000
G1 X582.1655 Y528.4331 Z-1.0000 F5000
G1 X579.1747 Y531.1120 Z-1.0000 F5000
G1 X577.4316 Y534.9286 Z-1.0000 F5000
G1 X576.9729 Y539.4240 Z-1.0000 F5000
G1 X577.4499 Y543.5524 Z-1.0000 F5000
G1 X578.6976 Y546.6717 Z-1.0000 F5000
G1 X580.7527 Y549.0937 Z-1.0000 F5000
G1 X580.7527 Y549.0937 Z10.0000 F9999
G1 X627.4683 Y561.7542 Z10.0000 F9999
G1 X627.4683 Y561.7542 Z-1.0000 F2500
G1 X574.6243 Y592.1396 Z-1.0000 F5000
G1 X627.4683 Y561.7542 Z-1.0000 F5000
G1 X627.4683 Y561.7542 Z10.0000 F9999
G1 X618.0738 Y619.5708 Z10.0000 F9999
G1 X618.0738 Y619.5708 Z-1.0000 F2500
G1 X576.9729 Y603.5157 Z-1.0000 F5000
G1 X618.0738 Y619.5708 Z-1.0000 F5000
G1 X576.9729 Y635.5891 Z-1.0000 F5000
G1 X576.9729 Y635.5891 Z10.0000 F9999
G1 X601.6334 Y646.2680 Z10.0000 F9999
G1 X601.6334 Y646.2680 Z-1.0000 F2500
G1 X601.6334 Y675.5157 Z-1.0000 F5000
G1 X601.6334 Y646.2680 Z-1.0000 F5000
G1 X601.6334 Y646.2680 Z10.0000 F9999
G1 X591.6701 Y609.2588 Z10.0000 F9999
G1 X591.6701 Y609.2588 Z-1.0000 F2500
G1 X591.6701 Y629.9561 Z-1.0000 F5000
G1 X591.6701 Y609.2588 Z-1.0000 F5000
G1 X591.6701 Y609.2588 Z10.0000 F9999
G1 X591.6701 Y692.6350 Z10.0000 F9999
G1 X591.6701 Y692.6350 Z-1.0000 F2500
G1 X591.6701 Y713.3322 Z-1.0000 F5000
G1 X591.6701 Y692.6350 Z-1.0000 F5000
G1 X591.6701 Y692.6350 Z10.0000 F9999
G1 X618.0738 Y702.9469 Z10.0000 F9999
G1 X618.0738 Y702.9469 Z-1.0000 F2500
G1 X576.9729 Y686.8919 Z-1.0000 F5000
G1 X618.0738 Y702.9469 Z-1.0000 F5000
G1 X576.9729 Y718.9653 Z-1.0000 F5000
G1 X576.9729 Y718.9653 Z10.0000 F9999
G1 X576.9729 Y729.6441 Z10.0000 F9999
G1 X576.9729 Y729.6441 Z-1.0000 F2500
G1 X597.1197 Y742.8735 Z-1.0000 F5000
G1 X576.9729 Y729.6441 Z-1.0000 F5000
G1 X576.9729 Y729.6441 Z10.0000 F9999
G1 X576.9729 Y747.0570 Z10.0000 F9999
G1 X576.9729 Y747.0570 Z-1.0000 F2500
G1 X618.0738 Y747.0570 Z-1.0000 F5000
G1 X618.0738 Y739.9010 Z-1.0000 F5000
G1 X617.4683 Y736.0295 Z-1.0000 F5000
G1 X615.6518 Y732.8185 Z-1.0000 F5000
G1 X612.4958 Y730.5983 Z-1.0000 F5000
G1 X607.8536 Y729.7542 Z-1.0000 F5000
G1 X603.1747 Y730.9102 Z-1.0000 F5000
G1 X599.8536 Y733.6808 Z-1.0000 F5000
G1 X597.8903 Y737.0019 Z-1.0000 F5000
G1 X597.2298 Y739.9010 Z-1.0000 F5000
G1 X597.2298 Y747.0570 Z-1.0000 F5000
G1 X597.2298 Y739.9010 Z-1.0000 F5000
G1 X597.8903 Y737.0019 Z-1.0000 F5000
G1 X599.8536 Y733.6808 Z-1.0000 F5000
G1 X603.1747 Y730.9102 Z-1.0000 F5000
G1 X607.8536 Y729.7542 Z-1.0000 F5000
G1 X612.4958 Y730.5983 Z-1.0000 F5000
G1 X615.6518 Y732.8185 Z-1.0000 F5000
G1 X617.4683 Y736.0295 Z-1.0000 F5000
G1 X618.0738 Y739.9010 Z-1.0000 F5000
G1 X618.0738 Y747.0570 Z-1.0000 F5000
G1 X618.0738 Y747.0570 Z10.0000 F9999
G1 X599.7802 Y777.5891 Z10.0000 F9999
G1 X599.7802 Y777.5891 Z-1.0000 F2500
G1 X599.7802 Y763.1487 Z-1.0000 F5000
G1 X599.7802 Y777.5891 Z-1.0000 F5000
G1 X618.0738 Y777.5891 Z-1.0000 F5000
G1 X618.0738 Y762.4698 Z-1.0000 F5000
G1 X618.0738 Y777.5891 Z-1.0000 F5000
G1 X576.9729 Y777.5891 Z-1.0000 F5000
G1 X576.9729 Y777.5891 Z10.0000 F9999
G1 X754.5439 Y747.0570 Z10.0000 F9999
G1 X754.5439 Y747.0570 Z-1.0000 F2500
G1 X795.6448 Y747.0570 Z-1.0000 F5000
G1 X795.6448 Y739.9010 Z-1.0000 F5000
G1 X795.0393 Y736.0295 Z-1.0000 F5000
G1 X793.2228 Y732.8185 Z-1.0000 F5000
G1 X790.0668 Y730.5983 Z-1.0000 F5000
G1 X785.4246 Y729.7542 Z-1.0000 F5000
G1 X780.7457 Y730.9102 Z-1.0000 F5000
G1 X777.4246 Y733.6808 Z-1.0000 F5000
G1 X775.4613 Y737.0019 Z-1.0000 F5000
G1 X774.8007 Y739.9010 Z-1.0000 F5000
G1 X774.8007 Y747.0570 Z-1.0000 F5000
G1 X774.8007 Y739.9010 Z-1.0000 F5000
G1 X775.4613 Y737.0019 Z-1.0000 F5000
G1 X777.4246 Y733.6808 Z-1.0000 F5000
G1 X780.7457 Y730.9102 Z-1.0000 F5000
G1 X785.4246 Y729.7542 Z-1.0000 F5000
G1 X790.0668 Y730.5983 Z-1.0000 F5000
G1 X793.2228 Y732.8185 Z-1.0000 F5000
G1 X795.0393 Y736.0295 Z-1.0000 F5000
G1 X795.6448 Y739.9010 Z-1.0000 F5000
G1 X795.6448 Y747.0570 Z-1.0000 F5000
G1 X795.6448 Y747.0570 Z10.0000 F9999
G1 X777.3512 Y777.5891 Z10.0000 F9999
G1 X777.3512 Y777.5891 Z-1.0000 F2500
G1 X777.3512 Y763.1487 Z-1.0000 F5000
G1 X777.3512 Y777.5891 Z-1.0000 F5000
G1 X795.6448 Y777.5891 Z-1.0000 F5000
G1 X795.6448 Y762.4698 Z-1.0000 F5000
G1 X795.6448 Y777.5891 Z-1.0000 F5000
G1 X754.5439 Y777.5891 Z-1.0000 F5000
G1 X754.5439 Y777.5891 Z10.0000 F9999
G1 X754.5439 Y729.6441 Z10.0000 F9999
G1 X754.5439 Y729.6441 Z-1.0000 F2500
G1 X774.6907 Y742.8735 Z-1.0000 F5000
G1 X754.5439 Y729.6441 Z-1.0000 F5000
G1 X754.5439 Y729.6441 Z10.0000 F9999
G1 X769.2411 Y692.6350 Z10.0000 F9999
G1 X769.2411 Y692.6350 Z-1.0000 F2500
G1 X769.2411 Y713.3322 Z-1.0000 F5000
G1 X769.2411 Y692.6350 Z-1.0000 F5000
G1 X769.2411 Y692.6350 Z10.0000 F9999
G1 X795.6448 Y702.9469 Z10.0000 F9999
G1 X795.6448 Y702.9469 Z-1.0000 F2500
G1 X754.5439 Y686.8919 Z-1.0000 F5000
G1 X795.6448 Y702.9469 Z-1.0000 F5000
G1 X754.5439 Y718.9653 Z-1.0000 F5000
G1 X754.5439 Y718.9653 Z10.0000 F9999
G1 X779.2044 Y646.2680 Z10.0000 F9999
G1 X779.2044 Y646.2680 Z-1.0000 F2500
G1 X779.2044 Y675.5157 Z-1.0000 F5000
G1 X779.2044 Y646.2680 Z-1.0000 F5000
G1 X779.2044 Y646.2680 Z10.0000 F9999
G1 X795.6448 Y619.5708 Z10.0000 F9999
G1 X795.6448 Y619.5708 Z-1.0000 F2500
G1 X754.5439 Y603.5157 Z-1.0000 F5000
G1 X795.6448 Y619.5708 Z-1.0000 F5000
G1 X754.5439 Y635.5891 Z-1.0000 F5000
G1 X754.5439 Y635.5891 Z10.0000 F9999
G1 X769.2411 Y609.2588 Z10.0000 F9999
G1 X769.2411 Y609.2588 Z-1.0000 F2500
G1 X769.2411 Y629.9561 Z-1.0000 F5000
G1 X769.2411 Y609.2588 Z-1.0000 F5000
G1 X769.2411 Y609.2588 Z10.0000 F9999
G1 X761.3696 Y551.0386 Z10.0000 F9999
G1 X761.3696 Y551.0386 Z-1.0000 F2500
G1 X758.3237 Y549.0937 Z-1.0000 F5000
G1 X756.2686 Y546.6717 Z-1.0000 F5000
G1 X755.0209 Y543.5524 Z-1.0000 F5000
G1 X754.5439 Y539.4240 Z-1.0000 F5000
G1 X755.0026 Y534.9286 Z-1.0000 F5000
G1 X756.7457 Y531.1120 Z-1.0000 F5000
G1 X759.7365 Y528.4331 Z-1.0000 F5000
G1 X763.9017 Y527.3139 Z-1.0000 F5000
G1 X767.9017 Y527.8460 Z-1.0000 F5000
G1 X770.5806 Y529.3873 Z-1.0000 F5000
G1 X772.2686 Y531.4240 Z-1.0000 F5000
G1 X773.3696 Y533.3322 Z-1.0000 F5000
G1 X778.1035 Y542.5249 Z-1.0000 F5000
G1 X779.5163 Y544.8919 Z-1.0000 F5000
G1 X781.1677 Y546.7451 Z-1.0000 F5000
G1 X783.3512 Y547.9928 Z-1.0000 F5000
G1 X786.2319 Y548.5065 Z-1.0000 F5000
G1 X789.5163 Y547.9744 Z-1.0000 F5000
G1 X792.5439 Y546.1396 Z-1.0000 F5000
G1 X794.7640 Y543.0019 Z-1.0000 F5000
G1 X795.6448 Y538.6350 Z-1.0000 F5000
G1 X794.9659 Y534.3781 Z-1.0000 F5000
G1 X793.4980 Y531.5341 Z-1.0000 F5000
G1 X791.3512 Y529.4423 Z-1.0000 F5000
G1 X793.4980 Y531.5341 Z-1.0000 F5000
G1 X794.9659 Y534.3781 Z-1.0000 F5000
G1 X795.6448 Y538.6350 Z-1.0000 F5000
G1 X794.7640 Y543.0019 Z-1.0000 F5000
G1 X792.5439 Y546.1396 Z-1.0000 F5000
G1 X789.5163 Y547.9744 Z-1.0000 F5000
G1 X786.2319 Y548.5065 Z-1.0000 F5000
G1 X783.3512 Y547.9928 Z-1.0000 F5000
G1 X781.1677 Y546.7451 Z-1.0000 F5000
G1 X779.5163 Y544.8919 Z-1.0000 F5000
G1 X778.1035 Y542.5249 Z-1.0000 F5000
G1 X773.3696 Y533.3322 Z-1.0000 F5000
G1 X772.2686 Y531.4240 Z-1.0000 F5000
G1 X770.5806 Y529.3873 Z-1.0000 F5000
G1 X767.9017 Y527.8460 Z-1.0000 F5000
G1 X763.9017 Y527.3139 Z-1.0000 F5000
G1 X759.7365 Y528.4331 Z-1.0000 F5000
G1 X756.7457 Y531.1120 Z-1.0000 F5000
G1 X755.0026 Y534.9286 Z-1.0000 F5000
G1 X754.5439 Y539.4240 Z-1.0000 F5000
G1 X755.0209 Y543.5524 Z-1.0000 F5000
G1 X756.2686 Y546.6717 Z-1.0000 F5000
G1 X758.3237 Y549.0937 Z-1.0000 F5000
G1 X758.3237 Y549.0937 Z10.0000 F9999
G1 X754.5439 Y515.8093 Z10.0000 F9999
G1 X754.5439 Y515.8093 Z-1.0000 F2500
G1 X772.1585 Y500.0662 Z-1.0000 F5000
G1 X774.1767 Y498.3175 Z-1.0000 F5000
G1 X776.2503 Y496.6350 Z-1.0000 F5000
G1 X777.8100 Y495.6151 Z-1.0000 F5000
G1 X779.4062 Y494.6533 Z-1.0000 F5000
G1 X781.8650 Y493.7175 Z-1.0000 F5000
G1 X785.1494 Y493.3139 Z-1.0000 F5000
G1 X788.8925 Y493.9377 Z-1.0000 F5000
G1 X792.2686 Y495.8643 Z-1.0000 F5000
G1 X794.7090 Y499.2038 Z-1.0000 F5000
G1 X795.6448 Y504.1946 Z-1.0000 F5000
G1 X793.0393 Y512.9102 Z-1.0000 F5000
G1 X786.2870 Y515.6992 Z-1.0000 F5000
G1 X793.0393 Y512.9102 Z-1.0000 F5000
G1 X795.6448 Y504.1946 Z-1.0000 F5000
G1 X794.7090 Y499.2038 Z-1.0000 F5000
G1 X792.2686 Y495.8643 Z-1.0000 F5000
G1 X788.8925 Y493.9377 Z-1.0000 F5000
G1 X785.1494 Y493.3139 Z-1.0000 F5000
G1 X781.8650 Y493.7175 Z-1.0000 F5000
G1 X779.4062 Y494.6533 Z-1.0000 F5000
G1 X777.8100 Y495.6151 Z-1.0000 F5000
G1 X776.2503 Y496.6350 Z-1.0000 F5000
G1 X774.1767 Y498.3175 Z-1.0000 F5000
G1 X772.1585 Y500.0662 Z-1.0000 F5000
G1 X754.5439 Y515.8093 Z-1.0000 F5000
G1 X754.5439 Y493.6075 Z-1.0000 F5000
G1 X754.5439 Y493.6075 Z10.0000 F9999
G1 X754.5439 Y437.0386 Z10.0000 F9999
G1 X754.5439 Y437.0386 Z-1.0000 F2500
G1 X777.3512 Y437.0386 Z-1.0000 F5000
G1 X777.3512 Y420.5799 Z-1.0000 F5000
G1 X777.3512 Y437.0386 Z-1.0000 F5000
G1 X795.6448 Y437.0386 Z-1.0000 F5000
G1 X795.6448 Y419.2772 Z-1.0000 F5000
G1 X795.6448 Y437.0386 Z-1.0000 F5000
G1 X754.5439 Y437.0386 Z-1.0000 F5000
G1 X754.5439 Y419.2772 Z-1.0000 F5000
G1 X754.5439 Y419.2772 Z10.0000 F9999
G1 X775.7549 Y396.8735 Z10.0000 F9999
G1 X775.7549 Y396.8735 Z-1.0000 F2500
G1 X754.5439 Y384.9286 Z-1.0000 F5000
G1 X775.7549 Y396.8735 Z-1.0000 F5000
G1 X795.6448 Y384.9286 Z-1.0000 F5000
G1 X775.7549 Y396.8735 Z-1.0000 F5000
G1 X795.6448 Y408.9469 Z-1.0000 F5000
G1 X775.7549 Y396.8735 Z-1.0000 F5000
G1 X754.5439 Y408.9469 Z-1.0000 F5000
G1 X754.5439 Y408.9469 Z10.0000 F9999
G1 X805.0393 Y452.5432 Z10.0000 F9999
G1 X805.0393 Y452.5432 Z-1.0000 F2500
G1 X752.1952 Y482.9286 Z-1.0000 F5000
G1 X805.0393 Y452.5432 Z-1.0000 F5000
G1 X805.0393 Y452.5432 Z10.0000 F9999
G1 X805.0393 Y561.7542 Z10.0000 F9999
G1 X805.0393 Y561.7542 Z-1.0000 F2500
G1 X752.1952 Y592.1396 Z-1.0000 F5000
G1 X805.0393 Y561.7542 Z-1.0000 F5000
G1 X805.0393 Y561.7542 Z10.0000 F9999
G1 X927.8962 Y551.0386 Z10.0000 F9999
G1 X927.8962 Y551.0386 Z-1.0000 F2500
G1 X924.8503 Y549.0937 Z-1.0000 F5000
G1 X922.7953 Y546.6717 Z-1.0000 F5000
G1 X921.5476 Y543.5524 Z-1.0000 F5000
G1 X921.0705 Y539.4240 Z-1.0000 F5000
G1 X921.5292 Y534.9286 Z-1.0000 F5000
G1 X923.2724 Y531.1120 Z-1.0000 F5000
G1 X926.2632 Y528.4331 Z-1.0000 F5000
G1 X930.4283 Y527.3139 Z-1.0000 F5000
G1 X934.4283 Y527.8460 Z-1.0000 F5000
G1 X937.1072 Y529.3873 Z-1.0000 F5000
G1 X938.7953 Y531.4240 Z-1.0000 F5000
G1 X939.8962 Y533.3322 Z-1.0000 F5000
G1 X944.6301 Y542.5249 Z-1.0000 F5000
G1 X946.0430 Y544.8919 Z-1.0000 F5000
G1 X947.6944 Y546.7451 Z-1.0000 F5000
G1 X949.8779 Y547.9928 Z-1.0000 F5000
G1 X952.7586 Y548.5065 Z-1.0000 F5000
G1 X956.0430 Y547.9744 Z-1.0000 F5000
G1 X959.0705 Y546.1396 Z-1.0000 F5000
G1 X961.2907 Y543.0019 Z-1.0000 F5000
G1 X962.1714 Y538.6350 Z-1.0000 F5000
G1 X961.4925 Y534.3781 Z-1.0000 F5000
G1 X960.0246 Y531.5341 Z-1.0000 F5000
G1 X957.8779 Y529.4423 Z-1.0000 F5000
G1 X960.0246 Y531.5341 Z-1.0000 F5000
G1 X961.4925 Y534.3781 Z-1.0000 F5000
G1 X962.1714 Y538.6350 Z-1.0000 F5000
G1 X961.2907 Y543.0019 Z-1.0000 F5000
G1 X959.0705 Y546.1396 Z-1.0000 F5000
G1 X956.0430 Y547.9744 Z-1.0000 F5000
G1 X952.7586 Y548.5065 Z-1.0000 F5000
G1 X949.8779 Y547.9928 Z-1.0000 F5000
G1 X947.6944 Y546.7451 Z-1.0000 F5000
G1 X946.0430 Y544.8919 Z-1.0000 F5000
G1 X944.6301 Y542.5249 Z-1.0000 F5000
G1 X939.8962 Y533.3322 Z-1.0000 F5000
G1 X938.7953 Y531.4240 Z-1.0000 F5000
G1 X937.1072 Y529.3873 Z-1.0000 F5000
G1 X934.4283 Y527.8460 Z-1.0000 F5000
G1 X930.4283 Y527.3139 Z-1.0000 F5000
G1 X926.2632 Y528.4331 Z-1.0000 F5000
G1 X923.2724 Y531.1120 Z-1.0000 F5000
G1 X921.5292 Y534.9286 Z-1.0000 F5000
G1 X921.0705 Y539.4240 Z-1.0000 F5000
G1 X921.5476 Y543.5524 Z-1.0000 F5000
G1 X922.7953 Y546.6717 Z-1.0000 F5000
G1 X924.8503 Y549.0937 Z-1.0000 F5000
G1 X924.8503 Y549.0937 Z10.0000 F9999
G1 X921.0705 Y515.8093 Z10.0000 F9999
G1 X921.0705 Y515.8093 Z-1.0000 F2500
G1 X938.6852 Y500.0662 Z-1.0000 F5000
G1 X940.7034 Y498.3175 Z-1.0000 F5000
G1 X942.7769 Y496.6350 Z-1.0000 F5000
G1 X944.3367 Y495.6151 Z-1.0000 F5000
G1 X945.9329 Y494.6533 Z-1.0000 F5000
G1 X948.3916 Y493.7175 Z-1.0000 F5000
G1 X951.6760 Y493.3139 Z-1.0000 F5000
G1 X955.4191 Y493.9377 Z-1.0000 F5000
G1 X958.7953 Y495.8643 Z-1.0000 F5000
G1 X961.2357 Y499.2038 Z-1.0000 F5000
G1 X962.1714 Y504.1946 Z-1.0000 F5000
G1 X959.5659 Y512.9102 Z-1.0000 F5000
G1 X952.8136 Y515.6992 Z-1.0000 F5000
G1 X959.5659 Y512.9102 Z-1.0000 F5000
G1 X962.1714 Y504.1946 Z-1.0000 F5000
G1 X961.2357 Y499.2038 Z-1.0000 F5000
G1 X958.7953 Y495.8643 Z-1.0000 F5000
G1 X955.4191 Y493.9377 Z-1.0000 F5000
G1 X951.6760 Y493.3139 Z-1.0000 F5000
G1 X948.3916 Y493.7175 Z-1.0000 F5000
G1 X945.9329 Y494.6533 Z-1.0000 F5000
G1 X944.3367 Y495.6151 Z-1.0000 F5000
G1 X942.7769 Y496.6350 Z-1.0000 F5000
G1 X940.7034 Y498.3175 Z-1.0000 F5000
G1 X938.6852 Y500.0662 Z-1.0000 F5000
G1 X921.0705 Y515.8093 Z-1.0000 F5000
G1 X921.0705 Y493.6075 Z-1.0000 F5000
G1 X921.0705 Y493.6075 Z10.0000 F9999
G1 X921.0705 Y437.0386 Z10.0000 F9999
G1 X921.0705 Y437.0386 Z-1.0000 F2500
G1 X943.8779 Y437.0386 Z-1.0000 F5000
G1 X943.8779 Y420.5799 Z-1.0000 F5000
G1 X943.8779 Y437.0386 Z-1.0000 F5000
G1 X962.1714 Y437.0386 Z-1.0000 F5000
G1 X962.1714 Y419.2772 Z-1.0000 F5000
G1 X962.1714 Y437.0386 Z-1.0000 F5000
G1 X921.0705 Y437.0386 Z-1.0000 F5000
G1 X921.0705 Y419.2772 Z-1.0000 F5000
G1 X921.0705 Y419.2772 Z10.0000 F9999
G1 X942.2815 Y396.8735 Z10.0000 F9999
G1 X942.2815 Y396.8735 Z-1.0000 F2500
G1 X921.0705 Y384.9286 Z-1.0000 F5000
G1 X942.2815 Y396.8735 Z-1.0000 F5000
G1 X962.1714 Y384.9286 Z-1.0000 F5000
G1 X942.2815 Y396.8735 Z-1.0000 F5000
G1 X962.1714 Y408.9469 Z-1.0000 F5000
G1 X942.2815 Y396.8735 Z-1.0000 F5000
G1 X921.0705 Y408.9469 Z-1.0000 F5000
G1 X921.0705 Y408.9469 Z10.0000 F9999
G1 X971.5659 Y452.5432 Z10.0000 F9999
G1 X971.5659 Y452.5432 Z-1.0000 F2500
G1 X918.7219 Y482.9286 Z-1.0000 F5000
G1 X971.5659 Y452.5432 Z-1.0000 F5000
G1 X971.5659 Y452.5432 Z10.0000 F9999
G1 X971.5659 Y561.7542 Z10.0000 F9999
G1 X971.5659 Y561.7542 Z-1.0000 F2500
G1 X918.7219 Y592.1396 Z-1.0000 F5000
G1 X971.5659 Y561.7542 Z-1.0000 F5000
G1 X971.5659 Y561.7542 Z10.0000 F9999
G1 X962.1714 Y619.5708 Z10.0000 F9999
G1 X962.1714 Y619.5708 Z-1.0000 F2500
G1 X921.0705 Y603.5157 Z-1.0000 F5000
G1 X962.1714 Y619.5708 Z-1.0000 F5000
G1 X921.0705 Y635.5891 Z-1.0000 F5000
G1 X921.0705 Y635.5891 Z10.0000 F9999
G1 X945.7311 Y646.2680 Z10.0000 F9999
G1 X945.7311 Y646.2680 Z-1.0000 F2500
G1 X945.7311 Y675.5157 Z-1.0000 F5000
G1 X945.7311 Y646.2680 Z-1.0000 F5000
G1 X945.7311 Y646.2680 Z10.0000 F9999
G1 X935.7678 Y609.2588 Z10.0000 F9999
G1 X935.7678 Y609.2588 Z-1.0000 F2500
G1 X935.7678 Y629.9561 Z-1.0000 F5000
G1 X935.7678 Y609.2588 Z-1.0000 F5000
G1 X935.7678 Y609.2588 Z10.0000 F9999
G1 X935.7678 Y692.6350 Z10.0000 F9999
G1 X935.7678 Y692.6350 Z-1.0000 F2500
G1 X935.7678 Y713.3322 Z-1.0000 F5000
G1 X935.7678 Y692.6350 Z-1.0000 F5000
G1 X935.7678 Y692.6350 Z10.0000 F9999
G1 X962.1714 Y702.9469 Z10.0000 F9999
G1 X962.1714 Y702.9469 Z-1.0000 F2500
G1 X921.0705 Y686.8919 Z-1.0000 F5000
G1 X962.1714 Y702.9469 Z-1.0000 F5000
G1 X921.0705 Y718.9653 Z-1.0000 F5000
G1 X921.0705 Y718.9653 Z10.0000 F9999
G1 X921.0705 Y729.6441 Z10.0000 F9999
G1 X921.0705 Y729.6441 Z-1.0000 F2500
G1 X941.2173 Y742.8735 Z-1.0000 F5000
G1 X921.0705 Y729.6441 Z-1.0000 F5000
G1 X921.0705 Y729.6441 Z10.0000 F9999
G1 X921.0705 Y747.0570 Z10.0000 F9999
G1 X921.0705 Y747.0570 Z-1.0000 F2500
G1 X962.1714 Y747.0570 Z-1.0000 F5000
G1 X962.1714 Y739.9010 Z-1.0000 F5000
G1 X961.5659 Y736.0295 Z-1.0000 F5000
G1 X959.7494 Y732.8185 Z-1.0000 F5000
G1 X956.5935 Y730.5983 Z-1.0000 F5000
G1 X951.9513 Y729.7542 Z-1.0000 F5000
G1 X947.2724 Y730.9102 Z-1.0000 F5000
G1 X943.9513 Y733.6808 Z-1.0000 F5000
G1 X941.9879 Y737.0019 Z-1.0000 F5000
G1 X941.3274 Y739.9010 Z-1.0000 F5000
G1 X941.3274 Y747.0570 Z-1.0000 F5000
G1 X941.3274 Y739.9010 Z-1.0000 F5000
G1 X941.9879 Y737.0019 Z-1.0000 F5000
G1 X943.9513 Y733.6808 Z-1.0000 F5000
G1 X947.2724 Y730.9102 Z-1.0000 F5000
G1 X951.9513 Y729.7542 Z-1.0000 F5000
G1 X956.5935 Y730.5983 Z-1.0000 F5000
G1 X959.7494 Y732.8185 Z-1.0000 F5000
G1 X961.5659 Y736.0295 Z-1.0000 F5000
G1 X962.1714 Y739.9010 Z-1.0000 F5000
G1 X962.1714 Y747.0570 Z-1.0000 F5000
G1 X962.1714 Y747.0570 Z10.0000 F9999
G1 X943.8779 Y777.5891 Z10.0000 F9999
G1 X943.8779 Y777.5891 Z-1.0000 F2500
G1 X943.8779 Y763.1487 Z-1.0000 F5000
G1 X943.8779 Y777.5891 Z-1.0000 F5000
G1 X962.1714 Y777.5891 Z-1.0000 F5000
G1 X962.1714 Y762.4698 Z-1.0000 F5000
G1 X962.1714 Y777.5891 Z-1.0000 F5000
G1 X921.0705 Y777.5891 Z-1.0000 F5000
G1 X921.0705 Y777.5891 Z10.0000 F9999
G1 X1098.6415 Y747.0570 Z10.0000 F9999
G1 X1098.6415 Y747.0570 Z-1.0000 F2500
G1 X1139.7424 Y747.0570 Z-1.0000 F5000
G1 X1139.7424 Y739.9010 Z-1.0000 F5000
G1 X1139.1369 Y736.0295 Z-1.0000 F5000
G1 X1137.3204 Y732.8185 Z-1.0000 F5000
G1 X1134.1644 Y730.5983 Z-1.0000 F5000
G1 X1129.5222 Y729.7542 Z-1.0000 F5000
G1 X1124.8433 Y730.9102 Z-1.0000 F5000
G1 X1121.5222 Y733.6808 Z-1.0000 F5000
G1 X1119.5589 Y737.0019 Z-1.0000 F5000
G1 X1118.8984 Y739.9010 Z-1.0000 F5000
G1 X1118.8984 Y747.0570 Z-1.0000 F5000
G1 X1118.8984 Y739.9010 Z-1.0000 F5000
G1 X1119.5589 Y737.0019 Z-1.0000 F5000
G1 X1121.5222 Y733.6808 Z-1.0000 F5000
G1 X1124.8433 Y730.9102 Z-1.0000 F5000
G1 X1129.5222 Y729.7542 Z-1.0000 F5000
G1 X1134.1644 Y730.5983 Z-1.0000 F5000
G1 X1137.3204 Y732.8185 Z-1.0000 F5000
G1 X1139.1369 Y736.0295 Z-1.0000 F5000
G1 X1139.7424 Y739.9010 Z-1.0000 F5000
G1 X1139.7424 Y747.0570 Z-1.0000 F5000
G1 X1139.7424 Y747.0570 Z10.0000 F9999
G1 X1121.4488 Y777.5891 Z10.0000 F9999
G1 X1121.4488 Y777.5891 Z-1.0000 F2500
G1 X1121.4488 Y763.1487 Z-1.0000 F5000
G1 X1121.4488 Y777.5891 Z-1.0000 F5000
G1 X1139.7424 Y777.5891 Z-1.0000 F5000
G1 X1139.7424 Y762.4698 Z-1.0000 F5000
G1 X1139.7424 Y777.5891 Z-1.0000 F5000
G1 X1098.6415 Y777.5891 Z-1.0000 F5000
G1 X1098.6415 Y777.5891 Z10.0000 F9999
G1 X1098.6415 Y729.6441 Z10.0000 F9999
G1 X1098.6415 Y729.6441 Z-1.0000 F2500
G1 X1118.7883 Y742.8735 Z-1.0000 F5000
G1 X1098.6415 Y729.6441 Z-1.0000 F5000
G1 X1098.6415 Y729.6441 Z10.0000 F9999
G1 X1113.3387 Y692.6350 Z10.0000 F9999
G1 X1113.3387 Y692.6350 Z-1.0000 F2500
G1 X1113.3387 Y713.3322 Z-1.0000 F5000
G1 X1113.3387 Y692.6350 Z-1.0000 F5000
G1 X1113.3387 Y692.6350 Z10.0000 F9999
G1 X1139.7424 Y702.9469 Z10.0000 F9999
G1 X1139.7424 Y702.9469 Z-1.0000 F2500
G1 X1098.6415 Y686.8919 Z-1.0000 F5000
G1 X1139.7424 Y702.9469 Z-1.0000 F5000
G1 X1098.6415 Y718.9653 Z-1.0000 F5000
G1 X1098.6415 Y718.9653 Z10.0000 F9999
G1 X1123.3021 Y646.2680 Z10.0000 F9999
G1 X1123.3021 Y646.2680 Z-1.0000 F2500
G1 X1123.3021 Y675.5157 Z-1.0000 F5000
G1 X1123.3021 Y646.2680 Z-1.0000 F5000
G1 X1123.3021 Y646.2680 Z10.0000 F9999
G1 X1139.7424 Y619.5708 Z10.0000 F9999
G1 X1139.7424 Y619.5708 Z-1.0000 F2500
G1 X1098.6415 Y603.5157 Z-1.0000 F5000
G1 X1139.7424 Y619.5708 Z-1.0000 F5000
G1 X1098.6415 Y635.5891 Z-1.0000 F5000
G1 X1098.6415 Y635.5891 Z10.0000 F9999
G1 X1113.3387 Y609.2588 Z10.0000 F9999
G1 X1113.3387 Y609.2588 Z-1.0000 F2500
G1 X1113.3387 Y629.9561 Z-1.0000 F5000
G1 X1113.3387 Y609.2588 Z-1.0000 F5000
G1 X1113.3387 Y609.2588 Z10.0000 F9999
G1 X1105.4672 Y551.0386 Z10.0000 F9999
G1 X1105.4672 Y551.0386 Z-1.0000 F2500
G1 X1102.4213 Y549.0937 Z-1.0000 F5000
G1 X1100.3663 Y546.6717 Z-1.0000 F5000
G1 X1099.1186 Y543.5524 Z-1.0000 F5000
G1 X1098.6415 Y539.4240 Z-1.0000 F5000
G1 X1099.1002 Y534.9286 Z-1.0000 F5000
G1 X1100.8433 Y531.1120 Z-1.0000 F5000
G1 X1103.8342 Y528.4331 Z-1.0000 F5000
G1 X1107.9993 Y527.3139 Z-1.0000 F5000
G1 X1111.9993 Y527.8460 Z-1.0000 F5000
G1 X1114.6782 Y529.3873 Z-1.0000 F5000
G1 X1116.3663 Y531.4240 Z-1.0000 F5000
G1 X1117.4672 Y533.3322 Z-1.0000 F5000
G1 X1122.2011 Y542.5249 Z-1.0000 F5000
G1 X1123.6140 Y544.8919 Z-1.0000 F5000
G1 X1125.2654 Y546.7451 Z-1.0000 F5000
G1 X1127.4488 Y547.9928 Z-1.0000 F5000
G1 X1130.3296 Y548.5065 Z-1.0000 F5000
G1 X1133.6140 Y547.9744 Z-1.0000 F5000
G1 X1136.6415 Y546.1396 Z-1.0000 F5000
G1 X1138.8617 Y543.0019 Z-1.0000 F5000
G1 X1139.7424 Y538.6350 Z-1.0000 F5000
G1 X1139.0635 Y534.3781 Z-1.0000 F5000
G1 X1137.5956 Y531.5341 Z-1.0000 F5000
G1 X1135.4488 Y529.4423 Z-1.0000 F5000
G1 X1137.5956 Y531.5341 Z-1.0000 F5000
G1 X1139.0635 Y534.3781 Z-1.0000 F5000
G1 X1139.7424 Y538.6350 Z-1.0000 F5000
G1 X1138.8617 Y543.0019 Z-1.0000 F5000
G1 X1136.6415 Y546.1396 Z-1.0000 F5000
G1 X1133.6140 Y547.9744 Z-1.0000 F5000
G1 X1130.3296 Y548.5065 Z-1.0000 F5000
G1 X1127.4488 Y547.9928 Z-1.0000 F5000
G1 X1125.2654 Y546.7451 Z-1.0000 F5000
G1 X1123.6140 Y544.8919 Z-1.0000 F5000
G1 X1122.2011 Y542.5249 Z-1.0000 F5000
G1 X1117.4672 Y533.3322 Z-1.0000 F5000
G1 X1116.3663 Y531.4240 Z-1.0000 F5000
G1 X1114.6782 Y529.3873 Z-1.0000 F5000
G1 X1111.9993 Y527.8460 Z-1.0000 F5000
G1 X1107.9993 Y527.3139 Z-1.0000 F5000
G1 X1103.8342 Y528.4331 Z-1.0000 F5000
G1 X1100.8433 Y531.1120 Z-1.0000 F5000
G1 X1099.1002 Y534.9286 Z-1.0000 F5000
G1 X1098.6415 Y539.4240 Z-1.0000 F5000
G1 X1099.1186 Y543.5524 Z-1.0000 F5000
G1 X1100.3663 Y546.6717 Z-1.0000 F5000
G1 X1102.4213 Y549.0937 Z-1.0000 F5000
G1 X1102.4213 Y549.0937 Z10.0000 F9999
G1 X1098.6415 Y515.8093 Z10.0000 F9999
G1 X1098.6415 Y515.8093 Z-1.0000 F2500
G1 X1116.2562 Y500.0662 Z-1.0000 F5000
G1 X1118.2744 Y498.3175 Z-1.0000 F5000
G1 X1120.3479 Y496.6350 Z-1.0000 F5000
G1 X1121.9077 Y495.6151 Z-1.0000 F5000
G1 X1123.5039 Y494.6533 Z-1.0000 F5000
G1 X1125.9626 Y493.7175 Z-1.0000 F5000
G1 X1129.2470 Y493.3139 Z-1.0000 F5000
G1 X1132.9901 Y493.9377 Z-1.0000 F5000
G1 X1136.3663 Y495.8643 Z-1.0000 F5000
G1 X1138.8066 Y499.2038 Z-1.0000 F5000
G1 X1139.7424 Y504.1946 Z-1.0000 F5000
G1 X1137.1369 Y512.9102 Z-1.0000 F5000
G1 X1130.3846 Y515.6992 Z-1.0000 F5000
G1 X1137.1369 Y512.9102 Z-1.0000 F5000
G1 X1139.7424 Y504.1946 Z-1.0000 F5000
G1 X1138.8066 Y499.2038 Z-1.0000 F5000
G1 X1136.3663 Y495.8643 Z-1.0000 F5000
G1 X1132.9901 Y493.9377 Z-1.0000 F5000
G1 X1129.2470 Y493.3139 Z-1.0000 F5000
G1 X1125.9626 Y493.7175 Z-1.0000 F5000
G1 X1123.5039 Y494.6533 Z-1.0000 F5000
G1 X1121.9077 Y495.6151 Z-1.0000 F5000
G1 X1120.3479 Y496.6350 Z-1.0000 F5000
G1 X1118.2744 Y498.3175 Z-1.0000 F5000
G1 X1116.2562 Y500.0662 Z-1.0000 F5000
G1 X1098.6415 Y515.8093 Z-1.0000 F5000
G1 X1098.6415 Y493.6075 Z-1.0000 F5000
G1 X1098.6415 Y493.6075 Z10.0000 F9999
G1 X1098.6415 Y437.0386 Z10.0000 F9999
G1 X1098.6415 Y437.0386 Z-1.0000 F2500
G1 X1121.4488 Y437.0386 Z-1.0000 F5000
G1 X1121.4488 Y420.5799 Z-1.0000 F5000
G1 X1121.4488 Y437.0386 Z-1.0000 F5000
G1 X1139.7424 Y437.0386 Z-1.0000 F5000
G1 X1139.7424 Y419.2772 Z-1.0000 F5000
G1 X1139.7424 Y437.0386 Z-1.0000 F5000
G1 X1098.6415 Y437.0386 Z-1.0000 F5000
G1 X1098.6415 Y419.2772 Z-1.0000 F5000
G1 X1098.6415 Y419.2772 Z10.0000 F9999
G1 X1119.8525 Y396.8735 Z10.0000 F9999
G1 X1119.8525 Y396.8735 Z-1.0000 F2500
G1 X1098.6415 Y384.9286 Z-1.0000 F5000
G1 X1119.8525 Y396.8735 Z-1.0000 F5000
G1 X1139.7424 Y384.9286 Z-1.0000 F5000
G1 X1119.8525 Y396.8735 Z-1.0000 F5000
G1 X1139.7424 Y408.9469 Z-1.0000 F5000
G1 X1119.8525 Y396.8735 Z-1.0000 F5000
G1 X1098.6415 Y408.9469 Z-1.0000 F5000
G1 X1098.6415 Y408.9469 Z10.0000 F9999
G1 X1149.1369 Y452.5432 Z10.0000 F9999
G1 X1149.1369 Y452.5432 Z-1.0000 F2500
G1 X1096.2929 Y482.9286 Z-1.0000 F5000
G1 X1149.1369 Y452.5432 Z-1.0000 F5000
G1 X1149.1369 Y452.5432 Z10.0000 F9999
G1 X1149.1369 Y561.7542 Z10.0000 F9999
G1 X1149.1369 Y561.7542 Z-1.0000 F2500
G1 X1096.2929 Y592.1396 Z-1.0000 F5000
G1 X1149.1369 Y561.7542 Z-1.0000 F5000
G1 X1149.1369 Y561.7542 Z10.0000 F9999
G1 X1118.7714 Y1498.1605 Z10.0000 F9999
G1 X1118.7714 Y1498.1605 Z-1.0000 F2500
G1 X1118.7714 Y1508.9908 Z-1.0000 F5000
G1 X1118.7714 Y1498.1605 Z-1.0000 F5000
G1 X1105.0513 Y1498.1605 Z-1.0000 F5000
G1 X1105.0513 Y1509.5000 Z-1.0000 F5000
G1 X1105.0513 Y1498.1605 Z-1.0000 F5000
G1 X1135.8769 Y1498.1605 Z-1.0000 F5000
G1 X1135.8769 Y1498.1605 Z10.0000 F9999
G1 X1135.8769 Y1521.0596 Z10.0000 F9999
G1 X1135.8769 Y1521.0596 Z-1.0000 F2500
G1 X1105.0513 Y1521.0596 Z-1.0000 F5000
G1 X1105.0513 Y1526.4266 Z-1.0000 F5000
G1 X1105.5054 Y1529.3303 Z-1.0000 F5000
G1 X1106.8678 Y1531.7385 Z-1.0000 F5000
G1 X1109.2347 Y1533.4037 Z-1.0000 F5000
G1 X1112.7164 Y1534.0367 Z-1.0000 F5000
G1 X1116.2256 Y1533.1697 Z-1.0000 F5000
G1 X1118.7164 Y1531.0917 Z-1.0000 F5000
G1 X1120.1889 Y1528.6009 Z-1.0000 F5000
G1 X1120.6843 Y1526.4266 Z-1.0000 F5000
G1 X1120.6843 Y1521.0596 Z-1.0000 F5000
G1 X1120.6843 Y1526.4266 Z-1.0000 F5000
G1 X1120.1889 Y1528.6009 Z-1.0000 F5000
G1 X1118.7164 Y1531.0917 Z-1.0000 F5000
G1 X1116.2256 Y1533.1697 Z-1.0000 F5000
G1 X1112.7164 Y1534.0367 Z-1.0000 F5000
G1 X1109.2347 Y1533.4037 Z-1.0000 F5000
G1 X1106.8678 Y1531.7385 Z-1.0000 F5000
G1 X1105.5054 Y1529.3303 Z-1.0000 F5000
G1 X1105.0513 Y1526.4266 Z-1.0000 F5000
G1 X1105.0513 Y1521.0596 Z-1.0000 F5000
G1 X1105.0513 Y1521.0596 Z10.0000 F9999
G1 X1105.0513 Y1554.1422 Z10.0000 F9999
G1 X1105.0513 Y1554.1422 Z-1.0000 F2500
G1 X1135.8769 Y1566.1835 Z-1.0000 F5000
G1 X1105.0513 Y1554.1422 Z-1.0000 F5000
G1 X1135.8769 Y1542.1284 Z-1.0000 F5000
G1 X1135.8769 Y1542.1284 Z10.0000 F9999
G1 X1135.8769 Y1534.1192 Z10.0000 F9999
G1 X1135.8769 Y1534.1192 Z-1.0000 F2500
G1 X1120.7669 Y1524.1972 Z-1.0000 F5000
G1 X1135.8769 Y1534.1192 Z-1.0000 F5000
G1 X1135.8769 Y1534.1192 Z10.0000 F9999
G1 X1124.8540 Y1561.8761 Z10.0000 F9999
G1 X1124.8540 Y1561.8761 Z-1.0000 F2500
G1 X1124.8540 Y1546.3532 Z-1.0000 F5000
G1 X1124.8540 Y1561.8761 Z-1.0000 F5000
G1 X1124.8540 Y1561.8761 Z10.0000 F9999
G1 X1117.3815 Y1596.6514 Z10.0000 F9999
G1 X1117.3815 Y1596.6514 Z-1.0000 F2500
G1 X1117.3815 Y1574.7156 Z-1.0000 F5000
G1 X1117.3815 Y1596.6514 Z-1.0000 F5000
G1 X1117.3815 Y1596.6514 Z10.0000 F9999
G1 X1105.0513 Y1616.6743 Z10.0000 F9999
G1 X1105.0513 Y1616.6743 Z-1.0000 F2500
G1 X1135.8769 Y1628.7156 Z-1.0000 F5000
G1 X1105.0513 Y1616.6743 Z-1.0000 F5000
G1 X1135.8769 Y1604.6605 Z-1.0000 F5000
G1 X1135.8769 Y1604.6605 Z10.0000 F9999
G1 X1124.8540 Y1624.4082 Z10.0000 F9999
G1 X1124.8540 Y1624.4082 Z-1.0000 F2500
G1 X1124.8540 Y1608.8853 Z-1.0000 F5000
G1 X1124.8540 Y1624.4082 Z-1.0000 F5000
G1 X1124.8540 Y1624.4082 Z10.0000 F9999
G1 X1130.7577 Y1668.0734 Z10.0000 F9999
G1 X1130.7577 Y1668.0734 Z-1.0000 F2500
G1 X1133.0421 Y1669.5321 Z-1.0000 F5000
G1 X1134.5834 Y1671.3486 Z-1.0000 F5000
G1 X1135.5191 Y1673.6881 Z-1.0000 F5000
G1 X1135.8769 Y1676.7844 Z-1.0000 F5000
G1 X1135.5329 Y1680.1559 Z-1.0000 F5000
G1 X1134.2256 Y1683.0183 Z-1.0000 F5000
G1 X1131.9824 Y1685.0275 Z-1.0000 F5000
G1 X1128.8586 Y1685.8670 Z-1.0000 F5000
G1 X1125.8586 Y1685.4679 Z-1.0000 F5000
G1 X1123.8494 Y1684.3119 Z-1.0000 F5000
G1 X1122.5834 Y1682.7844 Z-1.0000 F5000
G1 X1121.7577 Y1681.3532 Z-1.0000 F5000
G1 X1118.2072 Y1674.4587 Z-1.0000 F5000
G1 X1117.1476 Y1672.6835 Z-1.0000 F5000
G1 X1115.9091 Y1671.2936 Z-1.0000 F5000
G1 X1114.2714 Y1670.3578 Z-1.0000 F5000
G1 X1112.1109 Y1669.9725 Z-1.0000 F5000
G1 X1109.6476 Y1670.3715 Z-1.0000 F5000
G1 X1107.3769 Y1671.7477 Z-1.0000 F5000
G1 X1105.7118 Y1674.1009 Z-1.0000 F5000
G1 X1105.0513 Y1677.3761 Z-1.0000 F5000
G1 X1105.5604 Y1680.5688 Z-1.0000 F5000
G1 X1106.6613 Y1682.7018 Z-1.0000 F5000
G1 X1108.2714 Y1684.2706 Z-1.0000 F5000
G1 X1106.6613 Y1682.7018 Z-1.0000 F5000
G1 X1105.5604 Y1680.5688 Z-1.0000 F5000
G1 X1105.0513 Y1677.3761 Z-1.0000 F5000
G1 X1105.7118 Y1674.1009 Z-1.0000 F5000
G1 X1107.3769 Y1671.7477 Z-1.0000 F5000
G1 X1109.6476 Y1670.3715 Z-1.0000 F5000
G1 X1112.1109 Y1669.9725 Z-1.0000 F5000
G1 X1114.2714 Y1670.3578 Z-1.0000 F5000
G1 X1115.9091 Y1671.2936 Z-1.0000 F5000
G1 X1117.1476 Y1672.6835 Z-1.0000 F5000
G1 X1118.2072 Y1674.4587 Z-1.0000 F5000
G1 X1121.7577 Y1681.3532 Z-1.0000 F5000
G1 X1122.5834 Y1682.7844 Z-1.0000 F5000
G1 X1123.8494 Y1684.3119 Z-1.0000 F5000
G1 X1125.8586 Y1685.4679 Z-1.0000 F5000
G1 X1128.8586 Y1685.8670 Z-1.0000 F5000
G1 X1131.9824 Y1685.0275 Z-1.0000 F5000
G1 X1134.2256 Y1683.0183 Z-1.0000 F5000
G1 X1135.5329 Y1680.1559 Z-1.0000 F5000
G1 X1135.8769 Y1676.7844 Z-1.0000 F5000
G1 X1135.5191 Y1673.6881 Z-1.0000 F5000
G1 X1134.5834 Y1671.3486 Z-1.0000 F5000
G1 X1133.0421 Y1669.5321 Z-1.0000 F5000
G1 X1133.0421 Y1669.5321 Z10.0000 F9999
G1 X1098.0054 Y1660.0367 Z10.0000 F9999
G1 X1098.0054 Y1660.0367 Z-1.0000 F2500
G1 X1137.6384 Y1637.2477 Z-1.0000 F5000
G1 X1098.0054 Y1660.0367 Z-1.0000 F5000
G1 X1098.0054 Y1660.0367 Z10.0000 F9999
G1 X1105.0513 Y1711.1468 Z10.0000 F9999
G1 X1105.0513 Y1711.1468 Z-1.0000 F2500
G1 X1130.0971 Y1694.4954 Z-1.0000 F5000
G1 X1130.0971 Y1716.1009 Z-1.0000 F5000
G1 X1130.0971 Y1694.4954 Z-1.0000 F5000
G1 X1105.0513 Y1711.1468 Z-1.0000 F5000
G1 X1135.8769 Y1711.1468 Z-1.0000 F5000
G1 X1135.8769 Y1711.1468 Z10.0000 F9999
G1 X1098.0054 Y1747.2293 Z10.0000 F9999
G1 X1098.0054 Y1747.2293 Z-1.0000 F2500
G1 X1137.6384 Y1724.4403 Z-1.0000 F5000
G1 X1098.0054 Y1747.2293 Z-1.0000 F5000
G1 X1098.0054 Y1747.2293 Z10.0000 F9999
G1 X1105.0513 Y1758.8578 Z10.0000 F9999
G1 X1105.0513 Y1758.8578 Z-1.0000 F2500
G1 X1135.8769 Y1758.8578 Z-1.0000 F5000
G1 X1105.0513 Y1758.8578 Z-1.0000 F5000
G1 X1105.0513 Y1758.8578 Z10.0000 F9999
G1 X1105.0513 Y1773.8303 Z10.0000 F9999
G1 X1105.0513 Y1773.8303 Z-1.0000 F2500
G1 X1135.8769 Y1801.6559 Z-1.0000 F5000
G1 X1105.0513 Y1801.6559 Z-1.0000 F5000
G1 X1135.8769 Y1801.6559 Z-1.0000 F5000
G1 X1105.0513 Y1773.8303 Z-1.0000 F5000
G1 X1135.8769 Y1773.8303 Z-1.0000 F5000
G1 X1135.8769 Y1773.8303 Z10.0000 F9999
G1 X930.1492 Y1773.8303 Z10.0000 F9999
G1 X930.1492 Y1773.8303 Z-1.0000 F2500
G1 X960.9749 Y1801.6559 Z-1.0000 F5000
G1 X930.1492 Y1801.6559 Z-1.0000 F5000
G1 X960.9749 Y1801.6559 Z-1.0000 F5000
G1 X930.1492 Y1773.8303 Z-1.0000 F5000
G1 X960.9749 Y1773.8303 Z-1.0000 F5000
G1 X960.9749 Y1773.8303 Z10.0000 F9999
G1 X930.1492 Y1758.8578 Z10.0000 F9999
G1 X930.1492 Y1758.8578 Z-1.0000 F2500
G1 X960.9749 Y1758.8578 Z-1.0000 F5000
G1 X930.1492 Y1758.8578 Z-1.0000 F5000
G1 X930.1492 Y1758.8578 Z10.0000 F9999
G1 X923.1033 Y1747.2293 Z10.0000 F9999
G1 X923.1033 Y1747.2293 Z-1.0000 F2500
G1 X962.7364 Y1724.4403 Z-1.0000 F5000
G1 X923.1033 Y1747.2293 Z-1.0000 F5000
G1 X923.1033 Y1747.2293 Z10.0000 F9999
G1 X930.1492 Y1711.1468 Z10.0000 F9999
G1 X930.1492 Y1711.1468 Z-1.0000 F2500
G1 X955.1951 Y1694.4954 Z-1.0000 F5000
G1 X955.1951 Y1716.1009 Z-1.0000 F5000
G1 X955.1951 Y1694.4954 Z-1.0000 F5000
G1 X930.1492 Y1711.1468 Z-1.0000 F5000
G1 X960.9749 Y1711.1468 Z-1.0000 F5000
G1 X960.9749 Y1711.1468 Z10.0000 F9999
G1 X955.8556 Y1668.0734 Z10.0000 F9999
G1 X955.8556 Y1668.0734 Z-1.0000 F2500
G1 X958.1400 Y1669.5321 Z-1.0000 F5000
G1 X959.6813 Y1671.3486 Z-1.0000 F5000
G1 X960.6171 Y1673.6881 Z-1.0000 F5000
G1 X960.9749 Y1676.7844 Z-1.0000 F5000
G1 X960.6309 Y1680.1559 Z-1.0000 F5000
G1 X959.3235 Y1683.0183 Z-1.0000 F5000
G1 X957.0804 Y1685.0275 Z-1.0000 F5000
G1 X953.9565 Y1685.8670 Z-1.0000 F5000
G1 X950.9565 Y1685.4679 Z-1.0000 F5000
G1 X948.9474 Y1684.3119 Z-1.0000 F5000
G1 X947.6813 Y1682.7844 Z-1.0000 F5000
G1 X946.8556 Y1681.3532 Z-1.0000 F5000
G1 X943.3052 Y1674.4587 Z-1.0000 F5000
G1 X942.2455 Y1672.6835 Z-1.0000 F5000
G1 X941.0070 Y1671.2936 Z-1.0000 F5000
G1 X939.3694 Y1670.3578 Z-1.0000 F5000
G1 X937.2088 Y1669.9725 Z-1.0000 F5000
G1 X934.7455 Y1670.3715 Z-1.0000 F5000
G1 X932.4749 Y1671.7477 Z-1.0000 F5000
G1 X930.8098 Y1674.1009 Z-1.0000 F5000
G1 X930.1492 Y1677.3761 Z-1.0000 F5000
G1 X930.6584 Y1680.5688 Z-1.0000 F5000
G1 X931.7593 Y1682.7018 Z-1.0000 F5000
G1 X933.3694 Y1684.2706 Z-1.0000 F5000
G1 X931.7593 Y1682.7018 Z-1.0000 F5000
G1 X930.6584 Y1680.5688 Z-1.0000 F5000
G1 X930.1492 Y1677.3761 Z-1.0000 F5000
G1 X930.8098 Y1674.1009 Z-1.0000 F5000
G1 X932.4749 Y1671.7477 Z-1.0000 F5000
G1 X934.7455 Y1670.3715 Z-1.0000 F5000
G1 X937.2088 Y1669.9725 Z-1.0000 F5000
G1 X939.3694 Y1670.3578 Z-1.0000 F5000
G1 X941.0070 Y1671.2936 Z-1.0000 F5000
G1 X942.2455 Y1672.6835 Z-1.0000 F5000
G1 X943.3052 Y1674.4587 Z-1.0000 F5000
G1 X946.8556 Y1681.3532 Z-1.0000 F5000
G1 X947.6813 Y1682.7844 Z-1.0000 F5000
G1 X948.9474 Y1684.3119 Z-1.0000 F5000
G1 X950.9565 Y1685.4679 Z-1.0000 F5000
G1 X953.9565 Y1685.8670 Z-1.0000 F5000
G1 X957.0804 Y1685.0275 Z-1.0000 F5000
G1 X959.3235 Y1683.0183 Z-1.0000 F5000
G1 X960.6309 Y1680.1559 Z-1.0000 F5000
G1 X960.9749 Y1676.7844 Z-1.0000 F5000
G1 X960.6171 Y1673.6881 Z-1.0000 F5000
G1 X959.6813 Y1671.3486 Z-1.0000 F5000
G1 X958.1400 Y1669.5321 Z-1.0000 F5000
G1 X958.1400 Y1669.5321 Z10.0000 F9999
G1 X923.1033 Y1660.0367 Z10.0000 F9999
G1 X923.1033 Y1660.0367 Z-1.0000 F2500
G1 X962.7364 Y1637.2477 Z-1.0000 F5000
G1 X923.1033 Y1660.0367 Z-1.0000 F5000
G1 X923.1033 Y1660.0367 Z10.0000 F9999
G1 X930.1492 Y1616.6743 Z10.0000 F9999
G1 X930.1492 Y1616.6743 Z-1.0000 F2500
G1 X960.9749 Y1628.7156 Z-1.0000 F5000
G1 X930.1492 Y1616.6743 Z-1.0000 F5000
G1 X960.9749 Y1604.6605 Z-1.0000 F5000
G1 X960.9749 Y1604.6605 Z10.0000 F9999
G1 X942.4795 Y1596.6514 Z10.0000 F9999
G1 X942.4795 Y1596.6514 Z-1.0000 F2500
G1 X942.4795 Y1574.7156 Z-1.0000 F5000
G1 X942.4795 Y1596.6514 Z-1.0000 F5000
G1 X942.4795 Y1596.6514 Z10.0000 F9999
G1 X949.9520 Y1624.4082 Z10.0000 F9999
G1 X949.9520 Y1624.4082 Z-1.0000 F2500
G1 X949.9520 Y1608.8853 Z-1.0000 F5000
G1 X949.9520 Y1624.4082 Z-1.0000 F5000
G1 X949.9520 Y1624.4082 Z10.0000 F9999
G1 X949.9520 Y1561.8761 Z10.0000 F9999
G1 X949.9520 Y1561.8761 Z-1.0000 F2500
G1 X949.9520 Y1546.3532 Z-1.0000 F5000
G1 X949.9520 Y1561.8761 Z-1.0000 F5000
G1 X949.9520 Y1561.8761 Z10.0000 F9999
G1 X930.1492 Y1554.1422 Z10.0000 F9999
G1 X930.1492 Y1554.1422 Z-1.0000 F2500
G1 X960.9749 Y1566.1835 Z-1.0000 F5000
G1 X930.1492 Y1554.1422 Z-1.0000 F5000
G1 X960.9749 Y1542.1284 Z-1.0000 F5000
G1 X960.9749 Y1542.1284 Z10.0000 F9999
G1 X960.9749 Y1534.1192 Z10.0000 F9999
G1 X960.9749 Y1534.1192 Z-1.0000 F2500
G1 X945.8648 Y1524.1972 Z-1.0000 F5000
G1 X960.9749 Y1534.1192 Z-1.0000 F5000
G1 X960.9749 Y1534.1192 Z10.0000 F9999
G1 X960.9749 Y1521.0596 Z10.0000 F9999
G1 X960.9749 Y1521.0596 Z-1.0000 F2500
G1 X930.1492 Y1521.0596 Z-1.0000 F5000
G1 X930.1492 Y1526.4266 Z-1.0000 F5000
G1 X930.6033 Y1529.3303 Z-1.0000 F5000
G1 X931.9657 Y1531.7385 Z-1.0000 F5000
G1 X934.3327 Y1533.4037 Z-1.0000 F5000
G1 X937.8143 Y1534.0367 Z-1.0000 F5000
G1 X941.3235 Y1533.1697 Z-1.0000 F5000
G1 X943.8143 Y1531.0917 Z-1.0000 F5000
G1 X945.2868 Y1528.6009 Z-1.0000 F5000
G1 X945.7822 Y1526.4266 Z-1.0000 F5000
G1 X945.7822 Y1521.0596 Z-1.0000 F5000
G1 X945.7822 Y1526.4266 Z-1.0000 F5000
G1 X945.2868 Y1528.6009 Z-1.0000 F5000
G1 X943.8143 Y1531.0917 Z-1.0000 F5000
G1 X941.3235 Y1533.1697 Z-1.0000 F5000
G1 X937.8143 Y1534.0367 Z-1.0000 F5000
G1 X934.3327 Y1533.4037 Z-1.0000 F5000
G1 X931.9657 Y1531.7385 Z-1.0000 F5000
G1 X930.6033 Y1529.3303 Z-1.0000 F5000
G1 X930.1492 Y1526.4266 Z-1.0000 F5000
G1 X930.1492 Y1521.0596 Z-1.0000 F5000
G1 X930.1492 Y1521.0596 Z10.0000 F9999
G1 X943.8694 Y1498.1605 Z10.0000 F9999
G1 X943.8694 Y1498.1605 Z-1.0000 F2500
G1 X943.8694 Y1508.9908 Z-1.0000 F5000
G1 X943.8694 Y1498.1605 Z-1.0000 F5000
G1 X930.1492 Y1498.1605 Z-1.0000 F5000
G1 X930.1492 Y1509.5000 Z-1.0000 F5000
G1 X930.1492 Y1498.1605 Z-1.0000 F5000
G1 X960.9749 Y1498.1605 Z-1.0000 F5000
G1 X960.9749 Y1498.1605 Z10.0000 F9999
G1 X790.6992 Y1521.0596 Z10.0000 F9999
G1 X790.6992 Y1521.0596 Z-1.0000 F2500
G1 X759.8735 Y1521.0596 Z-1.0000 F5000
G1 X759.8735 Y1526.4266 Z-1.0000 F5000
G1 X760.3276 Y1529.3303 Z-1.0000 F5000
G1 X761.6900 Y1531.7385 Z-1.0000 F5000
G1 X764.0570 Y1533.4037 Z-1.0000 F5000
G1 X767.5386 Y1534.0367 Z-1.0000 F5000
G1 X771.0478 Y1533.1697 Z-1.0000 F5000
G1 X773.5386 Y1531.0917 Z-1.0000 F5000
G1 X775.0111 Y1528.6009 Z-1.0000 F5000
G1 X775.5065 Y1526.4266 Z-1.0000 F5000
G1 X775.5065 Y1521.0596 Z-1.0000 F5000
G1 X775.5065 Y1526.4266 Z-1.0000 F5000
G1 X775.0111 Y1528.6009 Z-1.0000 F5000
G1 X773.5386 Y1531.0917 Z-1.0000 F5000
G1 X771.0478 Y1533.1697 Z-1.0000 F5000
G1 X767.5386 Y1534.0367 Z-1.0000 F5000
G1 X764.0570 Y1533.4037 Z-1.0000 F5000
G1 X761.6900 Y1531.7385 Z-1.0000 F5000
G1 X760.3276 Y1529.3303 Z-1.0000 F5000
G1 X759.8735 Y1526.4266 Z-1.0000 F5000
G1 X759.8735 Y1521.0596 Z-1.0000 F5000
G1 X759.8735 Y1521.0596 Z10.0000 F9999
G1 X773.5937 Y1498.1605 Z10.0000 F9999
G1 X773.5937 Y1498.1605 Z-1.0000 F2500
G1 X773.5937 Y1508.9908 Z-1.0000 F5000
G1 X773.5937 Y1498.1605 Z-1.0000 F5000
G1 X759.8735 Y1498.1605 Z-1.0000 F5000
G1 X759.8735 Y1509.5000 Z-1.0000 F5000
G1 X759.8735 Y1498.1605 Z-1.0000 F5000
G1 X790.6992 Y1498.1605 Z-1.0000 F5000
G1 X790.6992 Y1498.1605 Z10.0000 F9999
G1 X790.6992 Y1534.1192 Z10.0000 F9999
G1 X790.6992 Y1534.1192 Z-1.0000 F2500
G1 X775.5891 Y1524.1972 Z-1.0000 F5000
G1 X790.6992 Y1534.1192 Z-1.0000 F5000
G1 X790.6992 Y1534.1192 Z10.0000 F9999
G1 X779.6762 Y1561.8761 Z10.0000 F9999
G1 X779.6762 Y1561.8761 Z-1.0000 F2500
G1 X779.6762 Y1546.3532 Z-1.0000 F5000
G1 X779.6762 Y1561.8761 Z-1.0000 F5000
G1 X779.6762 Y1561.8761 Z10.0000 F9999
G1 X759.8735 Y1554.1422 Z10.0000 F9999
G1 X759.8735 Y1554.1422 Z-1.0000 F2500
G1 X790.6992 Y1566.1835 Z-1.0000 F5000
G1 X759.8735 Y1554.1422 Z-1.0000 F5000
G1 X790.6992 Y1542.1284 Z-1.0000 F5000
G1 X790.6992 Y1542.1284 Z10.0000 F9999
G1 X772.2038 Y1596.6514 Z10.0000 F9999
G1 X772.2038 Y1596.6514 Z-1.0000 F2500
G1 X772.2038 Y1574.7156 Z-1.0000 F5000
G1 X772.2038 Y1596.6514 Z-1.0000 F5000
G1 X772.2038 Y1596.6514 Z10.0000 F9999
G1 X759.8735 Y1616.6743 Z10.0000 F9999
G1 X759.8735 Y1616.6743 Z-1.0000 F2500
G1 X790.6992 Y1628.7156 Z-1.0000 F5000
G1 X759.8735 Y1616.6743 Z-1.0000 F5000
G1 X790.6992 Y1604.6605 Z-1.0000 F5000
G1 X790.6992 Y1604.6605 Z10.0000 F9999
G1 X779.6762 Y1624.4082 Z10.0000 F9999
G1 X779.6762 Y1624.4082 Z-1.0000 F2500
G1 X779.6762 Y1608.8853 Z-1.0000 F5000
G1 X779.6762 Y1624.4082 Z-1.0000 F5000
G1 X779.6762 Y1624.4082 Z10.0000 F9999
G1 X785.5799 Y1668.0734 Z10.0000 F9999
G1 X785.5799 Y1668.0734 Z-1.0000 F2500
G1 X787.8643 Y1669.5321 Z-1.0000 F5000
G1 X789.4056 Y1671.3486 Z-1.0000 F5000
G1 X790.3414 Y1673.6881 Z-1.0000 F5000
G1 X790.6992 Y1676.7844 Z-1.0000 F5000
G1 X790.3551 Y1680.1559 Z-1.0000 F5000
G1 X789.0478 Y1683.0183 Z-1.0000 F5000
G1 X786.8047 Y1685.0275 Z-1.0000 F5000
G1 X783.6808 Y1685.8670 Z-1.0000 F5000
G1 X780.6808 Y1685.4679 Z-1.0000 F5000
G1 X778.6717 Y1684.3119 Z-1.0000 F5000
G1 X777.4056 Y1682.7844 Z-1.0000 F5000
G1 X776.5799 Y1681.3532 Z-1.0000 F5000
G1 X773.0295 Y1674.4587 Z-1.0000 F5000
G1 X771.9698 Y1672.6835 Z-1.0000 F5000
G1 X770.7313 Y1671.2936 Z-1.0000 F5000
G1 X769.0937 Y1670.3578 Z-1.0000 F5000
G1 X766.9331 Y1669.9725 Z-1.0000 F5000
G1 X764.4698 Y1670.3715 Z-1.0000 F5000
G1 X762.1992 Y1671.7477 Z-1.0000 F5000
G1 X760.5340 Y1674.1009 Z-1.0000 F5000
G1 X759.8735 Y1677.3761 Z-1.0000 F5000
G1 X760.3827 Y1680.5688 Z-1.0000 F5000
G1 X761.4836 Y1682.7018 Z-1.0000 F5000
G1 X763.0937 Y1684.2706 Z-1.0000 F5000
G1 X761.4836 Y1682.7018 Z-1.0000 F5000
G1 X760.3827 Y1680.5688 Z-1.0000 F5000
G1 X759.8735 Y1677.3761 Z-1.0000 F5000
G1 X760.5340 Y1674.1009 Z-1.0000 F5000
G1 X762.1992 Y1671.7477 Z-1.0000 F5000
G1 X764.4698 Y1670.3715 Z-1.0000 F5000
G1 X766.9331 Y1669.9725 Z-1.0000 F5000
G1 X769.0937 Y1670.3578 Z-1.0000 F5000
G1 X770.7313 Y1671.2936 Z-1.0000 F5000
G1 X771.9698 Y1672.6835 Z-1.0000 F5000
G1 X773.0295 Y1674.4587 Z-1.0000 F5000
G1 X776.5799 Y1681.3532 Z-1.0000 F5000
G1 X777.4056 Y1682.7844 Z-1.0000 F5000
G1 X778.6717 Y1684.3119 Z-1.0000 F5000
G1 X780.6808 Y1685.4679 Z-1.0000 F5000
G1 X783.6808 Y1685.8670 Z-1.0000 F5000
G1 X786.8047 Y1685.0275 Z-1.0000 F5000
G1 X789.0478 Y1683.0183 Z-1.0000 F5000
G1 X790.3551 Y1680.1559 Z-1.0000 F5000
G1 X790.6992 Y1676.7844 Z-1.0000 F5000
G1 X790.3414 Y1673.6881 Z-1.0000 F5000
G1 X789.4056 Y1671.3486 Z-1.0000 F5000
G1 X787.8643 Y1669.5321 Z-1.0000 F5000
G1 X787.8643 Y1669.5321 Z10.0000 F9999
G1 X752.8276 Y1660.0367 Z10.0000 F9999
G1 X752.8276 Y1660.0367 Z-1.0000 F2500
G1 X792.4606 Y1637.2477 Z-1.0000 F5000
G1 X752.8276 Y1660.0367 Z-1.0000 F5000
G1 X752.8276 Y1660.0367 Z10.0000 F9999
G1 X759.8735 Y1711.1468 Z10.0000 F9999
G1 X759.8735 Y1711.1468 Z-1.0000 F2500
G1 X784.9194 Y1694.4954 Z-1.0000 F5000
G1 X784.9194 Y1716.1009 Z-1.0000 F5000
G1 X784.9194 Y1694.4954 Z-1.0000 F5000
G1 X759.8735 Y1711.1468 Z-1.0000 F5000
G1 X790.6992 Y1711.1468 Z-1.0000 F5000
G1 X790.6992 Y1711.1468 Z10.0000 F9999
G1 X752.8276 Y1747.2293 Z10.0000 F9999
G1 X752.8276 Y1747.2293 Z-1.0000 F2500
G1 X792.4606 Y1724.4403 Z-1.0000 F5000
G1 X752.8276 Y1747.2293 Z-1.0000 F5000
G1 X752.8276 Y1747.2293 Z10.0000 F9999
G1 X759.8735 Y1758.8578 Z10.0000 F9999
G1 X759.8735 Y1758.8578 Z-1.0000 F2500
G1 X790.6992 Y1758.8578 Z-1.0000 F5000
G1 X759.8735 Y1758.8578 Z-1.0000 F5000
G1 X759.8735 Y1758.8578 Z10.0000 F9999
G1 X759.8735 Y1773.8303 Z10.0000 F9999
G1 X759.8735 Y1773.8303 Z-1.0000 F2500
G1 X790.6992 Y1801.6559 Z-1.0000 F5000
G1 X759.8735 Y1801.6559 Z-1.0000 F5000
G1 X790.6992 Y1801.6559 Z-1.0000 F5000
G1 X759.8735 Y1773.8303 Z-1.0000 F5000
G1 X790.6992 Y1773.8303 Z-1.0000 F5000
G1 X790.6992 Y1773.8303 Z10.0000 F9999
G1 X587.3134 Y1773.8303 Z10.0000 F9999
G1 X587.3134 Y1773.8303 Z-1.0000 F2500
G1 X618.1391 Y1801.6559 Z-1.0000 F5000
G1 X587.3134 Y1801.6559 Z-1.0000 F5000
G1 X618.1391 Y1801.6559 Z-1.0000 F5000
G1 X587.3134 Y1773.8303 Z-1.0000 F5000
G1 X618.1391 Y1773.8303 Z-1.0000 F5000
G1 X618.1391 Y1773.8303 Z10.0000 F9999
G1 X587.3134 Y1758.8578 Z10.0000 F9999
G1 X587.3134 Y1758.8578 Z-1.0000 F2500
G1 X618.1391 Y1758.8578 Z-1.0000 F5000
G1 X587.3134 Y1758.8578 Z-1.0000 F5000
G1 X587.3134 Y1758.8578 Z10.0000 F9999
G1 X580.2675 Y1747.2293 Z10.0000 F9999
G1 X580.2675 Y1747.2293 Z-1.0000 F2500
G1 X619.9005 Y1724.4403 Z-1.0000 F5000
G1 X580.2675 Y1747.2293 Z-1.0000 F5000
G1 X580.2675 Y1747.2293 Z10.0000 F9999
G1 X587.3134 Y1711.1468 Z10.0000 F9999
G1 X587.3134 Y1711.1468 Z-1.0000 F2500
G1 X612.3593 Y1694.4954 Z-1.0000 F5000
G1 X612.3593 Y1716.1009 Z-1.0000 F5000
G1 X612.3593 Y1694.4954 Z-1.0000 F5000
G1 X587.3134 Y1711.1468 Z-1.0000 F5000
G1 X618.1391 Y1711.1468 Z-1.0000 F5000
G1 X618.1391 Y1711.1468 Z10.0000 F9999
G1 X613.0198 Y1668.0734 Z10.0000 F9999
G1 X613.0198 Y1668.0734 Z-1.0000 F2500
G1 X615.3042 Y1669.5321 Z-1.0000 F5000
G1 X616.8455 Y1671.3486 Z-1.0000 F5000
G1 X617.7813 Y1673.6881 Z-1.0000 F5000
G1 X618.1391 Y1676.7844 Z-1.0000 F5000
G1 X617.7950 Y1680.1559 Z-1.0000 F5000
G1 X616.4877 Y1683.0183 Z-1.0000 F5000
G1 X614.2446 Y1685.0275 Z-1.0000 F5000
G1 X611.1207 Y1685.8670 Z-1.0000 F5000
G1 X608.1207 Y1685.4679 Z-1.0000 F5000
G1 X606.1115 Y1684.3119 Z-1.0000 F5000
G1 X604.8455 Y1682.7844 Z-1.0000 F5000
G1 X604.0198 Y1681.3532 Z-1.0000 F5000
G1 X600.4693 Y1674.4587 Z-1.0000 F5000
G1 X599.4097 Y1672.6835 Z-1.0000 F5000
G1 X598.1712 Y1671.2936 Z-1.0000 F5000
G1 X596.5336 Y1670.3578 Z-1.0000 F5000
G1 X594.3730 Y1669.9725 Z-1.0000 F5000
G1 X591.9097 Y1670.3715 Z-1.0000 F5000
G1 X589.6391 Y1671.7477 Z-1.0000 F5000
G1 X587.9739 Y1674.1009 Z-1.0000 F5000
G1 X587.3134 Y1677.3761 Z-1.0000 F5000
G1 X587.8226 Y1680.5688 Z-1.0000 F5000
G1 X588.9235 Y1682.7018 Z-1.0000 F5000
G1 X590.5336 Y1684.2706 Z-1.0000 F5000
G1 X588.9235 Y1682.7018 Z-1.0000 F5000
G1 X587.8226 Y1680.5688 Z-1.0000 F5000
G1 X587.3134 Y1677.3761 Z-1.0000 F5000
G1 X587.9739 Y1674.1009 Z-1.0000 F5000
G1 X589.6391 Y1671.7477 Z-1.0000 F5000
G1 X591.9097 Y1670.3715 Z-1.0000 F5000
G1 X594.3730 Y1669.9725 Z-1.0000 F5000
G1 X596.5336 Y1670.3578 Z-1.0000 F5000
G1 X598.1712 Y1671.2936 Z-1.0000 F5000
G1 X599.4097 Y1672.6835 Z-1.0000 F5000
G1 X600.4693 Y1674.4587 Z-1.0000 F5000
G1 X604.0198 Y1681.3532 Z-1.0000 F5000
G1 X604.8455 Y1682.7844 Z-1.0000 F5000
G1 X606.1115 Y1684.3119 Z-1.0000 F5000
G1 X608.1207 Y1685.4679 Z-1.0000 F5000
G1 X611.1207 Y1685.8670 Z-1.0000 F5000
G1 X614.2446 Y1685.0275 Z-1.0000 F5000
G1 X616.4877 Y1683.0183 Z-1.0000 F5000
G1 X617.7950 Y1680.1559 Z-1.0000 F5000
G1 X618.1391 Y1676.7844 Z-1.0000 F5000
G1 X617.7813 Y1673.6881 Z-1.0000 F5000
G1 X616.8455 Y1671.3486 Z-1.0000 F5000
G1 X615.3042 Y1669.5321 Z-1.0000 F5000
G1 X615.3042 Y1669.5321 Z10.0000 F9999
G1 X580.2675 Y1660.0367 Z10.0000 F9999
G1 X580.2675 Y1660.0367 Z-1.0000 F2500
G1 X619.9005 Y1637.2477 Z-1.0000 F5000
G1 X580.2675 Y1660.0367 Z-1.0000 F5000
G1 X580.2675 Y1660.0367 Z10.0000 F9999
G1 X587.3134 Y1616.6743 Z10.0000 F9999
G1 X587.3134 Y1616.6743 Z-1.0000 F2500
G1 X618.1391 Y1628.7156 Z-1.0000 F5000
G1 X587.3134 Y1616.6743 Z-1.0000 F5000
G1 X618.1391 Y1604.6605 Z-1.0000 F5000
G1 X618.1391 Y1604.6605 Z10.0000 F9999
G1 X599.6437 Y1596.6514 Z10.0000 F9999
G1 X599.6437 Y1596.6514 Z-1.0000 F2500
G1 X599.6437 Y1574.7156 Z-1.0000 F5000
G1 X599.6437 Y1596.6514 Z-1.0000 F5000
G1 X599.6437 Y1596.6514 Z10.0000 F9999
G1 X607.1161 Y1624.4082 Z10.0000 F9999
G1 X607.1161 Y1624.4082 Z-1.0000 F2500
G1 X607.1161 Y1608.8853 Z-1.0000 F5000
G1 X607.1161 Y1624.4082 Z-1.0000 F5000
G1 X607.1161 Y1624.4082 Z10.0000 F9999
G1 X607.1161 Y1561.8761 Z10.0000 F9999
G1 X607.1161 Y1561.8761 Z-1.0000 F2500
G1 X607.1161 Y1546.3532 Z-1.0000 F5000
G1 X607.1161 Y1561.8761 Z-1.0000 F5000
G1 X607.1161 Y1561.8761 Z10.0000 F9999
G1 X587.3134 Y1554.1422 Z10.0000 F9999
G1 X587.3134 Y1554.1422 Z-1.0000 F2500
G1 X618.1391 Y1566.1835 Z-1.0000 F5000
G1 X587.3134 Y1554.1422 Z-1.0000 F5000
G1 X618.1391 Y1542.1284 Z-1.0000 F5000
G1 X618.1391 Y1542.1284 Z10.0000 F9999
G1 X618.1391 Y1534.1192 Z10.0000 F9999
G1 X618.1391 Y1534.1192 Z-1.0000 F2500
G1 X603.0290 Y1524.1972 Z-1.0000 F5000
G1 X618.1391 Y1534.1192 Z-1.0000 F5000
G1 X618.1391 Y1534.1192 Z10.0000 F9999
G1 X618.1391 Y1521.0596 Z10.0000 F9999
G1 X618.1391 Y1521.0596 Z-1.0000 F2500
G1 X587.3134 Y1521.0596 Z-1.0000 F5000
G1 X587.3134 Y1526.4266 Z-1.0000 F5000
G1 X587.7675 Y1529.3303 Z-1.0000 F5000
G1 X589.1299 Y1531.7385 Z-1.0000 F5000
G1 X591.4969 Y1533.4037 Z-1.0000 F5000
G1 X594.9785 Y1534.0367 Z-1.0000 F5000
G1 X598.4877 Y1533.1697 Z-1.0000 F5000
G1 X600.9785 Y1531.0917 Z-1.0000 F5000
G1 X602.4510 Y1528.6009 Z-1.0000 F5000
G1 X602.9464 Y1526.4266 Z-1.0000 F5000
G1 X602.9464 Y1521.0596 Z-1.0000 F5000
G1 X602.9464 Y1526.4266 Z-1.0000 F5000
G1 X602.4510 Y1528.6009 Z-1.0000 F5000
G1 X600.9785 Y1531.0917 Z-1.0000 F5000
G1 X598.4877 Y1533.1697 Z-1.0000 F5000
G1 X594.9785 Y1534.0367 Z-1.0000 F5000
G1 X591.4969 Y1533.4037 Z-1.0000 F5000
G1 X589.1299 Y1531.7385 Z-1.0000 F5000
G1 X587.7675 Y1529.3303 Z-1.0000 F5000
G1 X587.3134 Y1526.4266 Z-1.0000 F5000
G1 X587.3134 Y1521.0596 Z-1.0000 F5000
G1 X587.3134 Y1521.0596 Z10.0000 F9999
G1 X601.0336 Y1498.1605 Z10.0000 F9999
G1 X601.0336 Y1498.1605 Z-1.0000 F2500
G1 X601.0336 Y1508.9908 Z-1.0000 F5000
G1 X601.0336 Y1498.1605 Z-1.0000 F5000
G1 X587.3134 Y1498.1605 Z-1.0000 F5000
G1 X587.3134 Y1509.5000 Z-1.0000 F5000
G1 X587.3134 Y1498.1605 Z-1.0000 F5000
G1 X618.1391 Y1498.1605 Z-1.0000 F5000
G1 X618.1391 Y1498.1605 Z10.0000 F9999
G1 X426.0598 Y1875.4509 Z10.0000 F9999
G1 X426.0598 Y1875.4509 Z-1.0000 F2500
G1 X410.1515 Y1866.4922 Z-1.0000 F5000
G1 X426.0598 Y1875.4509 Z-1.0000 F5000
G1 X440.9772 Y1866.4922 Z-1.0000 F5000
G1 X426.0598 Y1875.4509 Z-1.0000 F5000
G1 X440.9772 Y1884.5060 Z-1.0000 F5000
G1 X426.0598 Y1875.4509 Z-1.0000 F5000
G1 X410.1515 Y1884.5060 Z-1.0000 F5000
G1 X410.1515 Y1884.5060 Z10.0000 F9999
G1 X410.1515 Y1905.5748 Z10.0000 F9999
G1 X410.1515 Y1905.5748 Z-1.0000 F2500
G1 X427.2570 Y1905.5748 Z-1.0000 F5000
G1 X427.2570 Y1893.2307 Z-1.0000 F5000
G1 X427.2570 Y1905.5748 Z-1.0000 F5000
G1 X440.9772 Y1905.5748 Z-1.0000 F5000
G1 X440.9772 Y1892.2537 Z-1.0000 F5000
G1 X440.9772 Y1905.5748 Z-1.0000 F5000
G1 X410.1515 Y1905.5748 Z-1.0000 F5000
G1 X410.1515 Y1892.2537 Z-1.0000 F5000
G1 X410.1515 Y1892.2537 Z10.0000 F9999
G1 X448.0231 Y1917.2032 Z10.0000 F9999
G1 X448.0231 Y1917.2032 Z-1.0000 F2500
G1 X408.3901 Y1939.9922 Z-1.0000 F5000
G1 X448.0231 Y1917.2032 Z-1.0000 F5000
G1 X448.0231 Y1917.2032 Z10.0000 F9999
G1 X440.9772 Y1953.2858 Z10.0000 F9999
G1 X440.9772 Y1953.2858 Z-1.0000 F2500
G1 X415.9313 Y1969.9372 Z-1.0000 F5000
G1 X415.9313 Y1948.3317 Z-1.0000 F5000
G1 X415.9313 Y1969.9372 Z-1.0000 F5000
G1 X440.9772 Y1953.2858 Z-1.0000 F5000
G1 X410.1515 Y1953.2858 Z-1.0000 F5000
G1 X410.1515 Y1953.2858 Z10.0000 F9999
G1 X415.2708 Y1996.3592 Z10.0000 F9999
G1 X415.2708 Y1996.3592 Z-1.0000 F2500
G1 X412.9864 Y1994.9005 Z-1.0000 F5000
G1 X411.4451 Y1993.0840 Z-1.0000 F5000
G1 X410.5093 Y1990.7445 Z-1.0000 F5000
G1 X410.1515 Y1987.6482 Z-1.0000 F5000
G1 X410.4956 Y1984.2766 Z-1.0000 F5000
G1 X411.8029 Y1981.4142 Z-1.0000 F5000
G1 X414.0460 Y1979.4051 Z-1.0000 F5000
G1 X417.1699 Y1978.5656 Z-1.0000 F5000
G1 X420.1699 Y1978.9647 Z-1.0000 F5000
G1 X422.1790 Y1980.1206 Z-1.0000 F5000
G1 X423.4451 Y1981.6482 Z-1.0000 F5000
G1 X424.2708 Y1983.0794 Z-1.0000 F5000
G1 X427.8212 Y1989.9739 Z-1.0000 F5000
G1 X428.8809 Y1991.7491 Z-1.0000 F5000
G1 X430.1194 Y1993.1390 Z-1.0000 F5000
G1 X431.7570 Y1994.0748 Z-1.0000 F5000
G1 X433.9176 Y1994.4601 Z-1.0000 F5000
G1 X436.3809 Y1994.0610 Z-1.0000 F5000
G1 X438.6515 Y1992.6849 Z-1.0000 F5000
G1 X440.3167 Y1990.3317 Z-1.0000 F5000
G1 X440.9772 Y1987.0564 Z-1.0000 F5000
G1 X440.4680 Y1983.8638 Z-1.0000 F5000
G1 X439.3671 Y1981.7307 Z-1.0000 F5000
G1 X437.7570 Y1980.1619 Z-1.0000 F5000
G1 X439.3671 Y1981.7307 Z-1.0000 F5000
G1 X440.4680 Y1983.8638 Z-1.0000 F5000
G1 X440.9772 Y1987.0564 Z-1.0000 F5000
G1 X440.3167 Y1990.3317 Z-1.0000 F5000
G1 X438.6515 Y1992.6849 Z-1.0000 F5000
G1 X436.3809 Y1994.0610 Z-1.0000 F5000
G1 X433.9176 Y1994.4601 Z-1.0000 F5000
G1 X431.7570 Y1994.0748 Z-1.0000 F5000
G1 X430.1194 Y1993.1390 Z-1.0000 F5000
G1 X428.8809 Y1991.7491 Z-1.0000 F5000
G1 X427.8212 Y1989.9739 Z-1.0000 F5000
G1 X424.2708 Y1983.0794 Z-1.0000 F5000
G1 X423.4451 Y1981.6482 Z-1.0000 F5000
G1 X422.1790 Y1980.1206 Z-1.0000 F5000
G1 X420.1699 Y1978.9647 Z-1.0000 F5000
G1 X417.1699 Y1978.5656 Z-1.0000 F5000
G1 X414.0460 Y1979.4051 Z-1.0000 F5000
G1 X411.8029 Y1981.4142 Z-1.0000 F5000
G1 X410.4956 Y1984.2766 Z-1.0000 F5000
G1 X410.1515 Y1987.6482 Z-1.0000 F5000
G1 X410.5093 Y1990.7445 Z-1.0000 F5000
G1 X411.4451 Y1993.0840 Z-1.0000 F5000
G1 X412.9864 Y1994.9005 Z-1.0000 F5000
G1 X412.9864 Y1994.9005 Z10.0000 F9999
G1 X448.0231 Y2004.3959 Z10.0000 F9999
G1 X448.0231 Y2004.3959 Z-1.0000 F2500
G1 X408.3901 Y2027.1849 Z-1.0000 F5000
G1 X448.0231 Y2004.3959 Z-1.0000 F5000
G1 X448.0231 Y2004.3959 Z10.0000 F9999
G1 X440.9772 Y2047.7583 Z10.0000 F9999
G1 X440.9772 Y2047.7583 Z-1.0000 F2500
G1 X410.1515 Y2035.7170 Z-1.0000 F5000
G1 X440.9772 Y2047.7583 Z-1.0000 F5000
G1 X410.1515 Y2059.7720 Z-1.0000 F5000
G1 X410.1515 Y2059.7720 Z10.0000 F9999
G1 X428.6469 Y2067.7812 Z10.0000 F9999
G1 X428.6469 Y2067.7812 Z-1.0000 F2500
G1 X428.6469 Y2089.7170 Z-1.0000 F5000
G1 X428.6469 Y2067.7812 Z-1.0000 F5000
G1 X428.6469 Y2067.7812 Z10.0000 F9999
G1 X421.1745 Y2040.0243 Z10.0000 F9999
G1 X421.1745 Y2040.0243 Z-1.0000 F2500
G1 X421.1745 Y2055.5473 Z-1.0000 F5000
G1 X421.1745 Y2040.0243 Z-1.0000 F5000
G1 X421.1745 Y2040.0243 Z10.0000 F9999
G1 X421.1745 Y2102.5564 Z10.0000 F9999
G1 X421.1745 Y2102.5564 Z-1.0000 F2500
G1 X421.1745 Y2118.0794 Z-1.0000 F5000
G1 X421.1745 Y2102.5564 Z-1.0000 F5000
G1 X421.1745 Y2102.5564 Z10.0000 F9999
G1 X440.9772 Y2110.2904 Z10.0000 F9999
G1 X440.9772 Y2110.2904 Z-1.0000 F2500
G1 X410.1515 Y2098.2491 Z-1.0000 F5000
G1 X440.9772 Y2110.2904 Z-1.0000 F5000
G1 X410.1515 Y2122.3041 Z-1.0000 F5000
G1 X410.1515 Y2122.3041 Z10.0000 F9999
G1 X410.1515 Y2130.3133 Z10.0000 F9999
G1 X410.1515 Y2130.3133 Z-1.0000 F2500
G1 X425.2616 Y2140.2353 Z-1.0000 F5000
G1 X410.1515 Y2130.3133 Z-1.0000 F5000
G1 X410.1515 Y2130.3133 Z10.0000 F9999
G1 X410.1515 Y2143.3729 Z10.0000 F9999
G1 X410.1515 Y2143.3729 Z-1.0000 F2500
G1 X440.9772 Y2143.3729 Z-1.0000 F5000
G1 X440.9772 Y2138.0060 Z-1.0000 F5000
G1 X440.5231 Y2135.1023 Z-1.0000 F5000
G1 X439.1607 Y2132.6940 Z-1.0000 F5000
G1 X436.7937 Y2131.0289 Z-1.0000 F5000
G1 X433.3121 Y2130.3959 Z-1.0000 F5000
G1 X429.8029 Y2131.2628 Z-1.0000 F5000
G1 X427.3121 Y2133.3408 Z-1.0000 F5000
G1 X425.8396 Y2135.8317 Z-1.0000 F5000
G1 X425.3442 Y2138.0060 Z-1.0000 F5000
G1 X425.3442 Y2143.3729 Z-1.0000 F5000
G1 X425.3442 Y2138.0060 Z-1.0000 F5000
G1 X425.8396 Y2135.8317 Z-1.0000 F5000
G1 X427.3121 Y2133.3408 Z-1.0000 F5000
G1 X429.8029 Y2131.2628 Z-1.0000 F5000
G1 X433.3121 Y2130.3959 Z-1.0000 F5000
G1 X436.7937 Y2131.0289 Z-1.0000 F5000
G1 X439.1607 Y2132.6940 Z-1.0000 F5000
G1 X440.5231 Y2135.1023 Z-1.0000 F5000
G1 X440.9772 Y2138.0060 Z-1.0000 F5000
G1 X440.9772 Y2143.3729 Z-1.0000 F5000
G1 X440.9772 Y2143.3729 Z10.0000 F9999
G1 X427.2570 Y2166.2720 Z10.0000 F9999
G1 X427.2570 Y2166.2720 Z-1.0000 F2500
G1 X427.2570 Y2155.4417 Z-1.0000 F5000
G1 X427.2570 Y2166.2720 Z-1.0000 F5000
G1 X440.9772 Y2166.2720 Z-1.0000 F5000
G1 X440.9772 Y2154.9326 Z-1.0000 F5000
G1 X440.9772 Y2166.2720 Z-1.0000 F5000
G1 X410.1515 Y2166.2720 Z-1.0000 F5000
G1 X410.1515 Y2166.2720 Z10.0000 F9999
G1 X270.6452 Y2110.2904 Z10.0000 F9999
G1 X270.6452 Y2110.2904 Z-1.0000 F2500
G1 X239.8195 Y2098.2491 Z-1.0000 F5000
G1 X270.6452 Y2110.2904 Z-1.0000 F5000
G1 X239.8195 Y2122.3041 Z-1.0000 F5000
G1 X239.8195 Y2122.3041 Z10.0000 F9999
G1 X239.8195 Y2130.3133 Z10.0000 F9999
G1 X239.8195 Y2130.3133 Z-1.0000 F2500
G1 X254.9296 Y2140.2353 Z-1.0000 F5000
G1 X239.8195 Y2130.3133 Z-1.0000 F5000
G1 X239.8195 Y2130.3133 Z10.0000 F9999
G1 X239.8195 Y2143.3729 Z10.0000 F9999
G1 X239.8195 Y2143.3729 Z-1.0000 F2500
G1 X270.6452 Y2143.3729 Z-1.0000 F5000
G1 X270.6452 Y2138.0060 Z-1.0000 F5000
G1 X270.1911 Y2135.1023 Z-1.0000 F5000
G1 X268.8287 Y2132.6940 Z-1.0000 F5000
G1 X266.4617 Y2131.0289 Z-1.0000 F5000
G1 X262.9801 Y2130.3959 Z-1.0000 F5000
G1 X259.4709 Y2131.2628 Z-1.0000 F5000
G1 X256.9801 Y2133.3408 Z-1.0000 F5000
G1 X255.5076 Y2135.8317 Z-1.0000 F5000
G1 X255.0122 Y2138.0060 Z-1.0000 F5000
G1 X255.0122 Y2143.3729 Z-1.0000 F5000
G1 X255.0122 Y2138.0060 Z-1.0000 F5000
G1 X255.5076 Y2135.8317 Z-1.0000 F5000
G1 X256.9801 Y2133.3408 Z-1.0000 F5000
G1 X259.4709 Y2131.2628 Z-1.0000 F5000
G1 X262.9801 Y2130.3959 Z-1.0000 F5000
G1 X266.4617 Y2131.0289 Z-1.0000 F5000
G1 X268.8287 Y2132.6940 Z-1.0000 F5000
G1 X270.1911 Y2135.1023 Z-1.0000 F5000
G1 X270.6452 Y2138.0060 Z-1.0000 F5000
G1 X270.6452 Y2143.3729 Z-1.0000 F5000
G1 X270.6452 Y2143.3729 Z10.0000 F9999
G1 X256.9250 Y2166.2720 Z10.0000 F9999
G1 X256.9250 Y2166.2720 Z-1.0000 F2500
G1 X256.9250 Y2155.4417 Z-1.0000 F5000
G1 X256.9250 Y2166.2720 Z-1.0000 F5000
G1 X270.6452 Y2166.2720 Z-1.0000 F5000
G1 X270.6452 Y2154.9326 Z-1.0000 F5000
G1 X270.6452 Y2166.2720 Z-1.0000 F5000
G1 X239.8195 Y2166.2720 Z-1.0000 F5000
G1 X239.8195 Y2166.2720 Z10.0000 F9999
G1 X250.8425 Y2102.5564 Z10.0000 F9999
G1 X250.8425 Y2102.5564 Z-1.0000 F2500
G1 X250.8425 Y2118.0794 Z-1.0000 F5000
G1 X250.8425 Y2102.5564 Z-1.0000 F5000
G1 X250.8425 Y2102.5564 Z10.0000 F9999
G1 X258.3149 Y2067.7812 Z10.0000 F9999
G1 X258.3149 Y2067.7812 Z-1.0000 F2500
G1 X258.3149 Y2089.7170 Z-1.0000 F5000
G1 X258.3149 Y2067.7812 Z-1.0000 F5000
G1 X258.3149 Y2067.7812 Z10.0000 F9999
G1 X270.6452 Y2047.7583 Z10.0000 F9999
G1 X270.6452 Y2047.7583 Z-1.0000 F2500
G1 X239.8195 Y2035.7170 Z-1.0000 F5000
G1 X270.6452 Y2047.7583 Z-1.0000 F5000
G1 X239.8195 Y2059.7720 Z-1.0000 F5000
G1 X239.8195 Y2059.7720 Z10.0000 F9999
G1 X250.8425 Y2040.0243 Z10.0000 F9999
G1 X250.8425 Y2040.0243 Z-1.0000 F2500
G1 X250.8425 Y2055.5473 Z-1.0000 F5000
G1 X250.8425 Y2040.0243 Z-1.0000 F5000
G1 X250.8425 Y2040.0243 Z10.0000 F9999
G1 X244.9388 Y1996.3592 Z10.0000 F9999
G1 X244.9388 Y1996.3592 Z-1.0000 F2500
G1 X242.6544 Y1994.9005 Z-1.0000 F5000
G1 X241.1131 Y1993.0840 Z-1.0000 F5000
G1 X240.1773 Y1990.7445 Z-1.0000 F5000
G1 X239.8195 Y1987.6482 Z-1.0000 F5000
G1 X240.1636 Y1984.2766 Z-1.0000 F5000
G1 X241.4709 Y1981.4142 Z-1.0000 F5000
G1 X243.7140 Y1979.4051 Z-1.0000 F5000
G1 X246.8379 Y1978.5656 Z-1.0000 F5000
G1 X249.8379 Y1978.9647 Z-1.0000 F5000
G1 X251.8470 Y1980.1206 Z-1.0000 F5000
G1 X253.1131 Y1981.6482 Z-1.0000 F5000
G1 X253.9388 Y1983.0794 Z-1.0000 F5000
G1 X257.4892 Y1989.9739 Z-1.0000 F5000
G1 X258.5489 Y1991.7491 Z-1.0000 F5000
G1 X259.7874 Y1993.1390 Z-1.0000 F5000
G1 X261.4250 Y1994.0748 Z-1.0000 F5000
G1 X263.5856 Y1994.4601 Z-1.0000 F5000
G1 X266.0489 Y1994.0610 Z-1.0000 F5000
G1 X268.3195 Y1992.6849 Z-1.0000 F5000
G1 X269.9847 Y1990.3317 Z-1.0000 F5000
G1 X270.6452 Y1987.0564 Z-1.0000 F5000
G1 X270.1360 Y1983.8638 Z-1.0000 F5000
G1 X269.0351 Y1981.7307 Z-1.0000 F5000
G1 X267.4250 Y1980.1619 Z-1.0000 F5000
G1 X269.0351 Y1981.7307 Z-1.0000 F5000
G1 X270.1360 Y1983.8638 Z-1.0000 F5000
G1 X270.6452 Y1987.0564 Z-1.0000 F5000
G1 X269.9847 Y1990.3317 Z-1.0000 F5000
G1 X268.3195 Y1992.6849 Z-1.0000 F5000
G1 X266.0489 Y1994.0610 Z-1.0000 F5000
G1 X263.5856 Y1994.4601 Z-1.0000 F5000
G1 X261.4250 Y1994.0748 Z-1.0000 F5000
G1 X259.7874 Y1993.1390 Z-1.0000 F5000
G1 X258.5489 Y1991.7491 Z-1.0000 F5000
G1 X257.4892 Y1989.9739 Z-1.0000 F5000
G1 X253.9388 Y1983.0794 Z-1.0000 F5000
G1 X253.1131 Y1981.6482 Z-1.0000 F5000
G1 X251.8470 Y1980.1206 Z-1.0000 F5000
G1 X249.8379 Y1978.9647 Z-1.0000 F5000
G1 X246.8379 Y1978.5656 Z-1.0000 F5000
G1 X243.7140 Y1979.4051 Z-1.0000 F5000
G1 X241.4709 Y1981.4142 Z-1.0000 F5000
G1 X240.1636 Y1984.2766 Z-1.0000 F5000
G1 X239.8195 Y1987.6482 Z-1.0000 F5000
G1 X240.1773 Y1990.7445 Z-1.0000 F5000
G1 X241.1131 Y1993.0840 Z-1.0000 F5000
G1 X242.6544 Y1994.9005 Z-1.0000 F5000
G1 X242.6544 Y1994.9005 Z10.0000 F9999
G1 X277.6911 Y2004.3959 Z10.0000 F9999
G1 X277.6911 Y2004.3959 Z-1.0000 F2500
G1 X238.0580 Y2027.1849 Z-1.0000 F5000
G1 X277.6911 Y2004.3959 Z-1.0000 F5000
G1 X277.6911 Y2004.3959 Z10.0000 F9999
G1 X270.6452 Y1953.2858 Z10.0000 F9999
G1 X270.6452 Y1953.2858 Z-1.0000 F2500
G1 X245.5993 Y1969.9372 Z-1.0000 F5000
G1 X245.5993 Y1948.3317 Z-1.0000 F5000
G1 X245.5993 Y1969.9372 Z-1.0000 F5000
G1 X270.6452 Y1953.2858 Z-1.0000 F5000
G1 X239.8195 Y1953.2858 Z-1.0000 F5000
G1 X239.8195 Y1953.2858 Z10.0000 F9999
G1 X239.8195 Y1905.5748 Z10.0000 F9999
G1 X239.8195 Y1905.5748 Z-1.0000 F2500
G1 X256.9250 Y1905.5748 Z-1.0000 F5000
G1 X256.9250 Y1893.2307 Z-1.0000 F5000
G1 X256.9250 Y1905.5748 Z-1.0000 F5000
G1 X270.6452 Y1905.5748 Z-1.0000 F5000
G1 X270.6452 Y1892.2537 Z-1.0000 F5000
G1 X270.6452 Y1905.5748 Z-1.0000 F5000
G1 X239.8195 Y1905.5748 Z-1.0000 F5000
G1 X239.8195 Y1892.2537 Z-1.0000 F5000
G1 X239.8195 Y1892.2537 Z10.0000 F9999
G1 X255.7278 Y1875.4509 Z10.0000 F9999
G1 X255.7278 Y1875.4509 Z-1.0000 F2500
G1 X239.8195 Y1866.4922 Z-1.0000 F5000
G1 X255.7278 Y1875.4509 Z-1.0000 F5000
G1 X270.6452 Y1866.4922 Z-1.0000 F5000
G1 X255.7278 Y1875.4509 Z-1.0000 F5000
G1 X270.6452 Y1884.5060 Z-1.0000 F5000
G1 X255.7278 Y1875.4509 Z-1.0000 F5000
G1 X239.8195 Y1884.5060 Z-1.0000 F5000
G1 X239.8195 Y1884.5060 Z10.0000 F9999
G1 X277.6911 Y1917.2032 Z10.0000 F9999
G1 X277.6911 Y1917.2032 Z-1.0000 F2500
G1 X238.0580 Y1939.9922 Z-1.0000 F5000
G1 X277.6911 Y1917.2032 Z-1.0000 F5000
G1 X277.6911 Y1917.2032 Z10.0000 F9999
G1 X103.0171 Y1917.2032 Z10.0000 F9999
G1 X103.0171 Y1917.2032 Z-1.0000 F2500
G1 X63.3841 Y1939.9922 Z-1.0000 F5000
G1 X103.0171 Y1917.2032 Z-1.0000 F5000
G1 X103.0171 Y1917.2032 Z10.0000 F9999
G1 X95.9712 Y1953.2858 Z10.0000 F9999
G1 X95.9712 Y1953.2858 Z-1.0000 F2500
G1 X70.9254 Y1969.9372 Z-1.0000 F5000
G1 X70.9254 Y1948.3317 Z-1.0000 F5000
G1 X70.9254 Y1969.9372 Z-1.0000 F5000
G1 X95.9712 Y1953.2858 Z-1.0000 F5000
G1 X65.1456 Y1953.2858 Z-1.0000 F5000
G1 X65.1456 Y1953.2858 Z10.0000 F9999
G1 X70.2648 Y1996.3592 Z10.0000 F9999
G1 X70.2648 Y1996.3592 Z-1.0000 F2500
G1 X67.9804 Y1994.9005 Z-1.0000 F5000
G1 X66.4391 Y1993.0840 Z-1.0000 F5000
G1 X65.5034 Y1990.7445 Z-1.0000 F5000
G1 X65.1456 Y1987.6482 Z-1.0000 F5000
G1 X65.4896 Y1984.2766 Z-1.0000 F5000
G1 X66.7969 Y1981.4142 Z-1.0000 F5000
G1 X69.0401 Y1979.4051 Z-1.0000 F5000
G1 X72.1639 Y1978.5656 Z-1.0000 F5000
G1 X75.1639 Y1978.9647 Z-1.0000 F5000
G1 X77.1731 Y1980.1206 Z-1.0000 F5000
G1 X78.4391 Y1981.6482 Z-1.0000 F5000
G1 X79.2648 Y1983.0794 Z-1.0000 F5000
G1 X82.8153 Y1989.9739 Z-1.0000 F5000
G1 X83.8749 Y1991.7491 Z-1.0000 F5000
G1 X85.1134 Y1993.1390 Z-1.0000 F5000
G1 X86.7511 Y1994.0748 Z-1.0000 F5000
G1 X88.9116 Y1994.4601 Z-1.0000 F5000
G1 X91.3749 Y1994.0610 Z-1.0000 F5000
G1 X93.6456 Y1992.6849 Z-1.0000 F5000
G1 X95.3107 Y1990.3317 Z-1.0000 F5000
G1 X95.9712 Y1987.0564 Z-1.0000 F5000
G1 X95.4621 Y1983.8638 Z-1.0000 F5000
G1 X94.3612 Y1981.7307 Z-1.0000 F5000
G1 X92.7511 Y1980.1619 Z-1.0000 F5000
G1 X94.3612 Y1981.7307 Z-1.0000 F5000
G1 X95.4621 Y1983.8638 Z-1.0000 F5000
G1 X95.9712 Y1987.0564 Z-1.0000 F5000
G1 X95.3107 Y1990.3317 Z-1.0000 F5000
G1 X93.6456 Y1992.6849 Z-1.0000 F5000
G1 X91.3749 Y1994.0610 Z-1.0000 F5000
G1 X88.9116 Y1994.4601 Z-1.0000 F5000
G1 X86.7511 Y1994.0748 Z-1.0000 F5000
G1 X85.1134 Y1993.1390 Z-1.0000 F5000
G1 X83.8749 Y1991.7491 Z-1.0000 F5000
G1 X82.8153 Y1989.9739 Z-1.0000 F5000
G1 X79.2648 Y1983.0794 Z-1.0000 F5000
G1 X78.4391 Y1981.6482 Z-1.0000 F5000
G1 X77.1731 Y1980.1206 Z-1.0000 F5000
G1 X75.1639 Y1978.9647 Z-1.0000 F5000
G1 X72.1639 Y1978.5656 Z-1.0000 F5000
G1 X69.0401 Y1979.4051 Z-1.0000 F5000
G1 X66.7969 Y1981.4142 Z-1.0000 F5000
G1 X65.4896 Y1984.2766 Z-1.0000 F5000
G1 X65.1456 Y1987.6482 Z-1.0000 F5000
G1 X65.5034 Y1990.7445 Z-1.0000 F5000
G1 X66.4391 Y1993.0840 Z-1.0000 F5000
G1 X67.9804 Y1994.9005 Z-1.0000 F5000
G1 X67.9804 Y1994.9005 Z10.0000 F9999
G1 X103.0171 Y2004.3959 Z10.0000 F9999
G1 X103.0171 Y2004.3959 Z-1.0000 F2500
G1 X63.3841 Y2027.1849 Z-1.0000 F5000
G1 X103.0171 Y2004.3959 Z-1.0000 F5000
G1 X103.0171 Y2004.3959 Z10.0000 F9999
G1 X95.9712 Y2047.7583 Z10.0000 F9999
G1 X95.9712 Y2047.7583 Z-1.0000 F2500
G1 X65.1456 Y2035.7170 Z-1.0000 F5000
G1 X95.9712 Y2047.7583 Z-1.0000 F5000
G1 X65.1456 Y2059.7720 Z-1.0000 F5000
G1 X65.1456 Y2059.7720 Z10.0000 F9999
G1 X83.6410 Y2067.7812 Z10.0000 F9999
G1 X83.6410 Y2067.7812 Z-1.0000 F2500
G1 X83.6410 Y2089.7170 Z-1.0000 F5000
G1 X83.6410 Y2067.7812 Z-1.0000 F5000
G1 X83.6410 Y2067.7812 Z10.0000 F9999
G1 X76.1685 Y2040.0243 Z10.0000 F9999
G1 X76.1685 Y2040.0243 Z-1.0000 F2500
G1 X76.1685 Y2055.5473 Z-1.0000 F5000
G1 X76.1685 Y2040.0243 Z-1.0000 F5000
G1 X76.1685 Y2040.0243 Z10.0000 F9999
G1 X76.1685 Y2102.5564 Z10.0000 F9999
G1 X76.1685 Y2102.5564 Z-1.0000 F2500
G1 X76.1685 Y2118.0794 Z-1.0000 F5000
G1 X76.1685 Y2102.5564 Z-1.0000 F5000
G1 X76.1685 Y2102.5564 Z10.0000 F9999
G1 X95.9712 Y2110.2904 Z10.0000 F9999
G1 X95.9712 Y2110.2904 Z-1.0000 F2500
G1 X65.1456 Y2098.2491 Z-1.0000 F5000
G1 X95.9712 Y2110.2904 Z-1.0000 F5000
G1 X65.1456 Y2122.3041 Z-1.0000 F5000
G1 X65.1456 Y2122.3041 Z10.0000 F9999
G1 X65.1456 Y2130.3133 Z10.0000 F9999
G1 X65.1456 Y2130.3133 Z-1.0000 F2500
G1 X80.2556 Y2140.2353 Z-1.0000 F5000
G1 X65.1456 Y2130.3133 Z-1.0000 F5000
G1 X65.1456 Y2130.3133 Z10.0000 F9999
G1 X65.1456 Y2143.3729 Z10.0000 F9999
G1 X65.1456 Y2143.3729 Z-1.0000 F2500
G1 X95.9712 Y2143.3729 Z-1.0000 F5000
G1 X95.9712 Y2138.0060 Z-1.0000 F5000
G1 X95.5171 Y2135.1023 Z-1.0000 F5000
G1 X94.1547 Y2132.6940 Z-1.0000 F5000
G1 X91.7878 Y2131.0289 Z-1.0000 F5000
G1 X88.3061 Y2130.3959 Z-1.0000 F5000
G1 X84.7969 Y2131.2628 Z-1.0000 F5000
G1 X82.3061 Y2133.3408 Z-1.0000 F5000
G1 X80.8336 Y2135.8317 Z-1.0000 F5000
G1 X80.3382 Y2138.0060 Z-1.0000 F5000
G1 X80.3382 Y2143.3729 Z-1.0000 F5000
G1 X80.3382 Y2138.0060 Z-1.0000 F5000
G1 X80.8336 Y2135.8317 Z-1.0000 F5000
G1 X82.3061 Y2133.3408 Z-1.0000 F5000
G1 X84.7969 Y2131.2628 Z-1.0000 F5000
G1 X88.3061 Y2130.3959 Z-1.0000 F5000
G1 X91.7878 Y2131.0289 Z-1.0000 F5000
G1 X94.1547 Y2132.6940 Z-1.0000 F5000
G1 X95.5171 Y2135.1023 Z-1.0000 F5000
G1 X95.9712 Y2138.0060 Z-1.0000 F5000
G1 X95.9712 Y2143.3729 Z-1.0000 F5000
G1 X95.9712 Y2143.3729 Z10.0000 F9999
G1 X82.2511 Y2166.2720 Z10.0000 F9999
G1 X82.2511 Y2166.2720 Z-1.0000 F2500
G1 X82.2511 Y2155.4417 Z-1.0000 F5000
G1 X82.2511 Y2166.2720 Z-1.0000 F5000
G1 X95.9712 Y2166.2720 Z-1.0000 F5000
G1 X95.9712 Y2154.9326 Z-1.0000 F5000
G1 X95.9712 Y2166.2720 Z-1.0000 F5000
G1 X65.1456 Y2166.2720 Z-1.0000 F5000
G1 X65.1456 Y2166.2720 Z10.0000 F9999
G1 X65.1456 Y1905.5748 Z10.0000 F9999
G1 X65.1456 Y1905.5748 Z-1.0000 F2500
G1 X82.2511 Y1905.5748 Z-1.0000 F5000
G1 X82.2511 Y1893.2307 Z-1.0000 F5000
G1 X82.2511 Y1905.5748 Z-1.0000 F5000
G1 X95.9712 Y1905.5748 Z-1.0000 F5000
G1 X95.9712 Y1892.2537 Z-1.0000 F5000
G1 X95.9712 Y1905.5748 Z-1.0000 F5000
G1 X65.1456 Y1905.5748 Z-1.0000 F5000
G1 X65.1456 Y1892.2537 Z-1.0000 F5000
G1 X65.1456 Y1892.2537 Z10.0000 F9999
G1 X81.0538 Y1875.4509 Z10.0000 F9999
G1 X81.0538 Y1875.4509 Z-1.0000 F2500
G1 X65.1456 Y1866.4922 Z-1.0000 F5000
G1 X81.0538 Y1875.4509 Z-1.0000 F5000
G1 X95.9712 Y1866.4922 Z-1.0000 F5000
G1 X81.0538 Y1875.4509 Z-1.0000 F5000
G1 X95.9712 Y1884.5060 Z-1.0000 F5000
G1 X81.0538 Y1875.4509 Z-1.0000 F5000
G1 X65.1456 Y1884.5060 Z-1.0000 F5000
G1 X65.1456 Y1884.5060 Z10.0000 F9999
G1 X730.0660 Y2022.1233 Z10.0000 F9999
G1 X730.0660 Y2022.1233 Z-1.0000 F2500
G1 X721.1073 Y2038.0315 Z-1.0000 F5000
G1 X730.0660 Y2022.1233 Z-1.0000 F5000
G1 X721.1073 Y2007.2058 Z-1.0000 F5000
G1 X730.0660 Y2022.1233 Z-1.0000 F5000
G1 X739.1210 Y2007.2058 Z-1.0000 F5000
G1 X730.0660 Y2022.1233 Z-1.0000 F5000
G1 X739.1210 Y2038.0315 Z-1.0000 F5000
G1 X739.1210 Y2038.0315 Z10.0000 F9999
G1 X760.1898 Y2038.0315 Z10.0000 F9999
G1 X760.1898 Y2038.0315 Z-1.0000 F2500
G1 X760.1898 Y2020.9260 Z-1.0000 F5000
G1 X747.8458 Y2020.9260 Z-1.0000 F5000
G1 X760.1898 Y2020.9260 Z-1.0000 F5000
G1 X760.1898 Y2007.2058 Z-1.0000 F5000
G1 X746.8687 Y2007.2058 Z-1.0000 F5000
G1 X760.1898 Y2007.2058 Z-1.0000 F5000
G1 X760.1898 Y2038.0315 Z-1.0000 F5000
G1 X746.8687 Y2038.0315 Z-1.0000 F5000
G1 X746.8687 Y2038.0315 Z10.0000 F9999
G1 X771.8183 Y2000.1600 Z10.0000 F9999
G1 X771.8183 Y2000.1600 Z-1.0000 F2500
G1 X794.6073 Y2039.7930 Z-1.0000 F5000
G1 X771.8183 Y2000.1600 Z-1.0000 F5000
G1 X771.8183 Y2000.1600 Z10.0000 F9999
G1 X807.9008 Y2007.2058 Z10.0000 F9999
G1 X807.9008 Y2007.2058 Z-1.0000 F2500
G1 X824.5522 Y2032.2517 Z-1.0000 F5000
G1 X802.9467 Y2032.2517 Z-1.0000 F5000
G1 X824.5522 Y2032.2517 Z-1.0000 F5000
G1 X807.9008 Y2007.2058 Z-1.0000 F5000
G1 X807.9008 Y2038.0315 Z-1.0000 F5000
G1 X807.9008 Y2038.0315 Z10.0000 F9999
G1 X850.9742 Y2032.9122 Z10.0000 F9999
G1 X850.9742 Y2032.9122 Z-1.0000 F2500
G1 X849.5155 Y2035.1967 Z-1.0000 F5000
G1 X847.6990 Y2036.7379 Z-1.0000 F5000
G1 X845.3596 Y2037.6737 Z-1.0000 F5000
G1 X842.2632 Y2038.0315 Z-1.0000 F5000
G1 X838.8917 Y2037.6875 Z-1.0000 F5000
G1 X836.0293 Y2036.3801 Z-1.0000 F5000
G1 X834.0201 Y2034.1370 Z-1.0000 F5000
G1 X833.1807 Y2031.0132 Z-1.0000 F5000
G1 X833.5797 Y2028.0132 Z-1.0000 F5000
G1 X834.7357 Y2026.0040 Z-1.0000 F5000
G1 X836.2632 Y2024.7379 Z-1.0000 F5000
G1 X837.6944 Y2023.9122 Z-1.0000 F5000
G1 X844.5889 Y2020.3618 Z-1.0000 F5000
G1 X846.3641 Y2019.3022 Z-1.0000 F5000
G1 X847.7541 Y2018.0636 Z-1.0000 F5000
G1 X848.6898 Y2016.4260 Z-1.0000 F5000
G1 X849.0752 Y2014.2655 Z-1.0000 F5000
G1 X848.6761 Y2011.8022 Z-1.0000 F5000
G1 X847.2999 Y2009.5315 Z-1.0000 F5000
G1 X844.9467 Y2007.8664 Z-1.0000 F5000
G1 X841.6715 Y2007.2058 Z-1.0000 F5000
G1 X838.4788 Y2007.7150 Z-1.0000 F5000
G1 X836.3458 Y2008.8159 Z-1.0000 F5000
G1 X834.7770 Y2010.4260 Z-1.0000 F5000
G1 X836.3458 Y2008.8159 Z-1.0000 F5000
G1 X838.4788 Y2007.7150 Z-1.0000 F5000
G1 X841.6715 Y2007.2058 Z-1.0000 F5000
G1 X844.9467 Y2007.8664 Z-1.0000 F5000
G1 X847.2999 Y2009.5315 Z-1.0000 F5000
G1 X848.6761 Y2011.8022 Z-1.0000 F5000
G1 X849.0752 Y2014.2655 Z-1.0000 F5000
G1 X848.6898 Y2016.4260 Z-1.0000 F5000
G1 X847.7541 Y2018.0636 Z-1.0000 F5000
G1 X846.3641 Y2019.3022 Z-1.0000 F5000
G1 X844.5889 Y2020.3618 Z-1.0000 F5000
G1 X837.6944 Y2023.9122 Z-1.0000 F5000
G1 X836.2632 Y2024.7379 Z-1.0000 F5000
G1 X834.7357 Y2026.0040 Z-1.0000 F5000
G1 X833.5797 Y2028.0132 Z-1.0000 F5000
G1 X833.1807 Y2031.0132 Z-1.0000 F5000
G1 X834.0201 Y2034.1370 Z-1.0000 F5000
G1 X836.0293 Y2036.3801 Z-1.0000 F5000
G1 X838.8917 Y2037.6875 Z-1.0000 F5000
G1 X842.2632 Y2038.0315 Z-1.0000 F5000
G1 X845.3596 Y2037.6737 Z-1.0000 F5000
G1 X847.6990 Y2036.7379 Z-1.0000 F5000
G1 X849.5155 Y2035.1967 Z-1.0000 F5000
G1 X849.5155 Y2035.1967 Z10.0000 F9999
G1 X859.0109 Y2000.1600 Z10.0000 F9999
G1 X859.0109 Y2000.1600 Z-1.0000 F2500
G1 X881.7999 Y2039.7930 Z-1.0000 F5000
G1 X859.0109 Y2000.1600 Z-1.0000 F5000
G1 X859.0109 Y2000.1600 Z10.0000 F9999
G1 X902.3733 Y2007.2058 Z10.0000 F9999
G1 X902.3733 Y2007.2058 Z-1.0000 F2500
G1 X890.3320 Y2038.0315 Z-1.0000 F5000
G1 X902.3733 Y2007.2058 Z-1.0000 F5000
G1 X914.3871 Y2038.0315 Z-1.0000 F5000
G1 X914.3871 Y2038.0315 Z10.0000 F9999
G1 X922.3963 Y2019.5361 Z10.0000 F9999
G1 X922.3963 Y2019.5361 Z-1.0000 F2500
G1 X944.3320 Y2019.5361 Z-1.0000 F5000
G1 X922.3963 Y2019.5361 Z-1.0000 F5000
G1 X922.3963 Y2019.5361 Z10.0000 F9999
G1 X894.6394 Y2027.0086 Z10.0000 F9999
G1 X894.6394 Y2027.0086 Z-1.0000 F2500
G1 X910.1623 Y2027.0086 Z-1.0000 F5000
G1 X894.6394 Y2027.0086 Z-1.0000 F5000
G1 X894.6394 Y2027.0086 Z10.0000 F9999
G1 X957.1715 Y2027.0086 Z10.0000 F9999
G1 X957.1715 Y2027.0086 Z-1.0000 F2500
G1 X972.6944 Y2027.0086 Z-1.0000 F5000
G1 X957.1715 Y2027.0086 Z-1.0000 F5000
G1 X957.1715 Y2027.0086 Z10.0000 F9999
G1 X964.9054 Y2007.2058 Z10.0000 F9999
G1 X964.9054 Y2007.2058 Z-1.0000 F2500
G1 X952.8641 Y2038.0315 Z-1.0000 F5000
G1 X964.9054 Y2007.2058 Z-1.0000 F5000
G1 X976.9192 Y2038.0315 Z-1.0000 F5000
G1 X976.9192 Y2038.0315 Z10.0000 F9999
G1 X984.9284 Y2038.0315 Z10.0000 F9999
G1 X984.9284 Y2038.0315 Z-1.0000 F2500
G1 X994.8504 Y2022.9214 Z-1.0000 F5000
G1 X984.9284 Y2038.0315 Z-1.0000 F5000
G1 X984.9284 Y2038.0315 Z10.0000 F9999
G1 X997.9880 Y2038.0315 Z10.0000 F9999
G1 X997.9880 Y2038.0315 Z-1.0000 F2500
G1 X997.9880 Y2007.2058 Z-1.0000 F5000
G1 X992.6210 Y2007.2058 Z-1.0000 F5000
G1 X989.7174 Y2007.6600 Z-1.0000 F5000
G1 X987.3091 Y2009.0223 Z-1.0000 F5000
G1 X985.6440 Y2011.3893 Z-1.0000 F5000
G1 X985.0109 Y2014.8710 Z-1.0000 F5000
G1 X985.8779 Y2018.3801 Z-1.0000 F5000
G1 X987.9559 Y2020.8710 Z-1.0000 F5000
G1 X990.4467 Y2022.3434 Z-1.0000 F5000
G1 X992.6210 Y2022.8389 Z-1.0000 F5000
G1 X997.9880 Y2022.8389 Z-1.0000 F5000
G1 X992.6210 Y2022.8389 Z-1.0000 F5000
G1 X990.4467 Y2022.3434 Z-1.0000 F5000
G1 X987.9559 Y2020.8710 Z-1.0000 F5000
G1 X985.8779 Y2018.3801 Z-1.0000 F5000
G1 X985.0109 Y2014.8710 Z-1.0000 F5000
G1 X985.6440 Y2011.3893 Z-1.0000 F5000
G1 X987.3091 Y2009.0223 Z-1.0000 F5000
G1 X989.7174 Y2007.6600 Z-1.0000 F5000
G1 X992.6210 Y2007.2058 Z-1.0000 F5000
G1 X997.9880 Y2007.2058 Z-1.0000 F5000
G1 X997.9880 Y2007.2058 Z10.0000 F9999
G1 X1020.8871 Y2020.9260 Z10.0000 F9999
G1 X1020.8871 Y2020.9260 Z-1.0000 F2500
G1 X1010.0568 Y2020.9260 Z-1.0000 F5000
G1 X1020.8871 Y2020.9260 Z-1.0000 F5000
G1 X1020.8871 Y2007.2058 Z-1.0000 F5000
G1 X1009.5476 Y2007.2058 Z-1.0000 F5000
G1 X1020.8871 Y2007.2058 Z-1.0000 F5000
G1 X1020.8871 Y2038.0315 Z-1.0000 F5000
G1 X1020.8871 Y2038.0315 Z10.0000 F9999
G1 X964.9054 Y2176.4144 Z10.0000 F9999
G1 X964.9054 Y2176.4144 Z-1.0000 F2500
G1 X952.8641 Y2207.2401 Z-1.0000 F5000
G1 X964.9054 Y2176.4144 Z-1.0000 F5000
G1 X976.9192 Y2207.2401 Z-1.0000 F5000
G1 X976.9192 Y2207.2401 Z10.0000 F9999
G1 X984.9284 Y2207.2401 Z10.0000 F9999
G1 X984.9284 Y2207.2401 Z-1.0000 F2500
G1 X994.8504 Y2192.1300 Z-1.0000 F5000
G1 X984.9284 Y2207.2401 Z-1.0000 F5000
G1 X984.9284 Y2207.2401 Z10.0000 F9999
G1 X997.9880 Y2207.2401 Z10.0000 F9999
G1 X997.9880 Y2207.2401 Z-1.0000 F2500
G1 X997.9880 Y2176.4144 Z-1.0000 F5000
G1 X992.6210 Y2176.4144 Z-1.0000 F5000
G1 X989.7174 Y2176.8686 Z-1.0000 F5000
G1 X987.3091 Y2178.2309 Z-1.0000 F5000
G1 X985.6440 Y2180.5979 Z-1.0000 F5000
G1 X985.0109 Y2184.0796 Z-1.0000 F5000
G1 X985.8779 Y2187.5887 Z-1.0000 F5000
G1 X987.9559 Y2190.0796 Z-1.0000 F5000
G1 X990.4467 Y2191.5520 Z-1.0000 F5000
G1 X992.6210 Y2192.0475 Z-1.0000 F5000
G1 X997.9880 Y2192.0475 Z-1.0000 F5000
G1 X992.6210 Y2192.0475 Z-1.0000 F5000
G1 X990.4467 Y2191.5520 Z-1.0000 F5000
G1 X987.9559 Y2190.0796 Z-1.0000 F5000
G1 X985.8779 Y2187.5887 Z-1.0000 F5000
G1 X985.0109 Y2184.0796 Z-1.0000 F5000
G1 X985.6440 Y2180.5979 Z-1.0000 F5000
G1 X987.3091 Y2178.2309 Z-1.0000 F5000
G1 X989.7174 Y2176.8686 Z-1.0000 F5000
G1 X992.6210 Y2176.4144 Z-1.0000 F5000
G1 X997.9880 Y2176.4144 Z-1.0000 F5000
G1 X997.9880 Y2176.4144 Z10.0000 F9999
G1 X1020.8871 Y2190.1346 Z10.0000 F9999
G1 X1020.8871 Y2190.1346 Z-1.0000 F2500
G1 X1010.0568 Y2190.1346 Z-1.0000 F5000
G1 X1020.8871 Y2190.1346 Z-1.0000 F5000
G1 X1020.8871 Y2176.4144 Z-1.0000 F5000
G1 X1009.5476 Y2176.4144 Z-1.0000 F5000
G1 X1020.8871 Y2176.4144 Z-1.0000 F5000
G1 X1020.8871 Y2207.2401 Z-1.0000 F5000
G1 X1020.8871 Y2207.2401 Z10.0000 F9999
G1 X957.1715 Y2196.2172 Z10.0000 F9999
G1 X957.1715 Y2196.2172 Z-1.0000 F2500
G1 X972.6944 Y2196.2172 Z-1.0000 F5000
G1 X957.1715 Y2196.2172 Z-1.0000 F5000
G1 X957.1715 Y2196.2172 Z10.0000 F9999
G1 X922.3963 Y2188.7447 Z10.0000 F9999
G1 X922.3963 Y2188.7447 Z-1.0000 F2500
G1 X944.3320 Y2188.7447 Z-1.0000 F5000
G1 X922.3963 Y2188.7447 Z-1.0000 F5000
G1 X922.3963 Y2188.7447 Z10.0000 F9999
G1 X902.3733 Y2176.4144 Z10.0000 F9999
G1 X902.3733 Y2176.4144 Z-1.0000 F2500
G1 X890.3320 Y2207.2401 Z-1.0000 F5000
G1 X902.3733 Y2176.4144 Z-1.0000 F5000
G1 X914.3871 Y2207.2401 Z-1.0000 F5000
G1 X914.3871 Y2207.2401 Z10.0000 F9999
G1 X894.6394 Y2196.2172 Z10.0000 F9999
G1 X894.6394 Y2196.2172 Z-1.0000 F2500
G1 X910.1623 Y2196.2172 Z-1.0000 F5000
G1 X894.6394 Y2196.2172 Z-1.0000 F5000
G1 X894.6394 Y2196.2172 Z10.0000 F9999
G1 X850.9742 Y2202.1208 Z10.0000 F9999
G1 X850.9742 Y2202.1208 Z-1.0000 F2500
G1 X849.5155 Y2204.4053 Z-1.0000 F5000
G1 X847.6990 Y2205.9465 Z-1.0000 F5000
G1 X845.3596 Y2206.8823 Z-1.0000 F5000
G1 X842.2632 Y2207.2401 Z-1.0000 F5000
G1 X838.8917 Y2206.8961 Z-1.0000 F5000
G1 X836.0293 Y2205.5887 Z-1.0000 F5000
G1 X834.0201 Y2203.3456 Z-1.0000 F5000
G1 X833.1807 Y2200.2218 Z-1.0000 F5000
G1 X833.5797 Y2197.2218 Z-1.0000 F5000
G1 X834.7357 Y2195.2126 Z-1.0000 F5000
G1 X836.2632 Y2193.9465 Z-1.0000 F5000
G1 X837.6944 Y2193.1208 Z-1.0000 F5000
G1 X844.5889 Y2189.5704 Z-1.0000 F5000
G1 X846.3641 Y2188.5108 Z-1.0000 F5000
G1 X847.7541 Y2187.2722 Z-1.0000 F5000
G1 X848.6898 Y2185.6346 Z-1.0000 F5000
G1 X849.0752 Y2183.4741 Z-1.0000 F5000
G1 X848.6761 Y2181.0108 Z-1.0000 F5000
G1 X847.2999 Y2178.7401 Z-1.0000 F5000
G1 X844.9467 Y2177.0750 Z-1.0000 F5000
G1 X841.6715 Y2176.4144 Z-1.0000 F5000
G1 X838.4788 Y2176.9236 Z-1.0000 F5000
G1 X836.3458 Y2178.0245 Z-1.0000 F5000
G1 X834.7770 Y2179.6346 Z-1.0000 F5000
G1 X836.3458 Y2178.0245 Z-1.0000 F5000
G1 X838.4788 Y2176.9236 Z-1.0000 F5000
G1 X841.6715 Y2176.4144 Z-1.0000 F5000
G1 X844.9467 Y2177.0750 Z-1.0000 F5000
G1 X847.2999 Y2178.7401 Z-1.0000 F5000
G1 X848.6761 Y2181.0108 Z-1.0000 F5000
G1 X849.0752 Y2183.4741 Z-1.0000 F5000
G1 X848.6898 Y2185.6346 Z-1.0000 F5000
G1 X847.7541 Y2187.2722 Z-1.0000 F5000
G1 X846.3641 Y2188.5108 Z-1.0000 F5000
G1 X844.5889 Y2189.5704 Z-1.0000 F5000
G1 X837.6944 Y2193.1208 Z-1.0000 F5000
G1 X836.2632 Y2193.9465 Z-1.0000 F5000
G1 X834.7357 Y2195.2126 Z-1.0000 F5000
G1 X833.5797 Y2197.2218 Z-1.0000 F5000
G1 X833.1807 Y2200.2218 Z-1.0000 F5000
G1 X834.0201 Y2203.3456 Z-1.0000 F5000
G1 X836.0293 Y2205.5887 Z-1.0000 F5000
G1 X838.8917 Y2206.8961 Z-1.0000 F5000
G1 X842.2632 Y2207.2401 Z-1.0000 F5000
G1 X845.3596 Y2206.8823 Z-1.0000 F5000
G1 X847.6990 Y2205.9465 Z-1.0000 F5000
G1 X849.5155 Y2204.4053 Z-1.0000 F5000
G1 X849.5155 Y2204.4053 Z10.0000 F9999
G1 X859.0109 Y2169.3686 Z10.0000 F9999
G1 X859.0109 Y2169.3686 Z-1.0000 F2500
G1 X881.7999 Y2209.0016 Z-1.0000 F5000
G1 X859.0109 Y2169.3686 Z-1.0000 F5000
G1 X859.0109 Y2169.3686 Z10.0000 F9999
G1 X807.9008 Y2176.4144 Z10.0000 F9999
G1 X807.9008 Y2176.4144 Z-1.0000 F2500
G1 X824.5522 Y2201.4603 Z-1.0000 F5000
G1 X802.9467 Y2201.4603 Z-1.0000 F5000
G1 X824.5522 Y2201.4603 Z-1.0000 F5000
G1 X807.9008 Y2176.4144 Z-1.0000 F5000
G1 X807.9008 Y2207.2401 Z-1.0000 F5000
G1 X807.9008 Y2207.2401 Z10.0000 F9999
G1 X760.1898 Y2207.2401 Z10.0000 F9999
G1 X760.1898 Y2207.2401 Z-1.0000 F2500
G1 X760.1898 Y2190.1346 Z-1.0000 F5000
G1 X747.8458 Y2190.1346 Z-1.0000 F5000
G1 X760.1898 Y2190.1346 Z-1.0000 F5000
G1 X760.1898 Y2176.4144 Z-1.0000 F5000
G1 X746.8687 Y2176.4144 Z-1.0000 F5000
G1 X760.1898 Y2176.4144 Z-1.0000 F5000
G1 X760.1898 Y2207.2401 Z-1.0000 F5000
G1 X746.8687 Y2207.2401 Z-1.0000 F5000
G1 X746.8687 Y2207.2401 Z10.0000 F9999
G1 X730.0660 Y2191.3319 Z10.0000 F9999
G1 X730.0660 Y2191.3319 Z-1.0000 F2500
G1 X721.1073 Y2207.2401 Z-1.0000 F5000
G1 X730.0660 Y2191.3319 Z-1.0000 F5000
G1 X721.1073 Y2176.4144 Z-1.0000 F5000
G1 X730.0660 Y2191.3319 Z-1.0000 F5000
G1 X739.1210 Y2176.4144 Z-1.0000 F5000
G1 X730.0660 Y2191.3319 Z-1.0000 F5000
G1 X739.1210 Y2207.2401 Z-1.0000 F5000
G1 X739.1210 Y2207.2401 Z10.0000 F9999
G1 X771.8183 Y2169.3686 Z10.0000 F9999
G1 X771.8183 Y2169.3686 Z-1.0000 F2500
G1 X794.6073 Y2209.0016 Z-1.0000 F5000
G1 X771.8183 Y2169.3686 Z-1.0000 F5000
G1 X771.8183 Y2169.3686 Z10.0000 F9999
G1 X771.8183 Y2333.4182 Z10.0000 F9999
G1 X771.8183 Y2333.4182 Z-1.0000 F2500
G1 X794.6073 Y2373.0513 Z-1.0000 F5000
G1 X771.8183 Y2333.4182 Z-1.0000 F5000
G1 X771.8183 Y2333.4182 Z10.0000 F9999
G1 X807.9008 Y2340.4641 Z10.0000 F9999
G1 X807.9008 Y2340.4641 Z-1.0000 F2500
G1 X824.5522 Y2365.5100 Z-1.0000 F5000
G1 X802.9467 Y2365.5100 Z-1.0000 F5000
G1 X824.5522 Y2365.5100 Z-1.0000 F5000
G1 X807.9008 Y2340.4641 Z-1.0000 F5000
G1 X807.9008 Y2371.2898 Z-1.0000 F5000
G1 X807.9008 Y2371.2898 Z10.0000 F9999
G1 X850.9742 Y2366.1705 Z10.0000 F9999
G1 X850.9742 Y2366.1705 Z-1.0000 F2500
G1 X849.5155 Y2368.4549 Z-1.0000 F5000
G1 X847.6990 Y2369.9962 Z-1.0000 F5000
G1 X845.3596 Y2370.9320 Z-1.0000 F5000
G1 X842.2632 Y2371.2898 Z-1.0000 F5000
G1 X838.8917 Y2370.9458 Z-1.0000 F5000
G1 X836.0293 Y2369.6384 Z-1.0000 F5000
G1 X834.0201 Y2367.3953 Z-1.0000 F5000
G1 X833.1807 Y2364.2714 Z-1.0000 F5000
