(plotsheet 2n3_nested_153 sheets_final v1_0_sheet 137 to 139_S137.0_17 screws_CC9.53 - PCD - stepover 1mm)
(Material Size) (X=1220.000, Y=2440.000, Z=20.000)
(LinuxCNC_NoArcs_MM_TC_medium_50um_G1_verbose.con)
G90 G80 G21 G49
G64 P0.050
M6 T1
(Tool Number:1) (9.530 mm dia. slot drill)
G43 H1 G0Z80.0000
M3 S13114
G04 P10
G1 X48.7482 Y49.7666 Z10.0000 F9999
G1 X48.7482 Y49.7666 Z2.0000 F9999
G1 X48.7482 Y49.7666 Z-1.0000 F2500
G1 X48.7482 Y49.7666 Z10.0000 F9999
G1 X440.7355 Y461.5983 Z10.0000 F9999
G1 X440.7355 Y461.5983 Z2.0000 F9999
G1 X440.7355 Y461.5983 Z-1.0000 F2500
G1 X440.7355 Y461.5983 Z10.0000 F9999
G1 X624.2558 Y158.2037 Z10.0000 F9999
G1 X624.2558 Y158.2037 Z2.0000 F9999
G1 X624.2558 Y158.2037 Z-1.0000 F2500
G1 X624.2558 Y158.2037 Z10.0000 F9999
G1 X1170.3889 Y53.2178 Z10.0000 F9999
G1 X1170.3889 Y53.2178 Z2.0000 F9999
G1 X1170.3889 Y53.2178 Z-1.0000 F2500
G1 X1170.3889 Y53.2178 Z10.0000 F9999
G1 X1173.8402 Y691.6902 Z10.0000 F9999
G1 X1173.8402 Y691.6902 Z2.0000 F9999
G1 X1173.8402 Y691.6902 Z-1.0000 F2500
G1 X1173.8402 Y691.6902 Z10.0000 F9999
G1 X1172.1146 Y986.7680 Z10.0000 F9999
G1 X1172.1146 Y986.7680 Z2.0000 F9999
G1 X1172.1146 Y986.7680 Z-1.0000 F2500
G1 X1172.1146 Y986.7680 Z10.0000 F9999
G1 X1171.0962 Y1293.9250 Z10.0000 F9999
G1 X1171.0962 Y1293.9250 Z2.0000 F9999
G1 X1171.0962 Y1293.9250 Z-1.0000 F2500
G1 X1171.0962 Y1293.9250 Z10.0000 F9999
G1 X1172.1146 Y1578.6492 Z10.0000 F9999
G1 X1172.1146 Y1578.6492 Z2.0000 F9999
G1 X1172.1146 Y1578.6492 Z-1.0000 F2500
G1 X1172.1146 Y1578.6492 Z10.0000 F9999
G1 X1172.8535 Y2162.2217 Z10.0000 F9999
G1 X1172.8535 Y2162.2217 Z2.0000 F9999
G1 X1172.8535 Y2162.2217 Z-1.0000 F2500
G1 X1172.8535 Y2162.2217 Z10.0000 F9999
G1 X434.8515 Y1634.2998 Z10.0000 F9999
G1 X434.8515 Y1634.2998 Z2.0000 F9999
G1 X434.8515 Y1634.2998 Z-1.0000 F2500
G1 X434.8515 Y1634.2998 Z10.0000 F9999
G1 X428.6902 Y1244.6805 Z10.0000 F9999
G1 X428.6902 Y1244.6805 Z2.0000 F9999
G1 X428.6902 Y1244.6805 Z-1.0000 F2500
G1 X428.6902 Y1244.6805 Z10.0000 F9999
G1 X43.5714 Y1302.5531 Z10.0000 F9999
G1 X43.5714 Y1302.5531 Z2.0000 F9999
G1 X43.5714 Y1302.5531 Z-1.0000 F2500
G1 X43.5714 Y1302.5531 Z10.0000 F9999
G1 X45.2970 Y1578.6492 Z10.0000 F9999
G1 X45.2970 Y1578.6492 Z2.0000 F9999
G1 X45.2970 Y1578.6492 Z-1.0000 F2500
G1 X45.2970 Y1578.6492 Z10.0000 F9999
G1 X38.3946 Y2165.3535 Z10.0000 F9999
G1 X38.3946 Y2165.3535 Z2.0000 F9999
G1 X38.3946 Y2165.3535 Z-1.0000 F2500
G1 X38.3946 Y2165.3535 Z10.0000 F9999
G1 X47.0226 Y985.0424 Z10.0000 F9999
G1 X47.0226 Y985.0424 Z2.0000 F9999
G1 X47.0226 Y985.0424 Z-1.0000 F2500
G1 X47.0226 Y985.0424 Z10.0000 F9999
G1 X43.5714 Y696.8671 Z10.0000 F9999
G1 X43.5714 Y696.8671 Z2.0000 F9999
G1 X43.5714 Y696.8671 Z-1.0000 F2500
G1 X43.5714 Y696.8671 Z10.0000 F9999
G1 X450.3819 Y852.6025 Z10.0000 F9999
G1 X450.3819 Y852.6025 Z2.0000 F9999
G1 X450.3819 Y852.6025 Z-1.0000 F2500
G1 X450.3819 Y852.6025 Z10.0000 F9999
G1 X1900.0000 Y2800.0000 Z80.0000 F9999
G1 Z80.0000 F9999
G1 X1900.0000 Y2800.0000 F9999
M5
M30
