(plotsheet 2n3_nested_153 sheets_final v1_0_sheet 65 to 66a_S65.0_10 screws_CC8 - stepover 1mm)
(Material Size) (X=1220.000, Y=2440.000, Z=21.000)
(LinuxCNC_NoArcs_MM_TC_medium_50um_G1_verbose.con)
G90 G80 G21 G49
G64 P0.050
M6 T1
(Tool Number:1) (7.998 mm dia. slot drill)
G43 H1 G0Z30.0000
M3 S19000
G04 P10
G1 X222.6025 Y84.7100 Z10.0000 F9999
G1 X222.6025 Y84.7100 Z2.0000 F9999
G1 X222.6025 Y84.7100 Z-2.0000 F2000
G1 X222.6025 Y84.7100 Z10.0000 F9999
G1 X565.5658 Y230.5233 Z10.0000 F9999
G1 X565.5658 Y230.5233 Z2.0000 F9999
G1 X565.5658 Y230.5233 Z-2.0000 F2000
G1 X565.5658 Y230.5233 Z10.0000 F9999
G1 X1012.9279 Y222.7581 Z10.0000 F9999
G1 X1012.9279 Y222.7581 Z2.0000 F9999
G1 X1012.9279 Y222.7581 Z-2.0000 F2000
G1 X1012.9279 Y222.7581 Z10.0000 F9999
G1 X862.8005 Y818.0905 Z10.0000 F9999
G1 X862.8005 Y818.0905 Z2.0000 F9999
G1 X862.8005 Y818.0905 Z-2.0000 F2000
G1 X862.8005 Y818.0905 Z10.0000 F9999
G1 X551.1740 Y731.8105 Z10.0000 F9999
G1 X551.1740 Y731.8105 Z2.0000 F9999
G1 X551.1740 Y731.8105 Z-2.0000 F2000
G1 X551.1740 Y731.8105 Z10.0000 F9999
G1 X120.7921 Y726.6337 Z10.0000 F9999
G1 X120.7921 Y726.6337 Z2.0000 F9999
G1 X120.7921 Y726.6337 Z-2.0000 F2000
G1 X120.7921 Y726.6337 Z10.0000 F9999
G1 X84.5545 Y1837.9208 Z10.0000 F9999
G1 X84.5545 Y1837.9208 Z2.0000 F9999
G1 X84.5545 Y1837.9208 Z-2.0000 F2000
G1 X84.5545 Y1837.9208 Z10.0000 F9999
G1 X351.5912 Y2270.1838 Z10.0000 F9999
G1 X351.5912 Y2270.1838 Z2.0000 F9999
G1 X351.5912 Y2270.1838 Z-2.0000 F2000
G1 X351.5912 Y2270.1838 Z10.0000 F9999
G1 X769.1867 Y2285.7144 Z10.0000 F9999
G1 X769.1867 Y2285.7144 Z2.0000 F9999
G1 X769.1867 Y2285.7144 Z-2.0000 F2000
G1 X769.1867 Y2285.7144 Z10.0000 F9999
G1 X1078.5007 Y1437.5813 Z10.0000 F9999
G1 X1078.5007 Y1437.5813 Z2.0000 F9999
G1 X1078.5007 Y1437.5813 Z-2.0000 F2000
G1 X1078.5007 Y1437.5813 Z10.0000 F9999
G1 X1900.0000 Y2800.0000 Z80.0000 F9999
G1 Z80.0000 F9999
G1 X1900.0000 Y2800.0000 F9999
M5
M30
