(plotsheet 2n3_nested_153 sheets_final v1_0_sheet 149a_S149.1_text_CC8 - stepover 1mm)
(Material Size) (X=1220.000, Y=2440.000, Z=20.000)
(LinuxCNC_NoArcs_MM_TC_medium_50um_G1_verbose.con)
G90 G80 G21 G49
G64 P0.050
M6 T1
(Tool Number:1) (7.998 mm dia. slot drill)
G43 H1 G0Z80.0000
M3 S18000
G04 P10
G1 X84.9624 Y416.7203 Z10.0000 F9999
G1 X84.9624 Y416.7203 Z-1.0000 F2500
G1 X84.9624 Y431.1607 Z-1.0000 F5000
G1 X84.9624 Y416.7203 Z-1.0000 F5000
G1 X66.6689 Y416.7203 Z-1.0000 F5000
G1 X66.6689 Y431.8396 Z-1.0000 F5000
G1 X66.6689 Y416.7203 Z-1.0000 F5000
G1 X107.7698 Y416.7203 Z-1.0000 F5000
G1 X107.7698 Y416.7203 Z10.0000 F9999
G1 X107.7698 Y447.2524 Z10.0000 F9999
G1 X107.7698 Y447.2524 Z-1.0000 F2500
G1 X66.6689 Y447.2524 Z-1.0000 F5000
G1 X66.6689 Y454.4084 Z-1.0000 F5000
G1 X67.2744 Y458.2800 Z-1.0000 F5000
G1 X69.0909 Y461.4910 Z-1.0000 F5000
G1 X72.2468 Y463.7112 Z-1.0000 F5000
G1 X76.8890 Y464.5552 Z-1.0000 F5000
G1 X81.5679 Y463.3992 Z-1.0000 F5000
G1 X84.8890 Y460.6286 Z-1.0000 F5000
G1 X86.8523 Y457.3075 Z-1.0000 F5000
G1 X87.5129 Y454.4084 Z-1.0000 F5000
G1 X87.5129 Y447.2524 Z-1.0000 F5000
G1 X87.5129 Y454.4084 Z-1.0000 F5000
G1 X86.8523 Y457.3075 Z-1.0000 F5000
G1 X84.8890 Y460.6286 Z-1.0000 F5000
G1 X81.5679 Y463.3992 Z-1.0000 F5000
G1 X76.8890 Y464.5552 Z-1.0000 F5000
G1 X72.2468 Y463.7112 Z-1.0000 F5000
G1 X69.0909 Y461.4910 Z-1.0000 F5000
G1 X67.2744 Y458.2800 Z-1.0000 F5000
G1 X66.6689 Y454.4084 Z-1.0000 F5000
G1 X66.6689 Y447.2524 Z-1.0000 F5000
G1 X66.6689 Y447.2524 Z10.0000 F9999
G1 X66.6689 Y491.3625 Z10.0000 F9999
G1 X66.6689 Y491.3625 Z-1.0000 F2500
G1 X107.7698 Y507.4176 Z-1.0000 F5000
G1 X66.6689 Y491.3625 Z-1.0000 F5000
G1 X107.7698 Y475.3442 Z-1.0000 F5000
G1 X107.7698 Y475.3442 Z10.0000 F9999
G1 X107.7698 Y464.6653 Z10.0000 F9999
G1 X107.7698 Y464.6653 Z-1.0000 F2500
G1 X87.6230 Y451.4359 Z-1.0000 F5000
G1 X107.7698 Y464.6653 Z-1.0000 F5000
G1 X107.7698 Y464.6653 Z10.0000 F9999
G1 X93.0725 Y501.6745 Z10.0000 F9999
G1 X93.0725 Y501.6745 Z-1.0000 F2500
G1 X93.0725 Y480.9772 Z-1.0000 F5000
G1 X93.0725 Y501.6745 Z-1.0000 F5000
G1 X93.0725 Y501.6745 Z10.0000 F9999
G1 X83.1092 Y548.0414 Z10.0000 F9999
G1 X83.1092 Y548.0414 Z-1.0000 F2500
G1 X83.1092 Y518.7937 Z-1.0000 F5000
G1 X83.1092 Y548.0414 Z-1.0000 F5000
G1 X83.1092 Y548.0414 Z10.0000 F9999
G1 X66.6689 Y574.7387 Z10.0000 F9999
G1 X66.6689 Y574.7387 Z-1.0000 F2500
G1 X107.7698 Y590.7937 Z-1.0000 F5000
G1 X66.6689 Y574.7387 Z-1.0000 F5000
G1 X107.7698 Y558.7203 Z-1.0000 F5000
G1 X107.7698 Y558.7203 Z10.0000 F9999
G1 X93.0725 Y585.0506 Z10.0000 F9999
G1 X93.0725 Y585.0506 Z-1.0000 F2500
G1 X93.0725 Y564.3534 Z-1.0000 F5000
G1 X93.0725 Y585.0506 Z-1.0000 F5000
G1 X93.0725 Y585.0506 Z10.0000 F9999
G1 X100.9441 Y643.2708 Z10.0000 F9999
G1 X100.9441 Y643.2708 Z-1.0000 F2500
G1 X103.9900 Y645.2157 Z-1.0000 F5000
G1 X106.0450 Y647.6378 Z-1.0000 F5000
G1 X107.2927 Y650.7570 Z-1.0000 F5000
G1 X107.7698 Y654.8855 Z-1.0000 F5000
G1 X107.3111 Y659.3809 Z-1.0000 F5000
G1 X105.5679 Y663.1974 Z-1.0000 F5000
G1 X102.5771 Y665.8763 Z-1.0000 F5000
G1 X98.4120 Y666.9956 Z-1.0000 F5000
G1 X94.4120 Y666.4634 Z-1.0000 F5000
G1 X91.7331 Y664.9222 Z-1.0000 F5000
G1 X90.0450 Y662.8855 Z-1.0000 F5000
G1 X88.9441 Y660.9772 Z-1.0000 F5000
G1 X84.2101 Y651.7845 Z-1.0000 F5000
G1 X82.7973 Y649.4176 Z-1.0000 F5000
G1 X81.1459 Y647.5644 Z-1.0000 F5000
G1 X78.9624 Y646.3167 Z-1.0000 F5000
G1 X76.0817 Y645.8029 Z-1.0000 F5000
G1 X72.7973 Y646.3350 Z-1.0000 F5000
G1 X69.7698 Y648.1699 Z-1.0000 F5000
G1 X67.5496 Y651.3075 Z-1.0000 F5000
G1 X66.6689 Y655.6745 Z-1.0000 F5000
G1 X67.3478 Y659.9313 Z-1.0000 F5000
G1 X68.8156 Y662.7754 Z-1.0000 F5000
G1 X70.9624 Y664.8671 Z-1.0000 F5000
G1 X68.8156 Y662.7754 Z-1.0000 F5000
G1 X67.3478 Y659.9313 Z-1.0000 F5000
G1 X66.6689 Y655.6745 Z-1.0000 F5000
G1 X67.5496 Y651.3075 Z-1.0000 F5000
G1 X69.7698 Y648.1699 Z-1.0000 F5000
G1 X72.7973 Y646.3350 Z-1.0000 F5000
G1 X76.0817 Y645.8029 Z-1.0000 F5000
G1 X78.9624 Y646.3167 Z-1.0000 F5000
G1 X81.1459 Y647.5644 Z-1.0000 F5000
G1 X82.7973 Y649.4176 Z-1.0000 F5000
G1 X84.2101 Y651.7845 Z-1.0000 F5000
G1 X88.9441 Y660.9772 Z-1.0000 F5000
G1 X90.0450 Y662.8855 Z-1.0000 F5000
G1 X91.7331 Y664.9222 Z-1.0000 F5000
G1 X94.4120 Y666.4634 Z-1.0000 F5000
G1 X98.4120 Y666.9956 Z-1.0000 F5000
G1 X102.5771 Y665.8763 Z-1.0000 F5000
G1 X105.5679 Y663.1974 Z-1.0000 F5000
G1 X107.3111 Y659.3809 Z-1.0000 F5000
G1 X107.7698 Y654.8855 Z-1.0000 F5000
G1 X107.2927 Y650.7570 Z-1.0000 F5000
G1 X106.0450 Y647.6378 Z-1.0000 F5000
G1 X103.9900 Y645.2157 Z-1.0000 F5000
G1 X103.9900 Y645.2157 Z10.0000 F9999
G1 X102.2468 Y678.5001 Z10.0000 F9999
G1 X102.2468 Y678.5001 Z-1.0000 F2500
G1 X103.5129 Y679.7479 Z-1.0000 F5000
G1 X105.3294 Y682.0781 Z-1.0000 F5000
G1 X106.9808 Y685.5460 Z-1.0000 F5000
G1 X107.7698 Y690.2800 Z-1.0000 F5000
G1 X106.5771 Y695.4359 Z-1.0000 F5000
G1 X103.2560 Y699.8029 Z-1.0000 F5000
G1 X98.3386 Y702.8488 Z-1.0000 F5000
G1 X92.3936 Y703.9864 Z-1.0000 F5000
G1 X86.8523 Y702.6469 Z-1.0000 F5000
G1 X82.8156 Y699.3992 Z-1.0000 F5000
G1 X80.3936 Y695.3442 Z-1.0000 F5000
G1 X79.5863 Y691.5827 Z-1.0000 F5000
G1 X79.5863 Y689.4359 Z-1.0000 F5000
G1 X79.9900 Y687.1790 Z-1.0000 F5000
G1 X80.8890 Y684.5368 Z-1.0000 F5000
G1 X65.4945 Y690.1699 Z-1.0000 F5000
G1 X65.4945 Y704.3717 Z-1.0000 F5000
G1 X65.4945 Y690.1699 Z-1.0000 F5000
G1 X80.8890 Y684.5368 Z-1.0000 F5000
G1 X79.9900 Y687.1790 Z-1.0000 F5000
G1 X79.5863 Y689.4359 Z-1.0000 F5000
G1 X79.5863 Y691.5827 Z-1.0000 F5000
G1 X80.3936 Y695.3442 Z-1.0000 F5000
G1 X82.8156 Y699.3992 Z-1.0000 F5000
G1 X86.8523 Y702.6469 Z-1.0000 F5000
G1 X92.3936 Y703.9864 Z-1.0000 F5000
G1 X98.3386 Y702.8488 Z-1.0000 F5000
G1 X103.2560 Y699.8029 Z-1.0000 F5000
G1 X106.5771 Y695.4359 Z-1.0000 F5000
G1 X107.7698 Y690.2800 Z-1.0000 F5000
G1 X106.9808 Y685.5460 Z-1.0000 F5000
G1 X105.3294 Y682.0781 Z-1.0000 F5000
G1 X103.5129 Y679.7479 Z-1.0000 F5000
G1 X103.5129 Y679.7479 Z10.0000 F9999
G1 X57.2744 Y632.5552 Z10.0000 F9999
G1 X57.2744 Y632.5552 Z-1.0000 F2500
G1 X110.1184 Y602.1699 Z-1.0000 F5000
G1 X57.2744 Y632.5552 Z-1.0000 F5000
G1 X57.2744 Y632.5552 Z10.0000 F9999
G1 X57.2744 Y745.2891 Z10.0000 F9999
G1 X57.2744 Y745.2891 Z-1.0000 F2500
G1 X110.1184 Y714.9038 Z-1.0000 F5000
G1 X57.2744 Y745.2891 Z-1.0000 F5000
G1 X57.2744 Y745.2891 Z10.0000 F9999
G1 X107.7698 Y760.7937 Z10.0000 F9999
G1 X107.7698 Y760.7937 Z-1.0000 F2500
G1 X84.9624 Y760.7937 Z-1.0000 F5000
G1 X84.9624 Y777.2524 Z-1.0000 F5000
G1 X84.9624 Y760.7937 Z-1.0000 F5000
G1 X66.6689 Y760.7937 Z-1.0000 F5000
G1 X66.6689 Y778.5552 Z-1.0000 F5000
G1 X66.6689 Y760.7937 Z-1.0000 F5000
G1 X107.7698 Y760.7937 Z-1.0000 F5000
G1 X107.7698 Y778.5552 Z-1.0000 F5000
G1 X107.7698 Y778.5552 Z10.0000 F9999
G1 X86.5588 Y800.9589 Z10.0000 F9999
G1 X86.5588 Y800.9589 Z-1.0000 F2500
G1 X107.7698 Y812.9038 Z-1.0000 F5000
G1 X86.5588 Y800.9589 Z-1.0000 F5000
G1 X66.6689 Y812.9038 Z-1.0000 F5000
G1 X86.5588 Y800.9589 Z-1.0000 F5000
G1 X66.6689 Y788.8855 Z-1.0000 F5000
G1 X86.5588 Y800.9589 Z-1.0000 F5000
G1 X107.7698 Y788.8855 Z-1.0000 F5000
G1 X107.7698 Y788.8855 Z10.0000 F9999
G1 X230.5266 Y745.2891 Z10.0000 F9999
G1 X230.5266 Y745.2891 Z-1.0000 F2500
G1 X283.3707 Y714.9038 Z-1.0000 F5000
G1 X230.5266 Y745.2891 Z-1.0000 F5000
G1 X230.5266 Y745.2891 Z10.0000 F9999
G1 X281.0220 Y760.7937 Z10.0000 F9999
G1 X281.0220 Y760.7937 Z-1.0000 F2500
G1 X258.2147 Y760.7937 Z-1.0000 F5000
G1 X258.2147 Y777.2524 Z-1.0000 F5000
G1 X258.2147 Y760.7937 Z-1.0000 F5000
G1 X239.9211 Y760.7937 Z-1.0000 F5000
G1 X239.9211 Y778.5552 Z-1.0000 F5000
G1 X239.9211 Y760.7937 Z-1.0000 F5000
G1 X281.0220 Y760.7937 Z-1.0000 F5000
G1 X281.0220 Y778.5552 Z-1.0000 F5000
G1 X281.0220 Y778.5552 Z10.0000 F9999
G1 X259.8110 Y800.9589 Z10.0000 F9999
G1 X259.8110 Y800.9589 Z-1.0000 F2500
G1 X281.0220 Y812.9038 Z-1.0000 F5000
G1 X259.8110 Y800.9589 Z-1.0000 F5000
G1 X239.9211 Y812.9038 Z-1.0000 F5000
G1 X259.8110 Y800.9589 Z-1.0000 F5000
G1 X239.9211 Y788.8855 Z-1.0000 F5000
G1 X259.8110 Y800.9589 Z-1.0000 F5000
G1 X281.0220 Y788.8855 Z-1.0000 F5000
G1 X281.0220 Y788.8855 Z10.0000 F9999
G1 X275.4991 Y678.5001 Z10.0000 F9999
G1 X275.4991 Y678.5001 Z-1.0000 F2500
G1 X276.7651 Y679.7479 Z-1.0000 F5000
G1 X278.5817 Y682.0781 Z-1.0000 F5000
G1 X280.2330 Y685.5460 Z-1.0000 F5000
G1 X281.0220 Y690.2800 Z-1.0000 F5000
G1 X279.8294 Y695.4359 Z-1.0000 F5000
G1 X276.5083 Y699.8029 Z-1.0000 F5000
G1 X271.5908 Y702.8488 Z-1.0000 F5000
G1 X265.6459 Y703.9864 Z-1.0000 F5000
G1 X260.1046 Y702.6469 Z-1.0000 F5000
G1 X256.0679 Y699.3992 Z-1.0000 F5000
G1 X253.6459 Y695.3442 Z-1.0000 F5000
G1 X252.8385 Y691.5827 Z-1.0000 F5000
G1 X252.8385 Y689.4359 Z-1.0000 F5000
G1 X253.2422 Y687.1790 Z-1.0000 F5000
G1 X254.1413 Y684.5368 Z-1.0000 F5000
G1 X238.7468 Y690.1699 Z-1.0000 F5000
G1 X238.7468 Y704.3717 Z-1.0000 F5000
G1 X238.7468 Y690.1699 Z-1.0000 F5000
G1 X254.1413 Y684.5368 Z-1.0000 F5000
G1 X253.2422 Y687.1790 Z-1.0000 F5000
G1 X252.8385 Y689.4359 Z-1.0000 F5000
G1 X252.8385 Y691.5827 Z-1.0000 F5000
G1 X253.6459 Y695.3442 Z-1.0000 F5000
G1 X256.0679 Y699.3992 Z-1.0000 F5000
G1 X260.1046 Y702.6469 Z-1.0000 F5000
G1 X265.6459 Y703.9864 Z-1.0000 F5000
G1 X271.5908 Y702.8488 Z-1.0000 F5000
G1 X276.5083 Y699.8029 Z-1.0000 F5000
G1 X279.8294 Y695.4359 Z-1.0000 F5000
G1 X281.0220 Y690.2800 Z-1.0000 F5000
G1 X280.2330 Y685.5460 Z-1.0000 F5000
G1 X278.5817 Y682.0781 Z-1.0000 F5000
G1 X276.7651 Y679.7479 Z-1.0000 F5000
G1 X276.7651 Y679.7479 Z10.0000 F9999
G1 X274.1963 Y643.2708 Z10.0000 F9999
G1 X274.1963 Y643.2708 Z-1.0000 F2500
G1 X277.2422 Y645.2157 Z-1.0000 F5000
G1 X279.2973 Y647.6378 Z-1.0000 F5000
G1 X280.5450 Y650.7570 Z-1.0000 F5000
G1 X281.0220 Y654.8855 Z-1.0000 F5000
G1 X280.5633 Y659.3809 Z-1.0000 F5000
G1 X278.8202 Y663.1974 Z-1.0000 F5000
G1 X275.8294 Y665.8763 Z-1.0000 F5000
G1 X271.6642 Y666.9956 Z-1.0000 F5000
G1 X267.6642 Y666.4634 Z-1.0000 F5000
G1 X264.9853 Y664.9222 Z-1.0000 F5000
G1 X263.2973 Y662.8855 Z-1.0000 F5000
G1 X262.1963 Y660.9772 Z-1.0000 F5000
G1 X257.4624 Y651.7845 Z-1.0000 F5000
G1 X256.0496 Y649.4176 Z-1.0000 F5000
G1 X254.3982 Y647.5644 Z-1.0000 F5000
G1 X252.2147 Y646.3167 Z-1.0000 F5000
G1 X249.3340 Y645.8029 Z-1.0000 F5000
G1 X246.0496 Y646.3350 Z-1.0000 F5000
G1 X243.0220 Y648.1699 Z-1.0000 F5000
G1 X240.8018 Y651.3075 Z-1.0000 F5000
G1 X239.9211 Y655.6745 Z-1.0000 F5000
G1 X240.6000 Y659.9313 Z-1.0000 F5000
G1 X242.0679 Y662.7754 Z-1.0000 F5000
G1 X244.2147 Y664.8671 Z-1.0000 F5000
G1 X242.0679 Y662.7754 Z-1.0000 F5000
G1 X240.6000 Y659.9313 Z-1.0000 F5000
G1 X239.9211 Y655.6745 Z-1.0000 F5000
G1 X240.8018 Y651.3075 Z-1.0000 F5000
G1 X243.0220 Y648.1699 Z-1.0000 F5000
G1 X246.0496 Y646.3350 Z-1.0000 F5000
G1 X249.3340 Y645.8029 Z-1.0000 F5000
G1 X252.2147 Y646.3167 Z-1.0000 F5000
G1 X254.3982 Y647.5644 Z-1.0000 F5000
G1 X256.0496 Y649.4176 Z-1.0000 F5000
G1 X257.4624 Y651.7845 Z-1.0000 F5000
G1 X262.1963 Y660.9772 Z-1.0000 F5000
G1 X263.2973 Y662.8855 Z-1.0000 F5000
G1 X264.9853 Y664.9222 Z-1.0000 F5000
G1 X267.6642 Y666.4634 Z-1.0000 F5000
G1 X271.6642 Y666.9956 Z-1.0000 F5000
G1 X275.8294 Y665.8763 Z-1.0000 F5000
G1 X278.8202 Y663.1974 Z-1.0000 F5000
G1 X280.5633 Y659.3809 Z-1.0000 F5000
G1 X281.0220 Y654.8855 Z-1.0000 F5000
G1 X280.5450 Y650.7570 Z-1.0000 F5000
G1 X279.2973 Y647.6378 Z-1.0000 F5000
G1 X277.2422 Y645.2157 Z-1.0000 F5000
G1 X277.2422 Y645.2157 Z10.0000 F9999
G1 X230.5266 Y632.5552 Z10.0000 F9999
G1 X230.5266 Y632.5552 Z-1.0000 F2500
G1 X283.3707 Y602.1699 Z-1.0000 F5000
G1 X230.5266 Y632.5552 Z-1.0000 F5000
G1 X230.5266 Y632.5552 Z10.0000 F9999
G1 X239.9211 Y574.7387 Z10.0000 F9999
G1 X239.9211 Y574.7387 Z-1.0000 F2500
G1 X281.0220 Y590.7937 Z-1.0000 F5000
G1 X239.9211 Y574.7387 Z-1.0000 F5000
G1 X281.0220 Y558.7203 Z-1.0000 F5000
G1 X281.0220 Y558.7203 Z10.0000 F9999
G1 X256.3615 Y548.0414 Z10.0000 F9999
G1 X256.3615 Y548.0414 Z-1.0000 F2500
G1 X256.3615 Y518.7937 Z-1.0000 F5000
G1 X256.3615 Y548.0414 Z-1.0000 F5000
G1 X256.3615 Y548.0414 Z10.0000 F9999
G1 X266.3248 Y585.0506 Z10.0000 F9999
G1 X266.3248 Y585.0506 Z-1.0000 F2500
G1 X266.3248 Y564.3534 Z-1.0000 F5000
G1 X266.3248 Y585.0506 Z-1.0000 F5000
G1 X266.3248 Y585.0506 Z10.0000 F9999
G1 X266.3248 Y501.6745 Z10.0000 F9999
G1 X266.3248 Y501.6745 Z-1.0000 F2500
G1 X266.3248 Y480.9772 Z-1.0000 F5000
G1 X266.3248 Y501.6745 Z-1.0000 F5000
G1 X266.3248 Y501.6745 Z10.0000 F9999
G1 X239.9211 Y491.3625 Z10.0000 F9999
G1 X239.9211 Y491.3625 Z-1.0000 F2500
G1 X281.0220 Y507.4176 Z-1.0000 F5000
G1 X239.9211 Y491.3625 Z-1.0000 F5000
G1 X281.0220 Y475.3442 Z-1.0000 F5000
G1 X281.0220 Y475.3442 Z10.0000 F9999
G1 X281.0220 Y464.6653 Z10.0000 F9999
G1 X281.0220 Y464.6653 Z-1.0000 F2500
G1 X260.8752 Y451.4359 Z-1.0000 F5000
G1 X281.0220 Y464.6653 Z-1.0000 F5000
G1 X281.0220 Y464.6653 Z10.0000 F9999
G1 X281.0220 Y447.2524 Z10.0000 F9999
G1 X281.0220 Y447.2524 Z-1.0000 F2500
G1 X239.9211 Y447.2524 Z-1.0000 F5000
G1 X239.9211 Y454.4084 Z-1.0000 F5000
G1 X240.5266 Y458.2800 Z-1.0000 F5000
G1 X242.3431 Y461.4910 Z-1.0000 F5000
G1 X245.4991 Y463.7112 Z-1.0000 F5000
G1 X250.1413 Y464.5552 Z-1.0000 F5000
G1 X254.8202 Y463.3992 Z-1.0000 F5000
G1 X258.1413 Y460.6286 Z-1.0000 F5000
G1 X260.1046 Y457.3075 Z-1.0000 F5000
G1 X260.7651 Y454.4084 Z-1.0000 F5000
G1 X260.7651 Y447.2524 Z-1.0000 F5000
G1 X260.7651 Y454.4084 Z-1.0000 F5000
G1 X260.1046 Y457.3075 Z-1.0000 F5000
G1 X258.1413 Y460.6286 Z-1.0000 F5000
G1 X254.8202 Y463.3992 Z-1.0000 F5000
G1 X250.1413 Y464.5552 Z-1.0000 F5000
G1 X245.4991 Y463.7112 Z-1.0000 F5000
G1 X242.3431 Y461.4910 Z-1.0000 F5000
G1 X240.5266 Y458.2800 Z-1.0000 F5000
G1 X239.9211 Y454.4084 Z-1.0000 F5000
G1 X239.9211 Y447.2524 Z-1.0000 F5000
G1 X239.9211 Y447.2524 Z10.0000 F9999
G1 X258.2147 Y416.7203 Z10.0000 F9999
G1 X258.2147 Y416.7203 Z-1.0000 F2500
G1 X258.2147 Y431.1607 Z-1.0000 F5000
G1 X258.2147 Y416.7203 Z-1.0000 F5000
G1 X239.9211 Y416.7203 Z-1.0000 F5000
G1 X239.9211 Y431.8396 Z-1.0000 F5000
G1 X239.9211 Y416.7203 Z-1.0000 F5000
G1 X281.0220 Y416.7203 Z-1.0000 F5000
G1 X281.0220 Y416.7203 Z10.0000 F9999
G1 X430.2671 Y416.7203 Z10.0000 F9999
G1 X430.2671 Y416.7203 Z-1.0000 F2500
G1 X430.2671 Y431.1607 Z-1.0000 F5000
G1 X430.2671 Y416.7203 Z-1.0000 F5000
G1 X411.9735 Y416.7203 Z-1.0000 F5000
G1 X411.9735 Y431.8396 Z-1.0000 F5000
G1 X411.9735 Y416.7203 Z-1.0000 F5000
G1 X453.0745 Y416.7203 Z-1.0000 F5000
G1 X453.0745 Y416.7203 Z10.0000 F9999
G1 X453.0745 Y447.2524 Z10.0000 F9999
G1 X453.0745 Y447.2524 Z-1.0000 F2500
G1 X411.9735 Y447.2524 Z-1.0000 F5000
G1 X411.9735 Y454.4084 Z-1.0000 F5000
G1 X412.5791 Y458.2800 Z-1.0000 F5000
G1 X414.3956 Y461.4910 Z-1.0000 F5000
G1 X417.5515 Y463.7112 Z-1.0000 F5000
G1 X422.1937 Y464.5552 Z-1.0000 F5000
G1 X426.8726 Y463.3992 Z-1.0000 F5000
G1 X430.1937 Y460.6286 Z-1.0000 F5000
G1 X432.1570 Y457.3075 Z-1.0000 F5000
G1 X432.8176 Y454.4084 Z-1.0000 F5000
G1 X432.8176 Y447.2524 Z-1.0000 F5000
G1 X432.8176 Y454.4084 Z-1.0000 F5000
G1 X432.1570 Y457.3075 Z-1.0000 F5000
G1 X430.1937 Y460.6286 Z-1.0000 F5000
G1 X426.8726 Y463.3992 Z-1.0000 F5000
G1 X422.1937 Y464.5552 Z-1.0000 F5000
G1 X417.5515 Y463.7112 Z-1.0000 F5000
G1 X414.3956 Y461.4910 Z-1.0000 F5000
G1 X412.5791 Y458.2800 Z-1.0000 F5000
G1 X411.9735 Y454.4084 Z-1.0000 F5000
G1 X411.9735 Y447.2524 Z-1.0000 F5000
G1 X411.9735 Y447.2524 Z10.0000 F9999
G1 X411.9735 Y491.3625 Z10.0000 F9999
G1 X411.9735 Y491.3625 Z-1.0000 F2500
G1 X453.0745 Y507.4176 Z-1.0000 F5000
G1 X411.9735 Y491.3625 Z-1.0000 F5000
G1 X453.0745 Y475.3442 Z-1.0000 F5000
G1 X453.0745 Y475.3442 Z10.0000 F9999
G1 X453.0745 Y464.6653 Z10.0000 F9999
G1 X453.0745 Y464.6653 Z-1.0000 F2500
G1 X432.9277 Y451.4359 Z-1.0000 F5000
G1 X453.0745 Y464.6653 Z-1.0000 F5000
G1 X453.0745 Y464.6653 Z10.0000 F9999
G1 X438.3772 Y501.6745 Z10.0000 F9999
G1 X438.3772 Y501.6745 Z-1.0000 F2500
G1 X438.3772 Y480.9772 Z-1.0000 F5000
G1 X438.3772 Y501.6745 Z-1.0000 F5000
G1 X438.3772 Y501.6745 Z10.0000 F9999
G1 X428.4139 Y548.0414 Z10.0000 F9999
G1 X428.4139 Y548.0414 Z-1.0000 F2500
G1 X428.4139 Y518.7937 Z-1.0000 F5000
G1 X428.4139 Y548.0414 Z-1.0000 F5000
G1 X428.4139 Y548.0414 Z10.0000 F9999
G1 X411.9735 Y574.7387 Z10.0000 F9999
G1 X411.9735 Y574.7387 Z-1.0000 F2500
G1 X453.0745 Y590.7937 Z-1.0000 F5000
G1 X411.9735 Y574.7387 Z-1.0000 F5000
G1 X453.0745 Y558.7203 Z-1.0000 F5000
G1 X453.0745 Y558.7203 Z10.0000 F9999
G1 X438.3772 Y585.0506 Z10.0000 F9999
G1 X438.3772 Y585.0506 Z-1.0000 F2500
G1 X438.3772 Y564.3534 Z-1.0000 F5000
G1 X438.3772 Y585.0506 Z-1.0000 F5000
G1 X438.3772 Y585.0506 Z10.0000 F9999
G1 X446.2488 Y643.2708 Z10.0000 F9999
G1 X446.2488 Y643.2708 Z-1.0000 F2500
G1 X449.2947 Y645.2157 Z-1.0000 F5000
G1 X451.3497 Y647.6378 Z-1.0000 F5000
G1 X452.5974 Y650.7570 Z-1.0000 F5000
G1 X453.0745 Y654.8855 Z-1.0000 F5000
G1 X452.6158 Y659.3809 Z-1.0000 F5000
G1 X450.8726 Y663.1974 Z-1.0000 F5000
G1 X447.8818 Y665.8763 Z-1.0000 F5000
G1 X443.7167 Y666.9956 Z-1.0000 F5000
G1 X439.7167 Y666.4634 Z-1.0000 F5000
G1 X437.0378 Y664.9222 Z-1.0000 F5000
G1 X435.3497 Y662.8855 Z-1.0000 F5000
G1 X434.2488 Y660.9772 Z-1.0000 F5000
G1 X429.5148 Y651.7845 Z-1.0000 F5000
G1 X428.1020 Y649.4176 Z-1.0000 F5000
G1 X426.4506 Y647.5644 Z-1.0000 F5000
G1 X424.2671 Y646.3167 Z-1.0000 F5000
G1 X421.3864 Y645.8029 Z-1.0000 F5000
G1 X418.1020 Y646.3350 Z-1.0000 F5000
G1 X415.0745 Y648.1699 Z-1.0000 F5000
G1 X412.8543 Y651.3075 Z-1.0000 F5000
G1 X411.9735 Y655.6745 Z-1.0000 F5000
G1 X412.6524 Y659.9313 Z-1.0000 F5000
G1 X414.1203 Y662.7754 Z-1.0000 F5000
G1 X416.2671 Y664.8671 Z-1.0000 F5000
G1 X414.1203 Y662.7754 Z-1.0000 F5000
G1 X412.6524 Y659.9313 Z-1.0000 F5000
G1 X411.9735 Y655.6745 Z-1.0000 F5000
G1 X412.8543 Y651.3075 Z-1.0000 F5000
G1 X415.0745 Y648.1699 Z-1.0000 F5000
G1 X418.1020 Y646.3350 Z-1.0000 F5000
G1 X421.3864 Y645.8029 Z-1.0000 F5000
G1 X424.2671 Y646.3167 Z-1.0000 F5000
G1 X426.4506 Y647.5644 Z-1.0000 F5000
G1 X428.1020 Y649.4176 Z-1.0000 F5000
G1 X429.5148 Y651.7845 Z-1.0000 F5000
G1 X434.2488 Y660.9772 Z-1.0000 F5000
G1 X435.3497 Y662.8855 Z-1.0000 F5000
G1 X437.0378 Y664.9222 Z-1.0000 F5000
G1 X439.7167 Y666.4634 Z-1.0000 F5000
G1 X443.7167 Y666.9956 Z-1.0000 F5000
G1 X447.8818 Y665.8763 Z-1.0000 F5000
G1 X450.8726 Y663.1974 Z-1.0000 F5000
G1 X452.6158 Y659.3809 Z-1.0000 F5000
G1 X453.0745 Y654.8855 Z-1.0000 F5000
G1 X452.5974 Y650.7570 Z-1.0000 F5000
G1 X451.3497 Y647.6378 Z-1.0000 F5000
G1 X449.2947 Y645.2157 Z-1.0000 F5000
G1 X449.2947 Y645.2157 Z10.0000 F9999
G1 X447.5515 Y678.5001 Z10.0000 F9999
G1 X447.5515 Y678.5001 Z-1.0000 F2500
G1 X448.8176 Y679.7479 Z-1.0000 F5000
G1 X450.6341 Y682.0781 Z-1.0000 F5000
G1 X452.2855 Y685.5460 Z-1.0000 F5000
G1 X453.0745 Y690.2800 Z-1.0000 F5000
G1 X451.8818 Y695.4359 Z-1.0000 F5000
G1 X448.5607 Y699.8029 Z-1.0000 F5000
G1 X443.6433 Y702.8488 Z-1.0000 F5000
G1 X437.6983 Y703.9864 Z-1.0000 F5000
G1 X432.1570 Y702.6469 Z-1.0000 F5000
G1 X428.1203 Y699.3992 Z-1.0000 F5000
G1 X425.6983 Y695.3442 Z-1.0000 F5000
G1 X424.8910 Y691.5827 Z-1.0000 F5000
G1 X424.8910 Y689.4359 Z-1.0000 F5000
G1 X425.2947 Y687.1790 Z-1.0000 F5000
G1 X426.1937 Y684.5368 Z-1.0000 F5000
G1 X410.7992 Y690.1699 Z-1.0000 F5000
G1 X410.7992 Y704.3717 Z-1.0000 F5000
G1 X410.7992 Y690.1699 Z-1.0000 F5000
G1 X426.1937 Y684.5368 Z-1.0000 F5000
G1 X425.2947 Y687.1790 Z-1.0000 F5000
G1 X424.8910 Y689.4359 Z-1.0000 F5000
G1 X424.8910 Y691.5827 Z-1.0000 F5000
G1 X425.6983 Y695.3442 Z-1.0000 F5000
G1 X428.1203 Y699.3992 Z-1.0000 F5000
G1 X432.1570 Y702.6469 Z-1.0000 F5000
G1 X437.6983 Y703.9864 Z-1.0000 F5000
G1 X443.6433 Y702.8488 Z-1.0000 F5000
G1 X448.5607 Y699.8029 Z-1.0000 F5000
G1 X451.8818 Y695.4359 Z-1.0000 F5000
G1 X453.0745 Y690.2800 Z-1.0000 F5000
G1 X452.2855 Y685.5460 Z-1.0000 F5000
G1 X450.6341 Y682.0781 Z-1.0000 F5000
G1 X448.8176 Y679.7479 Z-1.0000 F5000
G1 X448.8176 Y679.7479 Z10.0000 F9999
G1 X402.5791 Y632.5552 Z10.0000 F9999
G1 X402.5791 Y632.5552 Z-1.0000 F2500
G1 X455.4231 Y602.1699 Z-1.0000 F5000
G1 X402.5791 Y632.5552 Z-1.0000 F5000
G1 X402.5791 Y632.5552 Z10.0000 F9999
G1 X402.5791 Y745.2891 Z10.0000 F9999
G1 X402.5791 Y745.2891 Z-1.0000 F2500
G1 X455.4231 Y714.9038 Z-1.0000 F5000
G1 X402.5791 Y745.2891 Z-1.0000 F5000
G1 X402.5791 Y745.2891 Z10.0000 F9999
G1 X453.0745 Y760.7937 Z10.0000 F9999
G1 X453.0745 Y760.7937 Z-1.0000 F2500
G1 X430.2671 Y760.7937 Z-1.0000 F5000
G1 X430.2671 Y777.2524 Z-1.0000 F5000
G1 X430.2671 Y760.7937 Z-1.0000 F5000
G1 X411.9735 Y760.7937 Z-1.0000 F5000
G1 X411.9735 Y778.5552 Z-1.0000 F5000
G1 X411.9735 Y760.7937 Z-1.0000 F5000
G1 X453.0745 Y760.7937 Z-1.0000 F5000
G1 X453.0745 Y778.5552 Z-1.0000 F5000
G1 X453.0745 Y778.5552 Z10.0000 F9999
G1 X431.8635 Y800.9589 Z10.0000 F9999
G1 X431.8635 Y800.9589 Z-1.0000 F2500
G1 X453.0745 Y812.9038 Z-1.0000 F5000
G1 X431.8635 Y800.9589 Z-1.0000 F5000
G1 X411.9735 Y812.9038 Z-1.0000 F5000
G1 X431.8635 Y800.9589 Z-1.0000 F5000
G1 X411.9735 Y788.8855 Z-1.0000 F5000
G1 X431.8635 Y800.9589 Z-1.0000 F5000
G1 X453.0745 Y788.8855 Z-1.0000 F5000
G1 X453.0745 Y788.8855 Z10.0000 F9999
G1 X574.6243 Y753.2489 Z10.0000 F9999
G1 X574.6243 Y753.2489 Z-1.0000 F2500
G1 X627.4683 Y722.8636 Z-1.0000 F5000
G1 X574.6243 Y753.2489 Z-1.0000 F5000
G1 X574.6243 Y753.2489 Z10.0000 F9999
G1 X584.0188 Y768.7535 Z10.0000 F9999
G1 X584.0188 Y768.7535 Z-1.0000 F2500
G1 X625.1197 Y768.7535 Z-1.0000 F5000
G1 X584.0188 Y768.7535 Z-1.0000 F5000
G1 X584.0188 Y768.7535 Z10.0000 F9999
G1 X584.0188 Y788.7168 Z10.0000 F9999
G1 X584.0188 Y788.7168 Z-1.0000 F2500
G1 X625.1197 Y825.8177 Z-1.0000 F5000
G1 X584.0188 Y825.8177 Z-1.0000 F5000
G1 X625.1197 Y825.8177 Z-1.0000 F5000
G1 X584.0188 Y788.7168 Z-1.0000 F5000
G1 X625.1197 Y788.7168 Z-1.0000 F5000
G1 X625.1197 Y788.7168 Z10.0000 F9999
G1 X617.1747 Y689.9828 Z10.0000 F9999
G1 X617.1747 Y689.9828 Z-1.0000 F2500
G1 X619.8536 Y690.7351 Z-1.0000 F5000
G1 X622.4224 Y692.4599 Z-1.0000 F5000
G1 X624.3674 Y695.4140 Z-1.0000 F5000
G1 X625.1197 Y699.9645 Z-1.0000 F5000
G1 X622.4958 Y708.4783 Z-1.0000 F5000
G1 X614.5142 Y711.5792 Z-1.0000 F5000
G1 X609.7802 Y710.6984 Z-1.0000 F5000
G1 X606.4224 Y708.3865 Z-1.0000 F5000
G1 X604.4224 Y705.1755 Z-1.0000 F5000
G1 X603.7435 Y701.5975 Z-1.0000 F5000
G1 X603.0096 Y705.0654 Z-1.0000 F5000
G1 X600.7894 Y708.0195 Z-1.0000 F5000
G1 X597.4132 Y710.1113 Z-1.0000 F5000
G1 X593.2114 Y710.9003 Z-1.0000 F5000
G1 X591.6334 Y710.8636 Z-1.0000 F5000
G1 X589.6518 Y710.5884 Z-1.0000 F5000
G1 X587.6334 Y709.7994 Z-1.0000 F5000
G1 X585.7986 Y708.2764 Z-1.0000 F5000
G1 X584.4958 Y705.7260 Z-1.0000 F5000
G1 X584.0188 Y701.9828 Z-1.0000 F5000
G1 X584.8444 Y696.6067 Z-1.0000 F5000
G1 X586.8628 Y693.5058 Z-1.0000 F5000
G1 X589.5233 Y691.9828 Z-1.0000 F5000
G1 X592.2573 Y691.3957 Z-1.0000 F5000
G1 X589.5233 Y691.9828 Z-1.0000 F5000
G1 X586.8628 Y693.5058 Z-1.0000 F5000
G1 X584.8444 Y696.6067 Z-1.0000 F5000
G1 X584.0188 Y701.9828 Z-1.0000 F5000
G1 X584.4958 Y705.7260 Z-1.0000 F5000
G1 X585.7986 Y708.2764 Z-1.0000 F5000
G1 X587.6334 Y709.7994 Z-1.0000 F5000
G1 X589.6518 Y710.5884 Z-1.0000 F5000
G1 X591.5967 Y710.8636 Z-1.0000 F5000
G1 X593.2114 Y710.9003 Z-1.0000 F5000
G1 X597.4132 Y710.1113 Z-1.0000 F5000
G1 X600.7894 Y708.0195 Z-1.0000 F5000
G1 X603.0096 Y705.0654 Z-1.0000 F5000
G1 X603.7435 Y701.5975 Z-1.0000 F5000
G1 X604.4224 Y705.1755 Z-1.0000 F5000
G1 X606.4224 Y708.3865 Z-1.0000 F5000
G1 X609.7802 Y710.6984 Z-1.0000 F5000
G1 X614.5142 Y711.5792 Z-1.0000 F5000
G1 X622.4958 Y708.4783 Z-1.0000 F5000
G1 X625.1197 Y699.9645 Z-1.0000 F5000
G1 X624.3674 Y695.4140 Z-1.0000 F5000
G1 X622.4224 Y692.4599 Z-1.0000 F5000
G1 X619.8536 Y690.7351 Z-1.0000 F5000
G1 X619.8536 Y690.7351 Z10.0000 F9999
G1 X618.2940 Y654.7535 Z10.0000 F9999
G1 X618.2940 Y654.7535 Z-1.0000 F2500
G1 X621.3399 Y656.6984 Z-1.0000 F5000
G1 X623.3949 Y659.1205 Z-1.0000 F5000
G1 X624.6426 Y662.2397 Z-1.0000 F5000
G1 X625.1197 Y666.3682 Z-1.0000 F5000
G1 X624.6610 Y670.8636 Z-1.0000 F5000
G1 X622.9178 Y674.6801 Z-1.0000 F5000
G1 X619.9270 Y677.3590 Z-1.0000 F5000
G1 X615.7619 Y678.4783 Z-1.0000 F5000
G1 X611.7619 Y677.9461 Z-1.0000 F5000
G1 X609.0830 Y676.4049 Z-1.0000 F5000
G1 X607.3949 Y674.3682 Z-1.0000 F5000
G1 X606.2940 Y672.4599 Z-1.0000 F5000
G1 X601.5600 Y663.2672 Z-1.0000 F5000
G1 X600.1472 Y660.9003 Z-1.0000 F5000
G1 X598.4958 Y659.0471 Z-1.0000 F5000
G1 X596.3123 Y657.7994 Z-1.0000 F5000
G1 X593.4316 Y657.2856 Z-1.0000 F5000
G1 X590.1472 Y657.8177 Z-1.0000 F5000
G1 X587.1197 Y659.6526 Z-1.0000 F5000
G1 X584.8995 Y662.7902 Z-1.0000 F5000
G1 X584.0188 Y667.1572 Z-1.0000 F5000
G1 X584.6977 Y671.4140 Z-1.0000 F5000
G1 X586.1655 Y674.2581 Z-1.0000 F5000
G1 X588.3123 Y676.3498 Z-1.0000 F5000
G1 X586.1655 Y674.2581 Z-1.0000 F5000
G1 X584.6977 Y671.4140 Z-1.0000 F5000
G1 X584.0188 Y667.1572 Z-1.0000 F5000
G1 X584.8995 Y662.7902 Z-1.0000 F5000
G1 X587.1197 Y659.6526 Z-1.0000 F5000
G1 X590.1472 Y657.8177 Z-1.0000 F5000
G1 X593.4316 Y657.2856 Z-1.0000 F5000
G1 X596.3123 Y657.7994 Z-1.0000 F5000
G1 X598.4958 Y659.0471 Z-1.0000 F5000
G1 X600.1472 Y660.9003 Z-1.0000 F5000
G1 X601.5600 Y663.2672 Z-1.0000 F5000
G1 X606.2940 Y672.4599 Z-1.0000 F5000
G1 X607.3949 Y674.3682 Z-1.0000 F5000
G1 X609.0830 Y676.4049 Z-1.0000 F5000
G1 X611.7619 Y677.9461 Z-1.0000 F5000
G1 X615.7619 Y678.4783 Z-1.0000 F5000
G1 X619.9270 Y677.3590 Z-1.0000 F5000
G1 X622.9178 Y674.6801 Z-1.0000 F5000
G1 X624.6610 Y670.8636 Z-1.0000 F5000
G1 X625.1197 Y666.3682 Z-1.0000 F5000
G1 X624.6426 Y662.2397 Z-1.0000 F5000
G1 X623.3949 Y659.1205 Z-1.0000 F5000
G1 X621.3399 Y656.6984 Z-1.0000 F5000
G1 X621.3399 Y656.6984 Z10.0000 F9999
G1 X574.6243 Y644.0379 Z10.0000 F9999
G1 X574.6243 Y644.0379 Z-1.0000 F2500
G1 X627.4683 Y613.6526 Z-1.0000 F5000
G1 X574.6243 Y644.0379 Z-1.0000 F5000
G1 X574.6243 Y644.0379 Z10.0000 F9999
G1 X584.0188 Y586.2214 Z10.0000 F9999
G1 X584.0188 Y586.2214 Z-1.0000 F2500
G1 X625.1197 Y602.2764 Z-1.0000 F5000
G1 X584.0188 Y586.2214 Z-1.0000 F5000
G1 X625.1197 Y570.2030 Z-1.0000 F5000
G1 X625.1197 Y570.2030 Z10.0000 F9999
G1 X600.4591 Y559.5241 Z10.0000 F9999
G1 X600.4591 Y559.5241 Z-1.0000 F2500
G1 X600.4591 Y530.2764 Z-1.0000 F5000
G1 X600.4591 Y559.5241 Z-1.0000 F5000
G1 X600.4591 Y559.5241 Z10.0000 F9999
G1 X610.4224 Y596.5333 Z10.0000 F9999
G1 X610.4224 Y596.5333 Z-1.0000 F2500
G1 X610.4224 Y575.8361 Z-1.0000 F5000
G1 X610.4224 Y596.5333 Z-1.0000 F5000
G1 X610.4224 Y596.5333 Z10.0000 F9999
G1 X610.4224 Y513.1572 Z10.0000 F9999
G1 X610.4224 Y513.1572 Z-1.0000 F2500
G1 X610.4224 Y492.4599 Z-1.0000 F5000
G1 X610.4224 Y513.1572 Z-1.0000 F5000
G1 X610.4224 Y513.1572 Z10.0000 F9999
G1 X584.0188 Y502.8452 Z10.0000 F9999
G1 X584.0188 Y502.8452 Z-1.0000 F2500
G1 X625.1197 Y518.9003 Z-1.0000 F5000
G1 X584.0188 Y502.8452 Z-1.0000 F5000
G1 X625.1197 Y486.8269 Z-1.0000 F5000
G1 X625.1197 Y486.8269 Z10.0000 F9999
G1 X625.1197 Y476.1480 Z10.0000 F9999
G1 X625.1197 Y476.1480 Z-1.0000 F2500
G1 X604.9729 Y462.9186 Z-1.0000 F5000
G1 X625.1197 Y476.1480 Z-1.0000 F5000
G1 X625.1197 Y476.1480 Z10.0000 F9999
G1 X625.1197 Y458.7351 Z10.0000 F9999
G1 X625.1197 Y458.7351 Z-1.0000 F2500
G1 X584.0188 Y458.7351 Z-1.0000 F5000
G1 X584.0188 Y465.8911 Z-1.0000 F5000
G1 X584.6243 Y469.7627 Z-1.0000 F5000
G1 X586.4408 Y472.9737 Z-1.0000 F5000
G1 X589.5967 Y475.1939 Z-1.0000 F5000
G1 X594.2389 Y476.0379 Z-1.0000 F5000
G1 X598.9178 Y474.8819 Z-1.0000 F5000
G1 X602.2389 Y472.1113 Z-1.0000 F5000
G1 X604.2022 Y468.7902 Z-1.0000 F5000
G1 X604.8628 Y465.8911 Z-1.0000 F5000
G1 X604.8628 Y458.7351 Z-1.0000 F5000
G1 X604.8628 Y465.8911 Z-1.0000 F5000
G1 X604.2022 Y468.7902 Z-1.0000 F5000
G1 X602.2389 Y472.1113 Z-1.0000 F5000
G1 X598.9178 Y474.8819 Z-1.0000 F5000
G1 X594.2389 Y476.0379 Z-1.0000 F5000
G1 X589.5967 Y475.1939 Z-1.0000 F5000
G1 X586.4408 Y472.9737 Z-1.0000 F5000
G1 X584.6243 Y469.7627 Z-1.0000 F5000
G1 X584.0188 Y465.8911 Z-1.0000 F5000
G1 X584.0188 Y458.7351 Z-1.0000 F5000
G1 X584.0188 Y458.7351 Z10.0000 F9999
G1 X602.3123 Y428.2030 Z10.0000 F9999
G1 X602.3123 Y428.2030 Z-1.0000 F2500
G1 X602.3123 Y442.6434 Z-1.0000 F5000
G1 X602.3123 Y428.2030 Z-1.0000 F5000
G1 X584.0188 Y428.2030 Z-1.0000 F5000
G1 X584.0188 Y443.3223 Z-1.0000 F5000
G1 X584.0188 Y428.2030 Z-1.0000 F5000
G1 X625.1197 Y428.2030 Z-1.0000 F5000
G1 X625.1197 Y428.2030 Z10.0000 F9999
G1 X773.2303 Y428.2030 Z10.0000 F9999
G1 X773.2303 Y428.2030 Z-1.0000 F2500
G1 X773.2303 Y442.6434 Z-1.0000 F5000
G1 X773.2303 Y428.2030 Z-1.0000 F5000
G1 X754.9367 Y428.2030 Z-1.0000 F5000
G1 X754.9367 Y443.3223 Z-1.0000 F5000
G1 X754.9367 Y428.2030 Z-1.0000 F5000
G1 X796.0376 Y428.2030 Z-1.0000 F5000
G1 X796.0376 Y428.2030 Z10.0000 F9999
G1 X796.0376 Y458.7351 Z10.0000 F9999
G1 X796.0376 Y458.7351 Z-1.0000 F2500
G1 X754.9367 Y458.7351 Z-1.0000 F5000
G1 X754.9367 Y465.8911 Z-1.0000 F5000
G1 X755.5422 Y469.7627 Z-1.0000 F5000
G1 X757.3587 Y472.9737 Z-1.0000 F5000
G1 X760.5147 Y475.1939 Z-1.0000 F5000
G1 X765.1569 Y476.0379 Z-1.0000 F5000
G1 X769.8358 Y474.8819 Z-1.0000 F5000
G1 X773.1569 Y472.1113 Z-1.0000 F5000
G1 X775.1202 Y468.7902 Z-1.0000 F5000
G1 X775.7808 Y465.8911 Z-1.0000 F5000
G1 X775.7808 Y458.7351 Z-1.0000 F5000
G1 X775.7808 Y465.8911 Z-1.0000 F5000
G1 X775.1202 Y468.7902 Z-1.0000 F5000
G1 X773.1569 Y472.1113 Z-1.0000 F5000
G1 X769.8358 Y474.8819 Z-1.0000 F5000
G1 X765.1569 Y476.0379 Z-1.0000 F5000
G1 X760.5147 Y475.1939 Z-1.0000 F5000
G1 X757.3587 Y472.9737 Z-1.0000 F5000
G1 X755.5422 Y469.7627 Z-1.0000 F5000
G1 X754.9367 Y465.8911 Z-1.0000 F5000
G1 X754.9367 Y458.7351 Z-1.0000 F5000
G1 X754.9367 Y458.7351 Z10.0000 F9999
G1 X754.9367 Y502.8452 Z10.0000 F9999
G1 X754.9367 Y502.8452 Z-1.0000 F2500
G1 X796.0376 Y518.9003 Z-1.0000 F5000
G1 X754.9367 Y502.8452 Z-1.0000 F5000
G1 X796.0376 Y486.8269 Z-1.0000 F5000
G1 X796.0376 Y486.8269 Z10.0000 F9999
G1 X796.0376 Y476.1480 Z10.0000 F9999
G1 X796.0376 Y476.1480 Z-1.0000 F2500
G1 X775.8908 Y462.9186 Z-1.0000 F5000
G1 X796.0376 Y476.1480 Z-1.0000 F5000
G1 X796.0376 Y476.1480 Z10.0000 F9999
G1 X781.3404 Y513.1572 Z10.0000 F9999
G1 X781.3404 Y513.1572 Z-1.0000 F2500
G1 X781.3404 Y492.4599 Z-1.0000 F5000
G1 X781.3404 Y513.1572 Z-1.0000 F5000
G1 X781.3404 Y513.1572 Z10.0000 F9999
G1 X771.3771 Y559.5241 Z10.0000 F9999
G1 X771.3771 Y559.5241 Z-1.0000 F2500
G1 X771.3771 Y530.2764 Z-1.0000 F5000
G1 X771.3771 Y559.5241 Z-1.0000 F5000
G1 X771.3771 Y559.5241 Z10.0000 F9999
G1 X754.9367 Y586.2214 Z10.0000 F9999
G1 X754.9367 Y586.2214 Z-1.0000 F2500
G1 X796.0376 Y602.2764 Z-1.0000 F5000
G1 X754.9367 Y586.2214 Z-1.0000 F5000
G1 X796.0376 Y570.2030 Z-1.0000 F5000
G1 X796.0376 Y570.2030 Z10.0000 F9999
G1 X781.3404 Y596.5333 Z10.0000 F9999
G1 X781.3404 Y596.5333 Z-1.0000 F2500
G1 X781.3404 Y575.8361 Z-1.0000 F5000
G1 X781.3404 Y596.5333 Z-1.0000 F5000
G1 X781.3404 Y596.5333 Z10.0000 F9999
G1 X789.2119 Y654.7535 Z10.0000 F9999
G1 X789.2119 Y654.7535 Z-1.0000 F2500
G1 X792.2578 Y656.6984 Z-1.0000 F5000
G1 X794.3129 Y659.1205 Z-1.0000 F5000
G1 X795.5606 Y662.2397 Z-1.0000 F5000
G1 X796.0376 Y666.3682 Z-1.0000 F5000
G1 X795.5789 Y670.8636 Z-1.0000 F5000
G1 X793.8358 Y674.6801 Z-1.0000 F5000
G1 X790.8450 Y677.3590 Z-1.0000 F5000
G1 X786.6798 Y678.4783 Z-1.0000 F5000
G1 X782.6798 Y677.9461 Z-1.0000 F5000
G1 X780.0009 Y676.4049 Z-1.0000 F5000
G1 X778.3129 Y674.3682 Z-1.0000 F5000
G1 X777.2119 Y672.4599 Z-1.0000 F5000
G1 X772.4780 Y663.2672 Z-1.0000 F5000
G1 X771.0652 Y660.9003 Z-1.0000 F5000
G1 X769.4138 Y659.0471 Z-1.0000 F5000
G1 X767.2303 Y657.7994 Z-1.0000 F5000
G1 X764.3496 Y657.2856 Z-1.0000 F5000
G1 X761.0652 Y657.8177 Z-1.0000 F5000
G1 X758.0376 Y659.6526 Z-1.0000 F5000
G1 X755.8175 Y662.7902 Z-1.0000 F5000
G1 X754.9367 Y667.1572 Z-1.0000 F5000
G1 X755.6156 Y671.4140 Z-1.0000 F5000
G1 X757.0835 Y674.2581 Z-1.0000 F5000
G1 X759.2303 Y676.3498 Z-1.0000 F5000
G1 X757.0835 Y674.2581 Z-1.0000 F5000
G1 X755.6156 Y671.4140 Z-1.0000 F5000
G1 X754.9367 Y667.1572 Z-1.0000 F5000
G1 X755.8175 Y662.7902 Z-1.0000 F5000
G1 X758.0376 Y659.6526 Z-1.0000 F5000
G1 X761.0652 Y657.8177 Z-1.0000 F5000
G1 X764.3496 Y657.2856 Z-1.0000 F5000
G1 X767.2303 Y657.7994 Z-1.0000 F5000
G1 X769.4138 Y659.0471 Z-1.0000 F5000
G1 X771.0652 Y660.9003 Z-1.0000 F5000
G1 X772.4780 Y663.2672 Z-1.0000 F5000
G1 X777.2119 Y672.4599 Z-1.0000 F5000
G1 X778.3129 Y674.3682 Z-1.0000 F5000
G1 X780.0009 Y676.4049 Z-1.0000 F5000
G1 X782.6798 Y677.9461 Z-1.0000 F5000
G1 X786.6798 Y678.4783 Z-1.0000 F5000
G1 X790.8450 Y677.3590 Z-1.0000 F5000
G1 X793.8358 Y674.6801 Z-1.0000 F5000
G1 X795.5789 Y670.8636 Z-1.0000 F5000
G1 X796.0376 Y666.3682 Z-1.0000 F5000
G1 X795.5606 Y662.2397 Z-1.0000 F5000
G1 X794.3129 Y659.1205 Z-1.0000 F5000
G1 X792.2578 Y656.6984 Z-1.0000 F5000
G1 X792.2578 Y656.6984 Z10.0000 F9999
G1 X788.0927 Y689.9828 Z10.0000 F9999
G1 X788.0927 Y689.9828 Z-1.0000 F2500
G1 X790.7716 Y690.7351 Z-1.0000 F5000
G1 X793.3404 Y692.4599 Z-1.0000 F5000
G1 X795.2853 Y695.4140 Z-1.0000 F5000
G1 X796.0376 Y699.9645 Z-1.0000 F5000
G1 X793.4138 Y708.4783 Z-1.0000 F5000
G1 X785.4321 Y711.5792 Z-1.0000 F5000
G1 X780.6982 Y710.6984 Z-1.0000 F5000
G1 X777.3404 Y708.3865 Z-1.0000 F5000
G1 X775.3404 Y705.1755 Z-1.0000 F5000
G1 X774.6615 Y701.5975 Z-1.0000 F5000
G1 X773.9275 Y705.0654 Z-1.0000 F5000
G1 X771.7074 Y708.0195 Z-1.0000 F5000
G1 X768.3312 Y710.1113 Z-1.0000 F5000
G1 X764.1294 Y710.9003 Z-1.0000 F5000
G1 X762.5514 Y710.8636 Z-1.0000 F5000
G1 X760.5697 Y710.5884 Z-1.0000 F5000
G1 X758.5514 Y709.7994 Z-1.0000 F5000
G1 X756.7165 Y708.2764 Z-1.0000 F5000
G1 X755.4138 Y705.7260 Z-1.0000 F5000
G1 X754.9367 Y701.9828 Z-1.0000 F5000
G1 X755.7624 Y696.6067 Z-1.0000 F5000
G1 X757.7808 Y693.5058 Z-1.0000 F5000
G1 X760.4413 Y691.9828 Z-1.0000 F5000
G1 X763.1753 Y691.3957 Z-1.0000 F5000
G1 X760.4413 Y691.9828 Z-1.0000 F5000
G1 X757.7808 Y693.5058 Z-1.0000 F5000
G1 X755.7624 Y696.6067 Z-1.0000 F5000
G1 X754.9367 Y701.9828 Z-1.0000 F5000
G1 X755.4138 Y705.7260 Z-1.0000 F5000
G1 X756.7165 Y708.2764 Z-1.0000 F5000
G1 X758.5514 Y709.7994 Z-1.0000 F5000
G1 X760.5697 Y710.5884 Z-1.0000 F5000
G1 X762.5147 Y710.8636 Z-1.0000 F5000
G1 X764.1294 Y710.9003 Z-1.0000 F5000
G1 X768.3312 Y710.1113 Z-1.0000 F5000
G1 X771.7074 Y708.0195 Z-1.0000 F5000
G1 X773.9275 Y705.0654 Z-1.0000 F5000
G1 X774.6615 Y701.5975 Z-1.0000 F5000
G1 X775.3404 Y705.1755 Z-1.0000 F5000
G1 X777.3404 Y708.3865 Z-1.0000 F5000
G1 X780.6982 Y710.6984 Z-1.0000 F5000
G1 X785.4321 Y711.5792 Z-1.0000 F5000
G1 X793.4138 Y708.4783 Z-1.0000 F5000
G1 X796.0376 Y699.9645 Z-1.0000 F5000
G1 X795.2853 Y695.4140 Z-1.0000 F5000
G1 X793.3404 Y692.4599 Z-1.0000 F5000
G1 X790.7716 Y690.7351 Z-1.0000 F5000
G1 X790.7716 Y690.7351 Z10.0000 F9999
G1 X745.5422 Y644.0379 Z10.0000 F9999
G1 X745.5422 Y644.0379 Z-1.0000 F2500
G1 X798.3863 Y613.6526 Z-1.0000 F5000
G1 X745.5422 Y644.0379 Z-1.0000 F5000
G1 X745.5422 Y644.0379 Z10.0000 F9999
G1 X745.5422 Y753.2489 Z10.0000 F9999
G1 X745.5422 Y753.2489 Z-1.0000 F2500
G1 X798.3863 Y722.8636 Z-1.0000 F5000
G1 X745.5422 Y753.2489 Z-1.0000 F5000
G1 X745.5422 Y753.2489 Z10.0000 F9999
G1 X754.9367 Y768.7535 Z10.0000 F9999
G1 X754.9367 Y768.7535 Z-1.0000 F2500
G1 X796.0376 Y768.7535 Z-1.0000 F5000
G1 X754.9367 Y768.7535 Z-1.0000 F5000
G1 X754.9367 Y768.7535 Z10.0000 F9999
G1 X754.9367 Y788.7168 Z10.0000 F9999
G1 X754.9367 Y788.7168 Z-1.0000 F2500
G1 X796.0376 Y825.8177 Z-1.0000 F5000
G1 X754.9367 Y825.8177 Z-1.0000 F5000
G1 X796.0376 Y825.8177 Z-1.0000 F5000
G1 X754.9367 Y788.7168 Z-1.0000 F5000
G1 X796.0376 Y788.7168 Z-1.0000 F5000
G1 X796.0376 Y788.7168 Z10.0000 F9999
G1 X918.7219 Y753.2489 Z10.0000 F9999
G1 X918.7219 Y753.2489 Z-1.0000 F2500
G1 X971.5659 Y722.8636 Z-1.0000 F5000
G1 X918.7219 Y753.2489 Z-1.0000 F5000
G1 X918.7219 Y753.2489 Z10.0000 F9999
G1 X928.1164 Y768.7535 Z10.0000 F9999
G1 X928.1164 Y768.7535 Z-1.0000 F2500
G1 X969.2173 Y768.7535 Z-1.0000 F5000
G1 X928.1164 Y768.7535 Z-1.0000 F5000
G1 X928.1164 Y768.7535 Z10.0000 F9999
G1 X928.1164 Y788.7168 Z10.0000 F9999
G1 X928.1164 Y788.7168 Z-1.0000 F2500
G1 X969.2173 Y825.8177 Z-1.0000 F5000
G1 X928.1164 Y825.8177 Z-1.0000 F5000
G1 X969.2173 Y825.8177 Z-1.0000 F5000
G1 X928.1164 Y788.7168 Z-1.0000 F5000
G1 X969.2173 Y788.7168 Z-1.0000 F5000
G1 X969.2173 Y788.7168 Z10.0000 F9999
G1 X961.2724 Y689.9828 Z10.0000 F9999
G1 X961.2724 Y689.9828 Z-1.0000 F2500
G1 X963.9513 Y690.7351 Z-1.0000 F5000
G1 X966.5201 Y692.4599 Z-1.0000 F5000
G1 X968.4650 Y695.4140 Z-1.0000 F5000
G1 X969.2173 Y699.9645 Z-1.0000 F5000
G1 X966.5935 Y708.4783 Z-1.0000 F5000
G1 X958.6118 Y711.5792 Z-1.0000 F5000
G1 X953.8779 Y710.6984 Z-1.0000 F5000
G1 X950.5201 Y708.3865 Z-1.0000 F5000
G1 X948.5201 Y705.1755 Z-1.0000 F5000
G1 X947.8412 Y701.5975 Z-1.0000 F5000
G1 X947.1072 Y705.0654 Z-1.0000 F5000
G1 X944.8870 Y708.0195 Z-1.0000 F5000
G1 X941.5109 Y710.1113 Z-1.0000 F5000
G1 X937.3090 Y710.9003 Z-1.0000 F5000
G1 X935.7311 Y710.8636 Z-1.0000 F5000
G1 X933.7494 Y710.5884 Z-1.0000 F5000
G1 X931.7311 Y709.7994 Z-1.0000 F5000
G1 X929.8962 Y708.2764 Z-1.0000 F5000
G1 X928.5935 Y705.7260 Z-1.0000 F5000
G1 X928.1164 Y701.9828 Z-1.0000 F5000
G1 X928.9421 Y696.6067 Z-1.0000 F5000
G1 X930.9604 Y693.5058 Z-1.0000 F5000
G1 X933.6210 Y691.9828 Z-1.0000 F5000
G1 X936.3549 Y691.3957 Z-1.0000 F5000
G1 X933.6210 Y691.9828 Z-1.0000 F5000
G1 X930.9604 Y693.5058 Z-1.0000 F5000
G1 X928.9421 Y696.6067 Z-1.0000 F5000
G1 X928.1164 Y701.9828 Z-1.0000 F5000
G1 X928.5935 Y705.7260 Z-1.0000 F5000
G1 X929.8962 Y708.2764 Z-1.0000 F5000
G1 X931.7311 Y709.7994 Z-1.0000 F5000
G1 X933.7494 Y710.5884 Z-1.0000 F5000
G1 X935.6944 Y710.8636 Z-1.0000 F5000
G1 X937.3090 Y710.9003 Z-1.0000 F5000
G1 X941.5109 Y710.1113 Z-1.0000 F5000
G1 X944.8870 Y708.0195 Z-1.0000 F5000
G1 X947.1072 Y705.0654 Z-1.0000 F5000
G1 X947.8412 Y701.5975 Z-1.0000 F5000
G1 X948.5201 Y705.1755 Z-1.0000 F5000
G1 X950.5201 Y708.3865 Z-1.0000 F5000
G1 X953.8779 Y710.6984 Z-1.0000 F5000
G1 X958.6118 Y711.5792 Z-1.0000 F5000
G1 X966.5935 Y708.4783 Z-1.0000 F5000
G1 X969.2173 Y699.9645 Z-1.0000 F5000
G1 X968.4650 Y695.4140 Z-1.0000 F5000
G1 X966.5201 Y692.4599 Z-1.0000 F5000
G1 X963.9513 Y690.7351 Z-1.0000 F5000
G1 X963.9513 Y690.7351 Z10.0000 F9999
G1 X962.3916 Y654.7535 Z10.0000 F9999
G1 X962.3916 Y654.7535 Z-1.0000 F2500
G1 X965.4375 Y656.6984 Z-1.0000 F5000
G1 X967.4925 Y659.1205 Z-1.0000 F5000
G1 X968.7402 Y662.2397 Z-1.0000 F5000
G1 X969.2173 Y666.3682 Z-1.0000 F5000
G1 X968.7586 Y670.8636 Z-1.0000 F5000
G1 X967.0155 Y674.6801 Z-1.0000 F5000
G1 X964.0246 Y677.3590 Z-1.0000 F5000
G1 X959.8595 Y678.4783 Z-1.0000 F5000
G1 X955.8595 Y677.9461 Z-1.0000 F5000
G1 X953.1806 Y676.4049 Z-1.0000 F5000
G1 X951.4925 Y674.3682 Z-1.0000 F5000
G1 X950.3916 Y672.4599 Z-1.0000 F5000
G1 X945.6577 Y663.2672 Z-1.0000 F5000
G1 X944.2448 Y660.9003 Z-1.0000 F5000
G1 X942.5935 Y659.0471 Z-1.0000 F5000
G1 X940.4100 Y657.7994 Z-1.0000 F5000
G1 X937.5292 Y657.2856 Z-1.0000 F5000
G1 X934.2448 Y657.8177 Z-1.0000 F5000
G1 X931.2173 Y659.6526 Z-1.0000 F5000
G1 X928.9971 Y662.7902 Z-1.0000 F5000
G1 X928.1164 Y667.1572 Z-1.0000 F5000
G1 X928.7953 Y671.4140 Z-1.0000 F5000
G1 X930.2632 Y674.2581 Z-1.0000 F5000
G1 X932.4100 Y676.3498 Z-1.0000 F5000
G1 X930.2632 Y674.2581 Z-1.0000 F5000
G1 X928.7953 Y671.4140 Z-1.0000 F5000
G1 X928.1164 Y667.1572 Z-1.0000 F5000
G1 X928.9971 Y662.7902 Z-1.0000 F5000
G1 X931.2173 Y659.6526 Z-1.0000 F5000
G1 X934.2448 Y657.8177 Z-1.0000 F5000
G1 X937.5292 Y657.2856 Z-1.0000 F5000
G1 X940.4100 Y657.7994 Z-1.0000 F5000
G1 X942.5935 Y659.0471 Z-1.0000 F5000
G1 X944.2448 Y660.9003 Z-1.0000 F5000
G1 X945.6577 Y663.2672 Z-1.0000 F5000
G1 X950.3916 Y672.4599 Z-1.0000 F5000
G1 X951.4925 Y674.3682 Z-1.0000 F5000
G1 X953.1806 Y676.4049 Z-1.0000 F5000
G1 X955.8595 Y677.9461 Z-1.0000 F5000
G1 X959.8595 Y678.4783 Z-1.0000 F5000
G1 X964.0246 Y677.3590 Z-1.0000 F5000
G1 X967.0155 Y674.6801 Z-1.0000 F5000
G1 X968.7586 Y670.8636 Z-1.0000 F5000
G1 X969.2173 Y666.3682 Z-1.0000 F5000
G1 X968.7402 Y662.2397 Z-1.0000 F5000
G1 X967.4925 Y659.1205 Z-1.0000 F5000
G1 X965.4375 Y656.6984 Z-1.0000 F5000
G1 X965.4375 Y656.6984 Z10.0000 F9999
G1 X918.7219 Y644.0379 Z10.0000 F9999
G1 X918.7219 Y644.0379 Z-1.0000 F2500
G1 X971.5659 Y613.6526 Z-1.0000 F5000
G1 X918.7219 Y644.0379 Z-1.0000 F5000
G1 X918.7219 Y644.0379 Z10.0000 F9999
G1 X928.1164 Y586.2214 Z10.0000 F9999
G1 X928.1164 Y586.2214 Z-1.0000 F2500
G1 X969.2173 Y602.2764 Z-1.0000 F5000
G1 X928.1164 Y586.2214 Z-1.0000 F5000
G1 X969.2173 Y570.2030 Z-1.0000 F5000
G1 X969.2173 Y570.2030 Z10.0000 F9999
G1 X944.5568 Y559.5241 Z10.0000 F9999
G1 X944.5568 Y559.5241 Z-1.0000 F2500
G1 X944.5568 Y530.2764 Z-1.0000 F5000
G1 X944.5568 Y559.5241 Z-1.0000 F5000
G1 X944.5568 Y559.5241 Z10.0000 F9999
G1 X954.5201 Y596.5333 Z10.0000 F9999
G1 X954.5201 Y596.5333 Z-1.0000 F2500
G1 X954.5201 Y575.8361 Z-1.0000 F5000
G1 X954.5201 Y596.5333 Z-1.0000 F5000
G1 X954.5201 Y596.5333 Z10.0000 F9999
G1 X954.5201 Y513.1572 Z10.0000 F9999
G1 X954.5201 Y513.1572 Z-1.0000 F2500
G1 X954.5201 Y492.4599 Z-1.0000 F5000
G1 X954.5201 Y513.1572 Z-1.0000 F5000
G1 X954.5201 Y513.1572 Z10.0000 F9999
G1 X928.1164 Y502.8452 Z10.0000 F9999
G1 X928.1164 Y502.8452 Z-1.0000 F2500
G1 X969.2173 Y518.9003 Z-1.0000 F5000
G1 X928.1164 Y502.8452 Z-1.0000 F5000
G1 X969.2173 Y486.8269 Z-1.0000 F5000
G1 X969.2173 Y486.8269 Z10.0000 F9999
G1 X969.2173 Y476.1480 Z10.0000 F9999
G1 X969.2173 Y476.1480 Z-1.0000 F2500
G1 X949.0705 Y462.9186 Z-1.0000 F5000
G1 X969.2173 Y476.1480 Z-1.0000 F5000
G1 X969.2173 Y476.1480 Z10.0000 F9999
G1 X969.2173 Y458.7351 Z10.0000 F9999
G1 X969.2173 Y458.7351 Z-1.0000 F2500
G1 X928.1164 Y458.7351 Z-1.0000 F5000
G1 X928.1164 Y465.8911 Z-1.0000 F5000
G1 X928.7219 Y469.7627 Z-1.0000 F5000
G1 X930.5384 Y472.9737 Z-1.0000 F5000
G1 X933.6944 Y475.1939 Z-1.0000 F5000
G1 X938.3366 Y476.0379 Z-1.0000 F5000
G1 X943.0155 Y474.8819 Z-1.0000 F5000
G1 X946.3366 Y472.1113 Z-1.0000 F5000
G1 X948.2999 Y468.7902 Z-1.0000 F5000
G1 X948.9604 Y465.8911 Z-1.0000 F5000
G1 X948.9604 Y458.7351 Z-1.0000 F5000
G1 X948.9604 Y465.8911 Z-1.0000 F5000
G1 X948.2999 Y468.7902 Z-1.0000 F5000
G1 X946.3366 Y472.1113 Z-1.0000 F5000
G1 X943.0155 Y474.8819 Z-1.0000 F5000
G1 X938.3366 Y476.0379 Z-1.0000 F5000
G1 X933.6944 Y475.1939 Z-1.0000 F5000
G1 X930.5384 Y472.9737 Z-1.0000 F5000
G1 X928.7219 Y469.7627 Z-1.0000 F5000
G1 X928.1164 Y465.8911 Z-1.0000 F5000
G1 X928.1164 Y458.7351 Z-1.0000 F5000
G1 X928.1164 Y458.7351 Z10.0000 F9999
G1 X946.4100 Y428.2030 Z10.0000 F9999
G1 X946.4100 Y428.2030 Z-1.0000 F2500
G1 X946.4100 Y442.6434 Z-1.0000 F5000
G1 X946.4100 Y428.2030 Z-1.0000 F5000
G1 X928.1164 Y428.2030 Z-1.0000 F5000
G1 X928.1164 Y443.3223 Z-1.0000 F5000
G1 X928.1164 Y428.2030 Z-1.0000 F5000
G1 X969.2173 Y428.2030 Z-1.0000 F5000
G1 X969.2173 Y428.2030 Z10.0000 F9999
G1 X1118.0827 Y428.2030 Z10.0000 F9999
G1 X1118.0827 Y428.2030 Z-1.0000 F2500
G1 X1118.0827 Y442.6434 Z-1.0000 F5000
G1 X1118.0827 Y428.2030 Z-1.0000 F5000
G1 X1099.7891 Y428.2030 Z-1.0000 F5000
G1 X1099.7891 Y443.3223 Z-1.0000 F5000
G1 X1099.7891 Y428.2030 Z-1.0000 F5000
G1 X1140.8900 Y428.2030 Z-1.0000 F5000
G1 X1140.8900 Y428.2030 Z10.0000 F9999
G1 X1140.8900 Y458.7351 Z10.0000 F9999
G1 X1140.8900 Y458.7351 Z-1.0000 F2500
G1 X1099.7891 Y458.7351 Z-1.0000 F5000
G1 X1099.7891 Y465.8911 Z-1.0000 F5000
G1 X1100.3946 Y469.7627 Z-1.0000 F5000
G1 X1102.2111 Y472.9737 Z-1.0000 F5000
G1 X1105.3671 Y475.1939 Z-1.0000 F5000
G1 X1110.0093 Y476.0379 Z-1.0000 F5000
G1 X1114.6882 Y474.8819 Z-1.0000 F5000
G1 X1118.0093 Y472.1113 Z-1.0000 F5000
G1 X1119.9726 Y468.7902 Z-1.0000 F5000
G1 X1120.6332 Y465.8911 Z-1.0000 F5000
G1 X1120.6332 Y458.7351 Z-1.0000 F5000
G1 X1120.6332 Y465.8911 Z-1.0000 F5000
G1 X1119.9726 Y468.7902 Z-1.0000 F5000
G1 X1118.0093 Y472.1113 Z-1.0000 F5000
G1 X1114.6882 Y474.8819 Z-1.0000 F5000
G1 X1110.0093 Y476.0379 Z-1.0000 F5000
G1 X1105.3671 Y475.1939 Z-1.0000 F5000
G1 X1102.2111 Y472.9737 Z-1.0000 F5000
G1 X1100.3946 Y469.7627 Z-1.0000 F5000
G1 X1099.7891 Y465.8911 Z-1.0000 F5000
G1 X1099.7891 Y458.7351 Z-1.0000 F5000
G1 X1099.7891 Y458.7351 Z10.0000 F9999
G1 X1099.7891 Y502.8452 Z10.0000 F9999
G1 X1099.7891 Y502.8452 Z-1.0000 F2500
G1 X1140.8900 Y518.9003 Z-1.0000 F5000
G1 X1099.7891 Y502.8452 Z-1.0000 F5000
G1 X1140.8900 Y486.8269 Z-1.0000 F5000
G1 X1140.8900 Y486.8269 Z10.0000 F9999
G1 X1140.8900 Y476.1480 Z10.0000 F9999
G1 X1140.8900 Y476.1480 Z-1.0000 F2500
G1 X1120.7432 Y462.9186 Z-1.0000 F5000
G1 X1140.8900 Y476.1480 Z-1.0000 F5000
G1 X1140.8900 Y476.1480 Z10.0000 F9999
G1 X1126.1928 Y513.1572 Z10.0000 F9999
G1 X1126.1928 Y513.1572 Z-1.0000 F2500
G1 X1126.1928 Y492.4599 Z-1.0000 F5000
G1 X1126.1928 Y513.1572 Z-1.0000 F5000
G1 X1126.1928 Y513.1572 Z10.0000 F9999
G1 X1116.2295 Y559.5241 Z10.0000 F9999
G1 X1116.2295 Y559.5241 Z-1.0000 F2500
G1 X1116.2295 Y530.2764 Z-1.0000 F5000
G1 X1116.2295 Y559.5241 Z-1.0000 F5000
G1 X1116.2295 Y559.5241 Z10.0000 F9999
G1 X1099.7891 Y586.2214 Z10.0000 F9999
G1 X1099.7891 Y586.2214 Z-1.0000 F2500
G1 X1140.8900 Y602.2764 Z-1.0000 F5000
G1 X1099.7891 Y586.2214 Z-1.0000 F5000
G1 X1140.8900 Y570.2030 Z-1.0000 F5000
G1 X1140.8900 Y570.2030 Z10.0000 F9999
G1 X1126.1928 Y596.5333 Z10.0000 F9999
G1 X1126.1928 Y596.5333 Z-1.0000 F2500
G1 X1126.1928 Y575.8361 Z-1.0000 F5000
G1 X1126.1928 Y596.5333 Z-1.0000 F5000
G1 X1126.1928 Y596.5333 Z10.0000 F9999
G1 X1134.0643 Y654.7535 Z10.0000 F9999
G1 X1134.0643 Y654.7535 Z-1.0000 F2500
G1 X1137.1102 Y656.6984 Z-1.0000 F5000
G1 X1139.1653 Y659.1205 Z-1.0000 F5000
G1 X1140.4130 Y662.2397 Z-1.0000 F5000
G1 X1140.8900 Y666.3682 Z-1.0000 F5000
G1 X1140.4313 Y670.8636 Z-1.0000 F5000
G1 X1138.6882 Y674.6801 Z-1.0000 F5000
G1 X1135.6974 Y677.3590 Z-1.0000 F5000
G1 X1131.5322 Y678.4783 Z-1.0000 F5000
G1 X1127.5322 Y677.9461 Z-1.0000 F5000
G1 X1124.8533 Y676.4049 Z-1.0000 F5000
G1 X1123.1653 Y674.3682 Z-1.0000 F5000
G1 X1122.0643 Y672.4599 Z-1.0000 F5000
G1 X1117.3304 Y663.2672 Z-1.0000 F5000
G1 X1115.9176 Y660.9003 Z-1.0000 F5000
G1 X1114.2662 Y659.0471 Z-1.0000 F5000
G1 X1112.0827 Y657.7994 Z-1.0000 F5000
G1 X1109.2020 Y657.2856 Z-1.0000 F5000
G1 X1105.9176 Y657.8177 Z-1.0000 F5000
G1 X1102.8900 Y659.6526 Z-1.0000 F5000
G1 X1100.6698 Y662.7902 Z-1.0000 F5000
G1 X1099.7891 Y667.1572 Z-1.0000 F5000
G1 X1100.4680 Y671.4140 Z-1.0000 F5000
G1 X1101.9359 Y674.2581 Z-1.0000 F5000
G1 X1104.0827 Y676.3498 Z-1.0000 F5000
G1 X1101.9359 Y674.2581 Z-1.0000 F5000
G1 X1100.4680 Y671.4140 Z-1.0000 F5000
G1 X1099.7891 Y667.1572 Z-1.0000 F5000
G1 X1100.6698 Y662.7902 Z-1.0000 F5000
G1 X1102.8900 Y659.6526 Z-1.0000 F5000
G1 X1105.9176 Y657.8177 Z-1.0000 F5000
G1 X1109.2020 Y657.2856 Z-1.0000 F5000
G1 X1112.0827 Y657.7994 Z-1.0000 F5000
G1 X1114.2662 Y659.0471 Z-1.0000 F5000
G1 X1115.9176 Y660.9003 Z-1.0000 F5000
G1 X1117.3304 Y663.2672 Z-1.0000 F5000
G1 X1122.0643 Y672.4599 Z-1.0000 F5000
G1 X1123.1653 Y674.3682 Z-1.0000 F5000
G1 X1124.8533 Y676.4049 Z-1.0000 F5000
G1 X1127.5322 Y677.9461 Z-1.0000 F5000
G1 X1131.5322 Y678.4783 Z-1.0000 F5000
G1 X1135.6974 Y677.3590 Z-1.0000 F5000
G1 X1138.6882 Y674.6801 Z-1.0000 F5000
G1 X1140.4313 Y670.8636 Z-1.0000 F5000
G1 X1140.8900 Y666.3682 Z-1.0000 F5000
G1 X1140.4130 Y662.2397 Z-1.0000 F5000
G1 X1139.1653 Y659.1205 Z-1.0000 F5000
G1 X1137.1102 Y656.6984 Z-1.0000 F5000
G1 X1137.1102 Y656.6984 Z10.0000 F9999
G1 X1132.9451 Y689.9828 Z10.0000 F9999
G1 X1132.9451 Y689.9828 Z-1.0000 F2500
G1 X1135.6240 Y690.7351 Z-1.0000 F5000
G1 X1138.1928 Y692.4599 Z-1.0000 F5000
G1 X1140.1377 Y695.4140 Z-1.0000 F5000
G1 X1140.8900 Y699.9645 Z-1.0000 F5000
G1 X1138.2662 Y708.4783 Z-1.0000 F5000
G1 X1130.2845 Y711.5792 Z-1.0000 F5000
G1 X1125.5506 Y710.6984 Z-1.0000 F5000
G1 X1122.1928 Y708.3865 Z-1.0000 F5000
G1 X1120.1928 Y705.1755 Z-1.0000 F5000
G1 X1119.5139 Y701.5975 Z-1.0000 F5000
G1 X1118.7799 Y705.0654 Z-1.0000 F5000
G1 X1116.5598 Y708.0195 Z-1.0000 F5000
G1 X1113.1836 Y710.1113 Z-1.0000 F5000
G1 X1108.9818 Y710.9003 Z-1.0000 F5000
G1 X1107.4038 Y710.8636 Z-1.0000 F5000
G1 X1105.4221 Y710.5884 Z-1.0000 F5000
G1 X1103.4038 Y709.7994 Z-1.0000 F5000
G1 X1101.5689 Y708.2764 Z-1.0000 F5000
G1 X1100.2662 Y705.7260 Z-1.0000 F5000
G1 X1099.7891 Y701.9828 Z-1.0000 F5000
G1 X1100.6148 Y696.6067 Z-1.0000 F5000
G1 X1102.6332 Y693.5058 Z-1.0000 F5000
G1 X1105.2937 Y691.9828 Z-1.0000 F5000
G1 X1108.0276 Y691.3957 Z-1.0000 F5000
G1 X1105.2937 Y691.9828 Z-1.0000 F5000
G1 X1102.6332 Y693.5058 Z-1.0000 F5000
G1 X1100.6148 Y696.6067 Z-1.0000 F5000
G1 X1099.7891 Y701.9828 Z-1.0000 F5000
G1 X1100.2662 Y705.7260 Z-1.0000 F5000
G1 X1101.5689 Y708.2764 Z-1.0000 F5000
G1 X1103.4038 Y709.7994 Z-1.0000 F5000
G1 X1105.4221 Y710.5884 Z-1.0000 F5000
G1 X1107.3671 Y710.8636 Z-1.0000 F5000
G1 X1108.9818 Y710.9003 Z-1.0000 F5000
G1 X1113.1836 Y710.1113 Z-1.0000 F5000
G1 X1116.5598 Y708.0195 Z-1.0000 F5000
G1 X1118.7799 Y705.0654 Z-1.0000 F5000
G1 X1119.5139 Y701.5975 Z-1.0000 F5000
G1 X1120.1928 Y705.1755 Z-1.0000 F5000
G1 X1122.1928 Y708.3865 Z-1.0000 F5000
G1 X1125.5506 Y710.6984 Z-1.0000 F5000
G1 X1130.2845 Y711.5792 Z-1.0000 F5000
G1 X1138.2662 Y708.4783 Z-1.0000 F5000
G1 X1140.8900 Y699.9645 Z-1.0000 F5000
G1 X1140.1377 Y695.4140 Z-1.0000 F5000
G1 X1138.1928 Y692.4599 Z-1.0000 F5000
G1 X1135.6240 Y690.7351 Z-1.0000 F5000
G1 X1135.6240 Y690.7351 Z10.0000 F9999
G1 X1090.3946 Y644.0379 Z10.0000 F9999
G1 X1090.3946 Y644.0379 Z-1.0000 F2500
G1 X1143.2387 Y613.6526 Z-1.0000 F5000
G1 X1090.3946 Y644.0379 Z-1.0000 F5000
G1 X1090.3946 Y644.0379 Z10.0000 F9999
G1 X1090.3946 Y753.2489 Z10.0000 F9999
G1 X1090.3946 Y753.2489 Z-1.0000 F2500
G1 X1143.2387 Y722.8636 Z-1.0000 F5000
G1 X1090.3946 Y753.2489 Z-1.0000 F5000
G1 X1090.3946 Y753.2489 Z10.0000 F9999
G1 X1099.7891 Y768.7535 Z10.0000 F9999
G1 X1099.7891 Y768.7535 Z-1.0000 F2500
G1 X1140.8900 Y768.7535 Z-1.0000 F5000
G1 X1099.7891 Y768.7535 Z-1.0000 F5000
G1 X1099.7891 Y768.7535 Z10.0000 F9999
G1 X1099.7891 Y788.7168 Z10.0000 F9999
G1 X1099.7891 Y788.7168 Z-1.0000 F2500
G1 X1140.8900 Y825.8177 Z-1.0000 F5000
G1 X1099.7891 Y825.8177 Z-1.0000 F5000
G1 X1140.8900 Y825.8177 Z-1.0000 F5000
G1 X1099.7891 Y788.7168 Z-1.0000 F5000
G1 X1140.8900 Y788.7168 Z-1.0000 F5000
G1 X1140.8900 Y788.7168 Z10.0000 F9999
(Tool Number:1) (7.998 mm dia. slot drill)
M3 S9000
G1 X0.0000 Y1957.6945 Z10.0000 F9999
G1 X0.0000 Y1957.6945 Z1.0000 F2500
G1 X38.9711 Y1957.6945 Z-9.5000 F2500
G1 X0.0000 Y1957.6945 Z-20.0000 F2500
G1 X1220.0000 Y1957.6945 Z-20.0000 F5000
G1 X1220.0000 Y1957.6945 Z10.0000 F9999
(Tool Number:1) (7.998 mm dia. slot drill)
M3 S9000
G1 X299.9476 Y1779.6390 Z10.0000 F9999
G1 X299.9476 Y1779.6390 Z1.0000 F2500
G1 X299.9476 Y1818.6102 Z-9.5000 F2500
G1 X299.9476 Y1779.6390 Z-20.0000 F2500
G1 X299.9476 Y1933.1967 Z-20.0000 F5000
G1 X213.9497 Y1933.1967 Z-20.0000 F5000
G1 X213.9497 Y1626.0813 Z-20.0000 F5000
G1 X218.9497 Y1626.0813 Z-20.0000 F5000
G1 X218.9497 Y1624.0784 Z-20.0000 F5000
G1 X183.2924 Y1624.0784 Z-20.0000 F5000
G1 X177.9498 Y1618.7362 Z-20.0000 F5000
G1 X177.9498 Y1597.5706 Z-20.0000 F5000
G1 X177.9498 Y1597.5706 Z-10.0000 F9999
G1 X177.9498 Y1581.5726 Z-10.0000 F5000
G1 X177.9498 Y1581.5726 Z-20.0000 F2500
G1 X177.9498 Y1561.4238 Z-20.0000 F5000
G1 X183.2923 Y1556.0812 Z-20.0000 F5000
G1 X218.9497 Y1556.0812 Z-20.0000 F5000
G1 X218.9497 Y1554.0786 Z-20.0000 F5000
G1 X213.9497 Y1554.0786 Z-20.0000 F5000
G1 X213.9497 Y1326.0816 Z-20.0000 F5000
G1 X218.9497 Y1326.0816 Z-20.0000 F5000
G1 X218.9497 Y1324.0786 Z-20.0000 F5000
G1 X183.2925 Y1324.0786 Z-20.0000 F5000
G1 X177.9498 Y1318.7367 Z-20.0000 F5000
G1 X177.9498 Y1261.4242 Z-20.0000 F5000
G1 X183.2923 Y1256.0818 Z-20.0000 F5000
G1 X218.9497 Y1256.0818 Z-20.0000 F5000
G1 X218.9497 Y1254.0789 Z-20.0000 F5000
G1 X213.9497 Y1254.0789 Z-20.0000 F5000
G1 X213.9497 Y1146.0831 Z-20.0000 F5000
G1 X218.9497 Y1146.0831 Z-20.0000 F5000
G1 X218.9497 Y1144.0803 Z-20.0000 F5000
G1 X195.9498 Y1144.0803 Z-20.0000 F5000
G1 X195.9498 Y1026.0823 Z-20.0000 F5000
G1 X200.9498 Y1026.0823 Z-20.0000 F5000
G1 X200.9498 Y1024.0809 Z-20.0000 F5000
G1 X183.2918 Y1024.0809 Z-20.0000 F5000
G1 X177.9498 Y1018.7366 Z-20.0000 F5000
G1 X177.9498 Y995.0828 Z-20.0000 F5000
G1 X224.9477 Y995.0828 Z-20.0000 F5000
G1 X224.9477 Y1000.0825 Z-20.0000 F5000
G1 X226.9497 Y1000.0825 Z-20.0000 F5000
G1 X226.9497 Y980.0809 Z-20.0000 F5000
G1 X224.9477 Y980.0809 Z-20.0000 F5000
G1 X224.9477 Y985.0806 Z-20.0000 F5000
G1 X177.9498 Y985.0806 Z-20.0000 F5000
G1 X177.9498 Y961.4245 Z-20.0000 F5000
G1 X183.2924 Y956.0821 Z-20.0000 F5000
G1 X200.9498 Y956.0821 Z-20.0000 F5000
G1 X200.9498 Y954.0794 Z-20.0000 F5000
G1 X195.9498 Y954.0794 Z-20.0000 F5000
G1 X195.9498 Y695.9917 Z-20.0000 F5000
G1 X200.9498 Y695.9917 Z-20.0000 F5000
G1 X200.9498 Y693.9887 Z-20.0000 F5000
G1 X183.2924 Y693.9887 Z-20.0000 F5000
G1 X177.9498 Y688.6464 Z-20.0000 F5000
G1 X177.9498 Y631.3342 Z-20.0000 F5000
G1 X183.2923 Y625.9918 Z-20.0000 F5000
G1 X200.9498 Y625.9918 Z-20.0000 F5000
G1 X200.9498 Y623.9890 Z-20.0000 F5000
G1 X195.9498 Y623.9890 Z-20.0000 F5000
G1 X195.9498 Y365.9011 Z-20.0000 F5000
G1 X200.9498 Y365.9011 Z-20.0000 F5000
G1 X200.9498 Y363.8980 Z-20.0000 F5000
G1 X183.2925 Y363.8980 Z-20.0000 F5000
G1 X177.9498 Y358.5562 Z-20.0000 F5000
G1 X177.9498 Y334.9002 Z-20.0000 F5000
G1 X224.9477 Y334.9002 Z-20.0000 F5000
G1 X224.9477 Y339.9000 Z-20.0000 F5000
G1 X226.9497 Y339.9000 Z-20.0000 F5000
G1 X226.9497 Y319.8983 Z-20.0000 F5000
G1 X224.9477 Y319.8983 Z-20.0000 F5000
G1 X224.9477 Y324.8978 Z-20.0000 F5000
G1 X177.9498 Y324.8978 Z-20.0000 F5000
G1 X177.9498 Y301.2440 Z-20.0000 F5000
G1 X183.2923 Y295.9013 Z-20.0000 F5000
G1 X200.9498 Y295.9013 Z-20.0000 F5000
G1 X200.9498 Y293.8985 Z-20.0000 F5000
G1 X195.9498 Y293.8985 Z-20.0000 F5000
G1 X195.9498 Y234.4137 Z-20.0000 F5000
G1 X195.9498 Y234.4137 Z-10.0000 F9999
G1 X195.9498 Y218.4157 Z-10.0000 F5000
G1 X195.9498 Y218.4157 Z-20.0000 F2500
G1 X195.9498 Y175.9004 Z-20.0000 F5000
G1 X218.9497 Y175.9004 Z-20.0000 F5000
G1 X218.9497 Y173.8975 Z-20.0000 F5000
G1 X213.9497 Y173.8975 Z-20.0000 F5000
G1 X213.9497 Y65.9018 Z-20.0000 F5000
G1 X218.9497 Y65.9018 Z-20.0000 F5000
G1 X218.9497 Y63.8988 Z-20.0000 F5000
G1 X183.2924 Y63.8988 Z-20.0000 F5000
G1 X177.9498 Y58.5567 Z-20.0000 F5000
G1 X177.9498 Y25.9011 Z-20.0000 F5000
G1 X239.5884 Y25.9011 Z-20.0000 F5000
G1 X240.1374 Y25.8213 Z-20.0000 F5000
G1 X240.3968 Y25.7036 Z-20.0000 F5000
G1 X240.6145 Y25.5098 Z-20.0000 F5000
G1 X240.7613 Y25.2656 Z-20.0000 F5000
G1 X240.8299 Y24.9891 Z-20.0000 F5000
G1 X240.8128 Y24.6982 Z-20.0000 F5000
G1 X240.7124 Y24.4316 Z-20.0000 F5000
G1 X240.3814 Y23.9884 Z-20.0000 F5000
G1 X237.4526 Y21.0598 Z-20.0000 F5000
G1 X236.0663 Y19.2032 Z-20.0000 F5000
G1 X235.1488 Y16.6638 Z-20.0000 F5000
G1 X235.0252 Y13.9683 Z-20.0000 F5000
G1 X235.6671 Y11.4407 Z-20.0000 F5000
G1 X237.0003 Y9.1995 Z-20.0000 F5000
G1 X238.9942 Y7.3797 Z-20.0000 F5000
G1 X241.4390 Y6.2328 Z-20.0000 F5000
G1 X243.7319 Y5.9010 Z-20.0000 F5000
G1 X270.1653 Y5.9010 Z-20.0000 F5000
G1 X272.4583 Y6.2328 Z-20.0000 F5000
G1 X274.9031 Y7.3797 Z-20.0000 F5000
G1 X276.8970 Y9.1995 Z-20.0000 F5000
G1 X278.2302 Y11.4407 Z-20.0000 F5000
G1 X278.8721 Y13.9683 Z-20.0000 F5000
G1 X278.7485 Y16.6638 Z-20.0000 F5000
G1 X277.8310 Y19.2032 Z-20.0000 F5000
G1 X276.4447 Y21.0598 Z-20.0000 F5000
G1 X273.5158 Y23.9884 Z-20.0000 F5000
G1 X273.1849 Y24.4316 Z-20.0000 F5000
G1 X273.0845 Y24.6982 Z-20.0000 F5000
G1 X273.0674 Y24.9891 Z-20.0000 F5000
G1 X273.1360 Y25.2656 Z-20.0000 F5000
G1 X273.2828 Y25.5098 Z-20.0000 F5000
G1 X273.5004 Y25.7036 Z-20.0000 F5000
G1 X273.7599 Y25.8213 Z-20.0000 F5000
G1 X274.3089 Y25.9011 Z-20.0000 F5000
G1 X335.9475 Y25.9011 Z-20.0000 F5000
G1 X335.9475 Y58.5567 Z-20.0000 F5000
G1 X330.6049 Y63.8988 Z-20.0000 F5000
G1 X294.9476 Y63.8988 Z-20.0000 F5000
G1 X294.9476 Y65.9018 Z-20.0000 F5000
G1 X299.9475 Y65.9018 Z-20.0000 F5000
G1 X299.9500 Y173.8975 Z-20.0000 F5000
G1 X294.9499 Y173.8975 Z-20.0000 F5000
G1 X294.9499 Y175.9004 Z-20.0000 F5000
G1 X317.9475 Y175.9004 Z-20.0000 F5000
G1 X317.9475 Y219.0060 Z-20.0000 F5000
G1 X317.9475 Y219.0060 Z-10.0000 F9999
G1 X317.9475 Y235.0040 Z-10.0000 F5000
G1 X317.9475 Y235.0040 Z-20.0000 F2500
G1 X317.9475 Y293.8985 Z-20.0000 F5000
G1 X312.9475 Y293.8985 Z-20.0000 F5000
G1 X312.9475 Y295.9013 Z-20.0000 F5000
G1 X330.6050 Y295.9013 Z-20.0000 F5000
G1 X335.9475 Y301.2440 Z-20.0000 F5000
G1 X335.9475 Y324.8978 Z-20.0000 F5000
G1 X288.9496 Y324.8978 Z-20.0000 F5000
G1 X288.9496 Y319.8983 Z-20.0000 F5000
G1 X286.9476 Y319.8983 Z-20.0000 F5000
G1 X286.9476 Y339.9000 Z-20.0000 F5000
G1 X288.9496 Y339.9000 Z-20.0000 F5000
G1 X288.9496 Y334.9002 Z-20.0000 F5000
G1 X335.9475 Y334.9002 Z-20.0000 F5000
G1 X335.9475 Y358.5562 Z-20.0000 F5000
G1 X330.6047 Y363.8980 Z-20.0000 F5000
G1 X312.9475 Y363.8980 Z-20.0000 F5000
G1 X312.9475 Y365.9011 Z-20.0000 F5000
G1 X317.9475 Y365.9011 Z-20.0000 F5000
G1 X317.9475 Y623.9890 Z-20.0000 F5000
G1 X312.9475 Y623.9890 Z-20.0000 F5000
G1 X312.9475 Y625.9918 Z-20.0000 F5000
G1 X330.6049 Y625.9918 Z-20.0000 F5000
G1 X335.9475 Y631.3342 Z-20.0000 F5000
G1 X335.9475 Y688.6464 Z-20.0000 F5000
G1 X330.6049 Y693.9887 Z-20.0000 F5000
G1 X312.9475 Y693.9887 Z-20.0000 F5000
G1 X312.9475 Y695.9917 Z-20.0000 F5000
G1 X317.9475 Y695.9917 Z-20.0000 F5000
G1 X317.9475 Y954.0794 Z-20.0000 F5000
G1 X312.9475 Y954.0794 Z-20.0000 F5000
G1 X312.9475 Y956.0821 Z-20.0000 F5000
G1 X330.6049 Y956.0821 Z-20.0000 F5000
G1 X335.9475 Y961.4245 Z-20.0000 F5000
G1 X335.9475 Y985.0806 Z-20.0000 F5000
G1 X288.9496 Y985.0806 Z-20.0000 F5000
G1 X288.9496 Y980.0809 Z-20.0000 F5000
G1 X286.9476 Y980.0809 Z-20.0000 F5000
G1 X286.9476 Y1000.0825 Z-20.0000 F5000
G1 X288.9496 Y1000.0825 Z-20.0000 F5000
G1 X288.9496 Y995.0828 Z-20.0000 F5000
G1 X335.9475 Y995.0828 Z-20.0000 F5000
G1 X335.9475 Y1018.7366 Z-20.0000 F5000
G1 X330.6055 Y1024.0809 Z-20.0000 F5000
G1 X312.9475 Y1024.0809 Z-20.0000 F5000
G1 X312.9475 Y1026.0823 Z-20.0000 F5000
G1 X317.9475 Y1026.0823 Z-20.0000 F5000
G1 X317.9475 Y1144.0803 Z-20.0000 F5000
G1 X294.9499 Y1144.0803 Z-20.0000 F5000
G1 X294.9499 Y1146.0831 Z-20.0000 F5000
G1 X299.9500 Y1146.0831 Z-20.0000 F5000
G1 X299.9475 Y1254.0789 Z-20.0000 F5000
G1 X294.9476 Y1254.0789 Z-20.0000 F5000
G1 X294.9476 Y1256.0818 Z-20.0000 F5000
G1 X330.6049 Y1256.0818 Z-20.0000 F5000
G1 X335.9475 Y1261.4242 Z-20.0000 F5000
G1 X335.9475 Y1318.7367 Z-20.0000 F5000
G1 X330.6048 Y1324.0786 Z-20.0000 F5000
G1 X294.9476 Y1324.0786 Z-20.0000 F5000
G1 X294.9476 Y1326.0816 Z-20.0000 F5000
G1 X299.9476 Y1326.0816 Z-20.0000 F5000
G1 X299.9476 Y1554.0786 Z-20.0000 F5000
G1 X294.9476 Y1554.0786 Z-20.0000 F5000
G1 X294.9476 Y1556.0812 Z-20.0000 F5000
G1 X330.6050 Y1556.0812 Z-20.0000 F5000
G1 X335.9475 Y1561.4238 Z-20.0000 F5000
G1 X335.9475 Y1579.8019 Z-20.0000 F5000
G1 X335.9475 Y1579.8019 Z-10.0000 F9999
G1 X335.9475 Y1595.7999 Z-10.0000 F5000
G1 X335.9475 Y1595.7999 Z-20.0000 F2500
G1 X335.9475 Y1618.7362 Z-20.0000 F5000
G1 X330.6049 Y1624.0784 Z-20.0000 F5000
G1 X294.9476 Y1624.0784 Z-20.0000 F5000
G1 X294.9476 Y1626.0813 Z-20.0000 F5000
G1 X299.9476 Y1626.0813 Z-20.0000 F5000
G1 X299.9476 Y1779.6390 Z-20.0000 F5000
G1 X299.9476 Y1779.6390 Z10.0000 F9999
G1 X558.0473 Y1755.6464 Z10.0000 F9999
G1 X558.0473 Y1755.6464 Z1.0000 F2500
G1 X558.0473 Y1716.6753 Z-9.5000 F2500
G1 X558.0473 Y1755.6464 Z-20.0000 F2500
G1 X558.0473 Y1565.8978 Z-20.0000 F5000
G1 X563.0473 Y1565.8978 Z-20.0000 F5000
G1 X563.0473 Y1563.8958 Z-20.0000 F5000
G1 X527.3899 Y1563.8958 Z-20.0000 F5000
G1 X522.0475 Y1558.5532 Z-20.0000 F5000
G1 X522.0475 Y1535.0070 Z-20.0000 F5000
G1 X522.0475 Y1535.0070 Z-10.0000 F9999
G1 X522.0475 Y1519.0090 Z-10.0000 F5000
G1 X522.0475 Y1519.0090 Z-20.0000 F2500
G1 X522.0475 Y1501.2405 Z-20.0000 F5000
G1 X527.3899 Y1495.8979 Z-20.0000 F5000
G1 X563.0473 Y1495.8979 Z-20.0000 F5000
G1 X563.0473 Y1493.8959 Z-20.0000 F5000
G1 X558.0473 Y1493.8959 Z-20.0000 F5000
G1 X558.0473 Y1265.8984 Z-20.0000 F5000
G1 X563.0473 Y1265.8984 Z-20.0000 F5000
G1 X563.0473 Y1263.8964 Z-20.0000 F5000
G1 X527.3899 Y1263.8964 Z-20.0000 F5000
G1 X522.0475 Y1258.5539 Z-20.0000 F5000
G1 X522.0475 Y1201.2411 Z-20.0000 F5000
G1 X527.3899 Y1195.8986 Z-20.0000 F5000
G1 X563.0473 Y1195.8986 Z-20.0000 F5000
G1 X563.0473 Y1193.8966 Z-20.0000 F5000
G1 X558.0473 Y1193.8966 Z-20.0000 F5000
G1 X558.0473 Y1085.8987 Z-20.0000 F5000
G1 X563.0473 Y1085.8987 Z-20.0000 F5000
G1 X563.0473 Y1083.8968 Z-20.0000 F5000
G1 X540.0474 Y1083.8968 Z-20.0000 F5000
G1 X540.0474 Y965.8990 Z-20.0000 F5000
G1 X545.0474 Y965.8990 Z-20.0000 F5000
G1 X545.0474 Y963.8970 Z-20.0000 F5000
G1 X527.3899 Y963.8970 Z-20.0000 F5000
G1 X522.0475 Y958.5545 Z-20.0000 F5000
G1 X522.0475 Y934.8990 Z-20.0000 F5000
G1 X569.0453 Y934.8990 Z-20.0000 F5000
G1 X569.0453 Y939.8990 Z-20.0000 F5000
G1 X571.0473 Y939.8990 Z-20.0000 F5000
G1 X571.0473 Y919.8970 Z-20.0000 F5000
G1 X569.0453 Y919.8970 Z-20.0000 F5000
G1 X569.0453 Y924.8970 Z-20.0000 F5000
G1 X522.0475 Y924.8970 Z-20.0000 F5000
G1 X522.0475 Y901.2416 Z-20.0000 F5000
G1 X527.3900 Y895.8992 Z-20.0000 F5000
G1 X545.0474 Y895.8992 Z-20.0000 F5000
G1 X545.0474 Y893.8972 Z-20.0000 F5000
G1 X540.0474 Y893.8972 Z-20.0000 F5000
G1 X540.0474 Y665.8997 Z-20.0000 F5000
G1 X545.0474 Y665.8997 Z-20.0000 F5000
G1 X545.0474 Y663.8975 Z-20.0000 F5000
G1 X527.3900 Y663.8975 Z-20.0000 F5000
G1 X522.0475 Y658.5551 Z-20.0000 F5000
G1 X522.0475 Y601.2424 Z-20.0000 F5000
G1 X527.3899 Y595.8998 Z-20.0000 F5000
G1 X545.0474 Y595.8998 Z-20.0000 F5000
G1 X545.0474 Y593.8978 Z-20.0000 F5000
G1 X540.0474 Y593.8978 Z-20.0000 F5000
G1 X540.0474 Y365.9003 Z-20.0000 F5000
G1 X545.0474 Y365.9003 Z-20.0000 F5000
G1 X545.0474 Y363.8983 Z-20.0000 F5000
G1 X527.3899 Y363.8983 Z-20.0000 F5000
G1 X522.0475 Y358.5557 Z-20.0000 F5000
G1 X522.0475 Y334.9003 Z-20.0000 F5000
G1 X569.0453 Y334.9003 Z-20.0000 F5000
G1 X569.0453 Y339.9003 Z-20.0000 F5000
G1 X571.0473 Y339.9003 Z-20.0000 F5000
G1 X571.0473 Y319.8983 Z-20.0000 F5000
G1 X569.0453 Y319.8983 Z-20.0000 F5000
G1 X569.0453 Y324.8983 Z-20.0000 F5000
G1 X522.0475 Y324.8983 Z-20.0000 F5000
G1 X522.0475 Y301.2430 Z-20.0000 F5000
G1 X527.3899 Y295.9003 Z-20.0000 F5000
G1 X545.0474 Y295.9003 Z-20.0000 F5000
G1 X545.0474 Y293.8984 Z-20.0000 F5000
G1 X540.0474 Y293.8984 Z-20.0000 F5000
G1 X540.0474 Y236.7746 Z-20.0000 F5000
G1 X540.0474 Y236.7746 Z-10.0000 F9999
G1 X540.0474 Y220.7766 Z-10.0000 F5000
G1 X540.0474 Y220.7766 Z-20.0000 F2500
G1 X540.0474 Y175.9006 Z-20.0000 F5000
G1 X563.0473 Y175.9006 Z-20.0000 F5000
G1 X563.0473 Y173.8988 Z-20.0000 F5000
G1 X558.0473 Y173.8988 Z-20.0000 F5000
G1 X558.0473 Y65.9008 Z-20.0000 F5000
G1 X563.0473 Y65.9008 Z-20.0000 F5000
G1 X563.0473 Y63.8989 Z-20.0000 F5000
G1 X527.3899 Y63.8989 Z-20.0000 F5000
G1 X522.0475 Y58.5561 Z-20.0000 F5000
G1 X522.0475 Y25.9008 Z-20.0000 F5000
G1 X583.6870 Y25.9008 Z-20.0000 F5000
G1 X584.2345 Y25.8214 Z-20.0000 F5000
G1 X584.4940 Y25.7038 Z-20.0000 F5000
G1 X584.7117 Y25.5100 Z-20.0000 F5000
G1 X584.8587 Y25.2658 Z-20.0000 F5000
G1 X584.9274 Y24.9893 Z-20.0000 F5000
G1 X584.9105 Y24.6983 Z-20.0000 F5000
G1 X584.8102 Y24.4316 Z-20.0000 F5000
G1 X584.4791 Y23.9881 Z-20.0000 F5000
G1 X581.5502 Y21.0591 Z-20.0000 F5000
G1 X580.1642 Y19.2032 Z-20.0000 F5000
G1 X579.2464 Y16.6648 Z-20.0000 F5000
G1 X579.1228 Y13.9677 Z-20.0000 F5000
G1 X579.7648 Y11.4403 Z-20.0000 F5000
G1 X581.0983 Y9.1985 Z-20.0000 F5000
G1 X583.0926 Y7.3797 Z-20.0000 F5000
G1 X585.5361 Y6.2335 Z-20.0000 F5000
G1 X587.8289 Y5.9010 Z-20.0000 F5000
G1 X614.2636 Y5.9010 Z-20.0000 F5000
G1 X616.5564 Y6.2335 Z-20.0000 F5000
G1 X619.0000 Y7.3797 Z-20.0000 F5000
G1 X620.9942 Y9.1985 Z-20.0000 F5000
G1 X622.3278 Y11.4403 Z-20.0000 F5000
G1 X622.9697 Y13.9677 Z-20.0000 F5000
G1 X622.8461 Y16.6648 Z-20.0000 F5000
G1 X621.9283 Y19.2032 Z-20.0000 F5000
G1 X620.5423 Y21.0591 Z-20.0000 F5000
G1 X617.6135 Y23.9881 Z-20.0000 F5000
G1 X617.2823 Y24.4316 Z-20.0000 F5000
G1 X617.1820 Y24.6983 Z-20.0000 F5000
G1 X617.1651 Y24.9893 Z-20.0000 F5000
G1 X617.2339 Y25.2658 Z-20.0000 F5000
G1 X617.3808 Y25.5100 Z-20.0000 F5000
G1 X617.5986 Y25.7038 Z-20.0000 F5000
G1 X617.8581 Y25.8214 Z-20.0000 F5000
G1 X618.4056 Y25.9008 Z-20.0000 F5000
G1 X680.0451 Y25.9008 Z-20.0000 F5000
G1 X680.0451 Y58.5561 Z-20.0000 F5000
G1 X674.7027 Y63.8989 Z-20.0000 F5000
G1 X639.0452 Y63.8989 Z-20.0000 F5000
G1 X639.0452 Y65.9008 Z-20.0000 F5000
G1 X644.0452 Y65.9008 Z-20.0000 F5000
G1 X644.0452 Y173.8988 Z-20.0000 F5000
G1 X639.0452 Y173.8988 Z-20.0000 F5000
G1 X639.0452 Y175.9006 Z-20.0000 F5000
G1 X662.0452 Y175.9006 Z-20.0000 F5000
G1 X662.0452 Y220.7766 Z-20.0000 F5000
G1 X662.0452 Y220.7766 Z-10.0000 F9999
G1 X662.0452 Y236.7746 Z-10.0000 F5000
G1 X662.0452 Y236.7746 Z-20.0000 F2500
G1 X662.0452 Y293.8984 Z-20.0000 F5000
G1 X657.0452 Y293.8984 Z-20.0000 F5000
G1 X657.0452 Y295.9003 Z-20.0000 F5000
G1 X674.7027 Y295.9003 Z-20.0000 F5000
G1 X680.0451 Y301.2430 Z-20.0000 F5000
G1 X680.0451 Y324.8983 Z-20.0000 F5000
G1 X633.0472 Y324.8983 Z-20.0000 F5000
G1 X633.0472 Y319.8983 Z-20.0000 F5000
G1 X631.0452 Y319.8983 Z-20.0000 F5000
G1 X631.0452 Y339.9003 Z-20.0000 F5000
G1 X633.0472 Y339.9003 Z-20.0000 F5000
G1 X633.0472 Y334.9003 Z-20.0000 F5000
G1 X680.0451 Y334.9003 Z-20.0000 F5000
G1 X680.0451 Y358.5557 Z-20.0000 F5000
G1 X674.7026 Y363.8983 Z-20.0000 F5000
G1 X657.0452 Y363.8983 Z-20.0000 F5000
G1 X657.0452 Y365.9003 Z-20.0000 F5000
G1 X662.0452 Y365.9003 Z-20.0000 F5000
G1 X662.0452 Y593.8978 Z-20.0000 F5000
G1 X657.0452 Y593.8978 Z-20.0000 F5000
G1 X657.0452 Y595.8998 Z-20.0000 F5000
G1 X674.7026 Y595.8998 Z-20.0000 F5000
G1 X680.0451 Y601.2424 Z-20.0000 F5000
G1 X680.0451 Y658.5551 Z-20.0000 F5000
G1 X674.7026 Y663.8975 Z-20.0000 F5000
G1 X657.0452 Y663.8975 Z-20.0000 F5000
G1 X657.0452 Y665.8997 Z-20.0000 F5000
G1 X662.0452 Y665.8997 Z-20.0000 F5000
G1 X662.0452 Y893.8972 Z-20.0000 F5000
G1 X657.0452 Y893.8972 Z-20.0000 F5000
G1 X657.0452 Y895.8992 Z-20.0000 F5000
G1 X674.7026 Y895.8992 Z-20.0000 F5000
G1 X680.0451 Y901.2416 Z-20.0000 F5000
G1 X680.0451 Y924.8970 Z-20.0000 F5000
G1 X633.0472 Y924.8970 Z-20.0000 F5000
G1 X633.0472 Y919.8970 Z-20.0000 F5000
G1 X631.0452 Y919.8970 Z-20.0000 F5000
G1 X631.0452 Y939.8990 Z-20.0000 F5000
G1 X633.0472 Y939.8990 Z-20.0000 F5000
G1 X633.0472 Y934.8990 Z-20.0000 F5000
G1 X680.0451 Y934.8990 Z-20.0000 F5000
G1 X680.0451 Y958.5545 Z-20.0000 F5000
G1 X674.7026 Y963.8970 Z-20.0000 F5000
G1 X657.0452 Y963.8970 Z-20.0000 F5000
G1 X657.0452 Y965.8990 Z-20.0000 F5000
G1 X662.0452 Y965.8990 Z-20.0000 F5000
G1 X662.0452 Y1083.8968 Z-20.0000 F5000
G1 X639.0452 Y1083.8968 Z-20.0000 F5000
G1 X639.0452 Y1085.8987 Z-20.0000 F5000
G1 X644.0452 Y1085.8987 Z-20.0000 F5000
G1 X644.0452 Y1193.8966 Z-20.0000 F5000
G1 X639.0452 Y1193.8966 Z-20.0000 F5000
G1 X639.0452 Y1195.8986 Z-20.0000 F5000
G1 X674.7026 Y1195.8986 Z-20.0000 F5000
G1 X680.0451 Y1201.2411 Z-20.0000 F5000
G1 X680.0451 Y1258.5539 Z-20.0000 F5000
G1 X674.7026 Y1263.8964 Z-20.0000 F5000
G1 X639.0452 Y1263.8964 Z-20.0000 F5000
G1 X639.0452 Y1265.8984 Z-20.0000 F5000
G1 X644.0452 Y1265.8984 Z-20.0000 F5000
G1 X644.0452 Y1493.8959 Z-20.0000 F5000
G1 X639.0452 Y1493.8959 Z-20.0000 F5000
G1 X639.0452 Y1495.8979 Z-20.0000 F5000
G1 X674.7026 Y1495.8979 Z-20.0000 F5000
G1 X680.0451 Y1501.2405 Z-20.0000 F5000
G1 X680.0451 Y1519.5992 Z-20.0000 F5000
G1 X680.0451 Y1519.5992 Z-10.0000 F9999
G1 X680.0451 Y1535.5972 Z-10.0000 F5000
G1 X680.0451 Y1535.5972 Z-20.0000 F2500
G1 X680.0451 Y1558.5532 Z-20.0000 F5000
G1 X674.7026 Y1563.8958 Z-20.0000 F5000
G1 X639.0452 Y1563.8958 Z-20.0000 F5000
G1 X639.0452 Y1565.8978 Z-20.0000 F5000
G1 X644.0452 Y1565.8978 Z-20.0000 F5000
G1 X644.0452 Y1945.3950 Z-20.0000 F5000
G1 X558.0473 Y1945.3950 Z-20.0000 F5000
G1 X558.0473 Y1755.6464 Z-20.0000 F5000
G1 X558.0473 Y1755.6464 Z10.0000 F9999
G1 X902.1450 Y1755.6464 Z10.0000 F9999
G1 X902.1450 Y1755.6464 Z1.0000 F2500
G1 X902.1450 Y1716.6753 Z-9.5000 F2500
G1 X902.1450 Y1755.6464 Z-20.0000 F2500
G1 X902.1450 Y1565.8978 Z-20.0000 F5000
G1 X907.1450 Y1565.8978 Z-20.0000 F5000
G1 X907.1450 Y1563.8958 Z-20.0000 F5000
G1 X871.4876 Y1563.8958 Z-20.0000 F5000
G1 X866.1451 Y1558.5532 Z-20.0000 F5000
G1 X866.1451 Y1536.7777 Z-20.0000 F5000
G1 X866.1451 Y1536.7777 Z-10.0000 F9999
G1 X866.1451 Y1520.7797 Z-10.0000 F5000
G1 X866.1451 Y1520.7797 Z-20.0000 F2500
G1 X866.1451 Y1501.2405 Z-20.0000 F5000
G1 X871.4876 Y1495.8979 Z-20.0000 F5000
G1 X907.1450 Y1495.8979 Z-20.0000 F5000
G1 X907.1450 Y1493.8959 Z-20.0000 F5000
G1 X902.1450 Y1493.8959 Z-20.0000 F5000
G1 X902.1450 Y1265.8984 Z-20.0000 F5000
G1 X907.1450 Y1265.8984 Z-20.0000 F5000
G1 X907.1450 Y1263.8964 Z-20.0000 F5000
G1 X871.4876 Y1263.8964 Z-20.0000 F5000
G1 X866.1451 Y1258.5539 Z-20.0000 F5000
G1 X866.1451 Y1201.2411 Z-20.0000 F5000
G1 X871.4876 Y1195.8986 Z-20.0000 F5000
G1 X907.1450 Y1195.8986 Z-20.0000 F5000
G1 X907.1450 Y1193.8966 Z-20.0000 F5000
G1 X902.1450 Y1193.8966 Z-20.0000 F5000
G1 X902.1450 Y1085.8987 Z-20.0000 F5000
G1 X907.1450 Y1085.8987 Z-20.0000 F5000
G1 X907.1450 Y1083.8968 Z-20.0000 F5000
G1 X884.1450 Y1083.8968 Z-20.0000 F5000
G1 X884.1450 Y965.8990 Z-20.0000 F5000
G1 X889.1450 Y965.8990 Z-20.0000 F5000
G1 X889.1450 Y963.8970 Z-20.0000 F5000
G1 X871.4876 Y963.8970 Z-20.0000 F5000
G1 X866.1451 Y958.5545 Z-20.0000 F5000
G1 X866.1451 Y934.8990 Z-20.0000 F5000
G1 X913.1430 Y934.8990 Z-20.0000 F5000
G1 X913.1430 Y939.8990 Z-20.0000 F5000
G1 X915.1450 Y939.8990 Z-20.0000 F5000
G1 X915.1450 Y919.8970 Z-20.0000 F5000
G1 X913.1430 Y919.8970 Z-20.0000 F5000
G1 X913.1430 Y924.8970 Z-20.0000 F5000
G1 X866.1451 Y924.8970 Z-20.0000 F5000
G1 X866.1451 Y901.2416 Z-20.0000 F5000
G1 X871.4876 Y895.8992 Z-20.0000 F5000
G1 X889.1450 Y895.8992 Z-20.0000 F5000
G1 X889.1450 Y893.8972 Z-20.0000 F5000
G1 X884.1450 Y893.8972 Z-20.0000 F5000
G1 X884.1450 Y665.8997 Z-20.0000 F5000
G1 X889.1450 Y665.8997 Z-20.0000 F5000
G1 X889.1450 Y663.8975 Z-20.0000 F5000
G1 X871.4876 Y663.8975 Z-20.0000 F5000
G1 X866.1451 Y658.5551 Z-20.0000 F5000
G1 X866.1451 Y601.2424 Z-20.0000 F5000
G1 X871.4876 Y595.8998 Z-20.0000 F5000
G1 X889.1450 Y595.8998 Z-20.0000 F5000
G1 X889.1450 Y593.8978 Z-20.0000 F5000
G1 X884.1450 Y593.8978 Z-20.0000 F5000
G1 X884.1450 Y365.9003 Z-20.0000 F5000
G1 X889.1450 Y365.9003 Z-20.0000 F5000
G1 X889.1450 Y363.8983 Z-20.0000 F5000
G1 X871.4876 Y363.8983 Z-20.0000 F5000
G1 X866.1451 Y358.5557 Z-20.0000 F5000
G1 X866.1451 Y334.9003 Z-20.0000 F5000
G1 X913.1430 Y334.9003 Z-20.0000 F5000
G1 X913.1430 Y339.9003 Z-20.0000 F5000
G1 X915.1450 Y339.9003 Z-20.0000 F5000
G1 X915.1450 Y319.8983 Z-20.0000 F5000
G1 X913.1430 Y319.8983 Z-20.0000 F5000
G1 X913.1430 Y324.8983 Z-20.0000 F5000
G1 X866.1451 Y324.8983 Z-20.0000 F5000
G1 X866.1451 Y301.2430 Z-20.0000 F5000
G1 X871.4875 Y295.9003 Z-20.0000 F5000
G1 X889.1450 Y295.9003 Z-20.0000 F5000
G1 X889.1450 Y293.8984 Z-20.0000 F5000
G1 X884.1450 Y293.8984 Z-20.0000 F5000
G1 X884.1450 Y237.8740 Z-20.0000 F5000
G1 X884.1450 Y237.8740 Z-10.0000 F9999
G1 X884.1450 Y221.8760 Z-10.0000 F5000
G1 X884.1450 Y221.8760 Z-20.0000 F2500
G1 X884.1450 Y175.9006 Z-20.0000 F5000
G1 X907.1450 Y175.9006 Z-20.0000 F5000
G1 X907.1450 Y173.8988 Z-20.0000 F5000
G1 X902.1450 Y173.8988 Z-20.0000 F5000
G1 X902.1450 Y65.9008 Z-20.0000 F5000
G1 X907.1450 Y65.9008 Z-20.0000 F5000
G1 X907.1450 Y63.8989 Z-20.0000 F5000
G1 X871.4875 Y63.8989 Z-20.0000 F5000
G1 X866.1451 Y58.5561 Z-20.0000 F5000
G1 X866.1451 Y25.9008 Z-20.0000 F5000
G1 X927.7846 Y25.9008 Z-20.0000 F5000
G1 X928.3321 Y25.8214 Z-20.0000 F5000
G1 X928.5916 Y25.7038 Z-20.0000 F5000
G1 X928.8094 Y25.5100 Z-20.0000 F5000
G1 X928.9563 Y25.2658 Z-20.0000 F5000
G1 X929.0251 Y24.9893 Z-20.0000 F5000
G1 X929.0082 Y24.6983 Z-20.0000 F5000
G1 X928.9079 Y24.4316 Z-20.0000 F5000
G1 X928.5767 Y23.9881 Z-20.0000 F5000
G1 X925.6479 Y21.0591 Z-20.0000 F5000
G1 X924.2619 Y19.2032 Z-20.0000 F5000
G1 X923.3441 Y16.6648 Z-20.0000 F5000
G1 X923.2205 Y13.9677 Z-20.0000 F5000
G1 X923.8624 Y11.4403 Z-20.0000 F5000
G1 X925.1960 Y9.1985 Z-20.0000 F5000
G1 X927.1902 Y7.3797 Z-20.0000 F5000
G1 X929.6338 Y6.2335 Z-20.0000 F5000
G1 X931.9266 Y5.9010 Z-20.0000 F5000
G1 X958.3612 Y5.9010 Z-20.0000 F5000
G1 X960.6541 Y6.2335 Z-20.0000 F5000
G1 X963.0976 Y7.3797 Z-20.0000 F5000
G1 X965.0919 Y9.1985 Z-20.0000 F5000
G1 X966.4254 Y11.4403 Z-20.0000 F5000
G1 X967.0674 Y13.9677 Z-20.0000 F5000
G1 X966.9438 Y16.6648 Z-20.0000 F5000
G1 X966.0259 Y19.2032 Z-20.0000 F5000
G1 X964.6399 Y21.0591 Z-20.0000 F5000
G1 X961.7111 Y23.9881 Z-20.0000 F5000
G1 X961.3799 Y24.4316 Z-20.0000 F5000
G1 X961.2797 Y24.6983 Z-20.0000 F5000
G1 X961.2628 Y24.9893 Z-20.0000 F5000
G1 X961.3315 Y25.2658 Z-20.0000 F5000
G1 X961.4785 Y25.5100 Z-20.0000 F5000
G1 X961.6962 Y25.7038 Z-20.0000 F5000
G1 X961.9557 Y25.8214 Z-20.0000 F5000
G1 X962.5032 Y25.9008 Z-20.0000 F5000
G1 X1024.1427 Y25.9008 Z-20.0000 F5000
G1 X1024.1427 Y58.5561 Z-20.0000 F5000
G1 X1018.8003 Y63.8989 Z-20.0000 F5000
G1 X983.1429 Y63.8989 Z-20.0000 F5000
G1 X983.1429 Y65.9008 Z-20.0000 F5000
G1 X988.1429 Y65.9008 Z-20.0000 F5000
G1 X988.1429 Y173.8988 Z-20.0000 F5000
G1 X983.1429 Y173.8988 Z-20.0000 F5000
G1 X983.1429 Y175.9006 Z-20.0000 F5000
G1 X1006.1428 Y175.9006 Z-20.0000 F5000
G1 X1006.1428 Y220.1053 Z-20.0000 F5000
G1 X1006.1428 Y220.1053 Z-10.0000 F9999
G1 X1006.1428 Y236.1033 Z-10.0000 F5000
G1 X1006.1428 Y236.1033 Z-20.0000 F2500
G1 X1006.1428 Y293.8984 Z-20.0000 F5000
G1 X1001.1428 Y293.8984 Z-20.0000 F5000
G1 X1001.1428 Y295.9003 Z-20.0000 F5000
G1 X1018.8003 Y295.9003 Z-20.0000 F5000
G1 X1024.1427 Y301.2430 Z-20.0000 F5000
G1 X1024.1427 Y324.8983 Z-20.0000 F5000
G1 X977.1449 Y324.8983 Z-20.0000 F5000
G1 X977.1449 Y319.8983 Z-20.0000 F5000
G1 X975.1429 Y319.8983 Z-20.0000 F5000
G1 X975.1429 Y339.9003 Z-20.0000 F5000
G1 X977.1449 Y339.9003 Z-20.0000 F5000
G1 X977.1449 Y334.9003 Z-20.0000 F5000
G1 X1024.1427 Y334.9003 Z-20.0000 F5000
G1 X1024.1427 Y358.5557 Z-20.0000 F5000
G1 X1018.8003 Y363.8983 Z-20.0000 F5000
G1 X1001.1428 Y363.8983 Z-20.0000 F5000
G1 X1001.1428 Y365.9003 Z-20.0000 F5000
G1 X1006.1428 Y365.9003 Z-20.0000 F5000
G1 X1006.1428 Y593.8978 Z-20.0000 F5000
G1 X1001.1428 Y593.8978 Z-20.0000 F5000
G1 X1001.1428 Y595.8998 Z-20.0000 F5000
G1 X1018.8003 Y595.8998 Z-20.0000 F5000
G1 X1024.1427 Y601.2424 Z-20.0000 F5000
G1 X1024.1427 Y658.5551 Z-20.0000 F5000
G1 X1018.8002 Y663.8975 Z-20.0000 F5000
G1 X1001.1428 Y663.8975 Z-20.0000 F5000
G1 X1001.1428 Y665.8997 Z-20.0000 F5000
G1 X1006.1428 Y665.8997 Z-20.0000 F5000
G1 X1006.1428 Y893.8972 Z-20.0000 F5000
G1 X1001.1428 Y893.8972 Z-20.0000 F5000
G1 X1001.1428 Y895.8992 Z-20.0000 F5000
G1 X1018.8002 Y895.8992 Z-20.0000 F5000
G1 X1024.1427 Y901.2416 Z-20.0000 F5000
G1 X1024.1427 Y924.8970 Z-20.0000 F5000
G1 X977.1449 Y924.8970 Z-20.0000 F5000
G1 X977.1449 Y919.8970 Z-20.0000 F5000
G1 X975.1429 Y919.8970 Z-20.0000 F5000
G1 X975.1429 Y939.8990 Z-20.0000 F5000
G1 X977.1449 Y939.8990 Z-20.0000 F5000
G1 X977.1449 Y934.8990 Z-20.0000 F5000
G1 X1024.1427 Y934.8990 Z-20.0000 F5000
G1 X1024.1427 Y958.5545 Z-20.0000 F5000
G1 X1018.8003 Y963.8970 Z-20.0000 F5000
G1 X1001.1428 Y963.8970 Z-20.0000 F5000
G1 X1001.1428 Y965.8990 Z-20.0000 F5000
G1 X1006.1428 Y965.8990 Z-20.0000 F5000
G1 X1006.1428 Y1083.8968 Z-20.0000 F5000
G1 X983.1429 Y1083.8968 Z-20.0000 F5000
G1 X983.1429 Y1085.8987 Z-20.0000 F5000
G1 X988.1429 Y1085.8987 Z-20.0000 F5000
G1 X988.1429 Y1193.8966 Z-20.0000 F5000
G1 X983.1429 Y1193.8966 Z-20.0000 F5000
G1 X983.1429 Y1195.8986 Z-20.0000 F5000
G1 X1018.8003 Y1195.8986 Z-20.0000 F5000
G1 X1024.1427 Y1201.2411 Z-20.0000 F5000
G1 X1024.1427 Y1258.5539 Z-20.0000 F5000
G1 X1018.8003 Y1263.8964 Z-20.0000 F5000
G1 X983.1429 Y1263.8964 Z-20.0000 F5000
G1 X983.1429 Y1265.8984 Z-20.0000 F5000
G1 X988.1429 Y1265.8984 Z-20.0000 F5000
G1 X988.1429 Y1493.8959 Z-20.0000 F5000
G1 X983.1429 Y1493.8959 Z-20.0000 F5000
G1 X983.1429 Y1495.8979 Z-20.0000 F5000
G1 X1018.8003 Y1495.8979 Z-20.0000 F5000
G1 X1024.1427 Y1501.2405 Z-20.0000 F5000
G1 X1024.1427 Y1523.1406 Z-20.0000 F5000
G1 X1024.1427 Y1523.1406 Z-10.0000 F9999
G1 X1024.1427 Y1539.1386 Z-10.0000 F5000
G1 X1024.1427 Y1539.1386 Z-20.0000 F2500
G1 X1024.1427 Y1558.5532 Z-20.0000 F5000
G1 X1018.8003 Y1563.8958 Z-20.0000 F5000
G1 X983.1429 Y1563.8958 Z-20.0000 F5000
G1 X983.1429 Y1565.8978 Z-20.0000 F5000
G1 X988.1429 Y1565.8978 Z-20.0000 F5000
G1 X988.1429 Y1945.3950 Z-20.0000 F5000
G1 X902.1450 Y1945.3950 Z-20.0000 F5000
G1 X902.1450 Y1755.6464 Z-20.0000 F5000
G1 X902.1450 Y1755.6464 Z10.0000 F9999
G1 X1160.1917 Y1755.6464 Z10.0000 F9999
G1 X1160.1917 Y1755.6464 Z1.0000 F2500
G1 X1160.1917 Y1794.6176 Z-9.5000 F2500
G1 X1160.1917 Y1755.6464 Z-20.0000 F2500
G1 X1160.1917 Y1945.3950 Z-20.0000 F5000
G1 X1074.1938 Y1945.3950 Z-20.0000 F5000
G1 X1074.1938 Y1565.8978 Z-20.0000 F5000
G1 X1079.1938 Y1565.8978 Z-20.0000 F5000
G1 X1079.1938 Y1563.8958 Z-20.0000 F5000
G1 X1043.5364 Y1563.8958 Z-20.0000 F5000
G1 X1038.1939 Y1558.5532 Z-20.0000 F5000
G1 X1038.1939 Y1501.2405 Z-20.0000 F5000
G1 X1043.5364 Y1495.8979 Z-20.0000 F5000
G1 X1079.1938 Y1495.8979 Z-20.0000 F5000
G1 X1079.1938 Y1493.8959 Z-20.0000 F5000
G1 X1074.1938 Y1493.8959 Z-20.0000 F5000
G1 X1074.1938 Y1265.8984 Z-20.0000 F5000
G1 X1079.1938 Y1265.8984 Z-20.0000 F5000
G1 X1079.1938 Y1263.8964 Z-20.0000 F5000
G1 X1043.5364 Y1263.8964 Z-20.0000 F5000
G1 X1038.1939 Y1258.5539 Z-20.0000 F5000
G1 X1038.1939 Y1201.2411 Z-20.0000 F5000
G1 X1043.5364 Y1195.8986 Z-20.0000 F5000
G1 X1079.1938 Y1195.8986 Z-20.0000 F5000
G1 X1079.1938 Y1193.8966 Z-20.0000 F5000
G1 X1074.1938 Y1193.8966 Z-20.0000 F5000
G1 X1074.1938 Y1085.8987 Z-20.0000 F5000
G1 X1079.1938 Y1085.8987 Z-20.0000 F5000
G1 X1079.1938 Y1083.8968 Z-20.0000 F5000
G1 X1056.1939 Y1083.8968 Z-20.0000 F5000
G1 X1056.1939 Y965.8990 Z-20.0000 F5000
G1 X1061.1939 Y965.8990 Z-20.0000 F5000
G1 X1061.1939 Y963.8970 Z-20.0000 F5000
G1 X1043.5364 Y963.8970 Z-20.0000 F5000
G1 X1038.1939 Y958.5545 Z-20.0000 F5000
G1 X1038.1939 Y934.8990 Z-20.0000 F5000
G1 X1085.1918 Y934.8990 Z-20.0000 F5000
G1 X1085.1918 Y939.8990 Z-20.0000 F5000
G1 X1087.1938 Y939.8990 Z-20.0000 F5000
G1 X1087.1938 Y919.8970 Z-20.0000 F5000
G1 X1085.1918 Y919.8970 Z-20.0000 F5000
G1 X1085.1918 Y924.8970 Z-20.0000 F5000
G1 X1038.1939 Y924.8970 Z-20.0000 F5000
G1 X1038.1939 Y901.2416 Z-20.0000 F5000
G1 X1043.5364 Y895.8992 Z-20.0000 F5000
G1 X1061.1939 Y895.8992 Z-20.0000 F5000
G1 X1061.1939 Y893.8972 Z-20.0000 F5000
G1 X1056.1939 Y893.8972 Z-20.0000 F5000
G1 X1056.1939 Y665.8997 Z-20.0000 F5000
G1 X1061.1939 Y665.8997 Z-20.0000 F5000
G1 X1061.1939 Y663.8975 Z-20.0000 F5000
G1 X1043.5364 Y663.8975 Z-20.0000 F5000
G1 X1038.1939 Y658.5551 Z-20.0000 F5000
G1 X1038.1939 Y601.2424 Z-20.0000 F5000
G1 X1043.5364 Y595.8998 Z-20.0000 F5000
G1 X1061.1939 Y595.8998 Z-20.0000 F5000
G1 X1061.1939 Y593.8978 Z-20.0000 F5000
G1 X1056.1939 Y593.8978 Z-20.0000 F5000
G1 X1056.1939 Y365.9003 Z-20.0000 F5000
G1 X1061.1939 Y365.9003 Z-20.0000 F5000
G1 X1061.1939 Y363.8983 Z-20.0000 F5000
G1 X1043.5364 Y363.8983 Z-20.0000 F5000
G1 X1038.1939 Y358.5557 Z-20.0000 F5000
G1 X1038.1939 Y334.9003 Z-20.0000 F5000
G1 X1085.1918 Y334.9003 Z-20.0000 F5000
G1 X1085.1918 Y339.9003 Z-20.0000 F5000
G1 X1087.1938 Y339.9003 Z-20.0000 F5000
G1 X1087.1938 Y319.8983 Z-20.0000 F5000
G1 X1085.1918 Y319.8983 Z-20.0000 F5000
G1 X1085.1918 Y324.8983 Z-20.0000 F5000
G1 X1038.1939 Y324.8983 Z-20.0000 F5000
G1 X1038.1939 Y301.2430 Z-20.0000 F5000
G1 X1043.5363 Y295.9003 Z-20.0000 F5000
G1 X1061.1939 Y295.9003 Z-20.0000 F5000
G1 X1061.1939 Y293.8984 Z-20.0000 F5000
G1 X1056.1939 Y293.8984 Z-20.0000 F5000
G1 X1056.1939 Y175.9006 Z-20.0000 F5000
G1 X1079.1938 Y175.9006 Z-20.0000 F5000
G1 X1079.1938 Y173.8988 Z-20.0000 F5000
G1 X1074.1938 Y173.8988 Z-20.0000 F5000
G1 X1074.1938 Y65.9008 Z-20.0000 F5000
G1 X1079.1938 Y65.9008 Z-20.0000 F5000
G1 X1079.1938 Y63.8989 Z-20.0000 F5000
G1 X1043.5363 Y63.8989 Z-20.0000 F5000
G1 X1038.1939 Y58.5561 Z-20.0000 F5000
G1 X1038.1939 Y25.9008 Z-20.0000 F5000
G1 X1099.8334 Y25.9008 Z-20.0000 F5000
G1 X1100.3809 Y25.8214 Z-20.0000 F5000
G1 X1100.6404 Y25.7038 Z-20.0000 F5000
G1 X1100.8582 Y25.5100 Z-20.0000 F5000
G1 X1101.0051 Y25.2658 Z-20.0000 F5000
G1 X1101.0739 Y24.9893 Z-20.0000 F5000
G1 X1101.0570 Y24.6983 Z-20.0000 F5000
G1 X1100.9567 Y24.4316 Z-20.0000 F5000
G1 X1100.6255 Y23.9881 Z-20.0000 F5000
G1 X1097.6967 Y21.0591 Z-20.0000 F5000
G1 X1096.3107 Y19.2032 Z-20.0000 F5000
G1 X1095.3929 Y16.6648 Z-20.0000 F5000
G1 X1095.2693 Y13.9677 Z-20.0000 F5000
G1 X1095.9112 Y11.4403 Z-20.0000 F5000
G1 X1097.2448 Y9.1985 Z-20.0000 F5000
G1 X1099.2391 Y7.3797 Z-20.0000 F5000
G1 X1101.6826 Y6.2335 Z-20.0000 F5000
G1 X1103.9754 Y5.9010 Z-20.0000 F5000
G1 X1130.4101 Y5.9010 Z-20.0000 F5000
G1 X1132.7029 Y6.2335 Z-20.0000 F5000
G1 X1135.1464 Y7.3797 Z-20.0000 F5000
G1 X1137.1407 Y9.1985 Z-20.0000 F5000
G1 X1138.4742 Y11.4403 Z-20.0000 F5000
G1 X1139.1162 Y13.9677 Z-20.0000 F5000
G1 X1138.9926 Y16.6648 Z-20.0000 F5000
G1 X1138.0748 Y19.2032 Z-20.0000 F5000
G1 X1136.6888 Y21.0591 Z-20.0000 F5000
G1 X1133.7599 Y23.9881 Z-20.0000 F5000
G1 X1133.4288 Y24.4316 Z-20.0000 F5000
G1 X1133.3285 Y24.6983 Z-20.0000 F5000
G1 X1133.3116 Y24.9893 Z-20.0000 F5000
G1 X1133.3803 Y25.2658 Z-20.0000 F5000
G1 X1133.5273 Y25.5100 Z-20.0000 F5000
G1 X1133.7450 Y25.7038 Z-20.0000 F5000
G1 X1134.0045 Y25.8214 Z-20.0000 F5000
G1 X1134.5520 Y25.9008 Z-20.0000 F5000
G1 X1196.1915 Y25.9008 Z-20.0000 F5000
G1 X1196.1915 Y58.5561 Z-20.0000 F5000
G1 X1190.8491 Y63.8989 Z-20.0000 F5000
G1 X1155.1917 Y63.8989 Z-20.0000 F5000
G1 X1155.1917 Y65.9008 Z-20.0000 F5000
G1 X1160.1917 Y65.9008 Z-20.0000 F5000
G1 X1160.1917 Y173.8988 Z-20.0000 F5000
G1 X1155.1917 Y173.8988 Z-20.0000 F5000
G1 X1155.1917 Y175.9006 Z-20.0000 F5000
G1 X1178.1916 Y175.9006 Z-20.0000 F5000
G1 X1178.1916 Y293.8984 Z-20.0000 F5000
G1 X1173.1916 Y293.8984 Z-20.0000 F5000
G1 X1173.1916 Y295.9003 Z-20.0000 F5000
G1 X1190.8491 Y295.9003 Z-20.0000 F5000
G1 X1196.1915 Y301.2430 Z-20.0000 F5000
G1 X1196.1915 Y324.8983 Z-20.0000 F5000
G1 X1149.1937 Y324.8983 Z-20.0000 F5000
G1 X1149.1937 Y319.8983 Z-20.0000 F5000
G1 X1147.1917 Y319.8983 Z-20.0000 F5000
G1 X1147.1917 Y339.9003 Z-20.0000 F5000
G1 X1149.1937 Y339.9003 Z-20.0000 F5000
G1 X1149.1937 Y334.9003 Z-20.0000 F5000
G1 X1196.1915 Y334.9003 Z-20.0000 F5000
G1 X1196.1915 Y358.5557 Z-20.0000 F5000
G1 X1190.8491 Y363.8983 Z-20.0000 F5000
G1 X1173.1916 Y363.8983 Z-20.0000 F5000
G1 X1173.1916 Y365.9003 Z-20.0000 F5000
G1 X1178.1916 Y365.9003 Z-20.0000 F5000
G1 X1178.1916 Y593.8978 Z-20.0000 F5000
G1 X1173.1916 Y593.8978 Z-20.0000 F5000
G1 X1173.1916 Y595.8998 Z-20.0000 F5000
G1 X1190.8491 Y595.8998 Z-20.0000 F5000
G1 X1196.1915 Y601.2424 Z-20.0000 F5000
G1 X1196.1915 Y658.5551 Z-20.0000 F5000
G1 X1190.8490 Y663.8975 Z-20.0000 F5000
G1 X1173.1916 Y663.8975 Z-20.0000 F5000
G1 X1173.1916 Y665.8997 Z-20.0000 F5000
G1 X1178.1916 Y665.8997 Z-20.0000 F5000
G1 X1178.1916 Y893.8972 Z-20.0000 F5000
G1 X1173.1916 Y893.8972 Z-20.0000 F5000
G1 X1173.1916 Y895.8992 Z-20.0000 F5000
G1 X1190.8490 Y895.8992 Z-20.0000 F5000
G1 X1196.1915 Y901.2416 Z-20.0000 F5000
G1 X1196.1915 Y924.8970 Z-20.0000 F5000
G1 X1149.1937 Y924.8970 Z-20.0000 F5000
G1 X1149.1937 Y919.8970 Z-20.0000 F5000
G1 X1147.1917 Y919.8970 Z-20.0000 F5000
G1 X1147.1917 Y939.8990 Z-20.0000 F5000
G1 X1149.1937 Y939.8990 Z-20.0000 F5000
G1 X1149.1937 Y934.8990 Z-20.0000 F5000
G1 X1196.1915 Y934.8990 Z-20.0000 F5000
G1 X1196.1915 Y958.5545 Z-20.0000 F5000
G1 X1190.8491 Y963.8970 Z-20.0000 F5000
G1 X1173.1916 Y963.8970 Z-20.0000 F5000
G1 X1173.1916 Y965.8990 Z-20.0000 F5000
G1 X1178.1916 Y965.8990 Z-20.0000 F5000
G1 X1178.1916 Y1083.8968 Z-20.0000 F5000
G1 X1155.1917 Y1083.8968 Z-20.0000 F5000
G1 X1155.1917 Y1085.8987 Z-20.0000 F5000
G1 X1160.1917 Y1085.8987 Z-20.0000 F5000
G1 X1160.1917 Y1193.8966 Z-20.0000 F5000
G1 X1155.1917 Y1193.8966 Z-20.0000 F5000
G1 X1155.1917 Y1195.8986 Z-20.0000 F5000
G1 X1190.8491 Y1195.8986 Z-20.0000 F5000
G1 X1196.1915 Y1201.2411 Z-20.0000 F5000
G1 X1196.1915 Y1258.5539 Z-20.0000 F5000
G1 X1190.8491 Y1263.8964 Z-20.0000 F5000
G1 X1155.1917 Y1263.8964 Z-20.0000 F5000
G1 X1155.1917 Y1265.8984 Z-20.0000 F5000
G1 X1160.1917 Y1265.8984 Z-20.0000 F5000
G1 X1160.1917 Y1493.8959 Z-20.0000 F5000
G1 X1155.1917 Y1493.8959 Z-20.0000 F5000
G1 X1155.1917 Y1495.8979 Z-20.0000 F5000
G1 X1190.8491 Y1495.8979 Z-20.0000 F5000
G1 X1196.1915 Y1501.2405 Z-20.0000 F5000
G1 X1196.1915 Y1558.5532 Z-20.0000 F5000
G1 X1190.8491 Y1563.8958 Z-20.0000 F5000
G1 X1155.1917 Y1563.8958 Z-20.0000 F5000
G1 X1155.1917 Y1565.8978 Z-20.0000 F5000
G1 X1160.1917 Y1565.8978 Z-20.0000 F5000
G1 X1160.1917 Y1755.6464 Z-20.0000 F5000
G1 X1160.1917 Y1755.6464 Z10.0000 F9999
G1 X127.8988 Y1779.6390 Z10.0000 F9999
G1 X127.8988 Y1779.6390 Z1.0000 F2500
G1 X127.8988 Y1818.6102 Z-9.5000 F2500
G1 X127.8988 Y1779.6390 Z-20.0000 F2500
G1 X127.8988 Y1933.1967 Z-20.0000 F5000
G1 X41.9009 Y1933.1967 Z-20.0000 F5000
G1 X41.9009 Y1626.0813 Z-20.0000 F5000
G1 X46.9009 Y1626.0813 Z-20.0000 F5000
G1 X46.9009 Y1624.0784 Z-20.0000 F5000
G1 X11.2436 Y1624.0784 Z-20.0000 F5000
G1 X5.9010 Y1618.7362 Z-20.0000 F5000
G1 X5.9010 Y1561.4238 Z-20.0000 F5000
G1 X11.2435 Y1556.0812 Z-20.0000 F5000
G1 X46.9009 Y1556.0812 Z-20.0000 F5000
G1 X46.9009 Y1554.0786 Z-20.0000 F5000
G1 X41.9009 Y1554.0786 Z-20.0000 F5000
G1 X41.9009 Y1326.0816 Z-20.0000 F5000
G1 X46.9009 Y1326.0816 Z-20.0000 F5000
G1 X46.9009 Y1324.0786 Z-20.0000 F5000
G1 X11.2437 Y1324.0786 Z-20.0000 F5000
G1 X5.9010 Y1318.7367 Z-20.0000 F5000
G1 X5.9010 Y1261.4242 Z-20.0000 F5000
G1 X11.2435 Y1256.0818 Z-20.0000 F5000
G1 X46.9009 Y1256.0818 Z-20.0000 F5000
G1 X46.9009 Y1254.0789 Z-20.0000 F5000
G1 X41.9009 Y1254.0789 Z-20.0000 F5000
G1 X41.9009 Y1146.0831 Z-20.0000 F5000
G1 X46.9009 Y1146.0831 Z-20.0000 F5000
G1 X46.9009 Y1144.0803 Z-20.0000 F5000
G1 X23.9009 Y1144.0803 Z-20.0000 F5000
G1 X23.9009 Y1026.0823 Z-20.0000 F5000
G1 X28.9009 Y1026.0823 Z-20.0000 F5000
G1 X28.9009 Y1024.0809 Z-20.0000 F5000
G1 X11.2430 Y1024.0809 Z-20.0000 F5000
G1 X5.9010 Y1018.7366 Z-20.0000 F5000
G1 X5.9010 Y995.0828 Z-20.0000 F5000
G1 X52.8989 Y995.0828 Z-20.0000 F5000
G1 X52.8989 Y1000.0825 Z-20.0000 F5000
G1 X54.9009 Y1000.0825 Z-20.0000 F5000
G1 X54.9009 Y980.0809 Z-20.0000 F5000
G1 X52.8989 Y980.0809 Z-20.0000 F5000
G1 X52.8989 Y985.0806 Z-20.0000 F5000
G1 X5.9010 Y985.0806 Z-20.0000 F5000
G1 X5.9010 Y961.4245 Z-20.0000 F5000
G1 X11.2435 Y956.0821 Z-20.0000 F5000
G1 X28.9009 Y956.0821 Z-20.0000 F5000
G1 X28.9009 Y954.0794 Z-20.0000 F5000
G1 X23.9009 Y954.0794 Z-20.0000 F5000
G1 X23.9009 Y695.9917 Z-20.0000 F5000
G1 X28.9009 Y695.9917 Z-20.0000 F5000
G1 X28.9009 Y693.9887 Z-20.0000 F5000
G1 X11.2436 Y693.9887 Z-20.0000 F5000
G1 X5.9010 Y688.6464 Z-20.0000 F5000
G1 X5.9010 Y631.3342 Z-20.0000 F5000
G1 X11.2435 Y625.9918 Z-20.0000 F5000
G1 X28.9009 Y625.9918 Z-20.0000 F5000
G1 X28.9009 Y623.9890 Z-20.0000 F5000
G1 X23.9009 Y623.9890 Z-20.0000 F5000
G1 X23.9009 Y365.9011 Z-20.0000 F5000
G1 X28.9009 Y365.9011 Z-20.0000 F5000
G1 X28.9009 Y363.8980 Z-20.0000 F5000
G1 X11.2437 Y363.8980 Z-20.0000 F5000
G1 X5.9010 Y358.5562 Z-20.0000 F5000
G1 X5.9010 Y334.9002 Z-20.0000 F5000
G1 X52.8989 Y334.9002 Z-20.0000 F5000
G1 X52.8989 Y339.9000 Z-20.0000 F5000
G1 X54.9009 Y339.9000 Z-20.0000 F5000
G1 X54.9009 Y319.8983 Z-20.0000 F5000
G1 X52.8989 Y319.8983 Z-20.0000 F5000
G1 X52.8989 Y324.8978 Z-20.0000 F5000
G1 X5.9010 Y324.8978 Z-20.0000 F5000
G1 X5.9010 Y301.2440 Z-20.0000 F5000
G1 X11.2434 Y295.9013 Z-20.0000 F5000
G1 X28.9009 Y295.9013 Z-20.0000 F5000
G1 X28.9009 Y293.8985 Z-20.0000 F5000
G1 X23.9009 Y293.8985 Z-20.0000 F5000
G1 X23.9009 Y175.9004 Z-20.0000 F5000
G1 X46.9009 Y175.9004 Z-20.0000 F5000
G1 X46.9009 Y173.8975 Z-20.0000 F5000
G1 X41.9009 Y173.8975 Z-20.0000 F5000
G1 X41.9009 Y65.9018 Z-20.0000 F5000
G1 X46.9009 Y65.9018 Z-20.0000 F5000
G1 X46.9009 Y63.8988 Z-20.0000 F5000
G1 X11.2436 Y63.8988 Z-20.0000 F5000
G1 X5.9010 Y58.5567 Z-20.0000 F5000
G1 X5.9010 Y25.9011 Z-20.0000 F5000
G1 X67.5396 Y25.9011 Z-20.0000 F5000
G1 X68.0886 Y25.8213 Z-20.0000 F5000
G1 X68.3480 Y25.7036 Z-20.0000 F5000
G1 X68.5657 Y25.5098 Z-20.0000 F5000
G1 X68.7125 Y25.2656 Z-20.0000 F5000
G1 X68.7811 Y24.9891 Z-20.0000 F5000
G1 X68.7640 Y24.6982 Z-20.0000 F5000
G1 X68.6635 Y24.4316 Z-20.0000 F5000
G1 X68.3326 Y23.9884 Z-20.0000 F5000
G1 X65.4038 Y21.0598 Z-20.0000 F5000
G1 X64.0175 Y19.2032 Z-20.0000 F5000
G1 X63.1000 Y16.6638 Z-20.0000 F5000
G1 X62.9764 Y13.9683 Z-20.0000 F5000
G1 X63.6183 Y11.4407 Z-20.0000 F5000
G1 X64.9515 Y9.1995 Z-20.0000 F5000
G1 X66.9454 Y7.3797 Z-20.0000 F5000
G1 X69.3902 Y6.2328 Z-20.0000 F5000
G1 X71.6831 Y5.9010 Z-20.0000 F5000
G1 X98.1165 Y5.9010 Z-20.0000 F5000
G1 X100.4095 Y6.2328 Z-20.0000 F5000
G1 X102.8542 Y7.3797 Z-20.0000 F5000
G1 X104.8482 Y9.1995 Z-20.0000 F5000
G1 X106.1814 Y11.4407 Z-20.0000 F5000
G1 X106.8233 Y13.9683 Z-20.0000 F5000
G1 X106.6997 Y16.6638 Z-20.0000 F5000
G1 X105.7822 Y19.2032 Z-20.0000 F5000
G1 X104.3959 Y21.0598 Z-20.0000 F5000
G1 X101.4670 Y23.9884 Z-20.0000 F5000
G1 X101.1361 Y24.4316 Z-20.0000 F5000
G1 X101.0356 Y24.6982 Z-20.0000 F5000
G1 X101.0186 Y24.9891 Z-20.0000 F5000
G1 X101.0872 Y25.2656 Z-20.0000 F5000
G1 X101.2340 Y25.5098 Z-20.0000 F5000
G1 X101.4516 Y25.7036 Z-20.0000 F5000
G1 X101.7110 Y25.8213 Z-20.0000 F5000
G1 X102.2600 Y25.9011 Z-20.0000 F5000
G1 X163.8986 Y25.9011 Z-20.0000 F5000
G1 X163.8986 Y58.5567 Z-20.0000 F5000
G1 X158.5560 Y63.8988 Z-20.0000 F5000
G1 X122.8988 Y63.8988 Z-20.0000 F5000
G1 X122.8988 Y65.9018 Z-20.0000 F5000
G1 X127.8987 Y65.9018 Z-20.0000 F5000
G1 X127.9012 Y173.8975 Z-20.0000 F5000
G1 X122.9011 Y173.8975 Z-20.0000 F5000
G1 X122.9011 Y175.9004 Z-20.0000 F5000
G1 X145.8987 Y175.9004 Z-20.0000 F5000
G1 X145.8987 Y293.8985 Z-20.0000 F5000
G1 X140.8987 Y293.8985 Z-20.0000 F5000
G1 X140.8987 Y295.9013 Z-20.0000 F5000
G1 X158.5562 Y295.9013 Z-20.0000 F5000
G1 X163.8986 Y301.2440 Z-20.0000 F5000
G1 X163.8986 Y324.8978 Z-20.0000 F5000
G1 X116.9008 Y324.8978 Z-20.0000 F5000
G1 X116.9008 Y319.8983 Z-20.0000 F5000
G1 X114.8988 Y319.8983 Z-20.0000 F5000
G1 X114.8988 Y339.9000 Z-20.0000 F5000
G1 X116.9008 Y339.9000 Z-20.0000 F5000
G1 X116.9008 Y334.9002 Z-20.0000 F5000
G1 X163.8986 Y334.9002 Z-20.0000 F5000
G1 X163.8986 Y358.5562 Z-20.0000 F5000
G1 X158.5559 Y363.8980 Z-20.0000 F5000
G1 X140.8987 Y363.8980 Z-20.0000 F5000
G1 X140.8987 Y365.9011 Z-20.0000 F5000
G1 X145.8987 Y365.9011 Z-20.0000 F5000
G1 X145.8987 Y623.9890 Z-20.0000 F5000
G1 X140.8987 Y623.9890 Z-20.0000 F5000
G1 X140.8987 Y625.9918 Z-20.0000 F5000
G1 X158.5561 Y625.9918 Z-20.0000 F5000
G1 X163.8986 Y631.3342 Z-20.0000 F5000
G1 X163.8986 Y688.6464 Z-20.0000 F5000
G1 X158.5561 Y693.9887 Z-20.0000 F5000
G1 X140.8987 Y693.9887 Z-20.0000 F5000
G1 X140.8987 Y695.9917 Z-20.0000 F5000
G1 X145.8987 Y695.9917 Z-20.0000 F5000
G1 X145.8987 Y954.0794 Z-20.0000 F5000
G1 X140.8987 Y954.0794 Z-20.0000 F5000
G1 X140.8987 Y956.0821 Z-20.0000 F5000
G1 X158.5561 Y956.0821 Z-20.0000 F5000
G1 X163.8986 Y961.4245 Z-20.0000 F5000
G1 X163.8986 Y985.0806 Z-20.0000 F5000
G1 X116.9008 Y985.0806 Z-20.0000 F5000
G1 X116.9008 Y980.0809 Z-20.0000 F5000
G1 X114.8988 Y980.0809 Z-20.0000 F5000
G1 X114.8988 Y1000.0825 Z-20.0000 F5000
G1 X116.9008 Y1000.0825 Z-20.0000 F5000
G1 X116.9008 Y995.0828 Z-20.0000 F5000
G1 X163.8986 Y995.0828 Z-20.0000 F5000
G1 X163.8986 Y1018.7366 Z-20.0000 F5000
G1 X158.5566 Y1024.0809 Z-20.0000 F5000
G1 X140.8987 Y1024.0809 Z-20.0000 F5000
G1 X140.8987 Y1026.0823 Z-20.0000 F5000
G1 X145.8987 Y1026.0823 Z-20.0000 F5000
G1 X145.8987 Y1144.0803 Z-20.0000 F5000
G1 X122.9011 Y1144.0803 Z-20.0000 F5000
G1 X122.9011 Y1146.0831 Z-20.0000 F5000
G1 X127.9012 Y1146.0831 Z-20.0000 F5000
G1 X127.8987 Y1254.0789 Z-20.0000 F5000
G1 X122.8988 Y1254.0789 Z-20.0000 F5000
G1 X122.8988 Y1256.0818 Z-20.0000 F5000
G1 X158.5561 Y1256.0818 Z-20.0000 F5000
G1 X163.8986 Y1261.4242 Z-20.0000 F5000
G1 X163.8986 Y1318.7367 Z-20.0000 F5000
G1 X158.5560 Y1324.0786 Z-20.0000 F5000
G1 X122.8988 Y1324.0786 Z-20.0000 F5000
G1 X122.8988 Y1326.0816 Z-20.0000 F5000
G1 X127.8988 Y1326.0816 Z-20.0000 F5000
G1 X127.8988 Y1554.0786 Z-20.0000 F5000
G1 X122.8988 Y1554.0786 Z-20.0000 F5000
G1 X122.8988 Y1556.0812 Z-20.0000 F5000
G1 X158.5561 Y1556.0812 Z-20.0000 F5000
G1 X163.8986 Y1561.4238 Z-20.0000 F5000
G1 X163.8986 Y1618.7362 Z-20.0000 F5000
G1 X158.5561 Y1624.0784 Z-20.0000 F5000
G1 X122.8988 Y1624.0784 Z-20.0000 F5000
G1 X122.8988 Y1626.0813 Z-20.0000 F5000
G1 X127.8988 Y1626.0813 Z-20.0000 F5000
G1 X127.8988 Y1779.6390 Z-20.0000 F5000
G1 X127.8988 Y1779.6390 Z10.0000 F9999
G1 X471.9964 Y1779.6390 Z10.0000 F9999
G1 X471.9964 Y1779.6390 Z1.0000 F2500
G1 X471.9964 Y1818.6102 Z-9.5000 F2500
G1 X471.9964 Y1779.6390 Z-20.0000 F2500
G1 X471.9964 Y1933.1967 Z-20.0000 F5000
G1 X385.9985 Y1933.1967 Z-20.0000 F5000
G1 X385.9985 Y1626.0813 Z-20.0000 F5000
G1 X390.9985 Y1626.0813 Z-20.0000 F5000
G1 X390.9985 Y1624.0784 Z-20.0000 F5000
G1 X355.3412 Y1624.0784 Z-20.0000 F5000
G1 X349.9986 Y1618.7362 Z-20.0000 F5000
G1 X349.9986 Y1561.4238 Z-20.0000 F5000
G1 X355.3411 Y1556.0812 Z-20.0000 F5000
G1 X390.9985 Y1556.0812 Z-20.0000 F5000
G1 X390.9985 Y1554.0786 Z-20.0000 F5000
G1 X385.9985 Y1554.0786 Z-20.0000 F5000
G1 X385.9985 Y1326.0816 Z-20.0000 F5000
G1 X390.9985 Y1326.0816 Z-20.0000 F5000
G1 X390.9985 Y1324.0786 Z-20.0000 F5000
G1 X355.3413 Y1324.0786 Z-20.0000 F5000
G1 X349.9986 Y1318.7367 Z-20.0000 F5000
G1 X349.9986 Y1261.4242 Z-20.0000 F5000
G1 X355.3412 Y1256.0818 Z-20.0000 F5000
G1 X390.9985 Y1256.0818 Z-20.0000 F5000
G1 X390.9985 Y1254.0789 Z-20.0000 F5000
G1 X385.9985 Y1254.0789 Z-20.0000 F5000
G1 X385.9985 Y1146.0831 Z-20.0000 F5000
G1 X390.9985 Y1146.0831 Z-20.0000 F5000
G1 X390.9985 Y1144.0803 Z-20.0000 F5000
G1 X367.9986 Y1144.0803 Z-20.0000 F5000
G1 X367.9986 Y1026.0823 Z-20.0000 F5000
G1 X372.9986 Y1026.0823 Z-20.0000 F5000
G1 X372.9986 Y1024.0809 Z-20.0000 F5000
G1 X355.3406 Y1024.0809 Z-20.0000 F5000
G1 X349.9986 Y1018.7366 Z-20.0000 F5000
G1 X349.9986 Y995.0828 Z-20.0000 F5000
G1 X396.9965 Y995.0828 Z-20.0000 F5000
G1 X396.9965 Y1000.0825 Z-20.0000 F5000
G1 X398.9985 Y1000.0825 Z-20.0000 F5000
G1 X398.9985 Y980.0809 Z-20.0000 F5000
G1 X396.9965 Y980.0809 Z-20.0000 F5000
G1 X396.9965 Y985.0806 Z-20.0000 F5000
G1 X349.9986 Y985.0806 Z-20.0000 F5000
G1 X349.9986 Y961.4245 Z-20.0000 F5000
G1 X355.3412 Y956.0821 Z-20.0000 F5000
G1 X372.9986 Y956.0821 Z-20.0000 F5000
G1 X372.9986 Y954.0794 Z-20.0000 F5000
G1 X367.9986 Y954.0794 Z-20.0000 F5000
G1 X367.9986 Y695.9917 Z-20.0000 F5000
G1 X372.9986 Y695.9917 Z-20.0000 F5000
G1 X372.9986 Y693.9887 Z-20.0000 F5000
G1 X355.3412 Y693.9887 Z-20.0000 F5000
G1 X349.9986 Y688.6464 Z-20.0000 F5000
G1 X349.9986 Y631.3342 Z-20.0000 F5000
G1 X355.3412 Y625.9918 Z-20.0000 F5000
G1 X372.9986 Y625.9918 Z-20.0000 F5000
G1 X372.9986 Y623.9890 Z-20.0000 F5000
G1 X367.9986 Y623.9890 Z-20.0000 F5000
G1 X367.9986 Y365.9011 Z-20.0000 F5000
G1 X372.9986 Y365.9011 Z-20.0000 F5000
G1 X372.9986 Y363.8980 Z-20.0000 F5000
G1 X355.3414 Y363.8980 Z-20.0000 F5000
G1 X349.9986 Y358.5562 Z-20.0000 F5000
G1 X349.9986 Y334.9002 Z-20.0000 F5000
G1 X396.9965 Y334.9002 Z-20.0000 F5000
G1 X396.9965 Y339.9000 Z-20.0000 F5000
G1 X398.9985 Y339.9000 Z-20.0000 F5000
G1 X398.9985 Y319.8983 Z-20.0000 F5000
G1 X396.9965 Y319.8983 Z-20.0000 F5000
G1 X396.9965 Y324.8978 Z-20.0000 F5000
G1 X349.9986 Y324.8978 Z-20.0000 F5000
G1 X349.9986 Y301.2440 Z-20.0000 F5000
G1 X355.3411 Y295.9013 Z-20.0000 F5000
G1 X372.9986 Y295.9013 Z-20.0000 F5000
G1 X372.9986 Y293.8985 Z-20.0000 F5000
G1 X367.9986 Y293.8985 Z-20.0000 F5000
G1 X367.9986 Y175.9004 Z-20.0000 F5000
G1 X390.9985 Y175.9004 Z-20.0000 F5000
G1 X390.9985 Y173.8975 Z-20.0000 F5000
G1 X385.9985 Y173.8975 Z-20.0000 F5000
G1 X385.9985 Y65.9018 Z-20.0000 F5000
G1 X390.9985 Y65.9018 Z-20.0000 F5000
G1 X390.9985 Y63.8988 Z-20.0000 F5000
G1 X355.3412 Y63.8988 Z-20.0000 F5000
G1 X349.9986 Y58.5567 Z-20.0000 F5000
G1 X349.9986 Y25.9011 Z-20.0000 F5000
G1 X411.6372 Y25.9011 Z-20.0000 F5000
G1 X412.1862 Y25.8213 Z-20.0000 F5000
G1 X412.4457 Y25.7036 Z-20.0000 F5000
G1 X412.6633 Y25.5098 Z-20.0000 F5000
G1 X412.8101 Y25.2656 Z-20.0000 F5000
G1 X412.8787 Y24.9891 Z-20.0000 F5000
G1 X412.8616 Y24.6982 Z-20.0000 F5000
G1 X412.7612 Y24.4316 Z-20.0000 F5000
G1 X412.4303 Y23.9884 Z-20.0000 F5000
G1 X409.5014 Y21.0598 Z-20.0000 F5000
G1 X408.1151 Y19.2032 Z-20.0000 F5000
G1 X407.1976 Y16.6638 Z-20.0000 F5000
G1 X407.0740 Y13.9683 Z-20.0000 F5000
G1 X407.7159 Y11.4407 Z-20.0000 F5000
G1 X409.0491 Y9.1995 Z-20.0000 F5000
G1 X411.0430 Y7.3797 Z-20.0000 F5000
G1 X413.4878 Y6.2328 Z-20.0000 F5000
G1 X415.7808 Y5.9010 Z-20.0000 F5000
G1 X442.2141 Y5.9010 Z-20.0000 F5000
G1 X444.5071 Y6.2328 Z-20.0000 F5000
G1 X446.9519 Y7.3797 Z-20.0000 F5000
G1 X448.9458 Y9.1995 Z-20.0000 F5000
G1 X450.2790 Y11.4407 Z-20.0000 F5000
G1 X450.9209 Y13.9683 Z-20.0000 F5000
G1 X450.7973 Y16.6638 Z-20.0000 F5000
G1 X449.8798 Y19.2032 Z-20.0000 F5000
G1 X448.4935 Y21.0598 Z-20.0000 F5000
G1 X445.5647 Y23.9884 Z-20.0000 F5000
G1 X445.2337 Y24.4316 Z-20.0000 F5000
G1 X445.1333 Y24.6982 Z-20.0000 F5000
G1 X445.1162 Y24.9891 Z-20.0000 F5000
G1 X445.1848 Y25.2656 Z-20.0000 F5000
G1 X445.3316 Y25.5098 Z-20.0000 F5000
G1 X445.5492 Y25.7036 Z-20.0000 F5000
G1 X445.8087 Y25.8213 Z-20.0000 F5000
G1 X446.3577 Y25.9011 Z-20.0000 F5000
G1 X507.9963 Y25.9011 Z-20.0000 F5000
G1 X507.9963 Y58.5567 Z-20.0000 F5000
G1 X502.6537 Y63.8988 Z-20.0000 F5000
G1 X466.9964 Y63.8988 Z-20.0000 F5000
G1 X466.9964 Y65.9018 Z-20.0000 F5000
G1 X471.9963 Y65.9018 Z-20.0000 F5000
G1 X471.9988 Y173.8975 Z-20.0000 F5000
G1 X466.9987 Y173.8975 Z-20.0000 F5000
G1 X466.9987 Y175.9004 Z-20.0000 F5000
G1 X489.9963 Y175.9004 Z-20.0000 F5000
G1 X489.9963 Y293.8985 Z-20.0000 F5000
G1 X484.9963 Y293.8985 Z-20.0000 F5000
G1 X484.9963 Y295.9013 Z-20.0000 F5000
G1 X502.6538 Y295.9013 Z-20.0000 F5000
G1 X507.9963 Y301.2440 Z-20.0000 F5000
G1 X507.9963 Y324.8978 Z-20.0000 F5000
G1 X460.9984 Y324.8978 Z-20.0000 F5000
G1 X460.9984 Y319.8983 Z-20.0000 F5000
G1 X458.9964 Y319.8983 Z-20.0000 F5000
G1 X458.9964 Y339.9000 Z-20.0000 F5000
G1 X460.9984 Y339.9000 Z-20.0000 F5000
G1 X460.9984 Y334.9002 Z-20.0000 F5000
G1 X507.9963 Y334.9002 Z-20.0000 F5000
G1 X507.9963 Y358.5562 Z-20.0000 F5000
G1 X502.6536 Y363.8980 Z-20.0000 F5000
G1 X484.9963 Y363.8980 Z-20.0000 F5000
G1 X484.9963 Y365.9011 Z-20.0000 F5000
G1 X489.9963 Y365.9011 Z-20.0000 F5000
G1 X489.9963 Y623.9890 Z-20.0000 F5000
G1 X484.9963 Y623.9890 Z-20.0000 F5000
G1 X484.9963 Y625.9918 Z-20.0000 F5000
G1 X502.6537 Y625.9918 Z-20.0000 F5000
G1 X507.9963 Y631.3342 Z-20.0000 F5000
G1 X507.9963 Y688.6464 Z-20.0000 F5000
G1 X502.6537 Y693.9887 Z-20.0000 F5000
G1 X484.9963 Y693.9887 Z-20.0000 F5000
G1 X484.9963 Y695.9917 Z-20.0000 F5000
G1 X489.9963 Y695.9917 Z-20.0000 F5000
G1 X489.9963 Y954.0794 Z-20.0000 F5000
G1 X484.9963 Y954.0794 Z-20.0000 F5000
G1 X484.9963 Y956.0821 Z-20.0000 F5000
G1 X502.6537 Y956.0821 Z-20.0000 F5000
G1 X507.9963 Y961.4245 Z-20.0000 F5000
G1 X507.9963 Y985.0806 Z-20.0000 F5000
G1 X460.9984 Y985.0806 Z-20.0000 F5000
G1 X460.9984 Y980.0809 Z-20.0000 F5000
G1 X458.9964 Y980.0809 Z-20.0000 F5000
G1 X458.9964 Y1000.0825 Z-20.0000 F5000
G1 X460.9984 Y1000.0825 Z-20.0000 F5000
G1 X460.9984 Y995.0828 Z-20.0000 F5000
G1 X507.9963 Y995.0828 Z-20.0000 F5000
G1 X507.9963 Y1018.7366 Z-20.0000 F5000
G1 X502.6543 Y1024.0809 Z-20.0000 F5000
G1 X484.9963 Y1024.0809 Z-20.0000 F5000
G1 X484.9963 Y1026.0823 Z-20.0000 F5000
G1 X489.9963 Y1026.0823 Z-20.0000 F5000
G1 X489.9963 Y1144.0803 Z-20.0000 F5000
G1 X466.9987 Y1144.0803 Z-20.0000 F5000
G1 X466.9987 Y1146.0831 Z-20.0000 F5000
G1 X471.9988 Y1146.0831 Z-20.0000 F5000
G1 X471.9963 Y1254.0789 Z-20.0000 F5000
G1 X466.9964 Y1254.0789 Z-20.0000 F5000
G1 X466.9964 Y1256.0818 Z-20.0000 F5000
G1 X502.6537 Y1256.0818 Z-20.0000 F5000
G1 X507.9963 Y1261.4242 Z-20.0000 F5000
G1 X507.9963 Y1318.7367 Z-20.0000 F5000
G1 X502.6536 Y1324.0786 Z-20.0000 F5000
G1 X466.9964 Y1324.0786 Z-20.0000 F5000
G1 X466.9964 Y1326.0816 Z-20.0000 F5000
G1 X471.9964 Y1326.0816 Z-20.0000 F5000
G1 X471.9964 Y1554.0786 Z-20.0000 F5000
G1 X466.9964 Y1554.0786 Z-20.0000 F5000
G1 X466.9964 Y1556.0812 Z-20.0000 F5000
G1 X502.6538 Y1556.0812 Z-20.0000 F5000
G1 X507.9963 Y1561.4238 Z-20.0000 F5000
G1 X507.9963 Y1618.7362 Z-20.0000 F5000
G1 X502.6537 Y1624.0784 Z-20.0000 F5000
G1 X466.9964 Y1624.0784 Z-20.0000 F5000
G1 X466.9964 Y1626.0813 Z-20.0000 F5000
G1 X471.9964 Y1626.0813 Z-20.0000 F5000
G1 X471.9964 Y1779.6390 Z-20.0000 F5000
G1 X471.9964 Y1779.6390 Z10.0000 F9999
G1 X816.0940 Y1755.6464 Z10.0000 F9999
G1 X816.0940 Y1755.6464 Z1.0000 F2500
G1 X816.0940 Y1794.6176 Z-9.5000 F2500
G1 X816.0940 Y1755.6464 Z-20.0000 F2500
