(plotsheet 2n3_nested_153 sheets_final v1_0_sheet 145a_S145.0_15 screws_CC8 - stepover 1mm)
(Material Size) (X=1220.000, Y=2440.000, Z=20.000)
(LinuxCNC_NoArcs_MM_TC_medium_50um_G1_verbose.con)
G90 G80 G21 G49
G64 P0.050
M6 T1
(Tool Number:1) (7.998 mm dia. slot drill)
G43 H1 G0Z80.0000
M3 S9000
G04 P10
G1 X84.1552 Y100.6145 Z10.0000 F9999
G1 X84.1552 Y100.6145 Z2.0000 F9999
G1 X84.1552 Y100.6145 Z-1.0000 F2500
G1 X84.1552 Y100.6145 Z10.0000 F9999
G1 X426.8667 Y100.6145 Z10.0000 F9999
G1 X426.8667 Y100.6145 Z2.0000 F9999
G1 X426.8667 Y100.6145 Z-1.0000 F2500
G1 X426.8667 Y100.6145 Z10.0000 F9999
G1 X770.7357 Y100.6145 Z10.0000 F9999
G1 X770.7357 Y100.6145 Z2.0000 F9999
G1 X770.7357 Y100.6145 Z-1.0000 F2500
G1 X770.7357 Y100.6145 Z10.0000 F9999
G1 X1115.8674 Y100.6145 Z10.0000 F9999
G1 X1115.8674 Y100.6145 Z2.0000 F9999
G1 X1115.8674 Y100.6145 Z-1.0000 F2500
G1 X1115.8674 Y100.6145 Z10.0000 F9999
G1 X1117.0610 Y863.4073 Z10.0000 F9999
G1 X1117.0610 Y863.4073 Z2.0000 F9999
G1 X1117.0610 Y863.4073 Z-1.0000 F2500
G1 X1117.0610 Y863.4073 Z10.0000 F9999
G1 X942.2595 Y863.4073 Z10.0000 F9999
G1 X942.2595 Y863.4073 Z2.0000 F9999
G1 X942.2595 Y863.4073 Z-1.0000 F2500
G1 X942.2595 Y863.4073 Z10.0000 F9999
G1 X772.2628 Y863.4073 Z10.0000 F9999
G1 X772.2628 Y863.4073 Z2.0000 F9999
G1 X772.2628 Y863.4073 Z-1.0000 F2500
G1 X772.2628 Y863.4073 Z10.0000 F9999
G1 X600.0879 Y863.4073 Z10.0000 F9999
G1 X600.0879 Y863.4073 Z2.0000 F9999
G1 X600.0879 Y863.4073 Z-1.0000 F2500
G1 X600.0879 Y863.4073 Z10.0000 F9999
G1 X424.7436 Y863.4073 Z10.0000 F9999
G1 X424.7436 Y863.4073 Z2.0000 F9999
G1 X424.7436 Y863.4073 Z-1.0000 F2500
G1 X424.7436 Y863.4073 Z10.0000 F9999
G1 X255.6346 Y863.4073 Z10.0000 F9999
G1 X255.6346 Y863.4073 Z2.0000 F9999
G1 X255.6346 Y863.4073 Z-1.0000 F2500
G1 X255.6346 Y863.4073 Z10.0000 F9999
G1 X83.0745 Y863.4073 Z10.0000 F9999
G1 X83.0745 Y863.4073 Z2.0000 F9999
G1 X83.0745 Y863.4073 Z-1.0000 F2500
G1 X83.0745 Y863.4073 Z10.0000 F9999
G1 X81.6536 Y1831.3778 Z10.0000 F9999
G1 X81.6536 Y1831.3778 Z2.0000 F9999
G1 X81.6536 Y1831.3778 Z-1.0000 F2500
G1 X81.6536 Y1831.3778 Z10.0000 F9999
G1 X432.6095 Y1831.3778 Z10.0000 F9999
G1 X432.6095 Y1831.3778 Z2.0000 F9999
G1 X432.6095 Y1831.3778 Z-1.0000 F2500
G1 X432.6095 Y1831.3778 Z10.0000 F9999
G1 X775.0562 Y1831.3778 Z10.0000 F9999
G1 X775.0562 Y1831.3778 Z2.0000 F9999
G1 X775.0562 Y1831.3778 Z-1.0000 F2500
G1 X775.0562 Y1831.3778 Z10.0000 F9999
G1 X1116.9214 Y1831.3778 Z10.0000 F9999
G1 X1116.9214 Y1831.3778 Z2.0000 F9999
G1 X1116.9214 Y1831.3778 Z-1.0000 F2500
G1 X1116.9214 Y1831.3778 Z10.0000 F9999
G1 X1900.0000 Y2800.0000 Z80.0000 F9999
G1 Z80.0000 F9999
G1 X1900.0000 Y2800.0000 F9999
M5
M30
