(plotsheet 2n3_nested_153 sheets_final v1_0_sheet 132a_S132.1_text_CC8 - stepover 1mm)
(Material Size) (X=1220.000, Y=2440.000, Z=21.000)
(LinuxCNC_NoArcs_MM_TC_medium_50um_G1_verbose.con)
G90 G80 G21 G49
G64 P0.050
M6 T1
(Tool Number:1) (7.998 mm dia. slot drill)
G43 H1 G0Z80.0000
M3 S18000
G04 P10
G1 X665.1243 Y547.1282 Z10.0000 F9999
G1 X665.1243 Y547.1282 Z-1.0000 F2500
G1 X662.4454 Y546.3759 Z-1.0000 F4000
G1 X659.8766 Y544.6511 Z-1.0000 F4000
G1 X657.9317 Y541.6970 Z-1.0000 F4000
G1 X657.1794 Y537.1466 Z-1.0000 F4000
G1 X659.8032 Y528.6328 Z-1.0000 F4000
G1 X667.7849 Y525.5319 Z-1.0000 F4000
G1 X672.5188 Y526.4126 Z-1.0000 F4000
G1 X675.8766 Y528.7245 Z-1.0000 F4000
G1 X677.8766 Y531.9355 Z-1.0000 F4000
G1 X678.5555 Y535.5135 Z-1.0000 F4000
G1 X679.2895 Y532.0456 Z-1.0000 F4000
G1 X681.5097 Y529.0915 Z-1.0000 F4000
G1 X684.8858 Y526.9998 Z-1.0000 F4000
G1 X689.0876 Y526.2108 Z-1.0000 F4000
G1 X690.6656 Y526.2475 Z-1.0000 F4000
G1 X692.6473 Y526.5227 Z-1.0000 F4000
G1 X694.6656 Y527.3117 Z-1.0000 F4000
G1 X696.5005 Y528.8346 Z-1.0000 F4000
G1 X697.8032 Y531.3851 Z-1.0000 F4000
G1 X698.2803 Y535.1282 Z-1.0000 F4000
G1 X697.4546 Y540.5044 Z-1.0000 F4000
G1 X695.4363 Y543.6053 Z-1.0000 F4000
G1 X692.7757 Y545.1282 Z-1.0000 F4000
G1 X690.0418 Y545.7154 Z-1.0000 F4000
G1 X692.7757 Y545.1282 Z-1.0000 F4000
G1 X695.4363 Y543.6053 Z-1.0000 F4000
G1 X697.4546 Y540.5044 Z-1.0000 F4000
G1 X698.2803 Y535.1282 Z-1.0000 F4000
G1 X697.8032 Y531.3851 Z-1.0000 F4000
G1 X696.5005 Y528.8346 Z-1.0000 F4000
G1 X694.6656 Y527.3117 Z-1.0000 F4000
G1 X692.6473 Y526.5227 Z-1.0000 F4000
G1 X690.7023 Y526.2475 Z-1.0000 F4000
G1 X689.0876 Y526.2108 Z-1.0000 F4000
G1 X684.8858 Y526.9998 Z-1.0000 F4000
G1 X681.5097 Y529.0915 Z-1.0000 F4000
G1 X679.2895 Y532.0456 Z-1.0000 F4000
G1 X678.5555 Y535.5135 Z-1.0000 F4000
G1 X677.8766 Y531.9355 Z-1.0000 F4000
G1 X675.8766 Y528.7245 Z-1.0000 F4000
G1 X672.5188 Y526.4126 Z-1.0000 F4000
G1 X667.7849 Y525.5319 Z-1.0000 F4000
G1 X659.8032 Y528.6328 Z-1.0000 F4000
G1 X657.1794 Y537.1466 Z-1.0000 F4000
G1 X657.9317 Y541.6970 Z-1.0000 F4000
G1 X659.8766 Y544.6511 Z-1.0000 F4000
G1 X662.4454 Y546.3759 Z-1.0000 F4000
G1 X662.4454 Y546.3759 Z10.0000 F9999
G1 X657.1794 Y557.8071 Z10.0000 F9999
G1 X657.1794 Y557.8071 Z-1.0000 F2500
G1 X677.3262 Y571.0365 Z-1.0000 F4000
G1 X657.1794 Y557.8071 Z-1.0000 F4000
G1 X657.1794 Y557.8071 Z10.0000 F9999
G1 X657.1794 Y575.2199 Z10.0000 F9999
G1 X657.1794 Y575.2199 Z-1.0000 F2500
G1 X698.2803 Y575.2199 Z-1.0000 F4000
G1 X698.2803 Y568.0640 Z-1.0000 F4000
G1 X697.6748 Y564.1924 Z-1.0000 F4000
G1 X695.8583 Y560.9814 Z-1.0000 F4000
G1 X692.7023 Y558.7612 Z-1.0000 F4000
G1 X688.0601 Y557.9172 Z-1.0000 F4000
G1 X683.3812 Y559.0732 Z-1.0000 F4000
G1 X680.0601 Y561.8438 Z-1.0000 F4000
G1 X678.0968 Y565.1649 Z-1.0000 F4000
G1 X677.4363 Y568.0640 Z-1.0000 F4000
G1 X677.4363 Y575.2199 Z-1.0000 F4000
G1 X677.4363 Y568.0640 Z-1.0000 F4000
G1 X678.0968 Y565.1649 Z-1.0000 F4000
G1 X680.0601 Y561.8438 Z-1.0000 F4000
G1 X683.3812 Y559.0732 Z-1.0000 F4000
G1 X688.0601 Y557.9172 Z-1.0000 F4000
G1 X692.7023 Y558.7612 Z-1.0000 F4000
G1 X695.8583 Y560.9814 Z-1.0000 F4000
G1 X697.6748 Y564.1924 Z-1.0000 F4000
G1 X698.2803 Y568.0640 Z-1.0000 F4000
G1 X698.2803 Y575.2199 Z-1.0000 F4000
G1 X698.2803 Y575.2199 Z10.0000 F9999
G1 X707.6748 Y590.7245 Z10.0000 F9999
G1 X707.6748 Y590.7245 Z-1.0000 F2500
G1 X654.8308 Y621.1099 Z-1.0000 F4000
G1 X707.6748 Y590.7245 Z-1.0000 F4000
G1 X707.6748 Y590.7245 Z10.0000 F9999
G1 X698.2803 Y648.5411 Z10.0000 F9999
G1 X698.2803 Y648.5411 Z-1.0000 F2500
G1 X657.1794 Y632.4860 Z-1.0000 F4000
G1 X698.2803 Y648.5411 Z-1.0000 F4000
G1 X657.1794 Y664.5594 Z-1.0000 F4000
G1 X657.1794 Y664.5594 Z10.0000 F9999
G1 X681.8399 Y675.2383 Z10.0000 F9999
G1 X681.8399 Y675.2383 Z-1.0000 F2500
G1 X681.8399 Y704.4860 Z-1.0000 F4000
G1 X681.8399 Y675.2383 Z-1.0000 F4000
G1 X681.8399 Y675.2383 Z10.0000 F9999
G1 X671.8766 Y638.2291 Z10.0000 F9999
G1 X671.8766 Y638.2291 Z-1.0000 F2500
G1 X671.8766 Y658.9264 Z-1.0000 F4000
G1 X671.8766 Y638.2291 Z-1.0000 F4000
G1 X671.8766 Y638.2291 Z10.0000 F9999
G1 X671.8766 Y721.6053 Z10.0000 F9999
G1 X671.8766 Y721.6053 Z-1.0000 F2500
G1 X671.8766 Y742.3025 Z-1.0000 F4000
G1 X671.8766 Y721.6053 Z-1.0000 F4000
G1 X671.8766 Y721.6053 Z10.0000 F9999
G1 X698.2803 Y731.9172 Z10.0000 F9999
G1 X698.2803 Y731.9172 Z-1.0000 F2500
G1 X657.1794 Y715.8622 Z-1.0000 F4000
G1 X698.2803 Y731.9172 Z-1.0000 F4000
G1 X657.1794 Y747.9355 Z-1.0000 F4000
G1 X657.1794 Y747.9355 Z10.0000 F9999
G1 X657.1794 Y758.6144 Z10.0000 F9999
G1 X657.1794 Y758.6144 Z-1.0000 F2500
G1 X677.3262 Y771.8438 Z-1.0000 F4000
G1 X657.1794 Y758.6144 Z-1.0000 F4000
G1 X657.1794 Y758.6144 Z10.0000 F9999
G1 X657.1794 Y776.0273 Z10.0000 F9999
G1 X657.1794 Y776.0273 Z-1.0000 F2500
G1 X698.2803 Y776.0273 Z-1.0000 F4000
G1 X698.2803 Y768.8713 Z-1.0000 F4000
G1 X697.6748 Y764.9998 Z-1.0000 F4000
G1 X695.8583 Y761.7888 Z-1.0000 F4000
G1 X692.7023 Y759.5686 Z-1.0000 F4000
G1 X688.0601 Y758.7245 Z-1.0000 F4000
G1 X683.3812 Y759.8805 Z-1.0000 F4000
G1 X680.0601 Y762.6511 Z-1.0000 F4000
G1 X678.0968 Y765.9722 Z-1.0000 F4000
G1 X677.4363 Y768.8713 Z-1.0000 F4000
G1 X677.4363 Y776.0273 Z-1.0000 F4000
G1 X677.4363 Y768.8713 Z-1.0000 F4000
G1 X678.0968 Y765.9722 Z-1.0000 F4000
G1 X680.0601 Y762.6511 Z-1.0000 F4000
G1 X683.3812 Y759.8805 Z-1.0000 F4000
G1 X688.0601 Y758.7245 Z-1.0000 F4000
G1 X692.7023 Y759.5686 Z-1.0000 F4000
G1 X695.8583 Y761.7888 Z-1.0000 F4000
G1 X697.6748 Y764.9998 Z-1.0000 F4000
G1 X698.2803 Y768.8713 Z-1.0000 F4000
G1 X698.2803 Y776.0273 Z-1.0000 F4000
G1 X698.2803 Y776.0273 Z10.0000 F9999
G1 X679.9867 Y806.5594 Z10.0000 F9999
G1 X679.9867 Y806.5594 Z-1.0000 F2500
G1 X679.9867 Y792.1190 Z-1.0000 F4000
G1 X679.9867 Y806.5594 Z-1.0000 F4000
G1 X698.2803 Y806.5594 Z-1.0000 F4000
G1 X698.2803 Y791.4401 Z-1.0000 F4000
G1 X698.2803 Y806.5594 Z-1.0000 F4000
G1 X657.1794 Y806.5594 Z-1.0000 F4000
G1 X657.1794 Y806.5594 Z10.0000 F9999
G1 X953.2257 Y722.5135 Z10.0000 F9999
G1 X953.2257 Y722.5135 Z-1.0000 F2500
G1 X1006.0697 Y692.1282 Z-1.0000 F4000
G1 X953.2257 Y722.5135 Z-1.0000 F4000
G1 X953.2257 Y722.5135 Z10.0000 F9999
G1 X980.9138 Y738.0181 Z10.0000 F9999
G1 X980.9138 Y738.0181 Z-1.0000 F2500
G1 X980.9138 Y752.4585 Z-1.0000 F4000
G1 X980.9138 Y738.0181 Z-1.0000 F4000
G1 X962.6202 Y738.0181 Z-1.0000 F4000
G1 X962.6202 Y753.1374 Z-1.0000 F4000
G1 X962.6202 Y738.0181 Z-1.0000 F4000
G1 X1003.7211 Y738.0181 Z-1.0000 F4000
G1 X1003.7211 Y738.0181 Z10.0000 F9999
G1 X1003.7211 Y681.4493 Z10.0000 F9999
G1 X1003.7211 Y681.4493 Z-1.0000 F2500
G1 X983.5743 Y668.2199 Z-1.0000 F4000
G1 X1003.7211 Y681.4493 Z-1.0000 F4000
G1 X1003.7211 Y681.4493 Z10.0000 F9999
G1 X1003.7211 Y664.0365 Z10.0000 F9999
G1 X1003.7211 Y664.0365 Z-1.0000 F2500
G1 X962.6202 Y664.0365 Z-1.0000 F4000
G1 X962.6202 Y671.1924 Z-1.0000 F4000
G1 X963.2257 Y675.0640 Z-1.0000 F4000
G1 X965.0422 Y678.2750 Z-1.0000 F4000
G1 X968.1982 Y680.4952 Z-1.0000 F4000
G1 X972.8404 Y681.3392 Z-1.0000 F4000
G1 X977.5193 Y680.1832 Z-1.0000 F4000
G1 X980.8404 Y677.4126 Z-1.0000 F4000
G1 X982.8037 Y674.0915 Z-1.0000 F4000
G1 X983.4642 Y671.1924 Z-1.0000 F4000
G1 X983.4642 Y664.0365 Z-1.0000 F4000
G1 X983.4642 Y671.1924 Z-1.0000 F4000
G1 X982.8037 Y674.0915 Z-1.0000 F4000
G1 X980.8404 Y677.4126 Z-1.0000 F4000
G1 X977.5193 Y680.1832 Z-1.0000 F4000
G1 X972.8404 Y681.3392 Z-1.0000 F4000
G1 X968.1982 Y680.4952 Z-1.0000 F4000
G1 X965.0422 Y678.2750 Z-1.0000 F4000
G1 X963.2257 Y675.0640 Z-1.0000 F4000
G1 X962.6202 Y671.1924 Z-1.0000 F4000
G1 X962.6202 Y664.0365 Z-1.0000 F4000
G1 X962.6202 Y664.0365 Z10.0000 F9999
G1 X1003.7211 Y631.1557 Z10.0000 F9999
G1 X1003.7211 Y631.1557 Z-1.0000 F2500
G1 X980.9138 Y631.1557 Z-1.0000 F4000
G1 X980.9138 Y647.6144 Z-1.0000 F4000
G1 X980.9138 Y631.1557 Z-1.0000 F4000
G1 X962.6202 Y631.1557 Z-1.0000 F4000
G1 X962.6202 Y648.9172 Z-1.0000 F4000
G1 X962.6202 Y631.1557 Z-1.0000 F4000
G1 X1003.7211 Y631.1557 Z-1.0000 F4000
G1 X1003.7211 Y648.9172 Z-1.0000 F4000
G1 X1003.7211 Y648.9172 Z10.0000 F9999
G1 X998.0330 Y615.3025 Z10.0000 F9999
G1 X998.0330 Y615.3025 Z-1.0000 F2500
G1 X1002.1982 Y608.6787 Z-1.0000 F4000
G1 X1003.7211 Y600.6970 Z-1.0000 F4000
G1 X1002.0881 Y592.4218 Z-1.0000 F4000
G1 X997.6661 Y585.6511 Z-1.0000 F4000
G1 X991.1340 Y581.0823 Z-1.0000 F4000
G1 X983.1340 Y579.3943 Z-1.0000 F4000
G1 X975.1890 Y581.0823 Z-1.0000 F4000
G1 X968.6752 Y585.6511 Z-1.0000 F4000
G1 X964.2532 Y592.4218 Z-1.0000 F4000
G1 X962.6202 Y600.6970 Z-1.0000 F4000
G1 X964.0330 Y608.4768 Z-1.0000 F4000
G1 X967.9780 Y615.0273 Z-1.0000 F4000
G1 X964.0330 Y608.4768 Z-1.0000 F4000
G1 X962.6202 Y600.6970 Z-1.0000 F4000
G1 X964.2532 Y592.4218 Z-1.0000 F4000
G1 X968.6752 Y585.6511 Z-1.0000 F4000
G1 X975.1890 Y581.0823 Z-1.0000 F4000
G1 X983.1340 Y579.3943 Z-1.0000 F4000
G1 X991.1340 Y581.0823 Z-1.0000 F4000
G1 X997.6661 Y585.6511 Z-1.0000 F4000
G1 X1002.0881 Y592.4218 Z-1.0000 F4000
G1 X1003.7211 Y600.6970 Z-1.0000 F4000
G1 X1002.1982 Y608.6787 Z-1.0000 F4000
G1 X1002.1982 Y608.6787 Z10.0000 F9999
G1 X989.0239 Y562.2750 Z10.0000 F9999
G1 X989.0239 Y562.2750 Z-1.0000 F2500
G1 X989.0239 Y541.5777 Z-1.0000 F4000
G1 X989.0239 Y562.2750 Z-1.0000 F4000
G1 X989.0239 Y562.2750 Z10.0000 F9999
G1 X962.6202 Y551.9631 Z10.0000 F9999
G1 X962.6202 Y551.9631 Z-1.0000 F2500
G1 X1003.7211 Y568.0181 Z-1.0000 F4000
G1 X962.6202 Y551.9631 Z-1.0000 F4000
G1 X1003.7211 Y535.9447 Z-1.0000 F4000
G1 X1003.7211 Y535.9447 Z10.0000 F9999
G1 X962.6202 Y506.6787 Z10.0000 F9999
G1 X962.6202 Y506.6787 Z-1.0000 F2500
G1 X962.6202 Y513.1007 Z-1.0000 F4000
G1 X965.1890 Y521.7245 Z-1.0000 F4000
G1 X972.7853 Y524.7154 Z-1.0000 F4000
G1 X980.6569 Y521.6328 Z-1.0000 F4000
G1 X983.4826 Y513.3943 Z-1.0000 F4000
G1 X983.4826 Y506.6787 Z-1.0000 F4000
G1 X983.4826 Y513.3943 Z-1.0000 F4000
G1 X980.6569 Y521.6328 Z-1.0000 F4000
G1 X972.7853 Y524.7154 Z-1.0000 F4000
G1 X965.1890 Y521.7245 Z-1.0000 F4000
G1 X962.6202 Y513.1007 Z-1.0000 F4000
G1 X962.6202 Y506.6787 Z-1.0000 F4000
G1 X1003.7211 Y506.6787 Z-1.0000 F4000
G1 X1003.7211 Y506.6787 Z10.0000 F9999
G1 X996.8954 Y466.6603 Z10.0000 F9999
G1 X996.8954 Y466.6603 Z-1.0000 F2500
G1 X999.9413 Y468.6053 Z-1.0000 F4000
G1 X1001.9964 Y471.0273 Z-1.0000 F4000
G1 X1003.2441 Y474.1465 Z-1.0000 F4000
G1 X1003.7211 Y478.2750 Z-1.0000 F4000
G1 X1003.2624 Y482.7704 Z-1.0000 F4000
G1 X1001.5193 Y486.5869 Z-1.0000 F4000
G1 X998.5285 Y489.2658 Z-1.0000 F4000
G1 X994.3633 Y490.3851 Z-1.0000 F4000
G1 X990.3633 Y489.8530 Z-1.0000 F4000
G1 X987.6844 Y488.3117 Z-1.0000 F4000
G1 X985.9964 Y486.2750 Z-1.0000 F4000
G1 X984.8954 Y484.3667 Z-1.0000 F4000
G1 X980.1615 Y475.1741 Z-1.0000 F4000
G1 X978.7486 Y472.8071 Z-1.0000 F4000
G1 X977.0973 Y470.9539 Z-1.0000 F4000
G1 X974.9138 Y469.7062 Z-1.0000 F4000
G1 X972.0330 Y469.1924 Z-1.0000 F4000
G1 X968.7486 Y469.7245 Z-1.0000 F4000
G1 X965.7211 Y471.5594 Z-1.0000 F4000
G1 X963.5009 Y474.6970 Z-1.0000 F4000
G1 X962.6202 Y479.0640 Z-1.0000 F4000
G1 X963.2991 Y483.3209 Z-1.0000 F4000
G1 X964.7670 Y486.1649 Z-1.0000 F4000
G1 X966.9138 Y488.2566 Z-1.0000 F4000
G1 X964.7670 Y486.1649 Z-1.0000 F4000
G1 X963.2991 Y483.3209 Z-1.0000 F4000
G1 X962.6202 Y479.0640 Z-1.0000 F4000
G1 X963.5009 Y474.6970 Z-1.0000 F4000
G1 X965.7211 Y471.5594 Z-1.0000 F4000
G1 X968.7486 Y469.7245 Z-1.0000 F4000
G1 X972.0330 Y469.1924 Z-1.0000 F4000
G1 X974.9138 Y469.7062 Z-1.0000 F4000
G1 X977.0973 Y470.9539 Z-1.0000 F4000
G1 X978.7486 Y472.8071 Z-1.0000 F4000
G1 X980.1615 Y475.1741 Z-1.0000 F4000
G1 X984.8954 Y484.3667 Z-1.0000 F4000
G1 X985.9964 Y486.2750 Z-1.0000 F4000
G1 X987.6844 Y488.3117 Z-1.0000 F4000
G1 X990.3633 Y489.8530 Z-1.0000 F4000
G1 X994.3633 Y490.3851 Z-1.0000 F4000
G1 X998.5285 Y489.2658 Z-1.0000 F4000
G1 X1001.5193 Y486.5869 Z-1.0000 F4000
G1 X1003.2624 Y482.7704 Z-1.0000 F4000
G1 X1003.7211 Y478.2750 Z-1.0000 F4000
G1 X1003.2441 Y474.1465 Z-1.0000 F4000
G1 X1001.9964 Y471.0273 Z-1.0000 F4000
G1 X999.9413 Y468.6053 Z-1.0000 F4000
G1 X999.9413 Y468.6053 Z10.0000 F9999
G1 X215.0807 Y1314.1297 Z10.0000 F9999
G1 X215.0807 Y1314.1297 Z-1.0000 F2500
G1 X186.0179 Y1343.1924 Z-1.0000 F4000
G1 X191.0780 Y1348.2524 Z-1.0000 F4000
G1 X194.2437 Y1350.5619 Z-1.0000 F4000
G1 X197.7987 Y1351.5479 Z-1.0000 F4000
G1 X201.6002 Y1350.8862 Z-1.0000 F4000
G1 X205.4796 Y1348.2005 Z-1.0000 F4000
G1 X207.9707 Y1344.0747 Z-1.0000 F4000
G1 X208.3599 Y1339.7672 Z-1.0000 F4000
G1 X207.3998 Y1336.0305 Z-1.0000 F4000
G1 X205.8169 Y1333.5135 Z-1.0000 F4000
G1 X200.7569 Y1328.4534 Z-1.0000 F4000
G1 X205.8169 Y1333.5135 Z-1.0000 F4000
G1 X207.3998 Y1336.0305 Z-1.0000 F4000
G1 X208.3599 Y1339.7672 Z-1.0000 F4000
G1 X207.9707 Y1344.0747 Z-1.0000 F4000
G1 X205.4796 Y1348.2005 Z-1.0000 F4000
G1 X201.6002 Y1350.8862 Z-1.0000 F4000
G1 X197.7987 Y1351.5479 Z-1.0000 F4000
G1 X194.2437 Y1350.5619 Z-1.0000 F4000
G1 X191.0780 Y1348.2524 Z-1.0000 F4000
G1 X186.0179 Y1343.1924 Z-1.0000 F4000
G1 X186.0179 Y1343.1924 Z10.0000 F9999
G1 X177.3640 Y1308.6674 Z10.0000 F9999
G1 X177.3640 Y1308.6674 Z-1.0000 F2500
G1 X187.5749 Y1318.8783 Z-1.0000 F4000
G1 X177.3640 Y1308.6674 Z-1.0000 F4000
G1 X164.4285 Y1321.6029 Z-1.0000 F4000
G1 X175.1194 Y1332.2939 Z-1.0000 F4000
G1 X164.4285 Y1321.6029 Z-1.0000 F4000
G1 X193.4912 Y1292.5402 Z-1.0000 F4000
G1 X193.4912 Y1292.5402 Z10.0000 F9999
G1 X227.3934 Y1326.4424 Z10.0000 F9999
G1 X227.3934 Y1326.4424 Z-1.0000 F2500
G1 X203.7929 Y1331.3338 Z-1.0000 F4000
G1 X227.3934 Y1326.4424 Z-1.0000 F4000
G1 X227.3934 Y1326.4424 Z10.0000 F9999
G1 X243.1703 Y1363.0044 Z10.0000 F9999
G1 X243.1703 Y1363.0044 Z-1.0000 F2500
G1 X228.5352 Y1348.3692 Z-1.0000 F4000
G1 X243.1703 Y1363.0044 Z-1.0000 F4000
G1 X243.1703 Y1363.0044 Z10.0000 F9999
G1 X217.2085 Y1374.3829 Z10.0000 F9999
G1 X217.2085 Y1374.3829 Z-1.0000 F2500
G1 X257.6238 Y1356.6728 Z-1.0000 F4000
G1 X217.2085 Y1374.3829 Z-1.0000 F4000
G1 X234.9445 Y1333.9935 Z-1.0000 F4000
G1 X234.9445 Y1333.9935 Z10.0000 F9999
G1 X268.9116 Y1402.8359 Z10.0000 F9999
G1 X268.9116 Y1402.8359 Z-1.0000 F2500
G1 X248.2303 Y1382.1546 Z-1.0000 F4000
G1 X268.9116 Y1402.8359 Z-1.0000 F4000
G1 X268.9116 Y1402.8359 Z10.0000 F9999
G1 X276.1643 Y1433.3388 Z10.0000 F9999
G1 X276.1643 Y1433.3388 Z-1.0000 F2500
G1 X316.5797 Y1415.6287 Z-1.0000 F4000
G1 X276.1643 Y1433.3388 Z-1.0000 F4000
G1 X293.9004 Y1392.9494 Z-1.0000 F4000
G1 X293.9004 Y1392.9494 Z10.0000 F9999
G1 X302.1262 Y1421.9602 Z10.0000 F9999
G1 X302.1262 Y1421.9602 Z-1.0000 F2500
G1 X287.4910 Y1407.3250 Z-1.0000 F4000
G1 X302.1262 Y1421.9602 Z-1.0000 F4000
G1 X302.1262 Y1421.9602 Z10.0000 F9999
G1 X310.4038 Y1480.8641 Z10.0000 F9999
G1 X310.4038 Y1480.8641 Z-1.0000 F2500
G1 X326.2846 Y1422.0121 Z-1.0000 F4000
G1 X310.4038 Y1480.8641 Z-1.0000 F4000
G1 X310.4038 Y1480.8641 Z10.0000 F9999
G1 X357.0729 Y1456.1219 Z10.0000 F9999
G1 X357.0729 Y1456.1219 Z-1.0000 F2500
G1 X328.0102 Y1485.1846 Z-1.0000 F4000
G1 X333.0702 Y1490.2447 Z-1.0000 F4000
G1 X336.2360 Y1492.5541 Z-1.0000 F4000
G1 X339.7909 Y1493.5402 Z-1.0000 F4000
G1 X343.5925 Y1492.8785 Z-1.0000 F4000
G1 X347.4718 Y1490.1928 Z-1.0000 F4000
G1 X349.9629 Y1486.0669 Z-1.0000 F4000
G1 X350.3521 Y1481.7594 Z-1.0000 F4000
G1 X349.3920 Y1478.0227 Z-1.0000 F4000
G1 X347.8091 Y1475.5057 Z-1.0000 F4000
G1 X342.7491 Y1470.4457 Z-1.0000 F4000
G1 X347.8091 Y1475.5057 Z-1.0000 F4000
G1 X349.3920 Y1478.0227 Z-1.0000 F4000
G1 X350.3521 Y1481.7594 Z-1.0000 F4000
G1 X349.9629 Y1486.0669 Z-1.0000 F4000
G1 X347.4718 Y1490.1928 Z-1.0000 F4000
G1 X343.5925 Y1492.8785 Z-1.0000 F4000
G1 X339.7909 Y1493.5402 Z-1.0000 F4000
G1 X336.2360 Y1492.5541 Z-1.0000 F4000
G1 X333.0702 Y1490.2447 Z-1.0000 F4000
G1 X328.0102 Y1485.1846 Z-1.0000 F4000
G1 X328.0102 Y1485.1846 Z10.0000 F9999
G1 X369.3856 Y1468.4346 Z10.0000 F9999
G1 X369.3856 Y1468.4346 Z-1.0000 F2500
G1 X345.7851 Y1473.3260 Z-1.0000 F4000
G1 X369.3856 Y1468.4346 Z-1.0000 F4000
G1 X369.3856 Y1468.4346 Z10.0000 F9999
G1 X363.5731 Y1520.7476 Z10.0000 F9999
G1 X363.5731 Y1520.7476 Z-1.0000 F2500
G1 X371.4875 Y1481.4350 Z-1.0000 F4000
G1 X391.8574 Y1501.8049 Z-1.0000 F4000
G1 X371.4875 Y1481.4350 Z-1.0000 F4000
G1 X363.5731 Y1520.7476 Z-1.0000 F4000
G1 X392.6358 Y1491.6848 Z-1.0000 F4000
G1 X392.6358 Y1491.6848 Z10.0000 F9999
G1 X466.6603 Y1797.2835 Z10.0000 F9999
G1 X466.6603 Y1797.2835 Z-1.0000 F2500
G1 X468.6053 Y1794.2376 Z-1.0000 F4000
G1 X471.0273 Y1792.1826 Z-1.0000 F4000
G1 X474.1465 Y1790.9349 Z-1.0000 F4000
G1 X478.2750 Y1790.4578 Z-1.0000 F4000
G1 X482.7704 Y1790.9165 Z-1.0000 F4000
G1 X486.5869 Y1792.6596 Z-1.0000 F4000
G1 X489.2658 Y1795.6505 Z-1.0000 F4000
G1 X490.3851 Y1799.8156 Z-1.0000 F4000
G1 X489.8530 Y1803.8156 Z-1.0000 F4000
G1 X488.3117 Y1806.4945 Z-1.0000 F4000
G1 X486.2750 Y1808.1826 Z-1.0000 F4000
G1 X484.3667 Y1809.2835 Z-1.0000 F4000
G1 X475.1741 Y1814.0174 Z-1.0000 F4000
G1 X472.8071 Y1815.4303 Z-1.0000 F4000
G1 X470.9539 Y1817.0816 Z-1.0000 F4000
G1 X469.7062 Y1819.2651 Z-1.0000 F4000
G1 X469.1924 Y1822.1459 Z-1.0000 F4000
G1 X469.7245 Y1825.4303 Z-1.0000 F4000
G1 X471.5594 Y1828.4578 Z-1.0000 F4000
G1 X474.6970 Y1830.6780 Z-1.0000 F4000
G1 X479.0640 Y1831.5587 Z-1.0000 F4000
G1 X483.3209 Y1830.8798 Z-1.0000 F4000
G1 X486.1649 Y1829.4119 Z-1.0000 F4000
G1 X488.2566 Y1827.2651 Z-1.0000 F4000
G1 X486.1649 Y1829.4119 Z-1.0000 F4000
G1 X483.3209 Y1830.8798 Z-1.0000 F4000
G1 X479.0640 Y1831.5587 Z-1.0000 F4000
G1 X474.6970 Y1830.6780 Z-1.0000 F4000
G1 X471.5594 Y1828.4578 Z-1.0000 F4000
G1 X469.7245 Y1825.4303 Z-1.0000 F4000
G1 X469.1924 Y1822.1459 Z-1.0000 F4000
G1 X469.7062 Y1819.2651 Z-1.0000 F4000
G1 X470.9539 Y1817.0816 Z-1.0000 F4000
G1 X472.8071 Y1815.4303 Z-1.0000 F4000
G1 X475.1741 Y1814.0174 Z-1.0000 F4000
G1 X484.3667 Y1809.2835 Z-1.0000 F4000
G1 X486.2750 Y1808.1826 Z-1.0000 F4000
G1 X488.3117 Y1806.4945 Z-1.0000 F4000
G1 X489.8530 Y1803.8156 Z-1.0000 F4000
G1 X490.3851 Y1799.8156 Z-1.0000 F4000
G1 X489.2658 Y1795.6505 Z-1.0000 F4000
G1 X486.5869 Y1792.6596 Z-1.0000 F4000
G1 X482.7704 Y1790.9165 Z-1.0000 F4000
G1 X478.2750 Y1790.4578 Z-1.0000 F4000
G1 X474.1465 Y1790.9349 Z-1.0000 F4000
G1 X471.0273 Y1792.1826 Z-1.0000 F4000
G1 X468.6053 Y1794.2376 Z-1.0000 F4000
G1 X468.6053 Y1794.2376 Z10.0000 F9999
G1 X506.6787 Y1831.5587 Z10.0000 F9999
G1 X506.6787 Y1831.5587 Z-1.0000 F2500
G1 X513.1007 Y1831.5587 Z-1.0000 F4000
G1 X521.7245 Y1828.9899 Z-1.0000 F4000
G1 X524.7154 Y1821.3936 Z-1.0000 F4000
G1 X521.6328 Y1813.5220 Z-1.0000 F4000
G1 X513.3943 Y1810.6963 Z-1.0000 F4000
G1 X506.6787 Y1810.6963 Z-1.0000 F4000
G1 X513.3943 Y1810.6963 Z-1.0000 F4000
G1 X521.6328 Y1813.5220 Z-1.0000 F4000
G1 X524.7154 Y1821.3936 Z-1.0000 F4000
G1 X521.7245 Y1828.9899 Z-1.0000 F4000
G1 X513.1007 Y1831.5587 Z-1.0000 F4000
G1 X506.6787 Y1831.5587 Z-1.0000 F4000
G1 X506.6787 Y1790.4578 Z-1.0000 F4000
G1 X506.6787 Y1790.4578 Z10.0000 F9999
G1 X562.2750 Y1805.1550 Z10.0000 F9999
G1 X562.2750 Y1805.1550 Z-1.0000 F2500
G1 X541.5777 Y1805.1550 Z-1.0000 F4000
G1 X562.2750 Y1805.1550 Z-1.0000 F4000
G1 X562.2750 Y1805.1550 Z10.0000 F9999
G1 X551.9631 Y1831.5587 Z10.0000 F9999
G1 X551.9631 Y1831.5587 Z-1.0000 F2500
G1 X568.0181 Y1790.4578 Z-1.0000 F4000
G1 X551.9631 Y1831.5587 Z-1.0000 F4000
G1 X535.9447 Y1790.4578 Z-1.0000 F4000
G1 X535.9447 Y1790.4578 Z10.0000 F9999
G1 X615.3025 Y1796.1459 Z10.0000 F9999
G1 X615.3025 Y1796.1459 Z-1.0000 F2500
G1 X608.6787 Y1791.9807 Z-1.0000 F4000
G1 X600.6970 Y1790.4578 Z-1.0000 F4000
G1 X592.4218 Y1792.0908 Z-1.0000 F4000
G1 X585.6511 Y1796.5128 Z-1.0000 F4000
G1 X581.0823 Y1803.0450 Z-1.0000 F4000
G1 X579.3943 Y1811.0450 Z-1.0000 F4000
G1 X581.0823 Y1818.9899 Z-1.0000 F4000
G1 X585.6511 Y1825.5037 Z-1.0000 F4000
G1 X592.4218 Y1829.9257 Z-1.0000 F4000
G1 X600.6970 Y1831.5587 Z-1.0000 F4000
G1 X608.4768 Y1830.1459 Z-1.0000 F4000
G1 X615.0273 Y1826.2009 Z-1.0000 F4000
G1 X608.4768 Y1830.1459 Z-1.0000 F4000
G1 X600.6970 Y1831.5587 Z-1.0000 F4000
G1 X592.4218 Y1829.9257 Z-1.0000 F4000
G1 X585.6511 Y1825.5037 Z-1.0000 F4000
G1 X581.0823 Y1818.9899 Z-1.0000 F4000
G1 X579.3943 Y1811.0450 Z-1.0000 F4000
G1 X581.0823 Y1803.0450 Z-1.0000 F4000
G1 X585.6511 Y1796.5128 Z-1.0000 F4000
G1 X592.4218 Y1792.0908 Z-1.0000 F4000
G1 X600.6970 Y1790.4578 Z-1.0000 F4000
G1 X608.6787 Y1791.9807 Z-1.0000 F4000
G1 X608.6787 Y1791.9807 Z10.0000 F9999
G1 X631.1557 Y1790.4578 Z10.0000 F9999
G1 X631.1557 Y1790.4578 Z-1.0000 F2500
G1 X631.1557 Y1813.2651 Z-1.0000 F4000
G1 X647.6144 Y1813.2651 Z-1.0000 F4000
G1 X631.1557 Y1813.2651 Z-1.0000 F4000
G1 X631.1557 Y1831.5587 Z-1.0000 F4000
G1 X648.9172 Y1831.5587 Z-1.0000 F4000
G1 X631.1557 Y1831.5587 Z-1.0000 F4000
G1 X631.1557 Y1790.4578 Z-1.0000 F4000
G1 X648.9172 Y1790.4578 Z-1.0000 F4000
G1 X648.9172 Y1790.4578 Z10.0000 F9999
G1 X664.0365 Y1790.4578 Z10.0000 F9999
G1 X664.0365 Y1790.4578 Z-1.0000 F2500
G1 X664.0365 Y1831.5587 Z-1.0000 F4000
G1 X671.1924 Y1831.5587 Z-1.0000 F4000
G1 X675.0640 Y1830.9532 Z-1.0000 F4000
G1 X678.2750 Y1829.1367 Z-1.0000 F4000
G1 X680.4952 Y1825.9807 Z-1.0000 F4000
G1 X681.3392 Y1821.3385 Z-1.0000 F4000
G1 X680.1832 Y1816.6596 Z-1.0000 F4000
G1 X677.4126 Y1813.3385 Z-1.0000 F4000
G1 X674.0915 Y1811.3752 Z-1.0000 F4000
G1 X671.1924 Y1810.7147 Z-1.0000 F4000
G1 X664.0365 Y1810.7147 Z-1.0000 F4000
G1 X671.1924 Y1810.7147 Z-1.0000 F4000
G1 X674.0915 Y1811.3752 Z-1.0000 F4000
G1 X677.4126 Y1813.3385 Z-1.0000 F4000
G1 X680.1832 Y1816.6596 Z-1.0000 F4000
G1 X681.3392 Y1821.3385 Z-1.0000 F4000
G1 X680.4952 Y1825.9807 Z-1.0000 F4000
G1 X678.2750 Y1829.1367 Z-1.0000 F4000
G1 X675.0640 Y1830.9532 Z-1.0000 F4000
G1 X671.1924 Y1831.5587 Z-1.0000 F4000
G1 X664.0365 Y1831.5587 Z-1.0000 F4000
G1 X664.0365 Y1831.5587 Z10.0000 F9999
G1 X681.4493 Y1790.4578 Z10.0000 F9999
G1 X681.4493 Y1790.4578 Z-1.0000 F2500
G1 X668.2199 Y1810.6046 Z-1.0000 F4000
G1 X681.4493 Y1790.4578 Z-1.0000 F4000
G1 X681.4493 Y1790.4578 Z10.0000 F9999
G1 X738.0181 Y1813.2651 Z10.0000 F9999
G1 X738.0181 Y1813.2651 Z-1.0000 F2500
G1 X752.4585 Y1813.2651 Z-1.0000 F4000
G1 X738.0181 Y1813.2651 Z-1.0000 F4000
G1 X738.0181 Y1831.5587 Z-1.0000 F4000
G1 X753.1374 Y1831.5587 Z-1.0000 F4000
G1 X738.0181 Y1831.5587 Z-1.0000 F4000
G1 X738.0181 Y1790.4578 Z-1.0000 F4000
G1 X738.0181 Y1790.4578 Z10.0000 F9999
G1 X722.5135 Y1840.9532 Z10.0000 F9999
G1 X722.5135 Y1840.9532 Z-1.0000 F2500
G1 X692.1282 Y1788.1092 Z-1.0000 F4000
G1 X722.5135 Y1840.9532 Z-1.0000 F4000
G1 X722.5135 Y1840.9532 Z10.0000 F9999
G1 X713.1190 Y2087.5178 Z10.0000 F9999
G1 X713.1190 Y2087.5178 Z-1.0000 F2500
G1 X706.6970 Y2087.5178 Z-1.0000 F4000
G1 X698.0732 Y2090.0866 Z-1.0000 F4000
G1 X695.0823 Y2097.6830 Z-1.0000 F4000
G1 X698.1649 Y2105.5545 Z-1.0000 F4000
G1 X706.4034 Y2108.3802 Z-1.0000 F4000
G1 X713.1190 Y2108.3802 Z-1.0000 F4000
G1 X706.4034 Y2108.3802 Z-1.0000 F4000
G1 X698.1649 Y2105.5545 Z-1.0000 F4000
G1 X695.0823 Y2097.6830 Z-1.0000 F4000
G1 X698.0732 Y2090.0866 Z-1.0000 F4000
G1 X706.6970 Y2087.5178 Z-1.0000 F4000
G1 X713.1190 Y2087.5178 Z-1.0000 F4000
G1 X713.1190 Y2128.6188 Z-1.0000 F4000
G1 X713.1190 Y2128.6188 Z10.0000 F9999
G1 X753.1374 Y2121.7931 Z10.0000 F9999
G1 X753.1374 Y2121.7931 Z-1.0000 F2500
G1 X751.1924 Y2124.8389 Z-1.0000 F4000
G1 X748.7704 Y2126.8940 Z-1.0000 F4000
G1 X745.6511 Y2128.1417 Z-1.0000 F4000
G1 X741.5227 Y2128.6188 Z-1.0000 F4000
G1 X737.0273 Y2128.1600 Z-1.0000 F4000
G1 X733.2108 Y2126.4169 Z-1.0000 F4000
G1 X730.5319 Y2123.4261 Z-1.0000 F4000
G1 X729.4126 Y2119.2610 Z-1.0000 F4000
G1 X729.9447 Y2115.2610 Z-1.0000 F4000
G1 X731.4860 Y2112.5821 Z-1.0000 F4000
G1 X733.5227 Y2110.8940 Z-1.0000 F4000
G1 X735.4310 Y2109.7931 Z-1.0000 F4000
G1 X744.6236 Y2105.0591 Z-1.0000 F4000
G1 X746.9906 Y2103.6463 Z-1.0000 F4000
G1 X748.8438 Y2101.9949 Z-1.0000 F4000
G1 X750.0915 Y2099.8114 Z-1.0000 F4000
G1 X750.6053 Y2096.9307 Z-1.0000 F4000
G1 X750.0732 Y2093.6463 Z-1.0000 F4000
G1 X748.2383 Y2090.6188 Z-1.0000 F4000
G1 X745.1007 Y2088.3986 Z-1.0000 F4000
G1 X740.7337 Y2087.5178 Z-1.0000 F4000
G1 X736.4768 Y2088.1967 Z-1.0000 F4000
G1 X733.6328 Y2089.6646 Z-1.0000 F4000
G1 X731.5410 Y2091.8114 Z-1.0000 F4000
G1 X733.6328 Y2089.6646 Z-1.0000 F4000
G1 X736.4768 Y2088.1967 Z-1.0000 F4000
G1 X740.7337 Y2087.5178 Z-1.0000 F4000
G1 X745.1007 Y2088.3986 Z-1.0000 F4000
G1 X748.2383 Y2090.6188 Z-1.0000 F4000
G1 X750.0732 Y2093.6463 Z-1.0000 F4000
G1 X750.6053 Y2096.9307 Z-1.0000 F4000
G1 X750.0915 Y2099.8114 Z-1.0000 F4000
G1 X748.8438 Y2101.9949 Z-1.0000 F4000
G1 X746.9906 Y2103.6463 Z-1.0000 F4000
G1 X744.6236 Y2105.0591 Z-1.0000 F4000
G1 X735.4310 Y2109.7931 Z-1.0000 F4000
G1 X733.5227 Y2110.8940 Z-1.0000 F4000
G1 X731.4860 Y2112.5821 Z-1.0000 F4000
G1 X729.9447 Y2115.2610 Z-1.0000 F4000
G1 X729.4126 Y2119.2610 Z-1.0000 F4000
G1 X730.5319 Y2123.4261 Z-1.0000 F4000
G1 X733.2108 Y2126.4169 Z-1.0000 F4000
G1 X737.0273 Y2128.1600 Z-1.0000 F4000
G1 X741.5227 Y2128.6188 Z-1.0000 F4000
G1 X745.6511 Y2128.1417 Z-1.0000 F4000
G1 X748.7704 Y2126.8940 Z-1.0000 F4000
G1 X751.1924 Y2124.8389 Z-1.0000 F4000
G1 X751.1924 Y2124.8389 Z10.0000 F9999
G1 X667.8346 Y2087.5178 Z10.0000 F9999
G1 X667.8346 Y2087.5178 Z-1.0000 F2500
G1 X651.7796 Y2128.6188 Z-1.0000 F4000
G1 X667.8346 Y2087.5178 Z-1.0000 F4000
G1 X683.8530 Y2128.6188 Z-1.0000 F4000
G1 X683.8530 Y2128.6188 Z10.0000 F9999
G1 X657.5227 Y2113.9215 Z10.0000 F9999
G1 X657.5227 Y2113.9215 Z-1.0000 F2500
G1 X678.2199 Y2113.9215 Z-1.0000 F4000
G1 X657.5227 Y2113.9215 Z-1.0000 F4000
G1 X657.5227 Y2113.9215 Z10.0000 F9999
G1 X604.4952 Y2122.9307 Z10.0000 F9999
G1 X604.4952 Y2122.9307 Z-1.0000 F2500
G1 X611.1190 Y2127.0958 Z-1.0000 F4000
G1 X619.1007 Y2128.6188 Z-1.0000 F4000
G1 X627.3759 Y2126.9857 Z-1.0000 F4000
G1 X634.1465 Y2122.5637 Z-1.0000 F4000
G1 X638.7154 Y2116.0316 Z-1.0000 F4000
G1 X640.4034 Y2108.0316 Z-1.0000 F4000
G1 X638.7154 Y2100.0866 Z-1.0000 F4000
G1 X634.1465 Y2093.5729 Z-1.0000 F4000
G1 X627.3759 Y2089.1509 Z-1.0000 F4000
G1 X619.1007 Y2087.5178 Z-1.0000 F4000
G1 X611.3209 Y2088.9307 Z-1.0000 F4000
G1 X604.7704 Y2092.8756 Z-1.0000 F4000
G1 X611.3209 Y2088.9307 Z-1.0000 F4000
G1 X619.1007 Y2087.5178 Z-1.0000 F4000
G1 X627.3759 Y2089.1509 Z-1.0000 F4000
G1 X634.1465 Y2093.5729 Z-1.0000 F4000
G1 X638.7154 Y2100.0866 Z-1.0000 F4000
G1 X640.4034 Y2108.0316 Z-1.0000 F4000
G1 X638.7154 Y2116.0316 Z-1.0000 F4000
G1 X634.1465 Y2122.5637 Z-1.0000 F4000
G1 X627.3759 Y2126.9857 Z-1.0000 F4000
G1 X619.1007 Y2128.6188 Z-1.0000 F4000
G1 X611.1190 Y2127.0958 Z-1.0000 F4000
G1 X611.1190 Y2127.0958 Z10.0000 F9999
G1 X588.6420 Y2128.6188 Z10.0000 F9999
G1 X588.6420 Y2128.6188 Z-1.0000 F2500
G1 X588.6420 Y2105.8114 Z-1.0000 F4000
G1 X572.1832 Y2105.8114 Z-1.0000 F4000
G1 X588.6420 Y2105.8114 Z-1.0000 F4000
G1 X588.6420 Y2087.5178 Z-1.0000 F4000
G1 X570.8805 Y2087.5178 Z-1.0000 F4000
G1 X588.6420 Y2087.5178 Z-1.0000 F4000
G1 X588.6420 Y2128.6188 Z-1.0000 F4000
G1 X570.8805 Y2128.6188 Z-1.0000 F4000
G1 X570.8805 Y2128.6188 Z10.0000 F9999
G1 X555.7612 Y2128.6188 Z10.0000 F9999
G1 X555.7612 Y2128.6188 Z-1.0000 F2500
G1 X555.7612 Y2087.5178 Z-1.0000 F4000
G1 X548.6053 Y2087.5178 Z-1.0000 F4000
G1 X544.7337 Y2088.1233 Z-1.0000 F4000
G1 X541.5227 Y2089.9399 Z-1.0000 F4000
G1 X539.3025 Y2093.0958 Z-1.0000 F4000
G1 X538.4585 Y2097.7380 Z-1.0000 F4000
G1 X539.6144 Y2102.4169 Z-1.0000 F4000
G1 X542.3851 Y2105.7380 Z-1.0000 F4000
G1 X545.7062 Y2107.7013 Z-1.0000 F4000
G1 X548.6053 Y2108.3619 Z-1.0000 F4000
G1 X555.7612 Y2108.3619 Z-1.0000 F4000
G1 X548.6053 Y2108.3619 Z-1.0000 F4000
G1 X545.7062 Y2107.7013 Z-1.0000 F4000
G1 X542.3851 Y2105.7380 Z-1.0000 F4000
G1 X539.6144 Y2102.4169 Z-1.0000 F4000
G1 X538.4585 Y2097.7380 Z-1.0000 F4000
G1 X539.3025 Y2093.0958 Z-1.0000 F4000
G1 X541.5227 Y2089.9399 Z-1.0000 F4000
G1 X544.7337 Y2088.1233 Z-1.0000 F4000
G1 X548.6053 Y2087.5178 Z-1.0000 F4000
G1 X555.7612 Y2087.5178 Z-1.0000 F4000
G1 X555.7612 Y2087.5178 Z10.0000 F9999
G1 X538.3484 Y2128.6188 Z10.0000 F9999
G1 X538.3484 Y2128.6188 Z-1.0000 F2500
G1 X551.5777 Y2108.4720 Z-1.0000 F4000
G1 X538.3484 Y2128.6188 Z-1.0000 F4000
G1 X538.3484 Y2128.6188 Z10.0000 F9999
G1 X481.7796 Y2105.8114 Z10.0000 F9999
G1 X481.7796 Y2105.8114 Z-1.0000 F2500
G1 X467.3392 Y2105.8114 Z-1.0000 F4000
G1 X481.7796 Y2105.8114 Z-1.0000 F4000
G1 X481.7796 Y2087.5178 Z-1.0000 F4000
G1 X466.6603 Y2087.5178 Z-1.0000 F4000
G1 X481.7796 Y2087.5178 Z-1.0000 F4000
G1 X481.7796 Y2128.6188 Z-1.0000 F4000
G1 X481.7796 Y2128.6188 Z10.0000 F9999
G1 X497.2842 Y2078.1233 Z10.0000 F9999
G1 X497.2842 Y2078.1233 Z-1.0000 F2500
G1 X527.6695 Y2130.9674 Z-1.0000 F4000
G1 X497.2842 Y2078.1233 Z-1.0000 F4000
G1 X497.2842 Y2078.1233 Z10.0000 F9999
(Tool Number:1) (7.998 mm dia. slot drill)
M3 S9000
G1 X277.9888 Y106.1274 Z10.0000 F9999
G1 X277.9888 Y106.1274 Z1.0000 F2500
G1 X253.4171 Y87.2262 Z-7.3524 F2500
G1 X258.1717 Y90.8860 Z-8.9690 F2500
G1 X256.9701 Y92.4481 Z-9.5000 F2500
G1 X258.1717 Y90.8860 Z-10.0310 F2500
G1 X253.4171 Y87.2262 Z-11.6476 F2500
G1 X277.9888 Y106.1274 Z-20.0000 F2500
G1 X253.4171 Y87.2262 Z-20.0000 F4000
G1 X258.1717 Y90.8860 Z-20.0000 F4000
G1 X248.4164 Y103.5680 Z-20.0000 F4000
G1 X252.0762 Y98.8135 Z-20.0000 F4000
G1 X293.2909 Y130.5170 Z-20.0000 F4000
G1 X289.6327 Y135.2727 Z-20.0000 F4000
G1 X299.3896 Y122.5920 Z-20.0000 F4000
G1 X304.1453 Y126.2502 Z-20.0000 F4000
G1 X291.0721 Y116.1823 Z-20.0000 F4000
G1 X277.9888 Y106.1274 Z-20.0000 F4000
G1 X277.9888 Y106.1274 Z10.0000 F9999
G1 X132.0244 Y299.1640 Z10.0000 F9999
G1 X132.0244 Y299.1640 Z1.0000 F2500
G1 X156.5961 Y318.0652 Z-7.3524 F2500
G1 X151.8415 Y314.4053 Z-8.9690 F2500
G1 X153.0431 Y312.8433 Z-9.5000 F2500
G1 X151.8415 Y314.4053 Z-10.0310 F2500
G1 X156.5961 Y318.0652 Z-11.6476 F2500
G1 X132.0244 Y299.1640 Z-20.0000 F2500
G1 X156.5961 Y318.0652 Z-20.0000 F4000
G1 X151.8415 Y314.4053 Z-20.0000 F4000
G1 X161.5969 Y301.7233 Z-20.0000 F4000
G1 X157.9370 Y306.4779 Z-20.0000 F4000
G1 X116.7223 Y274.7744 Z-20.0000 F4000
G1 X120.3805 Y270.0186 Z-20.0000 F4000
G1 X110.6236 Y282.6994 Z-20.0000 F4000
G1 X105.8679 Y279.0411 Z-20.0000 F4000
G1 X118.9411 Y289.1091 Z-20.0000 F4000
G1 X132.0244 Y299.1640 Z-20.0000 F4000
G1 X132.0244 Y299.1640 Z10.0000 F9999
G1 X369.8112 Y482.0770 Z10.0000 F9999
G1 X369.8112 Y482.0770 Z1.0000 F2500
G1 X394.3829 Y500.9783 Z-7.3524 F2500
G1 X389.6284 Y497.3184 Z-8.9690 F2500
G1 X390.8300 Y495.7563 Z-9.5000 F2500
G1 X389.6284 Y497.3184 Z-10.0310 F2500
G1 X394.3829 Y500.9783 Z-11.6476 F2500
G1 X369.8112 Y482.0770 Z-20.0000 F2500
G1 X394.3829 Y500.9783 Z-20.0000 F4000
G1 X389.6284 Y497.3184 Z-20.0000 F4000
G1 X399.3837 Y484.6364 Z-20.0000 F4000
G1 X395.7239 Y489.3910 Z-20.0000 F4000
G1 X354.5091 Y457.6875 Z-20.0000 F4000
G1 X358.1674 Y452.9317 Z-20.0000 F4000
G1 X348.4105 Y465.6125 Z-20.0000 F4000
G1 X343.6547 Y461.9542 Z-20.0000 F4000
G1 X356.7280 Y472.0222 Z-20.0000 F4000
G1 X369.8112 Y482.0770 Z-20.0000 F4000
G1 X369.8112 Y482.0770 Z10.0000 F9999
G1 X515.7757 Y289.0405 Z10.0000 F9999
G1 X515.7757 Y289.0405 Z1.0000 F2500
G1 X491.2040 Y270.1393 Z-7.3524 F2500
G1 X495.9585 Y273.7991 Z-8.9690 F2500
G1 X494.7569 Y275.3612 Z-9.5000 F2500
G1 X495.9585 Y273.7991 Z-10.0310 F2500
G1 X491.2040 Y270.1393 Z-11.6476 F2500
G1 X515.7757 Y289.0405 Z-20.0000 F2500
G1 X491.2040 Y270.1393 Z-20.0000 F4000
G1 X495.9585 Y273.7991 Z-20.0000 F4000
G1 X486.2032 Y286.4811 Z-20.0000 F4000
G1 X489.8631 Y281.7266 Z-20.0000 F4000
G1 X531.0778 Y313.4301 Z-20.0000 F4000
G1 X527.4195 Y318.1858 Z-20.0000 F4000
G1 X537.1765 Y305.5051 Z-20.0000 F4000
G1 X541.9322 Y309.1633 Z-20.0000 F4000
G1 X528.8590 Y299.0954 Z-20.0000 F4000
G1 X515.7757 Y289.0405 Z-20.0000 F4000
G1 X515.7757 Y289.0405 Z10.0000 F9999
G1 X975.6488 Y47.3999 Z10.0000 F9999
G1 X975.6488 Y47.3999 Z1.0000 F2500
G1 X975.6488 Y33.9009 Z-2.6370 F2500
G1 X980.6488 Y33.9009 Z-3.9842 F2500
G1 X980.6488 Y31.8989 Z-4.5236 F2500
G1 X962.1786 Y31.8989 Z-9.5000 F2500
G1 X980.6488 Y31.8989 Z-14.4764 F2500
G1 X980.6488 Y33.9009 Z-15.0158 F2500
G1 X975.6488 Y33.9009 Z-16.3630 F2500
G1 X975.6488 Y47.3999 Z-20.0000 F2500
G1 X975.6488 Y33.9009 Z-20.0000 F4000
G1 X980.6488 Y33.9009 Z-20.0000 F4000
G1 X980.6488 Y31.8989 Z-20.0000 F4000
G1 X960.6468 Y31.8989 Z-20.0000 F4000
G1 X960.6468 Y33.9009 Z-20.0000 F4000
G1 X965.6468 Y33.9009 Z-20.0000 F4000
G1 X965.6468 Y60.8989 Z-20.0000 F4000
G1 X960.6468 Y60.8989 Z-20.0000 F4000
G1 X960.6468 Y62.9009 Z-20.0000 F4000
G1 X980.6488 Y62.9009 Z-20.0000 F4000
G1 X980.6488 Y60.8989 Z-20.0000 F4000
G1 X975.6488 Y60.8989 Z-20.0000 F4000
G1 X975.6488 Y47.3999 Z-20.0000 F4000
G1 X975.6488 Y47.3999 Z10.0000 F9999
G1 X801.5812 Y867.4708 Z10.0000 F9999
G1 X801.5812 Y867.4708 Z1.0000 F2500
G1 X801.5812 Y836.4705 Z-7.3524 F2500
G1 X801.5792 Y842.4705 Z-8.9690 F2500
G1 X799.6084 Y842.4705 Z-9.5000 F2500
G1 X801.5792 Y842.4705 Z-10.0310 F2500
G1 X801.5812 Y836.4705 Z-11.6476 F2500
G1 X801.5812 Y867.4708 Z-20.0000 F2500
G1 X801.5812 Y836.4705 Z-20.0000 F4000
G1 X801.5792 Y842.4705 Z-20.0000 F4000
G1 X785.5792 Y842.4705 Z-20.0000 F4000
G1 X791.5792 Y842.4725 Z-20.0000 F4000
G1 X791.5792 Y894.4702 Z-20.0000 F4000
G1 X785.5792 Y894.4702 Z-20.0000 F4000
G1 X801.5792 Y894.4722 Z-20.0000 F4000
G1 X801.5792 Y900.4722 Z-20.0000 F4000
G1 X801.5884 Y883.9715 Z-20.0000 F4000
G1 X801.5812 Y867.4708 Z-20.0000 F4000
G1 X801.5812 Y867.4708 Z10.0000 F9999
G1 X559.5797 Y869.4718 Z10.0000 F9999
G1 X559.5797 Y869.4718 Z1.0000 F2500
G1 X559.5797 Y900.4722 Z-7.3524 F2500
G1 X559.5817 Y894.4722 Z-8.9690 F2500
G1 X561.5524 Y894.4722 Z-9.5000 F2500
G1 X559.5817 Y894.4722 Z-10.0310 F2500
G1 X559.5797 Y900.4722 Z-11.6476 F2500
G1 X559.5797 Y869.4718 Z-20.0000 F2500
G1 X559.5797 Y900.4722 Z-20.0000 F4000
G1 X559.5817 Y894.4722 Z-20.0000 F4000
G1 X575.5816 Y894.4722 Z-20.0000 F4000
G1 X569.5816 Y894.4702 Z-20.0000 F4000
G1 X569.5816 Y842.4725 Z-20.0000 F4000
G1 X575.5816 Y842.4725 Z-20.0000 F4000
G1 X559.5817 Y842.4705 Z-20.0000 F4000
G1 X559.5817 Y836.4705 Z-20.0000 F4000
G1 X559.5724 Y852.9711 Z-20.0000 F4000
G1 X559.5797 Y869.4718 Z-20.0000 F4000
G1 X559.5797 Y869.4718 Z10.0000 F9999
G1 X284.1171 Y835.0797 Z10.0000 F9999
G1 X284.1171 Y835.0797 Z1.0000 F2500
G1 X279.8491 Y802.3555 Z-7.8916 F2500
G1 X280.6193 Y808.2754 Z-9.5000 F2500
G1 X279.8491 Y802.3555 Z-11.1084 F2500
G1 X284.1171 Y835.0797 Z-20.0000 F2500
G1 X279.8491 Y802.3555 Z-20.0000 F4000
G1 X280.6232 Y808.3053 Z-20.0000 F4000
G1 X264.7577 Y810.3751 Z-20.0000 F4000
G1 X270.7076 Y809.6009 Z-20.0000 F4000
G1 X277.4339 Y861.1618 Z-20.0000 F4000
G1 X271.4844 Y861.9379 Z-20.0000 F4000
G1 X287.3501 Y859.8702 Z-20.0000 F4000
G1 X288.1263 Y865.8198 Z-20.0000 F4000
G1 X284.1171 Y835.0797 Z-20.0000 F4000
G1 X284.1171 Y835.0797 Z10.0000 F9999
G1 X43.8921 Y864.4004 Z10.0000 F9999
G1 X43.8921 Y864.4004 Z1.0000 F2500
G1 X48.1601 Y897.1246 Z-7.8916 F2500
G1 X47.3898 Y891.2047 Z-9.5000 F2500
G1 X48.1601 Y897.1246 Z-11.1084 F2500
G1 X43.8921 Y864.4004 Z-20.0000 F2500
G1 X48.1601 Y897.1246 Z-20.0000 F4000
G1 X47.3859 Y891.1747 Z-20.0000 F4000
G1 X63.2515 Y889.1050 Z-20.0000 F4000
G1 X57.3016 Y889.8792 Z-20.0000 F4000
G1 X50.5752 Y838.3183 Z-20.0000 F4000
G1 X56.5248 Y837.5422 Z-20.0000 F4000
G1 X40.6590 Y839.6099 Z-20.0000 F4000
G1 X39.8829 Y833.6603 Z-20.0000 F4000
G1 X43.8921 Y864.4004 Z-20.0000 F4000
G1 X43.8921 Y864.4004 Z10.0000 F9999
G1 X82.6934 Y1161.8802 Z10.0000 F9999
G1 X82.6934 Y1161.8802 Z1.0000 F2500
G1 X86.9614 Y1194.6044 Z-7.8916 F2500
G1 X86.1912 Y1188.6846 Z-9.5000 F2500
G1 X86.9614 Y1194.6044 Z-11.1084 F2500
G1 X82.6934 Y1161.8802 Z-20.0000 F2500
G1 X86.9614 Y1194.6044 Z-20.0000 F4000
G1 X86.1873 Y1188.6546 Z-20.0000 F4000
G1 X102.0528 Y1186.5848 Z-20.0000 F4000
G1 X96.1029 Y1187.3590 Z-20.0000 F4000
G1 X89.3766 Y1135.7981 Z-20.0000 F4000
G1 X95.3262 Y1135.0220 Z-20.0000 F4000
G1 X79.4604 Y1137.0897 Z-20.0000 F4000
G1 X78.6842 Y1131.1402 Z-20.0000 F4000
G1 X82.6934 Y1161.8802 Z-20.0000 F4000
G1 X82.6934 Y1161.8802 Z10.0000 F9999
G1 X322.9184 Y1132.5596 Z10.0000 F9999
G1 X322.9184 Y1132.5596 Z1.0000 F2500
G1 X318.6504 Y1099.8353 Z-7.8916 F2500
G1 X319.4207 Y1105.7552 Z-9.5000 F2500
G1 X318.6504 Y1099.8353 Z-11.1084 F2500
G1 X322.9184 Y1132.5596 Z-20.0000 F2500
G1 X318.6504 Y1099.8353 Z-20.0000 F4000
G1 X319.4246 Y1105.7852 Z-20.0000 F4000
G1 X303.5590 Y1107.8549 Z-20.0000 F4000
G1 X309.5089 Y1107.0807 Z-20.0000 F4000
G1 X316.2353 Y1158.6416 Z-20.0000 F4000
G1 X310.2857 Y1159.4178 Z-20.0000 F4000
G1 X326.1515 Y1157.3500 Z-20.0000 F4000
G1 X326.9276 Y1163.2996 Z-20.0000 F4000
G1 X322.9184 Y1132.5596 Z-20.0000 F4000
G1 X322.9184 Y1132.5596 Z10.0000 F9999
G1 X559.5797 Y1169.4713 Z10.0000 F9999
G1 X559.5797 Y1169.4713 Z1.0000 F2500
G1 X559.5797 Y1200.4717 Z-7.3524 F2500
G1 X559.5817 Y1194.4717 Z-8.9690 F2500
G1 X561.5524 Y1194.4717 Z-9.5000 F2500
G1 X559.5817 Y1194.4717 Z-10.0310 F2500
G1 X559.5797 Y1200.4717 Z-11.6476 F2500
G1 X559.5797 Y1169.4713 Z-20.0000 F2500
G1 X559.5797 Y1200.4717 Z-20.0000 F4000
G1 X559.5817 Y1194.4717 Z-20.0000 F4000
G1 X575.5816 Y1194.4717 Z-20.0000 F4000
G1 X569.5816 Y1194.4697 Z-20.0000 F4000
G1 X569.5816 Y1142.4719 Z-20.0000 F4000
G1 X575.5816 Y1142.4719 Z-20.0000 F4000
G1 X559.5817 Y1142.4699 Z-20.0000 F4000
G1 X559.5817 Y1136.4699 Z-20.0000 F4000
G1 X559.5724 Y1152.9706 Z-20.0000 F4000
G1 X559.5797 Y1169.4713 Z-20.0000 F4000
G1 X559.5797 Y1169.4713 Z10.0000 F9999
G1 X555.7289 Y1363.6446 Z10.0000 F9999
G1 X555.7289 Y1363.6446 Z1.0000 F2500
G1 X523.0049 Y1359.3752 Z-7.8916 F2500
G1 X528.9242 Y1360.1493 Z-9.5000 F2500
G1 X523.0049 Y1359.3752 Z-11.1084 F2500
G1 X555.7289 Y1363.6446 Z-20.0000 F2500
G1 X523.0049 Y1359.3752 Z-20.0000 F4000
G1 X528.9542 Y1360.1532 Z-20.0000 F4000
G1 X526.8847 Y1376.0188 Z-20.0000 F4000
G1 X527.6628 Y1370.0694 Z-20.0000 F4000
G1 X579.2238 Y1376.7949 Z-20.0000 F4000
G1 X578.4477 Y1382.7445 Z-20.0000 F4000
G1 X580.5191 Y1366.8792 Z-20.0000 F4000
G1 X586.4687 Y1367.6552 Z-20.0000 F4000
G1 X555.7289 Y1363.6446 Z-20.0000 F4000
G1 X555.7289 Y1363.6446 Z10.0000 F9999
G1 X522.4441 Y1603.3525 Z10.0000 F9999
G1 X522.4441 Y1603.3525 Z1.0000 F2500
G1 X555.1682 Y1607.6220 Z-7.8916 F2500
G1 X549.2488 Y1606.8479 Z-9.5000 F2500
G1 X555.1682 Y1607.6220 Z-11.1084 F2500
G1 X522.4441 Y1603.3525 Z-20.0000 F2500
G1 X555.1682 Y1607.6220 Z-20.0000 F4000
G1 X549.2188 Y1606.8439 Z-20.0000 F4000
G1 X551.2883 Y1590.9784 Z-20.0000 F4000
G1 X550.5103 Y1596.9277 Z-20.0000 F4000
G1 X498.9493 Y1590.2022 Z-20.0000 F4000
G1 X499.7253 Y1584.2526 Z-20.0000 F4000
G1 X497.6539 Y1600.1180 Z-20.0000 F4000
G1 X491.7043 Y1599.3419 Z-20.0000 F4000
G1 X522.4441 Y1603.3525 Z-20.0000 F4000
G1 X522.4441 Y1603.3525 Z10.0000 F9999
G1 X819.9240 Y1642.1539 Z10.0000 F9999
G1 X819.9240 Y1642.1539 Z1.0000 F2500
G1 X852.6480 Y1646.4233 Z-7.8916 F2500
G1 X846.7287 Y1645.6492 Z-9.5000 F2500
G1 X852.6480 Y1646.4233 Z-11.1084 F2500
G1 X819.9240 Y1642.1539 Z-20.0000 F2500
G1 X852.6480 Y1646.4233 Z-20.0000 F4000
G1 X846.6987 Y1645.6453 Z-20.0000 F4000
G1 X848.7682 Y1629.7797 Z-20.0000 F4000
G1 X847.9901 Y1635.7290 Z-20.0000 F4000
G1 X796.4291 Y1629.0036 Z-20.0000 F4000
G1 X797.2052 Y1623.0540 Z-20.0000 F4000
G1 X795.1338 Y1638.9193 Z-20.0000 F4000
G1 X789.1842 Y1638.1432 Z-20.0000 F4000
G1 X819.9240 Y1642.1539 Z-20.0000 F4000
G1 X819.9240 Y1642.1539 Z10.0000 F9999
G1 X853.2087 Y1402.4459 Z10.0000 F9999
G1 X853.2087 Y1402.4459 Z1.0000 F2500
G1 X820.4847 Y1398.1765 Z-7.8916 F2500
G1 X826.4041 Y1398.9506 Z-9.5000 F2500
G1 X820.4847 Y1398.1765 Z-11.1084 F2500
G1 X853.2087 Y1402.4459 Z-20.0000 F2500
G1 X820.4847 Y1398.1765 Z-20.0000 F4000
G1 X826.4341 Y1398.9545 Z-20.0000 F4000
G1 X824.3646 Y1414.8201 Z-20.0000 F4000
G1 X825.1426 Y1408.8708 Z-20.0000 F4000
G1 X876.7036 Y1415.5962 Z-20.0000 F4000
G1 X875.9276 Y1421.5458 Z-20.0000 F4000
G1 X877.9990 Y1405.6805 Z-20.0000 F4000
G1 X883.9486 Y1406.4566 Z-20.0000 F4000
G1 X853.2087 Y1402.4459 Z-20.0000 F4000
G1 X853.2087 Y1402.4459 Z10.0000 F9999
G1 X801.5812 Y1167.4703 Z10.0000 F9999
G1 X801.5812 Y1167.4703 Z1.0000 F2500
G1 X801.5812 Y1136.4699 Z-7.3524 F2500
G1 X801.5792 Y1142.4699 Z-8.9690 F2500
G1 X799.6084 Y1142.4699 Z-9.5000 F2500
G1 X801.5792 Y1142.4699 Z-10.0310 F2500
G1 X801.5812 Y1136.4699 Z-11.6476 F2500
G1 X801.5812 Y1167.4703 Z-20.0000 F2500
G1 X801.5812 Y1136.4699 Z-20.0000 F4000
G1 X801.5792 Y1142.4699 Z-20.0000 F4000
G1 X785.5792 Y1142.4699 Z-20.0000 F4000
G1 X791.5792 Y1142.4719 Z-20.0000 F4000
G1 X791.5792 Y1194.4697 Z-20.0000 F4000
G1 X785.5792 Y1194.4697 Z-20.0000 F4000
G1 X801.5792 Y1194.4717 Z-20.0000 F4000
G1 X801.5792 Y1200.4717 Z-20.0000 F4000
G1 X801.5884 Y1183.9710 Z-20.0000 F4000
G1 X801.5812 Y1167.4703 Z-20.0000 F4000
G1 X801.5812 Y1167.4703 Z10.0000 F9999
G1 X965.6468 Y1172.3977 Z10.0000 F9999
G1 X965.6468 Y1172.3977 Z1.0000 F2500
G1 X965.6468 Y1185.8967 Z-2.6370 F2500
G1 X960.6468 Y1185.8967 Z-3.9842 F2500
G1 X960.6468 Y1187.8986 Z-4.5236 F2500
G1 X979.1171 Y1187.8986 Z-9.5000 F2500
G1 X960.6468 Y1187.8986 Z-14.4764 F2500
G1 X960.6468 Y1185.8967 Z-15.0158 F2500
G1 X965.6468 Y1185.8967 Z-16.3630 F2500
G1 X965.6468 Y1172.3977 Z-20.0000 F2500
G1 X965.6468 Y1185.8967 Z-20.0000 F4000
G1 X960.6468 Y1185.8967 Z-20.0000 F4000
G1 X960.6468 Y1187.8986 Z-20.0000 F4000
G1 X980.6488 Y1187.8986 Z-20.0000 F4000
G1 X980.6488 Y1185.8967 Z-20.0000 F4000
G1 X975.6488 Y1185.8967 Z-20.0000 F4000
G1 X975.6488 Y1158.8987 Z-20.0000 F4000
G1 X980.6488 Y1158.8987 Z-20.0000 F4000
G1 X980.6488 Y1156.8967 Z-20.0000 F4000
G1 X960.6468 Y1156.8967 Z-20.0000 F4000
G1 X960.6468 Y1158.8987 Z-20.0000 F4000
G1 X965.6468 Y1158.8987 Z-20.0000 F4000
G1 X965.6468 Y1172.3977 Z-20.0000 F4000
G1 X965.6468 Y1172.3977 Z10.0000 F9999
G1 X1172.3977 Y1828.5321 Z10.0000 F9999
G1 X1172.3977 Y1828.5321 Z1.0000 F2500
G1 X1185.8967 Y1828.5321 Z-2.6370 F2500
G1 X1185.8967 Y1833.5321 Z-3.9842 F2500
G1 X1187.8986 Y1833.5321 Z-4.5236 F2500
G1 X1187.8986 Y1815.0619 Z-9.5000 F2500
G1 X1187.8986 Y1833.5321 Z-14.4764 F2500
G1 X1185.8967 Y1833.5321 Z-15.0158 F2500
G1 X1185.8967 Y1828.5321 Z-16.3630 F2500
G1 X1172.3977 Y1828.5321 Z-20.0000 F2500
G1 X1185.8967 Y1828.5321 Z-20.0000 F4000
G1 X1185.8967 Y1833.5321 Z-20.0000 F4000
G1 X1187.8986 Y1833.5321 Z-20.0000 F4000
G1 X1187.8986 Y1813.5301 Z-20.0000 F4000
G1 X1185.8967 Y1813.5301 Z-20.0000 F4000
G1 X1185.8967 Y1818.5301 Z-20.0000 F4000
G1 X1158.8987 Y1818.5301 Z-20.0000 F4000
G1 X1158.8987 Y1813.5301 Z-20.0000 F4000
G1 X1156.8967 Y1813.5301 Z-20.0000 F4000
G1 X1156.8967 Y1833.5321 Z-20.0000 F4000
G1 X1158.8987 Y1833.5321 Z-20.0000 F4000
G1 X1158.8987 Y1828.5321 Z-20.0000 F4000
G1 X1172.3977 Y1828.5321 Z-20.0000 F4000
G1 X1172.3977 Y1828.5321 Z10.0000 F9999
G1 X1172.3978 Y2100.5464 Z10.0000 F9999
G1 X1172.3978 Y2100.5464 Z1.0000 F2500
G1 X1185.8967 Y2100.5464 Z-2.6370 F2500
G1 X1185.8967 Y2105.5464 Z-3.9842 F2500
G1 X1187.8987 Y2105.5464 Z-4.5236 F2500
G1 X1187.8987 Y2087.0763 Z-9.5000 F2500
G1 X1187.8987 Y2105.5464 Z-14.4764 F2500
G1 X1185.8967 Y2105.5464 Z-15.0158 F2500
G1 X1185.8967 Y2100.5464 Z-16.3630 F2500
G1 X1172.3978 Y2100.5464 Z-20.0000 F2500
G1 X1185.8967 Y2100.5464 Z-20.0000 F4000
G1 X1185.8967 Y2105.5464 Z-20.0000 F4000
G1 X1187.8987 Y2105.5464 Z-20.0000 F4000
G1 X1187.8987 Y2085.5444 Z-20.0000 F4000
G1 X1185.8967 Y2085.5444 Z-20.0000 F4000
G1 X1185.8967 Y2090.5444 Z-20.0000 F4000
G1 X1158.8988 Y2090.5444 Z-20.0000 F4000
G1 X1158.8988 Y2085.5444 Z-20.0000 F4000
G1 X1156.8968 Y2085.5444 Z-20.0000 F4000
G1 X1156.8968 Y2105.5464 Z-20.0000 F4000
G1 X1158.8988 Y2105.5464 Z-20.0000 F4000
G1 X1158.8988 Y2100.5464 Z-20.0000 F4000
G1 X1172.3978 Y2100.5464 Z-20.0000 F4000
G1 X1172.3978 Y2100.5464 Z10.0000 F9999
G1 X47.4000 Y2090.5444 Z10.0000 F9999
G1 X47.4000 Y2090.5444 Z1.0000 F2500
G1 X33.9010 Y2090.5444 Z-2.6370 F2500
G1 X33.9010 Y2085.5444 Z-3.9842 F2500
G1 X31.8991 Y2085.5444 Z-4.5236 F2500
G1 X31.8991 Y2104.0147 Z-9.5000 F2500
G1 X31.8991 Y2085.5444 Z-14.4764 F2500
G1 X33.9010 Y2085.5444 Z-15.0158 F2500
G1 X33.9010 Y2090.5444 Z-16.3630 F2500
G1 X47.4000 Y2090.5444 Z-20.0000 F2500
G1 X33.9010 Y2090.5444 Z-20.0000 F4000
G1 X33.9010 Y2085.5444 Z-20.0000 F4000
G1 X31.8991 Y2085.5444 Z-20.0000 F4000
G1 X31.8991 Y2105.5464 Z-20.0000 F4000
G1 X33.9010 Y2105.5464 Z-20.0000 F4000
G1 X33.9010 Y2100.5464 Z-20.0000 F4000
G1 X60.8990 Y2100.5464 Z-20.0000 F4000
G1 X60.8990 Y2105.5464 Z-20.0000 F4000
G1 X62.9010 Y2105.5464 Z-20.0000 F4000
G1 X62.9010 Y2085.5444 Z-20.0000 F4000
G1 X60.8990 Y2085.5444 Z-20.0000 F4000
G1 X60.8990 Y2090.5444 Z-20.0000 F4000
G1 X47.4000 Y2090.5444 Z-20.0000 F4000
G1 X47.4000 Y2090.5444 Z10.0000 F9999
G1 X47.3999 Y1818.5301 Z10.0000 F9999
G1 X47.3999 Y1818.5301 Z1.0000 F2500
G1 X33.9009 Y1818.5301 Z-2.6370 F2500
G1 X33.9009 Y1813.5301 Z-3.9842 F2500
G1 X31.8989 Y1813.5301 Z-4.5236 F2500
G1 X31.8989 Y1832.0003 Z-9.5000 F2500
G1 X31.8989 Y1813.5301 Z-14.4764 F2500
G1 X33.9009 Y1813.5301 Z-15.0158 F2500
G1 X33.9009 Y1818.5301 Z-16.3630 F2500
G1 X47.3999 Y1818.5301 Z-20.0000 F2500
G1 X33.9009 Y1818.5301 Z-20.0000 F4000
G1 X33.9009 Y1813.5301 Z-20.0000 F4000
G1 X31.8989 Y1813.5301 Z-20.0000 F4000
G1 X31.8989 Y1833.5321 Z-20.0000 F4000
G1 X33.9009 Y1833.5321 Z-20.0000 F4000
G1 X33.9009 Y1828.5321 Z-20.0000 F4000
G1 X60.8989 Y1828.5321 Z-20.0000 F4000
G1 X60.8989 Y1833.5321 Z-20.0000 F4000
G1 X62.9009 Y1833.5321 Z-20.0000 F4000
G1 X62.9009 Y1813.5301 Z-20.0000 F4000
G1 X60.8989 Y1813.5301 Z-20.0000 F4000
G1 X60.8989 Y1818.5301 Z-20.0000 F4000
G1 X47.3999 Y1818.5301 Z-20.0000 F4000
G1 X47.3999 Y1818.5301 Z10.0000 F9999
(Tool Number:1) (7.998 mm dia. slot drill)
M3 S9000
G1 X841.6490 Y587.9962 Z10.0000 F9999
G1 X841.6490 Y587.9962 Z1.0000 F2500
G1 X841.6490 Y549.0251 Z-9.5000 F2500
G1 X841.6490 Y587.9962 Z-20.0000 F2500
G1 X841.6490 Y80.9009 Z-20.0000 F5000
G1 X928.6469 Y80.9009 Z-20.0000 F5000
G1 X928.6469 Y85.9008 Z-20.0000 F5000
G1 X930.6489 Y85.9008 Z-20.0000 F5000
G1 X930.6489 Y5.9010 Z-20.0000 F5000
G1 X1010.6467 Y5.9010 Z-20.0000 F5000
G1 X1010.6467 Y85.9008 Z-20.0000 F5000
G1 X1012.6487 Y85.9008 Z-20.0000 F5000
G1 X1012.6487 Y80.9009 Z-20.0000 F5000
G1 X1117.6464 Y80.9009 Z-20.0000 F5000
G1 X1117.6464 Y118.8988 Z-20.0000 F5000
G1 X1094.6464 Y118.8988 Z-20.0000 F5000
G1 X1094.6464 Y120.9008 Z-20.0000 F5000
G1 X1099.6464 Y120.9008 Z-20.0000 F5000
G1 X1099.6464 Y563.8979 Z-20.0000 F5000
G1 X1094.6464 Y563.8979 Z-20.0000 F5000
G1 X1094.6464 Y565.8998 Z-20.0000 F5000
G1 X1117.6464 Y565.8998 Z-20.0000 F5000
G1 X1117.6464 Y653.8977 Z-20.0000 F5000
G1 X1094.6464 Y653.8977 Z-20.0000 F5000
G1 X1094.6464 Y655.8997 Z-20.0000 F5000
G1 X1099.6464 Y655.8997 Z-20.0000 F5000
G1 X1099.6464 Y1045.0491 Z-20.0000 F5000
G1 X1099.6464 Y1045.0491 Z-10.0000 F9999
G1 X1099.6464 Y1061.0471 Z-10.0000 F5000
G1 X1099.6464 Y1061.0471 Z-20.0000 F2500
G1 X1099.6464 Y1098.8968 Z-20.0000 F5000
G1 X1094.6464 Y1098.8968 Z-20.0000 F5000
G1 X1094.6464 Y1100.8988 Z-20.0000 F5000
G1 X1117.6464 Y1100.8988 Z-20.0000 F5000
G1 X1117.6464 Y1138.8967 Z-20.0000 F5000
G1 X1012.6487 Y1138.8967 Z-20.0000 F5000
G1 X1012.6487 Y1133.8967 Z-20.0000 F5000
G1 X1010.6467 Y1133.8967 Z-20.0000 F5000
G1 X1010.6467 Y1213.8967 Z-20.0000 F5000
G1 X930.6489 Y1213.8967 Z-20.0000 F5000
G1 X930.6489 Y1133.8967 Z-20.0000 F5000
G1 X928.6469 Y1133.8967 Z-20.0000 F5000
G1 X928.6469 Y1138.8967 Z-20.0000 F5000
G1 X841.6490 Y1138.8967 Z-20.0000 F5000
G1 X841.6490 Y1111.0895 Z-20.0000 F5000
G1 X841.6490 Y1111.0895 Z-10.0000 F9999
G1 X841.6490 Y1095.0915 Z-10.0000 F5000
G1 X841.6490 Y1095.0915 Z-20.0000 F2500
G1 X841.6490 Y587.9962 Z-20.0000 F5000
G1 X841.6490 Y587.9962 Z10.0000 F9999
G1 X703.5584 Y423.3976 Z10.0000 F9999
G1 X703.5584 Y423.3976 Z1.0000 F2500
G1 X734.4478 Y447.1588 Z-9.5000 F2500
G1 X703.5584 Y423.3976 Z-20.0000 F2500
G1 X809.5792 Y504.9525 Z-20.0000 F5000
G1 X809.5792 Y772.4705 Z-20.0000 F5000
G1 X804.5789 Y772.4705 Z-20.0000 F5000
G1 X804.5789 Y774.4725 Z-20.0000 F5000
G1 X827.5789 Y774.4725 Z-20.0000 F5000
G1 X827.5789 Y962.4702 Z-20.0000 F5000
G1 X804.5789 Y962.4702 Z-20.0000 F5000
G1 X804.5789 Y964.4722 Z-20.0000 F5000
G1 X809.5792 Y964.4722 Z-20.0000 F5000
G1 X809.5792 Y1072.4698 Z-20.0000 F5000
G1 X804.5789 Y1072.4698 Z-20.0000 F5000
G1 X804.5789 Y1074.4718 Z-20.0000 F5000
G1 X827.5789 Y1074.4718 Z-20.0000 F5000
G1 X827.5789 Y1262.4695 Z-20.0000 F5000
G1 X804.5789 Y1262.4695 Z-20.0000 F5000
G1 X804.5789 Y1264.4715 Z-20.0000 F5000
G1 X809.5792 Y1264.4715 Z-20.0000 F5000
G1 X809.5792 Y1322.4695 Z-20.0000 F5000
G1 X747.8505 Y1322.4695 Z-20.0000 F5000
G1 X747.8505 Y1322.4695 Z-10.0000 F9999
G1 X731.8525 Y1322.4695 Z-10.0000 F5000
G1 X731.8525 Y1322.4695 Z-20.0000 F2500
G1 X600.3116 Y1322.4695 Z-20.0000 F5000
G1 X600.3116 Y1322.4695 Z-10.0000 F9999
G1 X584.3136 Y1322.4695 Z-10.0000 F5000
G1 X584.3136 Y1322.4695 Z-20.0000 F2500
G1 X551.5817 Y1322.4695 Z-20.0000 F5000
G1 X551.5817 Y1264.4715 Z-20.0000 F5000
G1 X556.5815 Y1264.4715 Z-20.0000 F5000
G1 X556.5815 Y1262.4695 Z-20.0000 F5000
G1 X533.5815 Y1262.4695 Z-20.0000 F5000
G1 X533.5815 Y1074.4718 Z-20.0000 F5000
G1 X556.5815 Y1074.4718 Z-20.0000 F5000
G1 X556.5815 Y1072.4698 Z-20.0000 F5000
G1 X551.5817 Y1072.4698 Z-20.0000 F5000
G1 X551.5817 Y964.4722 Z-20.0000 F5000
G1 X556.5815 Y964.4722 Z-20.0000 F5000
G1 X556.5815 Y962.4702 Z-20.0000 F5000
G1 X533.5815 Y962.4702 Z-20.0000 F5000
G1 X533.5815 Y774.4725 Z-20.0000 F5000
G1 X556.5815 Y774.4725 Z-20.0000 F5000
G1 X556.5815 Y772.4705 Z-20.0000 F5000
G1 X551.5817 Y772.4705 Z-20.0000 F5000
G1 X551.5817 Y644.0230 Z-20.0000 F5000
G1 X594.5794 Y644.0230 Z-20.0000 F5000
G1 X594.5794 Y649.0230 Z-20.0000 F5000
G1 X596.5814 Y649.0230 Z-20.0000 F5000
G1 X596.5814 Y629.0210 Z-20.0000 F5000
G1 X594.5794 Y629.0210 Z-20.0000 F5000
G1 X594.5794 Y634.0210 Z-20.0000 F5000
G1 X554.2205 Y634.0210 Z-20.0000 F5000
G1 X440.2344 Y546.3392 Z-20.0000 F5000
G1 X443.2827 Y542.3762 Z-20.0000 F5000
G1 X441.6961 Y541.1557 Z-20.0000 F5000
G1 X427.6727 Y559.3858 Z-20.0000 F5000
G1 X278.6613 Y444.7618 Z-20.0000 F5000
G1 X292.6847 Y426.5312 Z-20.0000 F5000
G1 X291.0982 Y425.3104 Z-20.0000 F5000
G1 X288.0500 Y429.2751 Z-20.0000 F5000
G1 X202.4474 Y363.4251 Z-20.0000 F5000
G1 X205.4956 Y359.4631 Z-20.0000 F5000
G1 X203.9093 Y358.2431 Z-20.0000 F5000
G1 X189.8858 Y376.4729 Z-20.0000 F5000
G1 X40.8742 Y261.8481 Z-20.0000 F5000
G1 X54.8977 Y243.6189 Z-20.0000 F5000
G1 X53.3110 Y242.3986 Z-20.0000 F5000
G1 X50.2623 Y246.3611 Z-20.0000 F5000
G1 X4.2920 Y210.9998 Z-20.0000 F5000
G1 X161.5960 Y6.5049 Z-20.0000 F5000
G1 X207.5670 Y41.8668 Z-20.0000 F5000
G1 X204.5178 Y45.8296 Z-20.0000 F5000
G1 X206.1047 Y47.0505 Z-20.0000 F5000
G1 X220.1279 Y28.8187 Z-20.0000 F5000
G1 X369.1395 Y143.4437 Z-20.0000 F5000
G1 X355.1158 Y161.6736 Z-20.0000 F5000
G1 X356.7025 Y162.8944 Z-20.0000 F5000
G1 X359.7506 Y158.9298 Z-20.0000 F5000
G1 X445.3532 Y224.7798 Z-20.0000 F5000
G1 X442.3050 Y228.7419 Z-20.0000 F5000
G1 X443.8911 Y229.9617 Z-20.0000 F5000
G1 X457.9148 Y211.7320 Z-20.0000 F5000
G1 X606.9262 Y326.3568 Z-20.0000 F5000
G1 X592.9025 Y344.5866 Z-20.0000 F5000
G1 X594.4892 Y345.8074 Z-20.0000 F5000
G1 X597.5376 Y341.8427 Z-20.0000 F5000
G1 X703.5584 Y423.3976 Z-20.0000 F5000
G1 X703.5584 Y423.3976 Z10.0000 F9999
G1 X279.9963 Y1579.7948 Z10.0000 F9999
G1 X279.9963 Y1579.7948 Z1.0000 F2500
G1 X241.3525 Y1574.7543 Z-9.5000 F2500
G1 X279.9963 Y1579.7948 Z-20.0000 F2500
G1 X132.7835 Y1560.5931 Z-20.0000 F5000
G1 X166.1020 Y1527.2747 Z-20.0000 F5000
G1 X169.6375 Y1530.8102 Z-20.0000 F5000
G1 X171.0531 Y1529.3946 Z-20.0000 F5000
G1 X156.9096 Y1515.2511 Z-20.0000 F5000
G1 X155.4940 Y1516.6667 Z-20.0000 F5000
G1 X159.0295 Y1520.2022 Z-20.0000 F5000
G1 X125.7111 Y1553.5207 Z-20.0000 F5000
G1 X87.3077 Y1259.0952 Z-20.0000 F5000
G1 X92.2648 Y1258.4492 Z-20.0000 F5000
G1 X92.0058 Y1256.4650 Z-20.0000 F5000
G1 X69.1994 Y1259.4393 Z-20.0000 F5000
G1 X44.8844 Y1073.0204 Z-20.0000 F5000
G1 X67.6909 Y1070.0463 Z-20.0000 F5000
G1 X67.4323 Y1068.0611 Z-20.0000 F5000
G1 X62.4732 Y1068.7093 Z-20.0000 F5000
G1 X48.5064 Y961.6157 Z-20.0000 F5000
G1 X53.4633 Y960.9695 Z-20.0000 F5000
G1 X53.2043 Y958.9854 Z-20.0000 F5000
G1 X30.3976 Y961.9597 Z-20.0000 F5000
G1 X6.0825 Y775.5407 Z-20.0000 F5000
G1 X28.8892 Y772.5664 Z-20.0000 F5000
G1 X28.6306 Y770.5812 Z-20.0000 F5000
G1 X23.6717 Y771.2289 Z-20.0000 F5000
G1 X16.1703 Y713.7178 Z-20.0000 F5000
G1 X272.0003 Y680.3487 Z-20.0000 F5000
G1 X279.5023 Y737.8591 Z-20.0000 F5000
G1 X274.5442 Y738.5056 Z-20.0000 F5000
G1 X274.8030 Y740.4913 Z-20.0000 F5000
G1 X297.6108 Y737.5152 Z-20.0000 F5000
G1 X321.9258 Y923.9345 Z-20.0000 F5000
G1 X299.1190 Y926.9087 Z-20.0000 F5000
G1 X299.3779 Y928.8953 Z-20.0000 F5000
G1 X304.3349 Y928.2493 Z-20.0000 F5000
G1 X318.3037 Y1035.3394 Z-20.0000 F5000
G1 X313.3467 Y1035.9853 Z-20.0000 F5000
G1 X313.6056 Y1037.9696 Z-20.0000 F5000
G1 X336.4121 Y1034.9953 Z-20.0000 F5000
G1 X360.7271 Y1221.4143 Z-20.0000 F5000
G1 X337.9205 Y1224.3885 Z-20.0000 F5000
G1 X338.1793 Y1226.3736 Z-20.0000 F5000
G1 X343.1381 Y1225.7257 Z-20.0000 F5000
G1 X356.6881 Y1329.6161 Z-20.0000 F5000
G1 X460.5785 Y1343.1661 Z-20.0000 F5000
G1 X459.9306 Y1348.1249 Z-20.0000 F5000
G1 X461.9157 Y1348.3837 Z-20.0000 F5000
G1 X464.8899 Y1325.5771 Z-20.0000 F5000
G1 X651.3089 Y1349.8921 Z-20.0000 F5000
G1 X648.3346 Y1372.6986 Z-20.0000 F5000
G1 X650.3189 Y1372.9576 Z-20.0000 F5000
G1 X650.9648 Y1368.0005 Z-20.0000 F5000
G1 X758.0549 Y1381.9693 Z-20.0000 F5000
G1 X757.4089 Y1386.9264 Z-20.0000 F5000
G1 X759.3955 Y1387.1852 Z-20.0000 F5000
G1 X762.3698 Y1364.3784 Z-20.0000 F5000
G1 X948.7890 Y1388.6934 Z-20.0000 F5000
G1 X945.8130 Y1411.5012 Z-20.0000 F5000
G1 X947.7986 Y1411.7600 Z-20.0000 F5000
G1 X948.4451 Y1406.8019 Z-20.0000 F5000
G1 X1005.9555 Y1414.3038 Z-20.0000 F5000
G1 X1000.9274 Y1452.8524 Z-20.0000 F5000
G1 X1000.9274 Y1452.8524 Z-10.0000 F9999
G1 X998.8583 Y1468.7161 Z-10.0000 F5000
G1 X998.8583 Y1468.7161 Z-20.0000 F2500
G1 X979.9845 Y1613.4151 Z-20.0000 F5000
G1 X979.9845 Y1613.4151 Z-10.0000 F9999
G1 X977.9153 Y1629.2788 Z-10.0000 F5000
G1 X977.9153 Y1629.2788 Z-20.0000 F2500
G1 X972.5864 Y1670.1338 Z-20.0000 F5000
G1 X915.0752 Y1662.6324 Z-20.0000 F5000
G1 X915.7229 Y1657.6736 Z-20.0000 F5000
G1 X913.7377 Y1657.4149 Z-20.0000 F5000
G1 X910.7635 Y1680.2216 Z-20.0000 F5000
G1 X724.3445 Y1655.9066 Z-20.0000 F5000
G1 X727.3188 Y1633.1000 Z-20.0000 F5000
G1 X725.3347 Y1632.8409 Z-20.0000 F5000
G1 X724.6885 Y1637.7979 Z-20.0000 F5000
G1 X617.5949 Y1623.8310 Z-20.0000 F5000
G1 X618.2431 Y1618.8719 Z-20.0000 F5000
G1 X616.2579 Y1618.6133 Z-20.0000 F5000
G1 X613.2839 Y1641.4198 Z-20.0000 F5000
G1 X426.8649 Y1617.1049 Z-20.0000 F5000
G1 X429.8392 Y1594.2984 Z-20.0000 F5000
G1 X427.8550 Y1594.0394 Z-20.0000 F5000
G1 X427.2090 Y1598.9965 Z-20.0000 F5000
G1 X279.9963 Y1579.7948 Z-20.0000 F5000
G1 X279.9963 Y1579.7948 Z10.0000 F9999
G1 X648.5115 Y1952.5299 Z10.0000 F9999
G1 X648.5115 Y1952.5299 Z1.0000 F2500
G1 X609.5403 Y1952.5299 Z-9.5000 F2500
G1 X648.5115 Y1952.5299 Z-20.0000 F2500
G1 X158.1263 Y1952.5299 Z-20.0000 F5000
G1 X158.1263 Y1952.5299 Z-10.0000 F9999
G1 X142.1283 Y1952.5299 Z-10.0000 F5000
G1 X142.1283 Y1952.5299 Z-20.0000 F2500
G1 X80.9009 Y1952.5299 Z-20.0000 F5000
G1 X80.9009 Y1865.5320 Z-20.0000 F5000
G1 X85.9008 Y1865.5320 Z-20.0000 F5000
G1 X85.9008 Y1863.5300 Z-20.0000 F5000
G1 X5.9010 Y1863.5300 Z-20.0000 F5000
G1 X5.9010 Y1783.5323 Z-20.0000 F5000
G1 X85.9008 Y1783.5323 Z-20.0000 F5000
G1 X85.9008 Y1781.5303 Z-20.0000 F5000
G1 X80.9009 Y1781.5303 Z-20.0000 F5000
G1 X80.9009 Y1676.5325 Z-20.0000 F5000
G1 X118.8988 Y1676.5325 Z-20.0000 F5000
G1 X118.8988 Y1699.5325 Z-20.0000 F5000
G1 X120.9008 Y1699.5325 Z-20.0000 F5000
G1 X120.9008 Y1694.5325 Z-20.0000 F5000
G1 X212.0151 Y1694.5325 Z-20.0000 F5000
G1 X212.0151 Y1694.5325 Z-10.0000 F9999
G1 X228.0131 Y1694.5325 Z-10.0000 F5000
G1 X228.0131 Y1694.5325 Z-20.0000 F2500
G1 X563.8979 Y1694.5325 Z-20.0000 F5000
G1 X563.8979 Y1699.5325 Z-20.0000 F5000
G1 X565.8998 Y1699.5325 Z-20.0000 F5000
G1 X565.8998 Y1676.5325 Z-20.0000 F5000
G1 X653.8977 Y1676.5325 Z-20.0000 F5000
G1 X653.8977 Y1699.5325 Z-20.0000 F5000
G1 X655.8997 Y1699.5325 Z-20.0000 F5000
G1 X655.8997 Y1694.5325 Z-20.0000 F5000
G1 X1098.8968 Y1694.5325 Z-20.0000 F5000
G1 X1098.8968 Y1699.5325 Z-20.0000 F5000
G1 X1100.8988 Y1699.5325 Z-20.0000 F5000
G1 X1100.8988 Y1676.5325 Z-20.0000 F5000
G1 X1138.8967 Y1676.5325 Z-20.0000 F5000
G1 X1138.8967 Y1781.5303 Z-20.0000 F5000
G1 X1133.8967 Y1781.5303 Z-20.0000 F5000
G1 X1133.8967 Y1783.5323 Z-20.0000 F5000
G1 X1213.8967 Y1783.5323 Z-20.0000 F5000
G1 X1213.8967 Y1863.5300 Z-20.0000 F5000
G1 X1133.8967 Y1863.5300 Z-20.0000 F5000
G1 X1133.8967 Y1865.5320 Z-20.0000 F5000
G1 X1138.8967 Y1865.5320 Z-20.0000 F5000
G1 X1138.8967 Y1952.5299 Z-20.0000 F5000
G1 X648.5115 Y1952.5299 Z-20.0000 F5000
G1 X648.5115 Y1952.5299 Z10.0000 F9999
G1 X609.8989 Y1966.5467 Z10.0000 F9999
G1 X609.8989 Y1966.5467 Z1.0000 F2500
G1 X648.8700 Y1966.5467 Z-9.5000 F2500
G1 X609.8989 Y1966.5467 Z-20.0000 F2500
G1 X1138.8968 Y1966.5467 Z-20.0000 F5000
G1 X1138.8968 Y2053.5445 Z-20.0000 F5000
G1 X1133.8969 Y2053.5445 Z-20.0000 F5000
G1 X1133.8969 Y2055.5465 Z-20.0000 F5000
G1 X1213.8967 Y2055.5465 Z-20.0000 F5000
G1 X1213.8967 Y2135.5443 Z-20.0000 F5000
G1 X1133.8969 Y2135.5443 Z-20.0000 F5000
G1 X1133.8969 Y2137.5463 Z-20.0000 F5000
G1 X1138.8968 Y2137.5463 Z-20.0000 F5000
G1 X1138.8968 Y2242.5441 Z-20.0000 F5000
G1 X1100.8989 Y2242.5441 Z-20.0000 F5000
G1 X1100.8989 Y2219.5441 Z-20.0000 F5000
G1 X1098.8969 Y2219.5441 Z-20.0000 F5000
G1 X1098.8969 Y2224.5441 Z-20.0000 F5000
G1 X655.8998 Y2224.5441 Z-20.0000 F5000
G1 X655.8998 Y2219.5441 Z-20.0000 F5000
G1 X653.8978 Y2219.5441 Z-20.0000 F5000
G1 X653.8978 Y2242.5441 Z-20.0000 F5000
G1 X565.9000 Y2242.5441 Z-20.0000 F5000
G1 X565.9000 Y2219.5441 Z-20.0000 F5000
G1 X563.8980 Y2219.5441 Z-20.0000 F5000
G1 X563.8980 Y2224.5441 Z-20.0000 F5000
G1 X120.9009 Y2224.5441 Z-20.0000 F5000
G1 X120.9009 Y2219.5441 Z-20.0000 F5000
G1 X118.8989 Y2219.5441 Z-20.0000 F5000
G1 X118.8989 Y2242.5441 Z-20.0000 F5000
G1 X80.9010 Y2242.5441 Z-20.0000 F5000
G1 X80.9010 Y2137.5463 Z-20.0000 F5000
G1 X85.9010 Y2137.5463 Z-20.0000 F5000
G1 X85.9010 Y2135.5443 Z-20.0000 F5000
G1 X5.9010 Y2135.5443 Z-20.0000 F5000
G1 X5.9010 Y2055.5465 Z-20.0000 F5000
G1 X85.9010 Y2055.5465 Z-20.0000 F5000
G1 X85.9010 Y2053.5445 Z-20.0000 F5000
G1 X80.9010 Y2053.5445 Z-20.0000 F5000
G1 X80.9010 Y1966.5467 Z-20.0000 F5000
G1 X609.8989 Y1966.5467 Z-20.0000 F5000
G1 X609.8989 Y1966.5467 Z10.0000 F9999
G1 X1900.0000 Y2800.0000 Z80.0000 F9999
G1 Z80.0000 F9999
G1 X1900.0000 Y2800.0000 F9999
M5
M30
