(plotsheet 2n3_nested_153 sheets_final v1_0_sheet 88 to 94_S88.0_9 screws_CC8 - stepover 1mm)
(Material Size) (X=1220.000, Y=2440.000, Z=21.000)
(LinuxCNC_NoArcs_MM_TC_medium_50um_G1_verbose.con)
G90 G80 G21 G49
G64 P0.050
M6 T1
(Tool Number:1) (7.998 mm dia. slot drill)
G43 H1 G0Z80.0000
M3 S9000
G04 P10
G1 X155.3041 Y597.2136 Z10.0000 F9999
G1 X155.3041 Y597.2136 Z2.0000 F9999
G1 X155.3041 Y597.2136 Z-1.0000 F2500
G1 X155.3041 Y597.2136 Z10.0000 F9999
G1 X591.8812 Y837.0721 Z10.0000 F9999
G1 X591.8812 Y837.0721 Z2.0000 F9999
G1 X591.8812 Y837.0721 Z-1.0000 F2500
G1 X591.8812 Y837.0721 Z10.0000 F9999
G1 X1035.3607 Y1109.7172 Z10.0000 F9999
G1 X1035.3607 Y1109.7172 Z2.0000 F9999
G1 X1035.3607 Y1109.7172 Z-1.0000 F2500
G1 X1035.3607 Y1109.7172 Z10.0000 F9999
G1 X534.9363 Y1611.8671 Z10.0000 F9999
G1 X534.9363 Y1611.8671 Z2.0000 F9999
G1 X534.9363 Y1611.8671 Z-1.0000 F2500
G1 X534.9363 Y1611.8671 Z10.0000 F9999
G1 X590.1556 Y1907.8076 Z10.0000 F9999
G1 X590.1556 Y1907.8076 Z2.0000 F9999
G1 X590.1556 Y1907.8076 Z-1.0000 F2500
G1 X590.1556 Y1907.8076 Z10.0000 F9999
G1 X785.1485 Y2203.7483 Z10.0000 F9999
G1 X785.1485 Y2203.7483 Z2.0000 F9999
G1 X785.1485 Y2203.7483 Z-1.0000 F2500
G1 X785.1485 Y2203.7483 Z10.0000 F9999
G1 X163.9321 Y2192.5317 Z10.0000 F9999
G1 X163.9321 Y2192.5317 Z2.0000 F9999
G1 X163.9321 Y2192.5317 Z-1.0000 F2500
G1 X163.9321 Y2192.5317 Z10.0000 F9999
G1 X150.1273 Y1714.5403 Z10.0000 F9999
G1 X150.1273 Y1714.5403 Z2.0000 F9999
G1 X150.1273 Y1714.5403 Z-1.0000 F2500
G1 X150.1273 Y1714.5403 Z10.0000 F9999
G1 X812.7581 Y149.4201 Z10.0000 F9999
G1 X812.7581 Y149.4201 Z2.0000 F9999
G1 X812.7581 Y149.4201 Z-1.0000 F2500
G1 X812.7581 Y149.4201 Z10.0000 F9999
G1 X1900.0000 Y2800.0000 Z80.0000 F9999
G1 Z80.0000 F9999
G1 X1900.0000 Y2800.0000 F9999
M5
M30
