(plotsheet 2n3_nested_153 sheets_final v1_0_sheet 151a_S151.1_text_CC8 - stepover 1mm)
(Material Size) (X=1220.000, Y=2440.000, Z=20.000)
(LinuxCNC_NoArcs_MM_TC_medium_50um_G1_verbose.con)
G90 G80 G21 G49
G64 P0.050
M6 T1
(Tool Number:1) (7.998 mm dia. slot drill)
G43 H1 G0Z80.0000
M3 S18000
G04 P10
G1 X82.2316 Y434.0252 Z10.0000 F9999
G1 X82.2316 Y434.0252 Z-1.0000 F2500
G1 X82.2316 Y448.4655 Z-1.0000 F5000
G1 X82.2316 Y434.0252 Z-1.0000 F5000
G1 X63.9380 Y434.0252 Z-1.0000 F5000
G1 X63.9380 Y449.1444 Z-1.0000 F5000
G1 X63.9380 Y434.0252 Z-1.0000 F5000
G1 X105.0390 Y434.0252 Z-1.0000 F5000
G1 X105.0390 Y434.0252 Z10.0000 F9999
G1 X105.0390 Y464.5573 Z10.0000 F9999
G1 X105.0390 Y464.5573 Z-1.0000 F2500
G1 X63.9380 Y464.5573 Z-1.0000 F5000
G1 X63.9380 Y471.7132 Z-1.0000 F5000
G1 X64.5435 Y475.5848 Z-1.0000 F5000
G1 X66.3601 Y478.7958 Z-1.0000 F5000
G1 X69.5160 Y481.0160 Z-1.0000 F5000
G1 X74.1582 Y481.8600 Z-1.0000 F5000
G1 X78.8371 Y480.7041 Z-1.0000 F5000
G1 X82.1582 Y477.9334 Z-1.0000 F5000
G1 X84.1215 Y474.6123 Z-1.0000 F5000
G1 X84.7821 Y471.7132 Z-1.0000 F5000
G1 X84.7821 Y464.5573 Z-1.0000 F5000
G1 X84.7821 Y471.7132 Z-1.0000 F5000
G1 X84.1215 Y474.6123 Z-1.0000 F5000
G1 X82.1582 Y477.9334 Z-1.0000 F5000
G1 X78.8371 Y480.7041 Z-1.0000 F5000
G1 X74.1582 Y481.8600 Z-1.0000 F5000
G1 X69.5160 Y481.0160 Z-1.0000 F5000
G1 X66.3601 Y478.7958 Z-1.0000 F5000
G1 X64.5435 Y475.5848 Z-1.0000 F5000
G1 X63.9380 Y471.7132 Z-1.0000 F5000
G1 X63.9380 Y464.5573 Z-1.0000 F5000
G1 X63.9380 Y464.5573 Z10.0000 F9999
G1 X63.9380 Y508.6674 Z10.0000 F9999
G1 X63.9380 Y508.6674 Z-1.0000 F2500
G1 X105.0390 Y524.7224 Z-1.0000 F5000
G1 X63.9380 Y508.6674 Z-1.0000 F5000
G1 X105.0390 Y492.6490 Z-1.0000 F5000
G1 X105.0390 Y492.6490 Z10.0000 F9999
G1 X105.0390 Y481.9701 Z10.0000 F9999
G1 X105.0390 Y481.9701 Z-1.0000 F2500
G1 X84.8922 Y468.7408 Z-1.0000 F5000
G1 X105.0390 Y481.9701 Z-1.0000 F5000
G1 X105.0390 Y481.9701 Z10.0000 F9999
G1 X90.3417 Y518.9793 Z10.0000 F9999
G1 X90.3417 Y518.9793 Z-1.0000 F2500
G1 X90.3417 Y498.2821 Z-1.0000 F5000
G1 X90.3417 Y518.9793 Z-1.0000 F5000
G1 X90.3417 Y518.9793 Z10.0000 F9999
G1 X80.3784 Y565.3463 Z10.0000 F9999
G1 X80.3784 Y565.3463 Z-1.0000 F2500
G1 X80.3784 Y536.0986 Z-1.0000 F5000
G1 X80.3784 Y565.3463 Z-1.0000 F5000
G1 X80.3784 Y565.3463 Z10.0000 F9999
G1 X63.9380 Y592.0435 Z10.0000 F9999
G1 X63.9380 Y592.0435 Z-1.0000 F2500
G1 X105.0390 Y608.0986 Z-1.0000 F5000
G1 X63.9380 Y592.0435 Z-1.0000 F5000
G1 X105.0390 Y576.0252 Z-1.0000 F5000
G1 X105.0390 Y576.0252 Z10.0000 F9999
G1 X90.3417 Y602.3554 Z10.0000 F9999
G1 X90.3417 Y602.3554 Z-1.0000 F2500
G1 X90.3417 Y581.6582 Z-1.0000 F5000
G1 X90.3417 Y602.3554 Z-1.0000 F5000
G1 X90.3417 Y602.3554 Z10.0000 F9999
G1 X98.2133 Y660.5756 Z10.0000 F9999
G1 X98.2133 Y660.5756 Z-1.0000 F2500
G1 X101.2591 Y662.5206 Z-1.0000 F5000
G1 X103.3142 Y664.9426 Z-1.0000 F5000
G1 X104.5619 Y668.0619 Z-1.0000 F5000
G1 X105.0390 Y672.1903 Z-1.0000 F5000
G1 X104.5802 Y676.6857 Z-1.0000 F5000
G1 X102.8371 Y680.5022 Z-1.0000 F5000
G1 X99.8463 Y683.1811 Z-1.0000 F5000
G1 X95.6812 Y684.3004 Z-1.0000 F5000
G1 X91.6812 Y683.7683 Z-1.0000 F5000
G1 X89.0023 Y682.2270 Z-1.0000 F5000
G1 X87.3142 Y680.1903 Z-1.0000 F5000
G1 X86.2133 Y678.2821 Z-1.0000 F5000
G1 X81.4793 Y669.0894 Z-1.0000 F5000
G1 X80.0665 Y666.7224 Z-1.0000 F5000
G1 X78.4151 Y664.8692 Z-1.0000 F5000
G1 X76.2316 Y663.6215 Z-1.0000 F5000
G1 X73.3509 Y663.1077 Z-1.0000 F5000
G1 X70.0665 Y663.6398 Z-1.0000 F5000
G1 X67.0390 Y665.4747 Z-1.0000 F5000
G1 X64.8188 Y668.6123 Z-1.0000 F5000
G1 X63.9380 Y672.9793 Z-1.0000 F5000
G1 X64.6169 Y677.2362 Z-1.0000 F5000
G1 X66.0848 Y680.0802 Z-1.0000 F5000
G1 X68.2316 Y682.1720 Z-1.0000 F5000
G1 X66.0848 Y680.0802 Z-1.0000 F5000
G1 X64.6169 Y677.2362 Z-1.0000 F5000
G1 X63.9380 Y672.9793 Z-1.0000 F5000
G1 X64.8188 Y668.6123 Z-1.0000 F5000
G1 X67.0390 Y665.4747 Z-1.0000 F5000
G1 X70.0665 Y663.6398 Z-1.0000 F5000
G1 X73.3509 Y663.1077 Z-1.0000 F5000
G1 X76.2316 Y663.6215 Z-1.0000 F5000
G1 X78.4151 Y664.8692 Z-1.0000 F5000
G1 X80.0665 Y666.7224 Z-1.0000 F5000
G1 X81.4793 Y669.0894 Z-1.0000 F5000
G1 X86.2133 Y678.2821 Z-1.0000 F5000
G1 X87.3142 Y680.1903 Z-1.0000 F5000
G1 X89.0023 Y682.2270 Z-1.0000 F5000
G1 X91.6812 Y683.7683 Z-1.0000 F5000
G1 X95.6812 Y684.3004 Z-1.0000 F5000
G1 X99.8463 Y683.1811 Z-1.0000 F5000
G1 X102.8371 Y680.5022 Z-1.0000 F5000
G1 X104.5802 Y676.6857 Z-1.0000 F5000
G1 X105.0390 Y672.1903 Z-1.0000 F5000
G1 X104.5619 Y668.0619 Z-1.0000 F5000
G1 X103.3142 Y664.9426 Z-1.0000 F5000
G1 X101.2591 Y662.5206 Z-1.0000 F5000
G1 X101.2591 Y662.5206 Z10.0000 F9999
G1 X97.0940 Y695.8050 Z10.0000 F9999
G1 X97.0940 Y695.8050 Z-1.0000 F2500
G1 X99.7729 Y696.5573 Z-1.0000 F5000
G1 X102.3417 Y698.2821 Z-1.0000 F5000
G1 X104.2867 Y701.2362 Z-1.0000 F5000
G1 X105.0390 Y705.7866 Z-1.0000 F5000
G1 X102.4151 Y714.3004 Z-1.0000 F5000
G1 X94.4335 Y717.4013 Z-1.0000 F5000
G1 X89.6995 Y716.5206 Z-1.0000 F5000
G1 X86.3417 Y714.2087 Z-1.0000 F5000
G1 X84.3417 Y710.9976 Z-1.0000 F5000
G1 X83.6628 Y707.4197 Z-1.0000 F5000
G1 X82.9289 Y710.8876 Z-1.0000 F5000
G1 X80.7087 Y713.8417 Z-1.0000 F5000
G1 X77.3325 Y715.9334 Z-1.0000 F5000
G1 X73.1307 Y716.7224 Z-1.0000 F5000
G1 X71.5527 Y716.6857 Z-1.0000 F5000
G1 X69.5711 Y716.4105 Z-1.0000 F5000
G1 X67.5527 Y715.6215 Z-1.0000 F5000
G1 X65.7179 Y714.0986 Z-1.0000 F5000
G1 X64.4151 Y711.5481 Z-1.0000 F5000
G1 X63.9380 Y707.8050 Z-1.0000 F5000
G1 X64.7637 Y702.4288 Z-1.0000 F5000
G1 X66.7821 Y699.3279 Z-1.0000 F5000
G1 X69.4426 Y697.8050 Z-1.0000 F5000
G1 X72.1766 Y697.2178 Z-1.0000 F5000
G1 X69.4426 Y697.8050 Z-1.0000 F5000
G1 X66.7821 Y699.3279 Z-1.0000 F5000
G1 X64.7637 Y702.4288 Z-1.0000 F5000
G1 X63.9380 Y707.8050 Z-1.0000 F5000
G1 X64.4151 Y711.5481 Z-1.0000 F5000
G1 X65.7179 Y714.0986 Z-1.0000 F5000
G1 X67.5527 Y715.6215 Z-1.0000 F5000
G1 X69.5711 Y716.4105 Z-1.0000 F5000
G1 X71.5160 Y716.6857 Z-1.0000 F5000
G1 X73.1307 Y716.7224 Z-1.0000 F5000
G1 X77.3325 Y715.9334 Z-1.0000 F5000
G1 X80.7087 Y713.8417 Z-1.0000 F5000
G1 X82.9289 Y710.8876 Z-1.0000 F5000
G1 X83.6628 Y707.4197 Z-1.0000 F5000
G1 X84.3417 Y710.9976 Z-1.0000 F5000
G1 X86.3417 Y714.2087 Z-1.0000 F5000
G1 X89.6995 Y716.5206 Z-1.0000 F5000
G1 X94.4335 Y717.4013 Z-1.0000 F5000
G1 X102.4151 Y714.3004 Z-1.0000 F5000
G1 X105.0390 Y705.7866 Z-1.0000 F5000
G1 X104.2867 Y701.2362 Z-1.0000 F5000
G1 X102.3417 Y698.2821 Z-1.0000 F5000
G1 X99.7729 Y696.5573 Z-1.0000 F5000
G1 X99.7729 Y696.5573 Z10.0000 F9999
G1 X54.5435 Y649.8600 Z10.0000 F9999
G1 X54.5435 Y649.8600 Z-1.0000 F2500
G1 X107.3876 Y619.4747 Z-1.0000 F5000
G1 X54.5435 Y649.8600 Z-1.0000 F5000
G1 X54.5435 Y649.8600 Z10.0000 F9999
G1 X54.5435 Y759.0710 Z10.0000 F9999
G1 X54.5435 Y759.0710 Z-1.0000 F2500
G1 X107.3876 Y728.6857 Z-1.0000 F5000
G1 X54.5435 Y759.0710 Z-1.0000 F5000
G1 X54.5435 Y759.0710 Z10.0000 F9999
G1 X63.9380 Y774.5756 Z10.0000 F9999
G1 X63.9380 Y774.5756 Z-1.0000 F2500
G1 X105.0390 Y774.5756 Z-1.0000 F5000
G1 X63.9380 Y774.5756 Z-1.0000 F5000
G1 X63.9380 Y774.5756 Z10.0000 F9999
G1 X63.9380 Y794.5389 Z10.0000 F9999
G1 X63.9380 Y794.5389 Z-1.0000 F2500
G1 X105.0390 Y831.6398 Z-1.0000 F5000
G1 X63.9380 Y831.6398 Z-1.0000 F5000
G1 X105.0390 Y831.6398 Z-1.0000 F5000
G1 X63.9380 Y794.5389 Z-1.0000 F5000
G1 X105.0390 Y794.5389 Z-1.0000 F5000
G1 X105.0390 Y794.5389 Z10.0000 F9999
G1 X230.5266 Y759.0710 Z10.0000 F9999
G1 X230.5266 Y759.0710 Z-1.0000 F2500
G1 X283.3707 Y728.6857 Z-1.0000 F5000
G1 X230.5266 Y759.0710 Z-1.0000 F5000
G1 X230.5266 Y759.0710 Z10.0000 F9999
G1 X239.9211 Y774.5756 Z10.0000 F9999
G1 X239.9211 Y774.5756 Z-1.0000 F2500
G1 X281.0220 Y774.5756 Z-1.0000 F5000
G1 X239.9211 Y774.5756 Z-1.0000 F5000
G1 X239.9211 Y774.5756 Z10.0000 F9999
G1 X239.9211 Y794.5389 Z10.0000 F9999
G1 X239.9211 Y794.5389 Z-1.0000 F2500
G1 X281.0220 Y831.6398 Z-1.0000 F5000
G1 X239.9211 Y831.6398 Z-1.0000 F5000
G1 X281.0220 Y831.6398 Z-1.0000 F5000
G1 X239.9211 Y794.5389 Z-1.0000 F5000
G1 X281.0220 Y794.5389 Z-1.0000 F5000
G1 X281.0220 Y794.5389 Z10.0000 F9999
G1 X273.0771 Y695.8050 Z10.0000 F9999
G1 X273.0771 Y695.8050 Z-1.0000 F2500
G1 X275.7560 Y696.5573 Z-1.0000 F5000
G1 X278.3248 Y698.2821 Z-1.0000 F5000
G1 X280.2697 Y701.2362 Z-1.0000 F5000
G1 X281.0220 Y705.7866 Z-1.0000 F5000
G1 X278.3982 Y714.3004 Z-1.0000 F5000
G1 X270.4165 Y717.4013 Z-1.0000 F5000
G1 X265.6826 Y716.5206 Z-1.0000 F5000
G1 X262.3248 Y714.2087 Z-1.0000 F5000
G1 X260.3248 Y710.9976 Z-1.0000 F5000
G1 X259.6459 Y707.4197 Z-1.0000 F5000
G1 X258.9119 Y710.8876 Z-1.0000 F5000
G1 X256.6918 Y713.8417 Z-1.0000 F5000
G1 X253.3156 Y715.9334 Z-1.0000 F5000
G1 X249.1138 Y716.7224 Z-1.0000 F5000
G1 X247.5358 Y716.6857 Z-1.0000 F5000
G1 X245.5541 Y716.4105 Z-1.0000 F5000
G1 X243.5358 Y715.6215 Z-1.0000 F5000
G1 X241.7009 Y714.0986 Z-1.0000 F5000
G1 X240.3982 Y711.5481 Z-1.0000 F5000
G1 X239.9211 Y707.8050 Z-1.0000 F5000
G1 X240.7468 Y702.4288 Z-1.0000 F5000
G1 X242.7651 Y699.3279 Z-1.0000 F5000
G1 X245.4257 Y697.8050 Z-1.0000 F5000
G1 X248.1596 Y697.2178 Z-1.0000 F5000
G1 X245.4257 Y697.8050 Z-1.0000 F5000
G1 X242.7651 Y699.3279 Z-1.0000 F5000
G1 X240.7468 Y702.4288 Z-1.0000 F5000
G1 X239.9211 Y707.8050 Z-1.0000 F5000
G1 X240.3982 Y711.5481 Z-1.0000 F5000
G1 X241.7009 Y714.0986 Z-1.0000 F5000
G1 X243.5358 Y715.6215 Z-1.0000 F5000
G1 X245.5541 Y716.4105 Z-1.0000 F5000
G1 X247.4991 Y716.6857 Z-1.0000 F5000
G1 X249.1138 Y716.7224 Z-1.0000 F5000
G1 X253.3156 Y715.9334 Z-1.0000 F5000
G1 X256.6918 Y713.8417 Z-1.0000 F5000
G1 X258.9119 Y710.8876 Z-1.0000 F5000
G1 X259.6459 Y707.4197 Z-1.0000 F5000
G1 X260.3248 Y710.9976 Z-1.0000 F5000
G1 X262.3248 Y714.2087 Z-1.0000 F5000
G1 X265.6826 Y716.5206 Z-1.0000 F5000
G1 X270.4165 Y717.4013 Z-1.0000 F5000
G1 X278.3982 Y714.3004 Z-1.0000 F5000
G1 X281.0220 Y705.7866 Z-1.0000 F5000
G1 X280.2697 Y701.2362 Z-1.0000 F5000
G1 X278.3248 Y698.2821 Z-1.0000 F5000
G1 X275.7560 Y696.5573 Z-1.0000 F5000
G1 X275.7560 Y696.5573 Z10.0000 F9999
G1 X274.1963 Y660.5756 Z10.0000 F9999
G1 X274.1963 Y660.5756 Z-1.0000 F2500
G1 X277.2422 Y662.5206 Z-1.0000 F5000
G1 X279.2973 Y664.9426 Z-1.0000 F5000
G1 X280.5450 Y668.0619 Z-1.0000 F5000
G1 X281.0220 Y672.1903 Z-1.0000 F5000
G1 X280.5633 Y676.6857 Z-1.0000 F5000
G1 X278.8202 Y680.5022 Z-1.0000 F5000
G1 X275.8294 Y683.1811 Z-1.0000 F5000
G1 X271.6642 Y684.3004 Z-1.0000 F5000
G1 X267.6642 Y683.7683 Z-1.0000 F5000
G1 X264.9853 Y682.2270 Z-1.0000 F5000
G1 X263.2973 Y680.1903 Z-1.0000 F5000
G1 X262.1963 Y678.2821 Z-1.0000 F5000
G1 X257.4624 Y669.0894 Z-1.0000 F5000
G1 X256.0496 Y666.7224 Z-1.0000 F5000
G1 X254.3982 Y664.8692 Z-1.0000 F5000
G1 X252.2147 Y663.6215 Z-1.0000 F5000
G1 X249.3340 Y663.1077 Z-1.0000 F5000
G1 X246.0496 Y663.6398 Z-1.0000 F5000
G1 X243.0220 Y665.4747 Z-1.0000 F5000
G1 X240.8018 Y668.6123 Z-1.0000 F5000
G1 X239.9211 Y672.9793 Z-1.0000 F5000
G1 X240.6000 Y677.2362 Z-1.0000 F5000
G1 X242.0679 Y680.0802 Z-1.0000 F5000
G1 X244.2147 Y682.1720 Z-1.0000 F5000
G1 X242.0679 Y680.0802 Z-1.0000 F5000
G1 X240.6000 Y677.2362 Z-1.0000 F5000
G1 X239.9211 Y672.9793 Z-1.0000 F5000
G1 X240.8018 Y668.6123 Z-1.0000 F5000
G1 X243.0220 Y665.4747 Z-1.0000 F5000
G1 X246.0496 Y663.6398 Z-1.0000 F5000
G1 X249.3340 Y663.1077 Z-1.0000 F5000
G1 X252.2147 Y663.6215 Z-1.0000 F5000
G1 X254.3982 Y664.8692 Z-1.0000 F5000
G1 X256.0496 Y666.7224 Z-1.0000 F5000
G1 X257.4624 Y669.0894 Z-1.0000 F5000
G1 X262.1963 Y678.2821 Z-1.0000 F5000
G1 X263.2973 Y680.1903 Z-1.0000 F5000
G1 X264.9853 Y682.2270 Z-1.0000 F5000
G1 X267.6642 Y683.7683 Z-1.0000 F5000
G1 X271.6642 Y684.3004 Z-1.0000 F5000
G1 X275.8294 Y683.1811 Z-1.0000 F5000
G1 X278.8202 Y680.5022 Z-1.0000 F5000
G1 X280.5633 Y676.6857 Z-1.0000 F5000
G1 X281.0220 Y672.1903 Z-1.0000 F5000
G1 X280.5450 Y668.0619 Z-1.0000 F5000
G1 X279.2973 Y664.9426 Z-1.0000 F5000
G1 X277.2422 Y662.5206 Z-1.0000 F5000
G1 X277.2422 Y662.5206 Z10.0000 F9999
G1 X230.5266 Y649.8600 Z10.0000 F9999
G1 X230.5266 Y649.8600 Z-1.0000 F2500
G1 X283.3707 Y619.4747 Z-1.0000 F5000
G1 X230.5266 Y649.8600 Z-1.0000 F5000
G1 X230.5266 Y649.8600 Z10.0000 F9999
G1 X239.9211 Y592.0435 Z10.0000 F9999
G1 X239.9211 Y592.0435 Z-1.0000 F2500
G1 X281.0220 Y608.0986 Z-1.0000 F5000
G1 X239.9211 Y592.0435 Z-1.0000 F5000
G1 X281.0220 Y576.0252 Z-1.0000 F5000
G1 X281.0220 Y576.0252 Z10.0000 F9999
G1 X256.3615 Y565.3463 Z10.0000 F9999
G1 X256.3615 Y565.3463 Z-1.0000 F2500
G1 X256.3615 Y536.0986 Z-1.0000 F5000
G1 X256.3615 Y565.3463 Z-1.0000 F5000
G1 X256.3615 Y565.3463 Z10.0000 F9999
G1 X266.3248 Y602.3554 Z10.0000 F9999
G1 X266.3248 Y602.3554 Z-1.0000 F2500
G1 X266.3248 Y581.6582 Z-1.0000 F5000
G1 X266.3248 Y602.3554 Z-1.0000 F5000
G1 X266.3248 Y602.3554 Z10.0000 F9999
G1 X266.3248 Y518.9793 Z10.0000 F9999
G1 X266.3248 Y518.9793 Z-1.0000 F2500
G1 X266.3248 Y498.2821 Z-1.0000 F5000
G1 X266.3248 Y518.9793 Z-1.0000 F5000
G1 X266.3248 Y518.9793 Z10.0000 F9999
G1 X239.9211 Y508.6674 Z10.0000 F9999
G1 X239.9211 Y508.6674 Z-1.0000 F2500
G1 X281.0220 Y524.7224 Z-1.0000 F5000
G1 X239.9211 Y508.6674 Z-1.0000 F5000
G1 X281.0220 Y492.6490 Z-1.0000 F5000
G1 X281.0220 Y492.6490 Z10.0000 F9999
G1 X281.0220 Y481.9701 Z10.0000 F9999
G1 X281.0220 Y481.9701 Z-1.0000 F2500
G1 X260.8752 Y468.7408 Z-1.0000 F5000
G1 X281.0220 Y481.9701 Z-1.0000 F5000
G1 X281.0220 Y481.9701 Z10.0000 F9999
G1 X281.0220 Y464.5573 Z10.0000 F9999
G1 X281.0220 Y464.5573 Z-1.0000 F2500
G1 X239.9211 Y464.5573 Z-1.0000 F5000
G1 X239.9211 Y471.7132 Z-1.0000 F5000
G1 X240.5266 Y475.5848 Z-1.0000 F5000
G1 X242.3431 Y478.7958 Z-1.0000 F5000
G1 X245.4991 Y481.0160 Z-1.0000 F5000
G1 X250.1413 Y481.8600 Z-1.0000 F5000
G1 X254.8202 Y480.7041 Z-1.0000 F5000
G1 X258.1413 Y477.9334 Z-1.0000 F5000
G1 X260.1046 Y474.6123 Z-1.0000 F5000
G1 X260.7651 Y471.7132 Z-1.0000 F5000
G1 X260.7651 Y464.5573 Z-1.0000 F5000
G1 X260.7651 Y471.7132 Z-1.0000 F5000
G1 X260.1046 Y474.6123 Z-1.0000 F5000
G1 X258.1413 Y477.9334 Z-1.0000 F5000
G1 X254.8202 Y480.7041 Z-1.0000 F5000
G1 X250.1413 Y481.8600 Z-1.0000 F5000
G1 X245.4991 Y481.0160 Z-1.0000 F5000
G1 X242.3431 Y478.7958 Z-1.0000 F5000
G1 X240.5266 Y475.5848 Z-1.0000 F5000
G1 X239.9211 Y471.7132 Z-1.0000 F5000
G1 X239.9211 Y464.5573 Z-1.0000 F5000
G1 X239.9211 Y464.5573 Z10.0000 F9999
G1 X258.2147 Y434.0252 Z10.0000 F9999
G1 X258.2147 Y434.0252 Z-1.0000 F2500
G1 X258.2147 Y448.4655 Z-1.0000 F5000
G1 X258.2147 Y434.0252 Z-1.0000 F5000
G1 X239.9211 Y434.0252 Z-1.0000 F5000
G1 X239.9211 Y449.1444 Z-1.0000 F5000
G1 X239.9211 Y434.0252 Z-1.0000 F5000
G1 X281.0220 Y434.0252 Z-1.0000 F5000
G1 X281.0220 Y434.0252 Z10.0000 F9999
G1 X426.3293 Y434.0252 Z10.0000 F9999
G1 X426.3293 Y434.0252 Z-1.0000 F2500
G1 X426.3293 Y448.4655 Z-1.0000 F5000
G1 X426.3293 Y434.0252 Z-1.0000 F5000
G1 X408.0357 Y434.0252 Z-1.0000 F5000
G1 X408.0357 Y449.1444 Z-1.0000 F5000
G1 X408.0357 Y434.0252 Z-1.0000 F5000
G1 X449.1366 Y434.0252 Z-1.0000 F5000
G1 X449.1366 Y434.0252 Z10.0000 F9999
G1 X449.1366 Y464.5573 Z10.0000 F9999
G1 X449.1366 Y464.5573 Z-1.0000 F2500
G1 X408.0357 Y464.5573 Z-1.0000 F5000
G1 X408.0357 Y471.7132 Z-1.0000 F5000
G1 X408.6412 Y475.5848 Z-1.0000 F5000
G1 X410.4577 Y478.7958 Z-1.0000 F5000
G1 X413.6137 Y481.0160 Z-1.0000 F5000
G1 X418.2559 Y481.8600 Z-1.0000 F5000
G1 X422.9348 Y480.7041 Z-1.0000 F5000
G1 X426.2559 Y477.9334 Z-1.0000 F5000
G1 X428.2192 Y474.6123 Z-1.0000 F5000
G1 X428.8797 Y471.7132 Z-1.0000 F5000
G1 X428.8797 Y464.5573 Z-1.0000 F5000
G1 X428.8797 Y471.7132 Z-1.0000 F5000
G1 X428.2192 Y474.6123 Z-1.0000 F5000
G1 X426.2559 Y477.9334 Z-1.0000 F5000
G1 X422.9348 Y480.7041 Z-1.0000 F5000
G1 X418.2559 Y481.8600 Z-1.0000 F5000
G1 X413.6137 Y481.0160 Z-1.0000 F5000
G1 X410.4577 Y478.7958 Z-1.0000 F5000
G1 X408.6412 Y475.5848 Z-1.0000 F5000
G1 X408.0357 Y471.7132 Z-1.0000 F5000
G1 X408.0357 Y464.5573 Z-1.0000 F5000
G1 X408.0357 Y464.5573 Z10.0000 F9999
G1 X408.0357 Y508.6674 Z10.0000 F9999
G1 X408.0357 Y508.6674 Z-1.0000 F2500
G1 X449.1366 Y524.7224 Z-1.0000 F5000
G1 X408.0357 Y508.6674 Z-1.0000 F5000
G1 X449.1366 Y492.6490 Z-1.0000 F5000
G1 X449.1366 Y492.6490 Z10.0000 F9999
G1 X449.1366 Y481.9701 Z10.0000 F9999
G1 X449.1366 Y481.9701 Z-1.0000 F2500
G1 X428.9898 Y468.7408 Z-1.0000 F5000
G1 X449.1366 Y481.9701 Z-1.0000 F5000
G1 X449.1366 Y481.9701 Z10.0000 F9999
G1 X434.4394 Y518.9793 Z10.0000 F9999
G1 X434.4394 Y518.9793 Z-1.0000 F2500
G1 X434.4394 Y498.2821 Z-1.0000 F5000
G1 X434.4394 Y518.9793 Z-1.0000 F5000
G1 X434.4394 Y518.9793 Z10.0000 F9999
G1 X424.4760 Y565.3463 Z10.0000 F9999
G1 X424.4760 Y565.3463 Z-1.0000 F2500
G1 X424.4760 Y536.0986 Z-1.0000 F5000
G1 X424.4760 Y565.3463 Z-1.0000 F5000
G1 X424.4760 Y565.3463 Z10.0000 F9999
G1 X408.0357 Y592.0435 Z10.0000 F9999
G1 X408.0357 Y592.0435 Z-1.0000 F2500
G1 X449.1366 Y608.0986 Z-1.0000 F5000
G1 X408.0357 Y592.0435 Z-1.0000 F5000
G1 X449.1366 Y576.0252 Z-1.0000 F5000
G1 X449.1366 Y576.0252 Z10.0000 F9999
G1 X434.4394 Y602.3554 Z10.0000 F9999
G1 X434.4394 Y602.3554 Z-1.0000 F2500
G1 X434.4394 Y581.6582 Z-1.0000 F5000
G1 X434.4394 Y602.3554 Z-1.0000 F5000
G1 X434.4394 Y602.3554 Z10.0000 F9999
G1 X442.3109 Y660.5756 Z10.0000 F9999
G1 X442.3109 Y660.5756 Z-1.0000 F2500
G1 X445.3568 Y662.5206 Z-1.0000 F5000
G1 X447.4118 Y664.9426 Z-1.0000 F5000
G1 X448.6595 Y668.0619 Z-1.0000 F5000
G1 X449.1366 Y672.1903 Z-1.0000 F5000
G1 X448.6779 Y676.6857 Z-1.0000 F5000
G1 X446.9348 Y680.5022 Z-1.0000 F5000
G1 X443.9439 Y683.1811 Z-1.0000 F5000
G1 X439.7788 Y684.3004 Z-1.0000 F5000
G1 X435.7788 Y683.7683 Z-1.0000 F5000
G1 X433.0999 Y682.2270 Z-1.0000 F5000
G1 X431.4118 Y680.1903 Z-1.0000 F5000
G1 X430.3109 Y678.2821 Z-1.0000 F5000
G1 X425.5770 Y669.0894 Z-1.0000 F5000
G1 X424.1641 Y666.7224 Z-1.0000 F5000
G1 X422.5127 Y664.8692 Z-1.0000 F5000
G1 X420.3293 Y663.6215 Z-1.0000 F5000
G1 X417.4485 Y663.1077 Z-1.0000 F5000
G1 X414.1641 Y663.6398 Z-1.0000 F5000
G1 X411.1366 Y665.4747 Z-1.0000 F5000
G1 X408.9164 Y668.6123 Z-1.0000 F5000
G1 X408.0357 Y672.9793 Z-1.0000 F5000
G1 X408.7146 Y677.2362 Z-1.0000 F5000
G1 X410.1825 Y680.0802 Z-1.0000 F5000
G1 X412.3293 Y682.1720 Z-1.0000 F5000
G1 X410.1825 Y680.0802 Z-1.0000 F5000
G1 X408.7146 Y677.2362 Z-1.0000 F5000
G1 X408.0357 Y672.9793 Z-1.0000 F5000
G1 X408.9164 Y668.6123 Z-1.0000 F5000
G1 X411.1366 Y665.4747 Z-1.0000 F5000
G1 X414.1641 Y663.6398 Z-1.0000 F5000
G1 X417.4485 Y663.1077 Z-1.0000 F5000
G1 X420.3293 Y663.6215 Z-1.0000 F5000
G1 X422.5127 Y664.8692 Z-1.0000 F5000
G1 X424.1641 Y666.7224 Z-1.0000 F5000
G1 X425.5770 Y669.0894 Z-1.0000 F5000
G1 X430.3109 Y678.2821 Z-1.0000 F5000
G1 X431.4118 Y680.1903 Z-1.0000 F5000
G1 X433.0999 Y682.2270 Z-1.0000 F5000
G1 X435.7788 Y683.7683 Z-1.0000 F5000
G1 X439.7788 Y684.3004 Z-1.0000 F5000
G1 X443.9439 Y683.1811 Z-1.0000 F5000
G1 X446.9348 Y680.5022 Z-1.0000 F5000
G1 X448.6779 Y676.6857 Z-1.0000 F5000
G1 X449.1366 Y672.1903 Z-1.0000 F5000
G1 X448.6595 Y668.0619 Z-1.0000 F5000
G1 X447.4118 Y664.9426 Z-1.0000 F5000
G1 X445.3568 Y662.5206 Z-1.0000 F5000
G1 X445.3568 Y662.5206 Z10.0000 F9999
G1 X441.1916 Y695.8050 Z10.0000 F9999
G1 X441.1916 Y695.8050 Z-1.0000 F2500
G1 X443.8705 Y696.5573 Z-1.0000 F5000
G1 X446.4394 Y698.2821 Z-1.0000 F5000
G1 X448.3843 Y701.2362 Z-1.0000 F5000
G1 X449.1366 Y705.7866 Z-1.0000 F5000
G1 X446.5127 Y714.3004 Z-1.0000 F5000
G1 X438.5311 Y717.4013 Z-1.0000 F5000
G1 X433.7971 Y716.5206 Z-1.0000 F5000
G1 X430.4394 Y714.2087 Z-1.0000 F5000
G1 X428.4394 Y710.9976 Z-1.0000 F5000
G1 X427.7605 Y707.4197 Z-1.0000 F5000
G1 X427.0265 Y710.8876 Z-1.0000 F5000
G1 X424.8063 Y713.8417 Z-1.0000 F5000
G1 X421.4302 Y715.9334 Z-1.0000 F5000
G1 X417.2283 Y716.7224 Z-1.0000 F5000
G1 X415.6504 Y716.6857 Z-1.0000 F5000
G1 X413.6687 Y716.4105 Z-1.0000 F5000
G1 X411.6504 Y715.6215 Z-1.0000 F5000
G1 X409.8155 Y714.0986 Z-1.0000 F5000
G1 X408.5127 Y711.5481 Z-1.0000 F5000
G1 X408.0357 Y707.8050 Z-1.0000 F5000
G1 X408.8614 Y702.4288 Z-1.0000 F5000
G1 X410.8797 Y699.3279 Z-1.0000 F5000
G1 X413.5403 Y697.8050 Z-1.0000 F5000
G1 X416.2742 Y697.2178 Z-1.0000 F5000
G1 X413.5403 Y697.8050 Z-1.0000 F5000
G1 X410.8797 Y699.3279 Z-1.0000 F5000
G1 X408.8614 Y702.4288 Z-1.0000 F5000
G1 X408.0357 Y707.8050 Z-1.0000 F5000
G1 X408.5127 Y711.5481 Z-1.0000 F5000
G1 X409.8155 Y714.0986 Z-1.0000 F5000
G1 X411.6504 Y715.6215 Z-1.0000 F5000
G1 X413.6687 Y716.4105 Z-1.0000 F5000
G1 X415.6137 Y716.6857 Z-1.0000 F5000
G1 X417.2283 Y716.7224 Z-1.0000 F5000
G1 X421.4302 Y715.9334 Z-1.0000 F5000
G1 X424.8063 Y713.8417 Z-1.0000 F5000
G1 X427.0265 Y710.8876 Z-1.0000 F5000
G1 X427.7605 Y707.4197 Z-1.0000 F5000
G1 X428.4394 Y710.9976 Z-1.0000 F5000
G1 X430.4394 Y714.2087 Z-1.0000 F5000
G1 X433.7971 Y716.5206 Z-1.0000 F5000
G1 X438.5311 Y717.4013 Z-1.0000 F5000
G1 X446.5127 Y714.3004 Z-1.0000 F5000
G1 X449.1366 Y705.7866 Z-1.0000 F5000
G1 X448.3843 Y701.2362 Z-1.0000 F5000
G1 X446.4394 Y698.2821 Z-1.0000 F5000
G1 X443.8705 Y696.5573 Z-1.0000 F5000
G1 X443.8705 Y696.5573 Z10.0000 F9999
G1 X398.6412 Y649.8600 Z10.0000 F9999
G1 X398.6412 Y649.8600 Z-1.0000 F2500
G1 X451.4852 Y619.4747 Z-1.0000 F5000
G1 X398.6412 Y649.8600 Z-1.0000 F5000
G1 X398.6412 Y649.8600 Z10.0000 F9999
G1 X398.6412 Y759.0710 Z10.0000 F9999
G1 X398.6412 Y759.0710 Z-1.0000 F2500
G1 X451.4852 Y728.6857 Z-1.0000 F5000
G1 X398.6412 Y759.0710 Z-1.0000 F5000
G1 X398.6412 Y759.0710 Z10.0000 F9999
G1 X408.0357 Y774.5756 Z10.0000 F9999
G1 X408.0357 Y774.5756 Z-1.0000 F2500
G1 X449.1366 Y774.5756 Z-1.0000 F5000
G1 X408.0357 Y774.5756 Z-1.0000 F5000
G1 X408.0357 Y774.5756 Z10.0000 F9999
G1 X408.0357 Y794.5389 Z10.0000 F9999
G1 X408.0357 Y794.5389 Z-1.0000 F2500
G1 X449.1366 Y831.6398 Z-1.0000 F5000
G1 X408.0357 Y831.6398 Z-1.0000 F5000
G1 X449.1366 Y831.6398 Z-1.0000 F5000
G1 X408.0357 Y794.5389 Z-1.0000 F5000
G1 X449.1366 Y794.5389 Z-1.0000 F5000
G1 X449.1366 Y794.5389 Z10.0000 F9999
G1 X599.7802 Y493.3407 Z10.0000 F9999
G1 X599.7802 Y493.3407 Z-1.0000 F2500
G1 X599.7802 Y478.9003 Z-1.0000 F5000
G1 X599.7802 Y493.3407 Z-1.0000 F5000
G1 X618.0738 Y493.3407 Z-1.0000 F5000
G1 X618.0738 Y478.2214 Z-1.0000 F5000
G1 X618.0738 Y493.3407 Z-1.0000 F5000
G1 X576.9729 Y493.3407 Z-1.0000 F5000
G1 X576.9729 Y493.3407 Z10.0000 F9999
G1 X576.9729 Y462.8085 Z10.0000 F9999
G1 X576.9729 Y462.8085 Z-1.0000 F2500
G1 X618.0738 Y462.8085 Z-1.0000 F5000
G1 X618.0738 Y455.6526 Z-1.0000 F5000
G1 X617.4683 Y451.7810 Z-1.0000 F5000
G1 X615.6518 Y448.5700 Z-1.0000 F5000
G1 X612.4958 Y446.3498 Z-1.0000 F5000
G1 X607.8536 Y445.5058 Z-1.0000 F5000
G1 X603.1747 Y446.6618 Z-1.0000 F5000
G1 X599.8536 Y449.4324 Z-1.0000 F5000
G1 X597.8903 Y452.7535 Z-1.0000 F5000
G1 X597.2298 Y455.6526 Z-1.0000 F5000
G1 X597.2298 Y462.8085 Z-1.0000 F5000
G1 X597.2298 Y455.6526 Z-1.0000 F5000
G1 X597.8903 Y452.7535 Z-1.0000 F5000
G1 X599.8536 Y449.4324 Z-1.0000 F5000
G1 X603.1747 Y446.6618 Z-1.0000 F5000
G1 X607.8536 Y445.5058 Z-1.0000 F5000
G1 X612.4958 Y446.3498 Z-1.0000 F5000
G1 X615.6518 Y448.5700 Z-1.0000 F5000
G1 X617.4683 Y451.7810 Z-1.0000 F5000
G1 X618.0738 Y455.6526 Z-1.0000 F5000
G1 X618.0738 Y462.8085 Z-1.0000 F5000
G1 X618.0738 Y462.8085 Z10.0000 F9999
G1 X618.0738 Y418.6985 Z10.0000 F9999
G1 X618.0738 Y418.6985 Z-1.0000 F2500
G1 X576.9729 Y402.6434 Z-1.0000 F5000
G1 X618.0738 Y418.6985 Z-1.0000 F5000
G1 X576.9729 Y434.7168 Z-1.0000 F5000
G1 X576.9729 Y434.7168 Z10.0000 F9999
G1 X576.9729 Y445.3957 Z10.0000 F9999
G1 X576.9729 Y445.3957 Z-1.0000 F2500
G1 X597.1197 Y458.6251 Z-1.0000 F5000
G1 X576.9729 Y445.3957 Z-1.0000 F5000
G1 X576.9729 Y445.3957 Z10.0000 F9999
G1 X591.6701 Y408.3865 Z10.0000 F9999
G1 X591.6701 Y408.3865 Z-1.0000 F2500
G1 X591.6701 Y429.0838 Z-1.0000 F5000
G1 X591.6701 Y408.3865 Z-1.0000 F5000
G1 X591.6701 Y408.3865 Z10.0000 F9999
G1 X601.6334 Y362.0196 Z10.0000 F9999
G1 X601.6334 Y362.0196 Z-1.0000 F2500
G1 X601.6334 Y391.2673 Z-1.0000 F5000
G1 X601.6334 Y362.0196 Z-1.0000 F5000
G1 X601.6334 Y362.0196 Z10.0000 F9999
G1 X618.0738 Y335.3223 Z10.0000 F9999
G1 X618.0738 Y335.3223 Z-1.0000 F2500
G1 X576.9729 Y319.2673 Z-1.0000 F5000
G1 X618.0738 Y335.3223 Z-1.0000 F5000
G1 X576.9729 Y351.3407 Z-1.0000 F5000
G1 X576.9729 Y351.3407 Z10.0000 F9999
G1 X591.6701 Y325.0104 Z10.0000 F9999
G1 X591.6701 Y325.0104 Z-1.0000 F2500
G1 X591.6701 Y345.7076 Z-1.0000 F5000
G1 X591.6701 Y325.0104 Z-1.0000 F5000
G1 X591.6701 Y325.0104 Z10.0000 F9999
G1 X583.7986 Y266.7902 Z10.0000 F9999
G1 X583.7986 Y266.7902 Z-1.0000 F2500
G1 X580.7527 Y264.8452 Z-1.0000 F5000
G1 X578.6976 Y262.4232 Z-1.0000 F5000
G1 X577.4499 Y259.3040 Z-1.0000 F5000
G1 X576.9729 Y255.1755 Z-1.0000 F5000
G1 X577.4316 Y250.6801 Z-1.0000 F5000
G1 X579.1747 Y246.8636 Z-1.0000 F5000
G1 X582.1655 Y244.1847 Z-1.0000 F5000
G1 X586.3307 Y243.0654 Z-1.0000 F5000
G1 X590.3307 Y243.5975 Z-1.0000 F5000
G1 X593.0096 Y245.1388 Z-1.0000 F5000
G1 X594.6976 Y247.1755 Z-1.0000 F5000
G1 X595.7986 Y249.0838 Z-1.0000 F5000
G1 X600.5325 Y258.2764 Z-1.0000 F5000
G1 X601.9454 Y260.6434 Z-1.0000 F5000
G1 X603.5967 Y262.4966 Z-1.0000 F5000
G1 X605.7802 Y263.7443 Z-1.0000 F5000
G1 X608.6610 Y264.2581 Z-1.0000 F5000
G1 X611.9454 Y263.7260 Z-1.0000 F5000
G1 X614.9729 Y261.8911 Z-1.0000 F5000
G1 X617.1931 Y258.7535 Z-1.0000 F5000
G1 X618.0738 Y254.3865 Z-1.0000 F5000
G1 X617.3949 Y250.1296 Z-1.0000 F5000
G1 X615.9270 Y247.2856 Z-1.0000 F5000
G1 X613.7802 Y245.1939 Z-1.0000 F5000
G1 X615.9270 Y247.2856 Z-1.0000 F5000
G1 X617.3949 Y250.1296 Z-1.0000 F5000
G1 X618.0738 Y254.3865 Z-1.0000 F5000
G1 X617.1931 Y258.7535 Z-1.0000 F5000
G1 X614.9729 Y261.8911 Z-1.0000 F5000
G1 X611.9454 Y263.7260 Z-1.0000 F5000
G1 X608.6610 Y264.2581 Z-1.0000 F5000
G1 X605.7802 Y263.7443 Z-1.0000 F5000
G1 X603.5967 Y262.4966 Z-1.0000 F5000
G1 X601.9454 Y260.6434 Z-1.0000 F5000
G1 X600.5325 Y258.2764 Z-1.0000 F5000
G1 X595.7986 Y249.0838 Z-1.0000 F5000
G1 X594.6976 Y247.1755 Z-1.0000 F5000
G1 X593.0096 Y245.1388 Z-1.0000 F5000
G1 X590.3307 Y243.5975 Z-1.0000 F5000
G1 X586.3307 Y243.0654 Z-1.0000 F5000
G1 X582.1655 Y244.1847 Z-1.0000 F5000
G1 X579.1747 Y246.8636 Z-1.0000 F5000
G1 X577.4316 Y250.6801 Z-1.0000 F5000
G1 X576.9729 Y255.1755 Z-1.0000 F5000
G1 X577.4499 Y259.3040 Z-1.0000 F5000
G1 X578.6976 Y262.4232 Z-1.0000 F5000
G1 X580.7527 Y264.8452 Z-1.0000 F5000
G1 X580.7527 Y264.8452 Z10.0000 F9999
G1 X576.9729 Y231.5608 Z10.0000 F9999
G1 X576.9729 Y231.5608 Z-1.0000 F2500
G1 X594.5876 Y215.8177 Z-1.0000 F5000
G1 X596.6057 Y214.0691 Z-1.0000 F5000
G1 X598.6793 Y212.3865 Z-1.0000 F5000
G1 X600.2391 Y211.3667 Z-1.0000 F5000
G1 X601.8353 Y210.4049 Z-1.0000 F5000
G1 X604.2940 Y209.4691 Z-1.0000 F5000
G1 X607.5784 Y209.0654 Z-1.0000 F5000
G1 X611.3215 Y209.6893 Z-1.0000 F5000
G1 X614.6976 Y211.6159 Z-1.0000 F5000
G1 X617.1380 Y214.9553 Z-1.0000 F5000
G1 X618.0738 Y219.9462 Z-1.0000 F5000
G1 X615.4683 Y228.6618 Z-1.0000 F5000
G1 X608.7160 Y231.4507 Z-1.0000 F5000
G1 X615.4683 Y228.6618 Z-1.0000 F5000
G1 X618.0738 Y219.9462 Z-1.0000 F5000
G1 X617.1380 Y214.9553 Z-1.0000 F5000
G1 X614.6976 Y211.6159 Z-1.0000 F5000
G1 X611.3215 Y209.6893 Z-1.0000 F5000
G1 X607.5784 Y209.0654 Z-1.0000 F5000
G1 X604.2940 Y209.4691 Z-1.0000 F5000
G1 X601.8353 Y210.4049 Z-1.0000 F5000
G1 X600.2391 Y211.3667 Z-1.0000 F5000
G1 X598.6793 Y212.3865 Z-1.0000 F5000
G1 X596.6057 Y214.0691 Z-1.0000 F5000
G1 X594.5876 Y215.8177 Z-1.0000 F5000
G1 X576.9729 Y231.5608 Z-1.0000 F5000
G1 X576.9729 Y209.3590 Z-1.0000 F5000
G1 X576.9729 Y209.3590 Z10.0000 F9999
G1 X627.4683 Y168.2948 Z10.0000 F9999
G1 X627.4683 Y168.2948 Z-1.0000 F2500
G1 X574.6243 Y198.6801 Z-1.0000 F5000
G1 X627.4683 Y168.2948 Z-1.0000 F5000
G1 X627.4683 Y168.2948 Z10.0000 F9999
G1 X618.0738 Y152.7902 Z10.0000 F9999
G1 X618.0738 Y152.7902 Z-1.0000 F2500
G1 X576.9729 Y152.7902 Z-1.0000 F5000
G1 X618.0738 Y152.7902 Z-1.0000 F5000
G1 X618.0738 Y152.7902 Z10.0000 F9999
G1 X618.0738 Y132.8269 Z10.0000 F9999
G1 X618.0738 Y132.8269 Z-1.0000 F2500
G1 X576.9729 Y95.7260 Z-1.0000 F5000
G1 X618.0738 Y95.7260 Z-1.0000 F5000
G1 X576.9729 Y95.7260 Z-1.0000 F5000
G1 X618.0738 Y132.8269 Z-1.0000 F5000
G1 X576.9729 Y132.8269 Z-1.0000 F5000
G1 X576.9729 Y132.8269 Z10.0000 F9999
G1 X627.4683 Y277.5058 Z10.0000 F9999
G1 X627.4683 Y277.5058 Z-1.0000 F2500
G1 X574.6243 Y307.8911 Z-1.0000 F5000
G1 X627.4683 Y277.5058 Z-1.0000 F5000
G1 X627.4683 Y277.5058 Z10.0000 F9999
G1 X760.8650 Y266.7902 Z10.0000 F9999
G1 X760.8650 Y266.7902 Z-1.0000 F2500
G1 X757.8191 Y264.8452 Z-1.0000 F5000
G1 X755.7640 Y262.4232 Z-1.0000 F5000
G1 X754.5163 Y259.3040 Z-1.0000 F5000
G1 X754.0393 Y255.1755 Z-1.0000 F5000
G1 X754.4980 Y250.6801 Z-1.0000 F5000
G1 X756.2411 Y246.8636 Z-1.0000 F5000
G1 X759.2319 Y244.1847 Z-1.0000 F5000
G1 X763.3971 Y243.0654 Z-1.0000 F5000
G1 X767.3971 Y243.5975 Z-1.0000 F5000
G1 X770.0760 Y245.1388 Z-1.0000 F5000
G1 X771.7640 Y247.1755 Z-1.0000 F5000
G1 X772.8650 Y249.0838 Z-1.0000 F5000
G1 X777.5989 Y258.2764 Z-1.0000 F5000
G1 X779.0118 Y260.6434 Z-1.0000 F5000
G1 X780.6631 Y262.4966 Z-1.0000 F5000
G1 X782.8466 Y263.7443 Z-1.0000 F5000
G1 X785.7274 Y264.2581 Z-1.0000 F5000
G1 X789.0118 Y263.7260 Z-1.0000 F5000
G1 X792.0393 Y261.8911 Z-1.0000 F5000
G1 X794.2595 Y258.7535 Z-1.0000 F5000
G1 X795.1402 Y254.3865 Z-1.0000 F5000
G1 X794.4613 Y250.1296 Z-1.0000 F5000
G1 X792.9934 Y247.2856 Z-1.0000 F5000
G1 X790.8466 Y245.1939 Z-1.0000 F5000
G1 X792.9934 Y247.2856 Z-1.0000 F5000
G1 X794.4613 Y250.1296 Z-1.0000 F5000
G1 X795.1402 Y254.3865 Z-1.0000 F5000
G1 X794.2595 Y258.7535 Z-1.0000 F5000
G1 X792.0393 Y261.8911 Z-1.0000 F5000
G1 X789.0118 Y263.7260 Z-1.0000 F5000
G1 X785.7274 Y264.2581 Z-1.0000 F5000
G1 X782.8466 Y263.7443 Z-1.0000 F5000
G1 X780.6631 Y262.4966 Z-1.0000 F5000
G1 X779.0118 Y260.6434 Z-1.0000 F5000
G1 X777.5989 Y258.2764 Z-1.0000 F5000
G1 X772.8650 Y249.0838 Z-1.0000 F5000
G1 X771.7640 Y247.1755 Z-1.0000 F5000
G1 X770.0760 Y245.1388 Z-1.0000 F5000
G1 X767.3971 Y243.5975 Z-1.0000 F5000
G1 X763.3971 Y243.0654 Z-1.0000 F5000
G1 X759.2319 Y244.1847 Z-1.0000 F5000
G1 X756.2411 Y246.8636 Z-1.0000 F5000
G1 X754.4980 Y250.6801 Z-1.0000 F5000
G1 X754.0393 Y255.1755 Z-1.0000 F5000
G1 X754.5163 Y259.3040 Z-1.0000 F5000
G1 X755.7640 Y262.4232 Z-1.0000 F5000
G1 X757.8191 Y264.8452 Z-1.0000 F5000
G1 X757.8191 Y264.8452 Z10.0000 F9999
G1 X754.0393 Y231.5608 Z10.0000 F9999
G1 X754.0393 Y231.5608 Z-1.0000 F2500
G1 X771.6540 Y215.8177 Z-1.0000 F5000
G1 X773.6721 Y214.0691 Z-1.0000 F5000
G1 X775.7457 Y212.3865 Z-1.0000 F5000
G1 X777.3055 Y211.3667 Z-1.0000 F5000
G1 X778.9017 Y210.4049 Z-1.0000 F5000
G1 X781.3604 Y209.4691 Z-1.0000 F5000
G1 X784.6448 Y209.0654 Z-1.0000 F5000
G1 X788.3879 Y209.6893 Z-1.0000 F5000
G1 X791.7640 Y211.6159 Z-1.0000 F5000
G1 X794.2044 Y214.9553 Z-1.0000 F5000
G1 X795.1402 Y219.9462 Z-1.0000 F5000
G1 X792.5347 Y228.6618 Z-1.0000 F5000
G1 X785.7824 Y231.4507 Z-1.0000 F5000
G1 X792.5347 Y228.6618 Z-1.0000 F5000
G1 X795.1402 Y219.9462 Z-1.0000 F5000
G1 X794.2044 Y214.9553 Z-1.0000 F5000
G1 X791.7640 Y211.6159 Z-1.0000 F5000
G1 X788.3879 Y209.6893 Z-1.0000 F5000
G1 X784.6448 Y209.0654 Z-1.0000 F5000
G1 X781.3604 Y209.4691 Z-1.0000 F5000
G1 X778.9017 Y210.4049 Z-1.0000 F5000
G1 X777.3055 Y211.3667 Z-1.0000 F5000
G1 X775.7457 Y212.3865 Z-1.0000 F5000
G1 X773.6721 Y214.0691 Z-1.0000 F5000
G1 X771.6540 Y215.8177 Z-1.0000 F5000
G1 X754.0393 Y231.5608 Z-1.0000 F5000
G1 X754.0393 Y209.3590 Z-1.0000 F5000
G1 X754.0393 Y209.3590 Z10.0000 F9999
G1 X804.5347 Y168.2948 Z10.0000 F9999
G1 X804.5347 Y168.2948 Z-1.0000 F2500
G1 X751.6907 Y198.6801 Z-1.0000 F5000
G1 X804.5347 Y168.2948 Z-1.0000 F5000
G1 X804.5347 Y168.2948 Z10.0000 F9999
G1 X795.1402 Y152.7902 Z10.0000 F9999
G1 X795.1402 Y152.7902 Z-1.0000 F2500
G1 X754.0393 Y152.7902 Z-1.0000 F5000
G1 X795.1402 Y152.7902 Z-1.0000 F5000
G1 X795.1402 Y152.7902 Z10.0000 F9999
G1 X795.1402 Y132.8269 Z10.0000 F9999
G1 X795.1402 Y132.8269 Z-1.0000 F2500
G1 X754.0393 Y95.7260 Z-1.0000 F5000
G1 X795.1402 Y95.7260 Z-1.0000 F5000
G1 X754.0393 Y95.7260 Z-1.0000 F5000
G1 X795.1402 Y132.8269 Z-1.0000 F5000
G1 X754.0393 Y132.8269 Z-1.0000 F5000
G1 X754.0393 Y132.8269 Z10.0000 F9999
G1 X804.5347 Y277.5058 Z10.0000 F9999
G1 X804.5347 Y277.5058 Z-1.0000 F2500
G1 X751.6907 Y307.8911 Z-1.0000 F5000
G1 X804.5347 Y277.5058 Z-1.0000 F5000
G1 X804.5347 Y277.5058 Z10.0000 F9999
G1 X795.1402 Y335.3223 Z10.0000 F9999
G1 X795.1402 Y335.3223 Z-1.0000 F2500
G1 X754.0393 Y319.2673 Z-1.0000 F5000
G1 X795.1402 Y335.3223 Z-1.0000 F5000
G1 X754.0393 Y351.3407 Z-1.0000 F5000
G1 X754.0393 Y351.3407 Z10.0000 F9999
G1 X778.6998 Y362.0196 Z10.0000 F9999
G1 X778.6998 Y362.0196 Z-1.0000 F2500
G1 X778.6998 Y391.2673 Z-1.0000 F5000
G1 X778.6998 Y362.0196 Z-1.0000 F5000
G1 X778.6998 Y362.0196 Z10.0000 F9999
G1 X768.7365 Y325.0104 Z10.0000 F9999
G1 X768.7365 Y325.0104 Z-1.0000 F2500
G1 X768.7365 Y345.7076 Z-1.0000 F5000
G1 X768.7365 Y325.0104 Z-1.0000 F5000
G1 X768.7365 Y325.0104 Z10.0000 F9999
G1 X768.7365 Y408.3865 Z10.0000 F9999
G1 X768.7365 Y408.3865 Z-1.0000 F2500
G1 X768.7365 Y429.0838 Z-1.0000 F5000
G1 X768.7365 Y408.3865 Z-1.0000 F5000
G1 X768.7365 Y408.3865 Z10.0000 F9999
G1 X795.1402 Y418.6985 Z10.0000 F9999
G1 X795.1402 Y418.6985 Z-1.0000 F2500
G1 X754.0393 Y402.6434 Z-1.0000 F5000
G1 X795.1402 Y418.6985 Z-1.0000 F5000
G1 X754.0393 Y434.7168 Z-1.0000 F5000
G1 X754.0393 Y434.7168 Z10.0000 F9999
G1 X754.0393 Y445.3957 Z10.0000 F9999
G1 X754.0393 Y445.3957 Z-1.0000 F2500
G1 X774.1861 Y458.6251 Z-1.0000 F5000
G1 X754.0393 Y445.3957 Z-1.0000 F5000
G1 X754.0393 Y445.3957 Z10.0000 F9999
G1 X754.0393 Y462.8085 Z10.0000 F9999
G1 X754.0393 Y462.8085 Z-1.0000 F2500
G1 X795.1402 Y462.8085 Z-1.0000 F5000
G1 X795.1402 Y455.6526 Z-1.0000 F5000
G1 X794.5347 Y451.7810 Z-1.0000 F5000
G1 X792.7182 Y448.5700 Z-1.0000 F5000
G1 X789.5622 Y446.3498 Z-1.0000 F5000
G1 X784.9200 Y445.5058 Z-1.0000 F5000
G1 X780.2411 Y446.6618 Z-1.0000 F5000
G1 X776.9200 Y449.4324 Z-1.0000 F5000
G1 X774.9567 Y452.7535 Z-1.0000 F5000
G1 X774.2962 Y455.6526 Z-1.0000 F5000
G1 X774.2962 Y462.8085 Z-1.0000 F5000
G1 X774.2962 Y455.6526 Z-1.0000 F5000
G1 X774.9567 Y452.7535 Z-1.0000 F5000
G1 X776.9200 Y449.4324 Z-1.0000 F5000
G1 X780.2411 Y446.6618 Z-1.0000 F5000
G1 X784.9200 Y445.5058 Z-1.0000 F5000
G1 X789.5622 Y446.3498 Z-1.0000 F5000
G1 X792.7182 Y448.5700 Z-1.0000 F5000
G1 X794.5347 Y451.7810 Z-1.0000 F5000
G1 X795.1402 Y455.6526 Z-1.0000 F5000
G1 X795.1402 Y462.8085 Z-1.0000 F5000
G1 X795.1402 Y462.8085 Z10.0000 F9999
G1 X776.8466 Y493.3407 Z10.0000 F9999
G1 X776.8466 Y493.3407 Z-1.0000 F2500
G1 X776.8466 Y478.9003 Z-1.0000 F5000
G1 X776.8466 Y493.3407 Z-1.0000 F5000
G1 X795.1402 Y493.3407 Z-1.0000 F5000
G1 X795.1402 Y478.2214 Z-1.0000 F5000
G1 X795.1402 Y493.3407 Z-1.0000 F5000
G1 X754.0393 Y493.3407 Z-1.0000 F5000
G1 X754.0393 Y493.3407 Z10.0000 F9999
G1 X921.0705 Y462.8085 Z10.0000 F9999
G1 X921.0705 Y462.8085 Z-1.0000 F2500
G1 X962.1714 Y462.8085 Z-1.0000 F5000
G1 X962.1714 Y455.6526 Z-1.0000 F5000
G1 X961.5659 Y451.7810 Z-1.0000 F5000
G1 X959.7494 Y448.5700 Z-1.0000 F5000
G1 X956.5935 Y446.3498 Z-1.0000 F5000
G1 X951.9513 Y445.5058 Z-1.0000 F5000
G1 X947.2724 Y446.6618 Z-1.0000 F5000
G1 X943.9513 Y449.4324 Z-1.0000 F5000
G1 X941.9879 Y452.7535 Z-1.0000 F5000
G1 X941.3274 Y455.6526 Z-1.0000 F5000
G1 X941.3274 Y462.8085 Z-1.0000 F5000
G1 X941.3274 Y455.6526 Z-1.0000 F5000
G1 X941.9879 Y452.7535 Z-1.0000 F5000
G1 X943.9513 Y449.4324 Z-1.0000 F5000
G1 X947.2724 Y446.6618 Z-1.0000 F5000
G1 X951.9513 Y445.5058 Z-1.0000 F5000
G1 X956.5935 Y446.3498 Z-1.0000 F5000
G1 X959.7494 Y448.5700 Z-1.0000 F5000
G1 X961.5659 Y451.7810 Z-1.0000 F5000
G1 X962.1714 Y455.6526 Z-1.0000 F5000
G1 X962.1714 Y462.8085 Z-1.0000 F5000
G1 X962.1714 Y462.8085 Z10.0000 F9999
G1 X943.8779 Y493.3407 Z10.0000 F9999
G1 X943.8779 Y493.3407 Z-1.0000 F2500
G1 X943.8779 Y478.9003 Z-1.0000 F5000
G1 X943.8779 Y493.3407 Z-1.0000 F5000
G1 X962.1714 Y493.3407 Z-1.0000 F5000
G1 X962.1714 Y478.2214 Z-1.0000 F5000
G1 X962.1714 Y493.3407 Z-1.0000 F5000
G1 X921.0705 Y493.3407 Z-1.0000 F5000
G1 X921.0705 Y493.3407 Z10.0000 F9999
G1 X921.0705 Y445.3957 Z10.0000 F9999
G1 X921.0705 Y445.3957 Z-1.0000 F2500
G1 X941.2173 Y458.6251 Z-1.0000 F5000
G1 X921.0705 Y445.3957 Z-1.0000 F5000
G1 X921.0705 Y445.3957 Z10.0000 F9999
G1 X935.7678 Y408.3865 Z10.0000 F9999
G1 X935.7678 Y408.3865 Z-1.0000 F2500
G1 X935.7678 Y429.0838 Z-1.0000 F5000
G1 X935.7678 Y408.3865 Z-1.0000 F5000
G1 X935.7678 Y408.3865 Z10.0000 F9999
G1 X962.1714 Y418.6985 Z10.0000 F9999
G1 X962.1714 Y418.6985 Z-1.0000 F2500
G1 X921.0705 Y402.6434 Z-1.0000 F5000
G1 X962.1714 Y418.6985 Z-1.0000 F5000
G1 X921.0705 Y434.7168 Z-1.0000 F5000
G1 X921.0705 Y434.7168 Z10.0000 F9999
G1 X945.7311 Y362.0196 Z10.0000 F9999
G1 X945.7311 Y362.0196 Z-1.0000 F2500
G1 X945.7311 Y391.2673 Z-1.0000 F5000
G1 X945.7311 Y362.0196 Z-1.0000 F5000
G1 X945.7311 Y362.0196 Z10.0000 F9999
G1 X962.1714 Y335.3223 Z10.0000 F9999
G1 X962.1714 Y335.3223 Z-1.0000 F2500
G1 X921.0705 Y319.2673 Z-1.0000 F5000
G1 X962.1714 Y335.3223 Z-1.0000 F5000
G1 X921.0705 Y351.3407 Z-1.0000 F5000
G1 X921.0705 Y351.3407 Z10.0000 F9999
G1 X935.7678 Y325.0104 Z10.0000 F9999
G1 X935.7678 Y325.0104 Z-1.0000 F2500
G1 X935.7678 Y345.7076 Z-1.0000 F5000
G1 X935.7678 Y325.0104 Z-1.0000 F5000
G1 X935.7678 Y325.0104 Z10.0000 F9999
G1 X927.8962 Y266.7902 Z10.0000 F9999
G1 X927.8962 Y266.7902 Z-1.0000 F2500
G1 X924.8503 Y264.8452 Z-1.0000 F5000
G1 X922.7953 Y262.4232 Z-1.0000 F5000
G1 X921.5476 Y259.3040 Z-1.0000 F5000
G1 X921.0705 Y255.1755 Z-1.0000 F5000
G1 X921.5292 Y250.6801 Z-1.0000 F5000
G1 X923.2724 Y246.8636 Z-1.0000 F5000
G1 X926.2632 Y244.1847 Z-1.0000 F5000
G1 X930.4283 Y243.0654 Z-1.0000 F5000
G1 X934.4283 Y243.5975 Z-1.0000 F5000
G1 X937.1072 Y245.1388 Z-1.0000 F5000
G1 X938.7953 Y247.1755 Z-1.0000 F5000
G1 X939.8962 Y249.0838 Z-1.0000 F5000
G1 X944.6301 Y258.2764 Z-1.0000 F5000
G1 X946.0430 Y260.6434 Z-1.0000 F5000
G1 X947.6944 Y262.4966 Z-1.0000 F5000
G1 X949.8779 Y263.7443 Z-1.0000 F5000
G1 X952.7586 Y264.2581 Z-1.0000 F5000
G1 X956.0430 Y263.7260 Z-1.0000 F5000
G1 X959.0705 Y261.8911 Z-1.0000 F5000
G1 X961.2907 Y258.7535 Z-1.0000 F5000
G1 X962.1714 Y254.3865 Z-1.0000 F5000
G1 X961.4925 Y250.1296 Z-1.0000 F5000
G1 X960.0246 Y247.2856 Z-1.0000 F5000
G1 X957.8779 Y245.1939 Z-1.0000 F5000
G1 X960.0246 Y247.2856 Z-1.0000 F5000
G1 X961.4925 Y250.1296 Z-1.0000 F5000
G1 X962.1714 Y254.3865 Z-1.0000 F5000
G1 X961.2907 Y258.7535 Z-1.0000 F5000
G1 X959.0705 Y261.8911 Z-1.0000 F5000
G1 X956.0430 Y263.7260 Z-1.0000 F5000
G1 X952.7586 Y264.2581 Z-1.0000 F5000
G1 X949.8779 Y263.7443 Z-1.0000 F5000
G1 X947.6944 Y262.4966 Z-1.0000 F5000
G1 X946.0430 Y260.6434 Z-1.0000 F5000
G1 X944.6301 Y258.2764 Z-1.0000 F5000
G1 X939.8962 Y249.0838 Z-1.0000 F5000
G1 X938.7953 Y247.1755 Z-1.0000 F5000
G1 X937.1072 Y245.1388 Z-1.0000 F5000
G1 X934.4283 Y243.5975 Z-1.0000 F5000
G1 X930.4283 Y243.0654 Z-1.0000 F5000
G1 X926.2632 Y244.1847 Z-1.0000 F5000
G1 X923.2724 Y246.8636 Z-1.0000 F5000
G1 X921.5292 Y250.6801 Z-1.0000 F5000
G1 X921.0705 Y255.1755 Z-1.0000 F5000
G1 X921.5476 Y259.3040 Z-1.0000 F5000
G1 X922.7953 Y262.4232 Z-1.0000 F5000
G1 X924.8503 Y264.8452 Z-1.0000 F5000
G1 X924.8503 Y264.8452 Z10.0000 F9999
G1 X921.0705 Y231.5608 Z10.0000 F9999
G1 X921.0705 Y231.5608 Z-1.0000 F2500
G1 X938.6852 Y215.8177 Z-1.0000 F5000
G1 X940.7034 Y214.0691 Z-1.0000 F5000
G1 X942.7769 Y212.3865 Z-1.0000 F5000
G1 X944.3367 Y211.3667 Z-1.0000 F5000
G1 X945.9329 Y210.4049 Z-1.0000 F5000
G1 X948.3916 Y209.4691 Z-1.0000 F5000
G1 X951.6760 Y209.0654 Z-1.0000 F5000
G1 X955.4191 Y209.6893 Z-1.0000 F5000
G1 X958.7953 Y211.6159 Z-1.0000 F5000
G1 X961.2357 Y214.9553 Z-1.0000 F5000
G1 X962.1714 Y219.9462 Z-1.0000 F5000
G1 X959.5659 Y228.6618 Z-1.0000 F5000
G1 X952.8136 Y231.4507 Z-1.0000 F5000
G1 X959.5659 Y228.6618 Z-1.0000 F5000
G1 X962.1714 Y219.9462 Z-1.0000 F5000
G1 X961.2357 Y214.9553 Z-1.0000 F5000
G1 X958.7953 Y211.6159 Z-1.0000 F5000
G1 X955.4191 Y209.6893 Z-1.0000 F5000
G1 X951.6760 Y209.0654 Z-1.0000 F5000
G1 X948.3916 Y209.4691 Z-1.0000 F5000
G1 X945.9329 Y210.4049 Z-1.0000 F5000
G1 X944.3367 Y211.3667 Z-1.0000 F5000
G1 X942.7769 Y212.3865 Z-1.0000 F5000
G1 X940.7034 Y214.0691 Z-1.0000 F5000
G1 X938.6852 Y215.8177 Z-1.0000 F5000
G1 X921.0705 Y231.5608 Z-1.0000 F5000
G1 X921.0705 Y209.3590 Z-1.0000 F5000
G1 X921.0705 Y209.3590 Z10.0000 F9999
G1 X971.5659 Y168.2948 Z10.0000 F9999
G1 X971.5659 Y168.2948 Z-1.0000 F2500
G1 X918.7219 Y198.6801 Z-1.0000 F5000
G1 X971.5659 Y168.2948 Z-1.0000 F5000
G1 X971.5659 Y168.2948 Z10.0000 F9999
G1 X962.1714 Y152.7902 Z10.0000 F9999
G1 X962.1714 Y152.7902 Z-1.0000 F2500
G1 X921.0705 Y152.7902 Z-1.0000 F5000
G1 X962.1714 Y152.7902 Z-1.0000 F5000
G1 X962.1714 Y152.7902 Z10.0000 F9999
G1 X962.1714 Y132.8269 Z10.0000 F9999
G1 X962.1714 Y132.8269 Z-1.0000 F2500
G1 X921.0705 Y95.7260 Z-1.0000 F5000
G1 X962.1714 Y95.7260 Z-1.0000 F5000
G1 X921.0705 Y95.7260 Z-1.0000 F5000
G1 X962.1714 Y132.8269 Z-1.0000 F5000
G1 X921.0705 Y132.8269 Z-1.0000 F5000
G1 X921.0705 Y132.8269 Z10.0000 F9999
G1 X971.5659 Y277.5058 Z10.0000 F9999
G1 X971.5659 Y277.5058 Z-1.0000 F2500
G1 X918.7219 Y307.8911 Z-1.0000 F5000
G1 X971.5659 Y277.5058 Z-1.0000 F5000
G1 X971.5659 Y277.5058 Z10.0000 F9999
G1 X1104.9626 Y266.7902 Z10.0000 F9999
G1 X1104.9626 Y266.7902 Z-1.0000 F2500
G1 X1101.9167 Y264.8452 Z-1.0000 F5000
G1 X1099.8617 Y262.4232 Z-1.0000 F5000
G1 X1098.6140 Y259.3040 Z-1.0000 F5000
G1 X1098.1369 Y255.1755 Z-1.0000 F5000
G1 X1098.5956 Y250.6801 Z-1.0000 F5000
G1 X1100.3388 Y246.8636 Z-1.0000 F5000
G1 X1103.3296 Y244.1847 Z-1.0000 F5000
G1 X1107.4947 Y243.0654 Z-1.0000 F5000
G1 X1111.4947 Y243.5975 Z-1.0000 F5000
G1 X1114.1736 Y245.1388 Z-1.0000 F5000
G1 X1115.8617 Y247.1755 Z-1.0000 F5000
G1 X1116.9626 Y249.0838 Z-1.0000 F5000
G1 X1121.6965 Y258.2764 Z-1.0000 F5000
G1 X1123.1094 Y260.6434 Z-1.0000 F5000
G1 X1124.7608 Y262.4966 Z-1.0000 F5000
G1 X1126.9443 Y263.7443 Z-1.0000 F5000
G1 X1129.8250 Y264.2581 Z-1.0000 F5000
G1 X1133.1094 Y263.7260 Z-1.0000 F5000
G1 X1136.1369 Y261.8911 Z-1.0000 F5000
G1 X1138.3571 Y258.7535 Z-1.0000 F5000
G1 X1139.2378 Y254.3865 Z-1.0000 F5000
G1 X1138.5589 Y250.1296 Z-1.0000 F5000
G1 X1137.0910 Y247.2856 Z-1.0000 F5000
G1 X1134.9443 Y245.1939 Z-1.0000 F5000
G1 X1137.0910 Y247.2856 Z-1.0000 F5000
G1 X1138.5589 Y250.1296 Z-1.0000 F5000
G1 X1139.2378 Y254.3865 Z-1.0000 F5000
G1 X1138.3571 Y258.7535 Z-1.0000 F5000
G1 X1136.1369 Y261.8911 Z-1.0000 F5000
G1 X1133.1094 Y263.7260 Z-1.0000 F5000
G1 X1129.8250 Y264.2581 Z-1.0000 F5000
G1 X1126.9443 Y263.7443 Z-1.0000 F5000
G1 X1124.7608 Y262.4966 Z-1.0000 F5000
G1 X1123.1094 Y260.6434 Z-1.0000 F5000
G1 X1121.6965 Y258.2764 Z-1.0000 F5000
G1 X1116.9626 Y249.0838 Z-1.0000 F5000
G1 X1115.8617 Y247.1755 Z-1.0000 F5000
G1 X1114.1736 Y245.1388 Z-1.0000 F5000
G1 X1111.4947 Y243.5975 Z-1.0000 F5000
G1 X1107.4947 Y243.0654 Z-1.0000 F5000
G1 X1103.3296 Y244.1847 Z-1.0000 F5000
G1 X1100.3388 Y246.8636 Z-1.0000 F5000
G1 X1098.5956 Y250.6801 Z-1.0000 F5000
G1 X1098.1369 Y255.1755 Z-1.0000 F5000
G1 X1098.6140 Y259.3040 Z-1.0000 F5000
G1 X1099.8617 Y262.4232 Z-1.0000 F5000
G1 X1101.9167 Y264.8452 Z-1.0000 F5000
G1 X1101.9167 Y264.8452 Z10.0000 F9999
G1 X1098.1369 Y231.5608 Z10.0000 F9999
G1 X1098.1369 Y231.5608 Z-1.0000 F2500
G1 X1115.7516 Y215.8177 Z-1.0000 F5000
G1 X1117.7698 Y214.0691 Z-1.0000 F5000
G1 X1119.8433 Y212.3865 Z-1.0000 F5000
G1 X1121.4031 Y211.3667 Z-1.0000 F5000
G1 X1122.9993 Y210.4049 Z-1.0000 F5000
G1 X1125.4580 Y209.4691 Z-1.0000 F5000
G1 X1128.7424 Y209.0654 Z-1.0000 F5000
G1 X1132.4855 Y209.6893 Z-1.0000 F5000
G1 X1135.8617 Y211.6159 Z-1.0000 F5000
G1 X1138.3021 Y214.9553 Z-1.0000 F5000
G1 X1139.2378 Y219.9462 Z-1.0000 F5000
G1 X1136.6323 Y228.6618 Z-1.0000 F5000
G1 X1129.8800 Y231.4507 Z-1.0000 F5000
G1 X1136.6323 Y228.6618 Z-1.0000 F5000
G1 X1139.2378 Y219.9462 Z-1.0000 F5000
G1 X1138.3021 Y214.9553 Z-1.0000 F5000
G1 X1135.8617 Y211.6159 Z-1.0000 F5000
G1 X1132.4855 Y209.6893 Z-1.0000 F5000
G1 X1128.7424 Y209.0654 Z-1.0000 F5000
G1 X1125.4580 Y209.4691 Z-1.0000 F5000
G1 X1122.9993 Y210.4049 Z-1.0000 F5000
G1 X1121.4031 Y211.3667 Z-1.0000 F5000
G1 X1119.8433 Y212.3865 Z-1.0000 F5000
G1 X1117.7698 Y214.0691 Z-1.0000 F5000
G1 X1115.7516 Y215.8177 Z-1.0000 F5000
G1 X1098.1369 Y231.5608 Z-1.0000 F5000
G1 X1098.1369 Y209.3590 Z-1.0000 F5000
G1 X1098.1369 Y209.3590 Z10.0000 F9999
G1 X1148.6323 Y168.2948 Z10.0000 F9999
G1 X1148.6323 Y168.2948 Z-1.0000 F2500
G1 X1095.7883 Y198.6801 Z-1.0000 F5000
G1 X1148.6323 Y168.2948 Z-1.0000 F5000
G1 X1148.6323 Y168.2948 Z10.0000 F9999
G1 X1139.2378 Y152.7902 Z10.0000 F9999
G1 X1139.2378 Y152.7902 Z-1.0000 F2500
G1 X1098.1369 Y152.7902 Z-1.0000 F5000
G1 X1139.2378 Y152.7902 Z-1.0000 F5000
G1 X1139.2378 Y152.7902 Z10.0000 F9999
G1 X1139.2378 Y132.8269 Z10.0000 F9999
G1 X1139.2378 Y132.8269 Z-1.0000 F2500
G1 X1098.1369 Y95.7260 Z-1.0000 F5000
G1 X1139.2378 Y95.7260 Z-1.0000 F5000
G1 X1098.1369 Y95.7260 Z-1.0000 F5000
G1 X1139.2378 Y132.8269 Z-1.0000 F5000
G1 X1098.1369 Y132.8269 Z-1.0000 F5000
G1 X1098.1369 Y132.8269 Z10.0000 F9999
G1 X1148.6323 Y277.5058 Z10.0000 F9999
G1 X1148.6323 Y277.5058 Z-1.0000 F2500
G1 X1095.7883 Y307.8911 Z-1.0000 F5000
G1 X1148.6323 Y277.5058 Z-1.0000 F5000
G1 X1148.6323 Y277.5058 Z10.0000 F9999
G1 X1139.2378 Y335.3223 Z10.0000 F9999
G1 X1139.2378 Y335.3223 Z-1.0000 F2500
G1 X1098.1369 Y319.2673 Z-1.0000 F5000
G1 X1139.2378 Y335.3223 Z-1.0000 F5000
G1 X1098.1369 Y351.3407 Z-1.0000 F5000
G1 X1098.1369 Y351.3407 Z10.0000 F9999
G1 X1122.7975 Y362.0196 Z10.0000 F9999
G1 X1122.7975 Y362.0196 Z-1.0000 F2500
G1 X1122.7975 Y391.2673 Z-1.0000 F5000
G1 X1122.7975 Y362.0196 Z-1.0000 F5000
G1 X1122.7975 Y362.0196 Z10.0000 F9999
G1 X1112.8342 Y325.0104 Z10.0000 F9999
G1 X1112.8342 Y325.0104 Z-1.0000 F2500
G1 X1112.8342 Y345.7076 Z-1.0000 F5000
G1 X1112.8342 Y325.0104 Z-1.0000 F5000
G1 X1112.8342 Y325.0104 Z10.0000 F9999
G1 X1112.8342 Y408.3865 Z10.0000 F9999
G1 X1112.8342 Y408.3865 Z-1.0000 F2500
G1 X1112.8342 Y429.0838 Z-1.0000 F5000
G1 X1112.8342 Y408.3865 Z-1.0000 F5000
G1 X1112.8342 Y408.3865 Z10.0000 F9999
G1 X1139.2378 Y418.6985 Z10.0000 F9999
G1 X1139.2378 Y418.6985 Z-1.0000 F2500
G1 X1098.1369 Y402.6434 Z-1.0000 F5000
G1 X1139.2378 Y418.6985 Z-1.0000 F5000
G1 X1098.1369 Y434.7168 Z-1.0000 F5000
G1 X1098.1369 Y434.7168 Z10.0000 F9999
G1 X1098.1369 Y445.3957 Z10.0000 F9999
G1 X1098.1369 Y445.3957 Z-1.0000 F2500
G1 X1118.2837 Y458.6251 Z-1.0000 F5000
G1 X1098.1369 Y445.3957 Z-1.0000 F5000
G1 X1098.1369 Y445.3957 Z10.0000 F9999
G1 X1098.1369 Y462.8085 Z10.0000 F9999
G1 X1098.1369 Y462.8085 Z-1.0000 F2500
G1 X1139.2378 Y462.8085 Z-1.0000 F5000
G1 X1139.2378 Y455.6526 Z-1.0000 F5000
G1 X1138.6323 Y451.7810 Z-1.0000 F5000
G1 X1136.8158 Y448.5700 Z-1.0000 F5000
G1 X1133.6599 Y446.3498 Z-1.0000 F5000
G1 X1129.0177 Y445.5058 Z-1.0000 F5000
G1 X1124.3388 Y446.6618 Z-1.0000 F5000
G1 X1121.0177 Y449.4324 Z-1.0000 F5000
G1 X1119.0543 Y452.7535 Z-1.0000 F5000
G1 X1118.3938 Y455.6526 Z-1.0000 F5000
G1 X1118.3938 Y462.8085 Z-1.0000 F5000
G1 X1118.3938 Y455.6526 Z-1.0000 F5000
G1 X1119.0543 Y452.7535 Z-1.0000 F5000
G1 X1121.0177 Y449.4324 Z-1.0000 F5000
G1 X1124.3388 Y446.6618 Z-1.0000 F5000
G1 X1129.0177 Y445.5058 Z-1.0000 F5000
G1 X1133.6599 Y446.3498 Z-1.0000 F5000
G1 X1136.8158 Y448.5700 Z-1.0000 F5000
G1 X1138.6323 Y451.7810 Z-1.0000 F5000
G1 X1139.2378 Y455.6526 Z-1.0000 F5000
G1 X1139.2378 Y462.8085 Z-1.0000 F5000
G1 X1139.2378 Y462.8085 Z10.0000 F9999
G1 X1120.9443 Y493.3407 Z10.0000 F9999
G1 X1120.9443 Y493.3407 Z-1.0000 F2500
G1 X1120.9443 Y478.9003 Z-1.0000 F5000
G1 X1120.9443 Y493.3407 Z-1.0000 F5000
G1 X1139.2378 Y493.3407 Z-1.0000 F5000
G1 X1139.2378 Y478.2214 Z-1.0000 F5000
G1 X1139.2378 Y493.3407 Z-1.0000 F5000
G1 X1098.1369 Y493.3407 Z-1.0000 F5000
G1 X1098.1369 Y493.3407 Z10.0000 F9999
(Tool Number:1) (7.998 mm dia. slot drill)
M3 S9000
G1 X0.0000 Y1969.1938 Z10.0000 F9999
G1 X0.0000 Y1969.1938 Z1.0000 F2500
G1 X38.9711 Y1969.1938 Z-9.5000 F2500
G1 X0.0000 Y1969.1938 Z-20.0000 F2500
G1 X519.4059 Y1969.1938 Z-20.0000 F5000
G1 X519.4059 Y1700.0000 Z-20.0000 F5000
G1 X1220.0000 Y1700.0000 Z-20.0000 F5000
G1 X1220.0000 Y1700.0000 Z10.0000 F9999
(Tool Number:1) (7.998 mm dia. slot drill)
M3 S9000
G1 X213.9497 Y1755.6464 Z10.0000 F9999
G1 X213.9497 Y1755.6464 Z1.0000 F2500
G1 X213.9497 Y1716.6753 Z-9.5000 F2500
G1 X213.9497 Y1755.6464 Z-20.0000 F2500
G1 X213.9497 Y1565.8978 Z-20.0000 F5000
G1 X218.9497 Y1565.8978 Z-20.0000 F5000
G1 X218.9497 Y1563.8958 Z-20.0000 F5000
G1 X183.2923 Y1563.8958 Z-20.0000 F5000
G1 X177.9498 Y1558.5532 Z-20.0000 F5000
G1 X177.9498 Y1538.1499 Z-20.0000 F5000
G1 X177.9498 Y1538.1499 Z-10.0000 F9999
G1 X177.9498 Y1522.1519 Z-10.0000 F5000
G1 X177.9498 Y1522.1519 Z-20.0000 F2500
G1 X177.9498 Y1501.2405 Z-20.0000 F5000
G1 X183.2923 Y1495.8979 Z-20.0000 F5000
G1 X218.9497 Y1495.8979 Z-20.0000 F5000
G1 X218.9497 Y1493.8959 Z-20.0000 F5000
G1 X213.9497 Y1493.8959 Z-20.0000 F5000
G1 X213.9497 Y1265.8984 Z-20.0000 F5000
G1 X218.9497 Y1265.8984 Z-20.0000 F5000
G1 X218.9497 Y1263.8964 Z-20.0000 F5000
G1 X183.2923 Y1263.8964 Z-20.0000 F5000
G1 X177.9498 Y1258.5539 Z-20.0000 F5000
G1 X177.9498 Y1201.2411 Z-20.0000 F5000
G1 X183.2923 Y1195.8986 Z-20.0000 F5000
G1 X218.9497 Y1195.8986 Z-20.0000 F5000
G1 X218.9497 Y1193.8966 Z-20.0000 F5000
G1 X213.9497 Y1193.8966 Z-20.0000 F5000
G1 X213.9497 Y1085.8987 Z-20.0000 F5000
G1 X218.9497 Y1085.8987 Z-20.0000 F5000
G1 X218.9497 Y1083.8968 Z-20.0000 F5000
G1 X195.9498 Y1083.8968 Z-20.0000 F5000
G1 X195.9498 Y965.8990 Z-20.0000 F5000
G1 X200.9498 Y965.8990 Z-20.0000 F5000
G1 X200.9498 Y963.8970 Z-20.0000 F5000
G1 X183.2923 Y963.8970 Z-20.0000 F5000
G1 X177.9498 Y958.5545 Z-20.0000 F5000
G1 X177.9498 Y934.8990 Z-20.0000 F5000
G1 X224.9477 Y934.8990 Z-20.0000 F5000
G1 X224.9477 Y939.8990 Z-20.0000 F5000
G1 X226.9497 Y939.8990 Z-20.0000 F5000
G1 X226.9497 Y919.8970 Z-20.0000 F5000
G1 X224.9477 Y919.8970 Z-20.0000 F5000
G1 X224.9477 Y924.8970 Z-20.0000 F5000
G1 X177.9498 Y924.8970 Z-20.0000 F5000
G1 X177.9498 Y901.2416 Z-20.0000 F5000
G1 X183.2923 Y895.8992 Z-20.0000 F5000
G1 X200.9498 Y895.8992 Z-20.0000 F5000
G1 X200.9498 Y893.8972 Z-20.0000 F5000
G1 X195.9498 Y893.8972 Z-20.0000 F5000
G1 X195.9498 Y665.8997 Z-20.0000 F5000
G1 X200.9498 Y665.8997 Z-20.0000 F5000
G1 X200.9498 Y663.8975 Z-20.0000 F5000
G1 X183.2923 Y663.8975 Z-20.0000 F5000
G1 X177.9498 Y658.5551 Z-20.0000 F5000
G1 X177.9498 Y601.2424 Z-20.0000 F5000
G1 X183.2923 Y595.8998 Z-20.0000 F5000
G1 X200.9498 Y595.8998 Z-20.0000 F5000
G1 X200.9498 Y593.8978 Z-20.0000 F5000
G1 X195.9498 Y593.8978 Z-20.0000 F5000
G1 X195.9498 Y365.9003 Z-20.0000 F5000
G1 X200.9498 Y365.9003 Z-20.0000 F5000
G1 X200.9498 Y363.8983 Z-20.0000 F5000
G1 X183.2923 Y363.8983 Z-20.0000 F5000
G1 X177.9498 Y358.5557 Z-20.0000 F5000
G1 X177.9498 Y334.9003 Z-20.0000 F5000
G1 X224.9477 Y334.9003 Z-20.0000 F5000
G1 X224.9477 Y339.9003 Z-20.0000 F5000
G1 X226.9497 Y339.9003 Z-20.0000 F5000
G1 X226.9497 Y319.8983 Z-20.0000 F5000
G1 X224.9477 Y319.8983 Z-20.0000 F5000
G1 X224.9477 Y324.8983 Z-20.0000 F5000
G1 X177.9498 Y324.8983 Z-20.0000 F5000
G1 X177.9498 Y301.2430 Z-20.0000 F5000
G1 X183.2922 Y295.9003 Z-20.0000 F5000
G1 X200.9498 Y295.9003 Z-20.0000 F5000
G1 X200.9498 Y293.8984 Z-20.0000 F5000
G1 X195.9498 Y293.8984 Z-20.0000 F5000
G1 X195.9498 Y238.0162 Z-20.0000 F5000
G1 X195.9498 Y238.0162 Z-10.0000 F9999
G1 X195.9498 Y222.0182 Z-10.0000 F5000
G1 X195.9498 Y222.0182 Z-20.0000 F2500
G1 X195.9498 Y175.9006 Z-20.0000 F5000
G1 X218.9497 Y175.9006 Z-20.0000 F5000
G1 X218.9497 Y173.8988 Z-20.0000 F5000
G1 X213.9497 Y173.8988 Z-20.0000 F5000
G1 X213.9497 Y65.9008 Z-20.0000 F5000
G1 X218.9497 Y65.9008 Z-20.0000 F5000
G1 X218.9497 Y63.8989 Z-20.0000 F5000
G1 X183.2922 Y63.8989 Z-20.0000 F5000
G1 X177.9498 Y58.5561 Z-20.0000 F5000
G1 X177.9498 Y25.9008 Z-20.0000 F5000
G1 X239.5893 Y25.9008 Z-20.0000 F5000
G1 X240.1368 Y25.8214 Z-20.0000 F5000
G1 X240.3964 Y25.7038 Z-20.0000 F5000
G1 X240.6141 Y25.5100 Z-20.0000 F5000
G1 X240.7610 Y25.2658 Z-20.0000 F5000
G1 X240.8298 Y24.9893 Z-20.0000 F5000
G1 X240.8129 Y24.6983 Z-20.0000 F5000
G1 X240.7126 Y24.4316 Z-20.0000 F5000
G1 X240.3814 Y23.9881 Z-20.0000 F5000
G1 X237.4526 Y21.0591 Z-20.0000 F5000
G1 X236.0666 Y19.2032 Z-20.0000 F5000
G1 X235.1488 Y16.6648 Z-20.0000 F5000
G1 X235.0252 Y13.9677 Z-20.0000 F5000
G1 X235.6671 Y11.4403 Z-20.0000 F5000
G1 X237.0007 Y9.1985 Z-20.0000 F5000
G1 X238.9950 Y7.3797 Z-20.0000 F5000
G1 X241.4385 Y6.2335 Z-20.0000 F5000
G1 X243.7313 Y5.9010 Z-20.0000 F5000
G1 X270.1660 Y5.9010 Z-20.0000 F5000
G1 X272.4588 Y6.2335 Z-20.0000 F5000
G1 X274.9023 Y7.3797 Z-20.0000 F5000
G1 X276.8966 Y9.1985 Z-20.0000 F5000
G1 X278.2301 Y11.4403 Z-20.0000 F5000
G1 X278.8721 Y13.9677 Z-20.0000 F5000
G1 X278.7485 Y16.6648 Z-20.0000 F5000
G1 X277.8307 Y19.2032 Z-20.0000 F5000
G1 X276.4447 Y21.0591 Z-20.0000 F5000
G1 X273.5158 Y23.9881 Z-20.0000 F5000
G1 X273.1847 Y24.4316 Z-20.0000 F5000
G1 X273.0844 Y24.6983 Z-20.0000 F5000
G1 X273.0675 Y24.9893 Z-20.0000 F5000
G1 X273.1362 Y25.2658 Z-20.0000 F5000
G1 X273.2832 Y25.5100 Z-20.0000 F5000
G1 X273.5009 Y25.7038 Z-20.0000 F5000
G1 X273.7604 Y25.8214 Z-20.0000 F5000
G1 X274.3079 Y25.9008 Z-20.0000 F5000
G1 X335.9475 Y25.9008 Z-20.0000 F5000
G1 X335.9475 Y58.5561 Z-20.0000 F5000
G1 X330.6050 Y63.8989 Z-20.0000 F5000
G1 X294.9476 Y63.8989 Z-20.0000 F5000
G1 X294.9476 Y65.9008 Z-20.0000 F5000
G1 X299.9476 Y65.9008 Z-20.0000 F5000
G1 X299.9476 Y173.8988 Z-20.0000 F5000
G1 X294.9476 Y173.8988 Z-20.0000 F5000
G1 X294.9476 Y175.9006 Z-20.0000 F5000
G1 X317.9475 Y175.9006 Z-20.0000 F5000
G1 X317.9475 Y222.0182 Z-20.0000 F5000
G1 X317.9475 Y222.0182 Z-10.0000 F9999
G1 X317.9475 Y238.0162 Z-10.0000 F5000
G1 X317.9475 Y238.0162 Z-20.0000 F2500
G1 X317.9475 Y293.8984 Z-20.0000 F5000
G1 X312.9475 Y293.8984 Z-20.0000 F5000
G1 X312.9475 Y295.9003 Z-20.0000 F5000
G1 X330.6050 Y295.9003 Z-20.0000 F5000
G1 X335.9475 Y301.2430 Z-20.0000 F5000
G1 X335.9475 Y324.8983 Z-20.0000 F5000
G1 X288.9496 Y324.8983 Z-20.0000 F5000
G1 X288.9496 Y319.8983 Z-20.0000 F5000
G1 X286.9476 Y319.8983 Z-20.0000 F5000
G1 X286.9476 Y339.9003 Z-20.0000 F5000
G1 X288.9496 Y339.9003 Z-20.0000 F5000
G1 X288.9496 Y334.9003 Z-20.0000 F5000
G1 X335.9475 Y334.9003 Z-20.0000 F5000
G1 X335.9475 Y358.5557 Z-20.0000 F5000
G1 X330.6050 Y363.8983 Z-20.0000 F5000
G1 X312.9475 Y363.8983 Z-20.0000 F5000
G1 X312.9475 Y365.9003 Z-20.0000 F5000
G1 X317.9475 Y365.9003 Z-20.0000 F5000
G1 X317.9475 Y593.8978 Z-20.0000 F5000
G1 X312.9475 Y593.8978 Z-20.0000 F5000
G1 X312.9475 Y595.8998 Z-20.0000 F5000
G1 X330.6050 Y595.8998 Z-20.0000 F5000
G1 X335.9475 Y601.2424 Z-20.0000 F5000
G1 X335.9475 Y658.5551 Z-20.0000 F5000
G1 X330.6049 Y663.8975 Z-20.0000 F5000
G1 X312.9475 Y663.8975 Z-20.0000 F5000
G1 X312.9475 Y665.8997 Z-20.0000 F5000
G1 X317.9475 Y665.8997 Z-20.0000 F5000
G1 X317.9475 Y893.8972 Z-20.0000 F5000
G1 X312.9475 Y893.8972 Z-20.0000 F5000
G1 X312.9475 Y895.8992 Z-20.0000 F5000
G1 X330.6049 Y895.8992 Z-20.0000 F5000
G1 X335.9475 Y901.2416 Z-20.0000 F5000
G1 X335.9475 Y924.8970 Z-20.0000 F5000
G1 X288.9496 Y924.8970 Z-20.0000 F5000
G1 X288.9496 Y919.8970 Z-20.0000 F5000
G1 X286.9476 Y919.8970 Z-20.0000 F5000
G1 X286.9476 Y939.8990 Z-20.0000 F5000
G1 X288.9496 Y939.8990 Z-20.0000 F5000
G1 X288.9496 Y934.8990 Z-20.0000 F5000
G1 X335.9475 Y934.8990 Z-20.0000 F5000
G1 X335.9475 Y958.5545 Z-20.0000 F5000
G1 X330.6050 Y963.8970 Z-20.0000 F5000
G1 X312.9475 Y963.8970 Z-20.0000 F5000
G1 X312.9475 Y965.8990 Z-20.0000 F5000
G1 X317.9475 Y965.8990 Z-20.0000 F5000
G1 X317.9475 Y1083.8968 Z-20.0000 F5000
G1 X294.9476 Y1083.8968 Z-20.0000 F5000
G1 X294.9476 Y1085.8987 Z-20.0000 F5000
G1 X299.9476 Y1085.8987 Z-20.0000 F5000
G1 X299.9476 Y1193.8966 Z-20.0000 F5000
G1 X294.9476 Y1193.8966 Z-20.0000 F5000
G1 X294.9476 Y1195.8986 Z-20.0000 F5000
G1 X330.6050 Y1195.8986 Z-20.0000 F5000
G1 X335.9475 Y1201.2411 Z-20.0000 F5000
G1 X335.9475 Y1258.5539 Z-20.0000 F5000
G1 X330.6050 Y1263.8964 Z-20.0000 F5000
G1 X294.9476 Y1263.8964 Z-20.0000 F5000
G1 X294.9476 Y1265.8984 Z-20.0000 F5000
G1 X299.9476 Y1265.8984 Z-20.0000 F5000
G1 X299.9476 Y1493.8959 Z-20.0000 F5000
G1 X294.9476 Y1493.8959 Z-20.0000 F5000
G1 X294.9476 Y1495.8979 Z-20.0000 F5000
G1 X330.6050 Y1495.8979 Z-20.0000 F5000
G1 X335.9475 Y1501.2405 Z-20.0000 F5000
G1 X335.9475 Y1521.0347 Z-20.0000 F5000
G1 X335.9475 Y1521.0347 Z-10.0000 F9999
G1 X335.9475 Y1537.0327 Z-10.0000 F5000
G1 X335.9475 Y1537.0327 Z-20.0000 F2500
G1 X335.9475 Y1558.5532 Z-20.0000 F5000
G1 X330.6050 Y1563.8958 Z-20.0000 F5000
G1 X294.9476 Y1563.8958 Z-20.0000 F5000
G1 X294.9476 Y1565.8978 Z-20.0000 F5000
G1 X299.9476 Y1565.8978 Z-20.0000 F5000
G1 X299.9476 Y1945.3950 Z-20.0000 F5000
G1 X213.9497 Y1945.3950 Z-20.0000 F5000
G1 X213.9497 Y1755.6464 Z-20.0000 F5000
G1 X213.9497 Y1755.6464 Z10.0000 F9999
G1 X540.0474 Y459.3991 Z10.0000 F9999
G1 X540.0474 Y459.3991 Z1.0000 F2500
G1 X540.0474 Y420.4279 Z-9.5000 F2500
G1 X540.0474 Y459.3991 Z-20.0000 F2500
G1 X540.0474 Y345.4003 Z-20.0000 F5000
G1 X545.0474 Y345.4003 Z-20.0000 F5000
G1 X545.0474 Y343.3983 Z-20.0000 F5000
G1 X527.3899 Y343.3983 Z-20.0000 F5000
G1 X522.0475 Y338.0557 Z-20.0000 F5000
G1 X522.0475 Y280.7430 Z-20.0000 F5000
G1 X527.3900 Y275.4005 Z-20.0000 F5000
G1 X545.0474 Y275.4005 Z-20.0000 F5000
G1 X545.0474 Y273.3985 Z-20.0000 F5000
G1 X540.0474 Y273.3985 Z-20.0000 F5000
G1 X540.0474 Y105.0111 Z-20.0000 F5000
G1 X540.0474 Y105.0111 Z-10.0000 F9999
G1 X540.0474 Y89.0131 Z-10.0000 F5000
G1 X540.0474 Y89.0131 Z-20.0000 F2500
G1 X540.0474 Y45.4009 Z-20.0000 F5000
G1 X545.0474 Y45.4009 Z-20.0000 F5000
G1 X545.0474 Y43.3989 Z-20.0000 F5000
G1 X527.3899 Y43.3989 Z-20.0000 F5000
G1 X522.0475 Y38.0564 Z-20.0000 F5000
G1 X522.0475 Y5.9010 Z-20.0000 F5000
G1 X584.2637 Y5.9010 Z-20.0000 F5000
G1 X586.4143 Y6.2128 Z-20.0000 F5000
G1 X588.7224 Y7.2953 Z-20.0000 F5000
G1 X590.6058 Y9.0135 Z-20.0000 F5000
G1 X591.8660 Y11.1316 Z-20.0000 F5000
G1 X592.4725 Y13.5204 Z-20.0000 F5000
G1 X592.3558 Y16.0670 Z-20.0000 F5000
G1 X591.4891 Y18.4645 Z-20.0000 F5000
G1 X590.1889 Y20.2057 Z-20.0000 F5000
G1 X587.2599 Y23.1347 Z-20.0000 F5000
G1 X586.8430 Y23.6931 Z-20.0000 F5000
G1 X586.7067 Y24.0363 Z-20.0000 F5000
G1 X586.6610 Y24.4121 Z-20.0000 F5000
G1 X586.7127 Y24.7840 Z-20.0000 F5000
G1 X586.8525 Y25.1217 Z-20.0000 F5000
G1 X587.0789 Y25.4212 Z-20.0000 F5000
G1 X587.3770 Y25.6546 Z-20.0000 F5000
G1 X587.7161 Y25.8010 Z-20.0000 F5000
G1 X588.4058 Y25.9010 Z-20.0000 F5000
G1 X613.6868 Y25.9010 Z-20.0000 F5000
G1 X614.3765 Y25.8010 Z-20.0000 F5000
G1 X614.7156 Y25.6546 Z-20.0000 F5000
G1 X615.0136 Y25.4212 Z-20.0000 F5000
G1 X615.2400 Y25.1217 Z-20.0000 F5000
G1 X615.3799 Y24.7840 Z-20.0000 F5000
G1 X615.4316 Y24.4121 Z-20.0000 F5000
G1 X615.3859 Y24.0363 Z-20.0000 F5000
G1 X615.2496 Y23.6931 Z-20.0000 F5000
G1 X614.8326 Y23.1347 Z-20.0000 F5000
G1 X611.9036 Y20.2057 Z-20.0000 F5000
G1 X610.6034 Y18.4645 Z-20.0000 F5000
G1 X609.7368 Y16.0670 Z-20.0000 F5000
G1 X609.6200 Y13.5204 Z-20.0000 F5000
G1 X610.2266 Y11.1316 Z-20.0000 F5000
G1 X611.4867 Y9.0135 Z-20.0000 F5000
G1 X613.3701 Y7.2953 Z-20.0000 F5000
G1 X615.6783 Y6.2128 Z-20.0000 F5000
G1 X617.8289 Y5.9010 Z-20.0000 F5000
G1 X680.0451 Y5.9010 Z-20.0000 F5000
G1 X680.0451 Y38.0564 Z-20.0000 F5000
G1 X674.7026 Y43.3989 Z-20.0000 F5000
G1 X657.0452 Y43.3989 Z-20.0000 F5000
G1 X657.0452 Y45.4009 Z-20.0000 F5000
G1 X662.0452 Y45.4009 Z-20.0000 F5000
G1 X662.0452 Y92.7283 Z-20.0000 F5000
G1 X662.0452 Y92.7283 Z-10.0000 F9999
G1 X662.0452 Y108.7263 Z-10.0000 F5000
G1 X662.0452 Y108.7263 Z-20.0000 F2500
G1 X662.0452 Y273.3985 Z-20.0000 F5000
G1 X657.0452 Y273.3985 Z-20.0000 F5000
G1 X657.0452 Y275.4005 Z-20.0000 F5000
G1 X674.7026 Y275.4005 Z-20.0000 F5000
G1 X680.0451 Y280.7430 Z-20.0000 F5000
G1 X680.0451 Y338.0557 Z-20.0000 F5000
G1 X674.7026 Y343.3983 Z-20.0000 F5000
G1 X657.0452 Y343.3983 Z-20.0000 F5000
G1 X657.0452 Y345.4003 Z-20.0000 F5000
G1 X662.0452 Y345.4003 Z-20.0000 F5000
G1 X662.0452 Y573.3979 Z-20.0000 F5000
G1 X657.0452 Y573.3979 Z-20.0000 F5000
G1 X657.0452 Y575.3999 Z-20.0000 F5000
G1 X674.7026 Y575.3999 Z-20.0000 F5000
G1 X680.0451 Y580.7425 Z-20.0000 F5000
G1 X680.0451 Y604.3979 Z-20.0000 F5000
G1 X633.0472 Y604.3979 Z-20.0000 F5000
G1 X633.0472 Y599.3978 Z-20.0000 F5000
G1 X631.0452 Y599.3978 Z-20.0000 F5000
G1 X631.0452 Y619.3998 Z-20.0000 F5000
G1 X633.0472 Y619.3998 Z-20.0000 F5000
G1 X633.0472 Y614.3997 Z-20.0000 F5000
G1 X680.0451 Y614.3997 Z-20.0000 F5000
G1 X680.0451 Y638.0552 Z-20.0000 F5000
G1 X674.7026 Y643.3977 Z-20.0000 F5000
G1 X657.0452 Y643.3977 Z-20.0000 F5000
G1 X657.0452 Y645.3997 Z-20.0000 F5000
G1 X662.0452 Y645.3997 Z-20.0000 F5000
G1 X662.0452 Y873.3973 Z-20.0000 F5000
G1 X657.0452 Y873.3973 Z-20.0000 F5000
G1 X657.0452 Y875.3993 Z-20.0000 F5000
G1 X674.7026 Y875.3993 Z-20.0000 F5000
G1 X680.0451 Y880.7418 Z-20.0000 F5000
G1 X680.0451 Y938.0546 Z-20.0000 F5000
G1 X674.7026 Y943.3971 Z-20.0000 F5000
G1 X657.0452 Y943.3971 Z-20.0000 F5000
G1 X657.0452 Y945.3991 Z-20.0000 F5000
G1 X662.0452 Y945.3991 Z-20.0000 F5000
G1 X662.0452 Y1063.3970 Z-20.0000 F5000
G1 X639.0452 Y1063.3970 Z-20.0000 F5000
G1 X639.0452 Y1065.3990 Z-20.0000 F5000
G1 X644.0452 Y1065.3990 Z-20.0000 F5000
G1 X644.0452 Y1173.3967 Z-20.0000 F5000
G1 X639.0452 Y1173.3967 Z-20.0000 F5000
G1 X639.0452 Y1175.3987 Z-20.0000 F5000
G1 X674.7026 Y1175.3987 Z-20.0000 F5000
G1 X680.0451 Y1180.7412 Z-20.0000 F5000
G1 X680.0451 Y1238.0539 Z-20.0000 F5000
G1 X674.7026 Y1243.3965 Z-20.0000 F5000
G1 X639.0452 Y1243.3965 Z-20.0000 F5000
G1 X639.0452 Y1245.3985 Z-20.0000 F5000
G1 X644.0452 Y1245.3985 Z-20.0000 F5000
G1 X644.0452 Y1473.3960 Z-20.0000 F5000
G1 X639.0452 Y1473.3960 Z-20.0000 F5000
G1 X639.0452 Y1475.3980 Z-20.0000 F5000
G1 X674.7026 Y1475.3980 Z-20.0000 F5000
G1 X680.0451 Y1480.7406 Z-20.0000 F5000
G1 X680.0451 Y1500.9987 Z-20.0000 F5000
G1 X680.0451 Y1500.9987 Z-10.0000 F9999
G1 X680.0451 Y1516.9967 Z-10.0000 F5000
G1 X680.0451 Y1516.9967 Z-20.0000 F2500
G1 X680.0451 Y1538.0535 Z-20.0000 F5000
G1 X674.7026 Y1543.3960 Z-20.0000 F5000
G1 X639.0452 Y1543.3960 Z-20.0000 F5000
G1 X639.0452 Y1545.3979 Z-20.0000 F5000
G1 X644.0452 Y1545.3979 Z-20.0000 F5000
G1 X644.0452 Y1674.8957 Z-20.0000 F5000
G1 X558.0473 Y1674.8957 Z-20.0000 F5000
G1 X558.0473 Y1545.3979 Z-20.0000 F5000
G1 X563.0473 Y1545.3979 Z-20.0000 F5000
G1 X563.0473 Y1543.3960 Z-20.0000 F5000
G1 X527.3899 Y1543.3960 Z-20.0000 F5000
G1 X522.0475 Y1538.0535 Z-20.0000 F5000
G1 X522.0475 Y1515.8056 Z-20.0000 F5000
G1 X522.0475 Y1515.8056 Z-10.0000 F9999
G1 X522.0475 Y1499.8076 Z-10.0000 F5000
G1 X522.0475 Y1499.8076 Z-20.0000 F2500
G1 X522.0475 Y1480.7406 Z-20.0000 F5000
G1 X527.3899 Y1475.3980 Z-20.0000 F5000
G1 X563.0473 Y1475.3980 Z-20.0000 F5000
G1 X563.0473 Y1473.3960 Z-20.0000 F5000
G1 X558.0473 Y1473.3960 Z-20.0000 F5000
G1 X558.0473 Y1245.3985 Z-20.0000 F5000
G1 X563.0473 Y1245.3985 Z-20.0000 F5000
G1 X563.0473 Y1243.3965 Z-20.0000 F5000
G1 X527.3899 Y1243.3965 Z-20.0000 F5000
G1 X522.0475 Y1238.0539 Z-20.0000 F5000
G1 X522.0475 Y1180.7412 Z-20.0000 F5000
G1 X527.3899 Y1175.3987 Z-20.0000 F5000
G1 X563.0473 Y1175.3987 Z-20.0000 F5000
G1 X563.0473 Y1173.3967 Z-20.0000 F5000
G1 X558.0474 Y1173.3967 Z-20.0000 F5000
G1 X558.0449 Y1065.3990 Z-20.0000 F5000
G1 X563.0450 Y1065.3990 Z-20.0000 F5000
G1 X563.0450 Y1063.3970 Z-20.0000 F5000
G1 X540.0474 Y1063.3970 Z-20.0000 F5000
G1 X540.0474 Y945.3991 Z-20.0000 F5000
G1 X545.0474 Y945.3991 Z-20.0000 F5000
G1 X545.0474 Y943.3971 Z-20.0000 F5000
G1 X527.3899 Y943.3971 Z-20.0000 F5000
G1 X522.0475 Y938.0546 Z-20.0000 F5000
G1 X522.0475 Y880.7418 Z-20.0000 F5000
G1 X527.3899 Y875.3993 Z-20.0000 F5000
G1 X545.0474 Y875.3993 Z-20.0000 F5000
G1 X545.0474 Y873.3973 Z-20.0000 F5000
G1 X540.0474 Y873.3973 Z-20.0000 F5000
G1 X540.0474 Y645.3997 Z-20.0000 F5000
G1 X545.0474 Y645.3997 Z-20.0000 F5000
G1 X545.0474 Y643.3977 Z-20.0000 F5000
G1 X527.3899 Y643.3977 Z-20.0000 F5000
G1 X522.0475 Y638.0552 Z-20.0000 F5000
G1 X522.0475 Y614.3997 Z-20.0000 F5000
G1 X569.0453 Y614.3997 Z-20.0000 F5000
G1 X569.0453 Y619.3998 Z-20.0000 F5000
G1 X571.0473 Y619.3998 Z-20.0000 F5000
G1 X571.0473 Y599.3978 Z-20.0000 F5000
G1 X569.0453 Y599.3978 Z-20.0000 F5000
G1 X569.0453 Y604.3979 Z-20.0000 F5000
G1 X522.0475 Y604.3979 Z-20.0000 F5000
G1 X522.0475 Y580.7425 Z-20.0000 F5000
G1 X527.3899 Y575.3999 Z-20.0000 F5000
G1 X545.0474 Y575.3999 Z-20.0000 F5000
G1 X545.0474 Y573.3979 Z-20.0000 F5000
G1 X540.0474 Y573.3979 Z-20.0000 F5000
G1 X540.0474 Y459.3991 Z-20.0000 F5000
G1 X540.0474 Y459.3991 Z10.0000 F9999
G1 X884.1450 Y459.3991 Z10.0000 F9999
G1 X884.1450 Y459.3991 Z1.0000 F2500
G1 X884.1450 Y420.4279 Z-9.5000 F2500
G1 X884.1450 Y459.3991 Z-20.0000 F2500
G1 X884.1450 Y345.4003 Z-20.0000 F5000
G1 X889.1450 Y345.4003 Z-20.0000 F5000
G1 X889.1450 Y343.3983 Z-20.0000 F5000
G1 X871.4876 Y343.3983 Z-20.0000 F5000
G1 X866.1451 Y338.0557 Z-20.0000 F5000
G1 X866.1451 Y280.7430 Z-20.0000 F5000
G1 X871.4876 Y275.4005 Z-20.0000 F5000
G1 X889.1450 Y275.4005 Z-20.0000 F5000
G1 X889.1450 Y273.3985 Z-20.0000 F5000
G1 X884.1450 Y273.3985 Z-20.0000 F5000
G1 X884.1450 Y108.7263 Z-20.0000 F5000
G1 X884.1450 Y108.7263 Z-10.0000 F9999
G1 X884.1450 Y92.7283 Z-10.0000 F5000
G1 X884.1450 Y92.7283 Z-20.0000 F2500
G1 X884.1450 Y45.4009 Z-20.0000 F5000
G1 X889.1450 Y45.4009 Z-20.0000 F5000
G1 X889.1450 Y43.3989 Z-20.0000 F5000
G1 X871.4876 Y43.3989 Z-20.0000 F5000
G1 X866.1451 Y38.0564 Z-20.0000 F5000
G1 X866.1451 Y5.9010 Z-20.0000 F5000
G1 X928.3613 Y5.9010 Z-20.0000 F5000
G1 X930.5119 Y6.2128 Z-20.0000 F5000
G1 X932.8200 Y7.2953 Z-20.0000 F5000
G1 X934.7034 Y9.0135 Z-20.0000 F5000
G1 X935.9636 Y11.1316 Z-20.0000 F5000
G1 X936.5702 Y13.5204 Z-20.0000 F5000
G1 X936.4534 Y16.0670 Z-20.0000 F5000
G1 X935.5868 Y18.4645 Z-20.0000 F5000
G1 X934.2866 Y20.2057 Z-20.0000 F5000
G1 X931.3576 Y23.1347 Z-20.0000 F5000
G1 X930.9406 Y23.6931 Z-20.0000 F5000
G1 X930.8043 Y24.0363 Z-20.0000 F5000
G1 X930.7586 Y24.4121 Z-20.0000 F5000
G1 X930.8103 Y24.7840 Z-20.0000 F5000
G1 X930.9502 Y25.1217 Z-20.0000 F5000
G1 X931.1766 Y25.4212 Z-20.0000 F5000
G1 X931.4746 Y25.6546 Z-20.0000 F5000
G1 X931.8137 Y25.8010 Z-20.0000 F5000
G1 X932.5034 Y25.9010 Z-20.0000 F5000
G1 X957.7844 Y25.9010 Z-20.0000 F5000
G1 X958.4741 Y25.8010 Z-20.0000 F5000
G1 X958.8132 Y25.6546 Z-20.0000 F5000
G1 X959.1112 Y25.4212 Z-20.0000 F5000
G1 X959.3376 Y25.1217 Z-20.0000 F5000
G1 X959.4775 Y24.7840 Z-20.0000 F5000
G1 X959.5292 Y24.4121 Z-20.0000 F5000
G1 X959.4835 Y24.0363 Z-20.0000 F5000
G1 X959.3472 Y23.6931 Z-20.0000 F5000
G1 X958.9302 Y23.1347 Z-20.0000 F5000
G1 X956.0013 Y20.2057 Z-20.0000 F5000
G1 X954.7011 Y18.4645 Z-20.0000 F5000
G1 X953.8344 Y16.0670 Z-20.0000 F5000
G1 X953.7176 Y13.5204 Z-20.0000 F5000
G1 X954.3242 Y11.1316 Z-20.0000 F5000
G1 X955.5844 Y9.0135 Z-20.0000 F5000
G1 X957.4678 Y7.2953 Z-20.0000 F5000
G1 X959.7759 Y6.2128 Z-20.0000 F5000
G1 X961.9265 Y5.9010 Z-20.0000 F5000
G1 X1024.1427 Y5.9010 Z-20.0000 F5000
G1 X1024.1427 Y38.0564 Z-20.0000 F5000
G1 X1018.8003 Y43.3989 Z-20.0000 F5000
G1 X1001.1428 Y43.3989 Z-20.0000 F5000
G1 X1001.1428 Y45.4009 Z-20.0000 F5000
G1 X1006.1428 Y45.4009 Z-20.0000 F5000
G1 X1006.1428 Y90.4992 Z-20.0000 F5000
G1 X1006.1428 Y90.4992 Z-10.0000 F9999
G1 X1006.1428 Y106.4972 Z-10.0000 F5000
G1 X1006.1428 Y106.4972 Z-20.0000 F2500
G1 X1006.1428 Y273.3985 Z-20.0000 F5000
G1 X1001.1428 Y273.3985 Z-20.0000 F5000
G1 X1001.1428 Y275.4005 Z-20.0000 F5000
G1 X1018.8002 Y275.4005 Z-20.0000 F5000
G1 X1024.1427 Y280.7430 Z-20.0000 F5000
G1 X1024.1427 Y338.0557 Z-20.0000 F5000
G1 X1018.8003 Y343.3983 Z-20.0000 F5000
G1 X1001.1428 Y343.3983 Z-20.0000 F5000
G1 X1001.1428 Y345.4003 Z-20.0000 F5000
G1 X1006.1428 Y345.4003 Z-20.0000 F5000
G1 X1006.1428 Y573.3979 Z-20.0000 F5000
G1 X1001.1428 Y573.3979 Z-20.0000 F5000
G1 X1001.1428 Y575.3999 Z-20.0000 F5000
G1 X1018.8003 Y575.3999 Z-20.0000 F5000
G1 X1024.1427 Y580.7425 Z-20.0000 F5000
G1 X1024.1427 Y604.3979 Z-20.0000 F5000
G1 X977.1449 Y604.3979 Z-20.0000 F5000
G1 X977.1449 Y599.3978 Z-20.0000 F5000
G1 X975.1429 Y599.3978 Z-20.0000 F5000
G1 X975.1429 Y619.3998 Z-20.0000 F5000
G1 X977.1449 Y619.3998 Z-20.0000 F5000
G1 X977.1449 Y614.3997 Z-20.0000 F5000
G1 X1024.1427 Y614.3997 Z-20.0000 F5000
G1 X1024.1427 Y638.0552 Z-20.0000 F5000
G1 X1018.8003 Y643.3977 Z-20.0000 F5000
G1 X1001.1428 Y643.3977 Z-20.0000 F5000
G1 X1001.1428 Y645.3997 Z-20.0000 F5000
G1 X1006.1428 Y645.3997 Z-20.0000 F5000
G1 X1006.1428 Y873.3973 Z-20.0000 F5000
G1 X1001.1428 Y873.3973 Z-20.0000 F5000
G1 X1001.1428 Y875.3993 Z-20.0000 F5000
G1 X1018.8003 Y875.3993 Z-20.0000 F5000
G1 X1024.1427 Y880.7418 Z-20.0000 F5000
G1 X1024.1427 Y938.0546 Z-20.0000 F5000
G1 X1018.8003 Y943.3971 Z-20.0000 F5000
G1 X1001.1428 Y943.3971 Z-20.0000 F5000
G1 X1001.1428 Y945.3991 Z-20.0000 F5000
G1 X1006.1428 Y945.3991 Z-20.0000 F5000
G1 X1006.1428 Y1063.3970 Z-20.0000 F5000
G1 X983.1429 Y1063.3970 Z-20.0000 F5000
G1 X983.1429 Y1065.3990 Z-20.0000 F5000
G1 X988.1429 Y1065.3990 Z-20.0000 F5000
G1 X988.1429 Y1173.3967 Z-20.0000 F5000
G1 X983.1429 Y1173.3967 Z-20.0000 F5000
G1 X983.1429 Y1175.3987 Z-20.0000 F5000
G1 X1018.8003 Y1175.3987 Z-20.0000 F5000
G1 X1024.1427 Y1180.7412 Z-20.0000 F5000
G1 X1024.1427 Y1238.0539 Z-20.0000 F5000
G1 X1018.8003 Y1243.3965 Z-20.0000 F5000
G1 X983.1429 Y1243.3965 Z-20.0000 F5000
G1 X983.1429 Y1245.3985 Z-20.0000 F5000
G1 X988.1429 Y1245.3985 Z-20.0000 F5000
G1 X988.1429 Y1473.3960 Z-20.0000 F5000
G1 X983.1429 Y1473.3960 Z-20.0000 F5000
G1 X983.1429 Y1475.3980 Z-20.0000 F5000
G1 X1018.8003 Y1475.3980 Z-20.0000 F5000
G1 X1024.1427 Y1480.7406 Z-20.0000 F5000
G1 X1024.1427 Y1500.0610 Z-20.0000 F5000
G1 X1024.1427 Y1500.0610 Z-10.0000 F9999
G1 X1024.1427 Y1516.0590 Z-10.0000 F5000
G1 X1024.1427 Y1516.0590 Z-20.0000 F2500
G1 X1024.1427 Y1538.0535 Z-20.0000 F5000
G1 X1018.8003 Y1543.3960 Z-20.0000 F5000
G1 X983.1429 Y1543.3960 Z-20.0000 F5000
G1 X983.1429 Y1545.3979 Z-20.0000 F5000
G1 X988.1429 Y1545.3979 Z-20.0000 F5000
G1 X988.1429 Y1674.8957 Z-20.0000 F5000
G1 X902.1450 Y1674.8957 Z-20.0000 F5000
G1 X902.1450 Y1545.3979 Z-20.0000 F5000
G1 X907.1450 Y1545.3979 Z-20.0000 F5000
G1 X907.1450 Y1543.3960 Z-20.0000 F5000
G1 X871.4876 Y1543.3960 Z-20.0000 F5000
G1 X866.1451 Y1538.0535 Z-20.0000 F5000
G1 X866.1451 Y1516.5279 Z-20.0000 F5000
G1 X866.1451 Y1516.5279 Z-10.0000 F9999
G1 X866.1451 Y1500.5299 Z-10.0000 F5000
G1 X866.1451 Y1500.5299 Z-20.0000 F2500
G1 X866.1451 Y1480.7406 Z-20.0000 F5000
G1 X871.4876 Y1475.3980 Z-20.0000 F5000
G1 X907.1450 Y1475.3980 Z-20.0000 F5000
G1 X907.1450 Y1473.3960 Z-20.0000 F5000
G1 X902.1450 Y1473.3960 Z-20.0000 F5000
G1 X902.1450 Y1245.3985 Z-20.0000 F5000
G1 X907.1450 Y1245.3985 Z-20.0000 F5000
G1 X907.1450 Y1243.3965 Z-20.0000 F5000
G1 X871.4876 Y1243.3965 Z-20.0000 F5000
G1 X866.1451 Y1238.0539 Z-20.0000 F5000
G1 X866.1451 Y1180.7412 Z-20.0000 F5000
G1 X871.4876 Y1175.3987 Z-20.0000 F5000
G1 X907.1450 Y1175.3987 Z-20.0000 F5000
G1 X907.1450 Y1173.3967 Z-20.0000 F5000
G1 X902.1451 Y1173.3967 Z-20.0000 F5000
G1 X902.1426 Y1065.3990 Z-20.0000 F5000
G1 X907.1427 Y1065.3990 Z-20.0000 F5000
G1 X907.1427 Y1063.3970 Z-20.0000 F5000
G1 X884.1450 Y1063.3970 Z-20.0000 F5000
G1 X884.1450 Y945.3991 Z-20.0000 F5000
G1 X889.1450 Y945.3991 Z-20.0000 F5000
G1 X889.1450 Y943.3971 Z-20.0000 F5000
G1 X871.4876 Y943.3971 Z-20.0000 F5000
G1 X866.1451 Y938.0546 Z-20.0000 F5000
G1 X866.1451 Y880.7418 Z-20.0000 F5000
G1 X871.4876 Y875.3993 Z-20.0000 F5000
G1 X889.1450 Y875.3993 Z-20.0000 F5000
G1 X889.1450 Y873.3973 Z-20.0000 F5000
G1 X884.1450 Y873.3973 Z-20.0000 F5000
G1 X884.1450 Y645.3997 Z-20.0000 F5000
G1 X889.1450 Y645.3997 Z-20.0000 F5000
G1 X889.1450 Y643.3977 Z-20.0000 F5000
G1 X871.4876 Y643.3977 Z-20.0000 F5000
G1 X866.1451 Y638.0552 Z-20.0000 F5000
G1 X866.1451 Y614.3997 Z-20.0000 F5000
G1 X913.1430 Y614.3997 Z-20.0000 F5000
G1 X913.1430 Y619.3998 Z-20.0000 F5000
G1 X915.1450 Y619.3998 Z-20.0000 F5000
G1 X915.1450 Y599.3978 Z-20.0000 F5000
G1 X913.1430 Y599.3978 Z-20.0000 F5000
G1 X913.1430 Y604.3979 Z-20.0000 F5000
G1 X866.1451 Y604.3979 Z-20.0000 F5000
G1 X866.1451 Y580.7425 Z-20.0000 F5000
G1 X871.4876 Y575.3999 Z-20.0000 F5000
G1 X889.1450 Y575.3999 Z-20.0000 F5000
G1 X889.1450 Y573.3979 Z-20.0000 F5000
G1 X884.1450 Y573.3979 Z-20.0000 F5000
G1 X884.1450 Y459.3991 Z-20.0000 F5000
G1 X884.1450 Y459.3991 Z10.0000 F9999
G1 X1056.1939 Y459.3991 Z10.0000 F9999
G1 X1056.1939 Y459.3991 Z1.0000 F2500
G1 X1056.1939 Y420.4279 Z-9.5000 F2500
G1 X1056.1939 Y459.3991 Z-20.0000 F2500
G1 X1056.1939 Y345.4003 Z-20.0000 F5000
G1 X1061.1939 Y345.4003 Z-20.0000 F5000
G1 X1061.1939 Y343.3983 Z-20.0000 F5000
G1 X1043.5364 Y343.3983 Z-20.0000 F5000
G1 X1038.1939 Y338.0557 Z-20.0000 F5000
G1 X1038.1939 Y280.7430 Z-20.0000 F5000
G1 X1043.5364 Y275.4005 Z-20.0000 F5000
G1 X1061.1939 Y275.4005 Z-20.0000 F5000
G1 X1061.1939 Y273.3985 Z-20.0000 F5000
G1 X1056.1939 Y273.3985 Z-20.0000 F5000
G1 X1056.1939 Y105.4596 Z-20.0000 F5000
G1 X1056.1939 Y105.4596 Z-10.0000 F9999
G1 X1056.1939 Y89.4616 Z-10.0000 F5000
G1 X1056.1939 Y89.4616 Z-20.0000 F2500
G1 X1056.1939 Y45.4009 Z-20.0000 F5000
G1 X1061.1939 Y45.4009 Z-20.0000 F5000
G1 X1061.1939 Y43.3989 Z-20.0000 F5000
G1 X1043.5364 Y43.3989 Z-20.0000 F5000
G1 X1038.1939 Y38.0564 Z-20.0000 F5000
G1 X1038.1939 Y5.9010 Z-20.0000 F5000
G1 X1100.4101 Y5.9010 Z-20.0000 F5000
G1 X1102.5607 Y6.2128 Z-20.0000 F5000
G1 X1104.8689 Y7.2953 Z-20.0000 F5000
G1 X1106.7523 Y9.0135 Z-20.0000 F5000
G1 X1108.0124 Y11.1316 Z-20.0000 F5000
G1 X1108.6190 Y13.5204 Z-20.0000 F5000
G1 X1108.5022 Y16.0670 Z-20.0000 F5000
G1 X1107.6356 Y18.4645 Z-20.0000 F5000
G1 X1106.3354 Y20.2057 Z-20.0000 F5000
G1 X1103.4064 Y23.1347 Z-20.0000 F5000
G1 X1102.9894 Y23.6931 Z-20.0000 F5000
G1 X1102.8531 Y24.0363 Z-20.0000 F5000
G1 X1102.8074 Y24.4121 Z-20.0000 F5000
G1 X1102.8591 Y24.7840 Z-20.0000 F5000
G1 X1102.9990 Y25.1217 Z-20.0000 F5000
G1 X1103.2254 Y25.4212 Z-20.0000 F5000
G1 X1103.5234 Y25.6546 Z-20.0000 F5000
G1 X1103.8625 Y25.8010 Z-20.0000 F5000
G1 X1104.5522 Y25.9010 Z-20.0000 F5000
G1 X1129.8332 Y25.9010 Z-20.0000 F5000
G1 X1130.5230 Y25.8010 Z-20.0000 F5000
G1 X1130.8620 Y25.6546 Z-20.0000 F5000
G1 X1131.1601 Y25.4212 Z-20.0000 F5000
G1 X1131.3865 Y25.1217 Z-20.0000 F5000
G1 X1131.5263 Y24.7840 Z-20.0000 F5000
G1 X1131.5780 Y24.4121 Z-20.0000 F5000
G1 X1131.5323 Y24.0363 Z-20.0000 F5000
G1 X1131.3960 Y23.6931 Z-20.0000 F5000
G1 X1130.9791 Y23.1347 Z-20.0000 F5000
G1 X1128.0501 Y20.2057 Z-20.0000 F5000
G1 X1126.7499 Y18.4645 Z-20.0000 F5000
G1 X1125.8832 Y16.0670 Z-20.0000 F5000
G1 X1125.7665 Y13.5204 Z-20.0000 F5000
G1 X1126.3730 Y11.1316 Z-20.0000 F5000
G1 X1127.6332 Y9.0135 Z-20.0000 F5000
G1 X1129.5166 Y7.2953 Z-20.0000 F5000
G1 X1131.8247 Y6.2128 Z-20.0000 F5000
G1 X1133.9754 Y5.9010 Z-20.0000 F5000
G1 X1196.1915 Y5.9010 Z-20.0000 F5000
G1 X1196.1915 Y38.0564 Z-20.0000 F5000
G1 X1190.8491 Y43.3989 Z-20.0000 F5000
G1 X1173.1916 Y43.3989 Z-20.0000 F5000
G1 X1173.1916 Y45.4009 Z-20.0000 F5000
G1 X1178.1916 Y45.4009 Z-20.0000 F5000
G1 X1178.1916 Y88.7186 Z-20.0000 F5000
G1 X1178.1916 Y88.7186 Z-10.0000 F9999
G1 X1178.1916 Y104.7166 Z-10.0000 F5000
G1 X1178.1916 Y104.7166 Z-20.0000 F2500
G1 X1178.1916 Y273.3985 Z-20.0000 F5000
G1 X1173.1916 Y273.3985 Z-20.0000 F5000
G1 X1173.1916 Y275.4005 Z-20.0000 F5000
G1 X1190.8490 Y275.4005 Z-20.0000 F5000
G1 X1196.1915 Y280.7430 Z-20.0000 F5000
G1 X1196.1915 Y338.0557 Z-20.0000 F5000
G1 X1190.8491 Y343.3983 Z-20.0000 F5000
G1 X1173.1916 Y343.3983 Z-20.0000 F5000
G1 X1173.1916 Y345.4003 Z-20.0000 F5000
G1 X1178.1916 Y345.4003 Z-20.0000 F5000
G1 X1178.1916 Y573.3979 Z-20.0000 F5000
G1 X1173.1916 Y573.3979 Z-20.0000 F5000
G1 X1173.1916 Y575.3999 Z-20.0000 F5000
G1 X1190.8491 Y575.3999 Z-20.0000 F5000
G1 X1196.1915 Y580.7425 Z-20.0000 F5000
G1 X1196.1915 Y604.3979 Z-20.0000 F5000
G1 X1149.1937 Y604.3979 Z-20.0000 F5000
G1 X1149.1937 Y599.3978 Z-20.0000 F5000
G1 X1147.1917 Y599.3978 Z-20.0000 F5000
G1 X1147.1917 Y619.3998 Z-20.0000 F5000
G1 X1149.1937 Y619.3998 Z-20.0000 F5000
G1 X1149.1937 Y614.3997 Z-20.0000 F5000
G1 X1196.1915 Y614.3997 Z-20.0000 F5000
G1 X1196.1915 Y638.0552 Z-20.0000 F5000
G1 X1190.8491 Y643.3977 Z-20.0000 F5000
G1 X1173.1916 Y643.3977 Z-20.0000 F5000
G1 X1173.1916 Y645.3997 Z-20.0000 F5000
G1 X1178.1916 Y645.3997 Z-20.0000 F5000
G1 X1178.1916 Y873.3973 Z-20.0000 F5000
G1 X1173.1916 Y873.3973 Z-20.0000 F5000
G1 X1173.1916 Y875.3993 Z-20.0000 F5000
G1 X1190.8491 Y875.3993 Z-20.0000 F5000
G1 X1196.1915 Y880.7418 Z-20.0000 F5000
G1 X1196.1915 Y938.0546 Z-20.0000 F5000
G1 X1190.8491 Y943.3971 Z-20.0000 F5000
G1 X1173.1916 Y943.3971 Z-20.0000 F5000
G1 X1173.1916 Y945.3991 Z-20.0000 F5000
G1 X1178.1916 Y945.3991 Z-20.0000 F5000
G1 X1178.1916 Y1063.3970 Z-20.0000 F5000
G1 X1155.1917 Y1063.3970 Z-20.0000 F5000
G1 X1155.1917 Y1065.3990 Z-20.0000 F5000
G1 X1160.1917 Y1065.3990 Z-20.0000 F5000
G1 X1160.1917 Y1173.3967 Z-20.0000 F5000
G1 X1155.1917 Y1173.3967 Z-20.0000 F5000
G1 X1155.1917 Y1175.3987 Z-20.0000 F5000
G1 X1190.8491 Y1175.3987 Z-20.0000 F5000
G1 X1196.1915 Y1180.7412 Z-20.0000 F5000
G1 X1196.1915 Y1238.0539 Z-20.0000 F5000
G1 X1190.8491 Y1243.3965 Z-20.0000 F5000
G1 X1155.1917 Y1243.3965 Z-20.0000 F5000
G1 X1155.1917 Y1245.3985 Z-20.0000 F5000
G1 X1160.1917 Y1245.3985 Z-20.0000 F5000
G1 X1160.1917 Y1473.3960 Z-20.0000 F5000
G1 X1155.1917 Y1473.3960 Z-20.0000 F5000
G1 X1155.1917 Y1475.3980 Z-20.0000 F5000
G1 X1190.8491 Y1475.3980 Z-20.0000 F5000
G1 X1196.1915 Y1480.7406 Z-20.0000 F5000
G1 X1196.1915 Y1538.0535 Z-20.0000 F5000
G1 X1190.8491 Y1543.3960 Z-20.0000 F5000
G1 X1155.1917 Y1543.3960 Z-20.0000 F5000
G1 X1155.1917 Y1545.3979 Z-20.0000 F5000
G1 X1160.1917 Y1545.3979 Z-20.0000 F5000
G1 X1160.1917 Y1674.8957 Z-20.0000 F5000
G1 X1074.1938 Y1674.8957 Z-20.0000 F5000
G1 X1074.1938 Y1545.3979 Z-20.0000 F5000
G1 X1079.1938 Y1545.3979 Z-20.0000 F5000
G1 X1079.1938 Y1543.3960 Z-20.0000 F5000
G1 X1043.5364 Y1543.3960 Z-20.0000 F5000
G1 X1038.1939 Y1538.0535 Z-20.0000 F5000
G1 X1038.1939 Y1480.7406 Z-20.0000 F5000
G1 X1043.5364 Y1475.3980 Z-20.0000 F5000
G1 X1079.1938 Y1475.3980 Z-20.0000 F5000
G1 X1079.1938 Y1473.3960 Z-20.0000 F5000
G1 X1074.1938 Y1473.3960 Z-20.0000 F5000
G1 X1074.1938 Y1245.3985 Z-20.0000 F5000
G1 X1079.1938 Y1245.3985 Z-20.0000 F5000
G1 X1079.1938 Y1243.3965 Z-20.0000 F5000
G1 X1043.5364 Y1243.3965 Z-20.0000 F5000
G1 X1038.1939 Y1238.0539 Z-20.0000 F5000
G1 X1038.1939 Y1180.7412 Z-20.0000 F5000
G1 X1043.5364 Y1175.3987 Z-20.0000 F5000
G1 X1079.1938 Y1175.3987 Z-20.0000 F5000
G1 X1079.1938 Y1173.3967 Z-20.0000 F5000
G1 X1074.1939 Y1173.3967 Z-20.0000 F5000
G1 X1074.1914 Y1065.3990 Z-20.0000 F5000
G1 X1079.1915 Y1065.3990 Z-20.0000 F5000
G1 X1079.1915 Y1063.3970 Z-20.0000 F5000
G1 X1056.1939 Y1063.3970 Z-20.0000 F5000
G1 X1056.1939 Y945.3991 Z-20.0000 F5000
G1 X1061.1939 Y945.3991 Z-20.0000 F5000
G1 X1061.1939 Y943.3971 Z-20.0000 F5000
G1 X1043.5364 Y943.3971 Z-20.0000 F5000
G1 X1038.1939 Y938.0546 Z-20.0000 F5000
G1 X1038.1939 Y880.7418 Z-20.0000 F5000
G1 X1043.5364 Y875.3993 Z-20.0000 F5000
G1 X1061.1939 Y875.3993 Z-20.0000 F5000
G1 X1061.1939 Y873.3973 Z-20.0000 F5000
G1 X1056.1939 Y873.3973 Z-20.0000 F5000
G1 X1056.1939 Y645.3997 Z-20.0000 F5000
G1 X1061.1939 Y645.3997 Z-20.0000 F5000
G1 X1061.1939 Y643.3977 Z-20.0000 F5000
G1 X1043.5364 Y643.3977 Z-20.0000 F5000
G1 X1038.1939 Y638.0552 Z-20.0000 F5000
G1 X1038.1939 Y614.3997 Z-20.0000 F5000
G1 X1085.1918 Y614.3997 Z-20.0000 F5000
G1 X1085.1918 Y619.3998 Z-20.0000 F5000
G1 X1087.1938 Y619.3998 Z-20.0000 F5000
G1 X1087.1938 Y599.3978 Z-20.0000 F5000
G1 X1085.1918 Y599.3978 Z-20.0000 F5000
G1 X1085.1918 Y604.3979 Z-20.0000 F5000
G1 X1038.1939 Y604.3979 Z-20.0000 F5000
G1 X1038.1939 Y580.7425 Z-20.0000 F5000
G1 X1043.5364 Y575.3999 Z-20.0000 F5000
G1 X1061.1939 Y575.3999 Z-20.0000 F5000
G1 X1061.1939 Y573.3979 Z-20.0000 F5000
G1 X1056.1939 Y573.3979 Z-20.0000 F5000
G1 X1056.1939 Y459.3991 Z-20.0000 F5000
G1 X1056.1939 Y459.3991 Z10.0000 F9999
G1 X127.8988 Y1755.6464 Z10.0000 F9999
G1 X127.8988 Y1755.6464 Z1.0000 F2500
G1 X127.8988 Y1794.6176 Z-9.5000 F2500
G1 X127.8988 Y1755.6464 Z-20.0000 F2500
G1 X127.8988 Y1945.3950 Z-20.0000 F5000
G1 X41.9009 Y1945.3950 Z-20.0000 F5000
G1 X41.9009 Y1565.8978 Z-20.0000 F5000
G1 X46.9009 Y1565.8978 Z-20.0000 F5000
G1 X46.9009 Y1563.8958 Z-20.0000 F5000
G1 X11.2435 Y1563.8958 Z-20.0000 F5000
G1 X5.9010 Y1558.5532 Z-20.0000 F5000
G1 X5.9010 Y1501.2405 Z-20.0000 F5000
G1 X11.2435 Y1495.8979 Z-20.0000 F5000
G1 X46.9009 Y1495.8979 Z-20.0000 F5000
G1 X46.9009 Y1493.8959 Z-20.0000 F5000
G1 X41.9009 Y1493.8959 Z-20.0000 F5000
G1 X41.9009 Y1265.8984 Z-20.0000 F5000
G1 X46.9009 Y1265.8984 Z-20.0000 F5000
G1 X46.9009 Y1263.8964 Z-20.0000 F5000
G1 X11.2435 Y1263.8964 Z-20.0000 F5000
G1 X5.9010 Y1258.5539 Z-20.0000 F5000
G1 X5.9010 Y1201.2411 Z-20.0000 F5000
G1 X11.2435 Y1195.8986 Z-20.0000 F5000
G1 X46.9009 Y1195.8986 Z-20.0000 F5000
G1 X46.9009 Y1193.8966 Z-20.0000 F5000
G1 X41.9009 Y1193.8966 Z-20.0000 F5000
G1 X41.9009 Y1085.8987 Z-20.0000 F5000
G1 X46.9009 Y1085.8987 Z-20.0000 F5000
G1 X46.9009 Y1083.8968 Z-20.0000 F5000
G1 X23.9009 Y1083.8968 Z-20.0000 F5000
G1 X23.9009 Y965.8990 Z-20.0000 F5000
G1 X28.9009 Y965.8990 Z-20.0000 F5000
G1 X28.9009 Y963.8970 Z-20.0000 F5000
G1 X11.2435 Y963.8970 Z-20.0000 F5000
G1 X5.9010 Y958.5545 Z-20.0000 F5000
G1 X5.9010 Y934.8990 Z-20.0000 F5000
G1 X52.8989 Y934.8990 Z-20.0000 F5000
G1 X52.8989 Y939.8990 Z-20.0000 F5000
G1 X54.9009 Y939.8990 Z-20.0000 F5000
G1 X54.9009 Y919.8970 Z-20.0000 F5000
G1 X52.8989 Y919.8970 Z-20.0000 F5000
G1 X52.8989 Y924.8970 Z-20.0000 F5000
G1 X5.9010 Y924.8970 Z-20.0000 F5000
G1 X5.9010 Y901.2416 Z-20.0000 F5000
G1 X11.2435 Y895.8992 Z-20.0000 F5000
G1 X28.9009 Y895.8992 Z-20.0000 F5000
G1 X28.9009 Y893.8972 Z-20.0000 F5000
G1 X23.9009 Y893.8972 Z-20.0000 F5000
G1 X23.9009 Y665.8997 Z-20.0000 F5000
G1 X28.9009 Y665.8997 Z-20.0000 F5000
G1 X28.9009 Y663.8975 Z-20.0000 F5000
G1 X11.2435 Y663.8975 Z-20.0000 F5000
G1 X5.9010 Y658.5551 Z-20.0000 F5000
G1 X5.9010 Y601.2424 Z-20.0000 F5000
G1 X11.2435 Y595.8998 Z-20.0000 F5000
G1 X28.9009 Y595.8998 Z-20.0000 F5000
G1 X28.9009 Y593.8978 Z-20.0000 F5000
G1 X23.9009 Y593.8978 Z-20.0000 F5000
G1 X23.9009 Y365.9003 Z-20.0000 F5000
G1 X28.9009 Y365.9003 Z-20.0000 F5000
G1 X28.9009 Y363.8983 Z-20.0000 F5000
G1 X11.2435 Y363.8983 Z-20.0000 F5000
G1 X5.9010 Y358.5557 Z-20.0000 F5000
G1 X5.9010 Y334.9003 Z-20.0000 F5000
G1 X52.8989 Y334.9003 Z-20.0000 F5000
G1 X52.8989 Y339.9003 Z-20.0000 F5000
G1 X54.9009 Y339.9003 Z-20.0000 F5000
G1 X54.9009 Y319.8983 Z-20.0000 F5000
G1 X52.8989 Y319.8983 Z-20.0000 F5000
G1 X52.8989 Y324.8983 Z-20.0000 F5000
G1 X5.9010 Y324.8983 Z-20.0000 F5000
G1 X5.9010 Y301.2430 Z-20.0000 F5000
G1 X11.2434 Y295.9003 Z-20.0000 F5000
G1 X28.9009 Y295.9003 Z-20.0000 F5000
G1 X28.9009 Y293.8984 Z-20.0000 F5000
G1 X23.9009 Y293.8984 Z-20.0000 F5000
G1 X23.9009 Y175.9006 Z-20.0000 F5000
G1 X46.9009 Y175.9006 Z-20.0000 F5000
G1 X46.9009 Y173.8988 Z-20.0000 F5000
G1 X41.9009 Y173.8988 Z-20.0000 F5000
G1 X41.9009 Y65.9008 Z-20.0000 F5000
G1 X46.9009 Y65.9008 Z-20.0000 F5000
G1 X46.9009 Y63.8989 Z-20.0000 F5000
G1 X11.2434 Y63.8989 Z-20.0000 F5000
G1 X5.9010 Y58.5561 Z-20.0000 F5000
G1 X5.9010 Y25.9008 Z-20.0000 F5000
G1 X67.5405 Y25.9008 Z-20.0000 F5000
G1 X68.0880 Y25.8214 Z-20.0000 F5000
G1 X68.3475 Y25.7038 Z-20.0000 F5000
G1 X68.5653 Y25.5100 Z-20.0000 F5000
G1 X68.7122 Y25.2658 Z-20.0000 F5000
G1 X68.7810 Y24.9893 Z-20.0000 F5000
G1 X68.7641 Y24.6983 Z-20.0000 F5000
G1 X68.6638 Y24.4316 Z-20.0000 F5000
G1 X68.3326 Y23.9881 Z-20.0000 F5000
G1 X65.4038 Y21.0591 Z-20.0000 F5000
G1 X64.0178 Y19.2032 Z-20.0000 F5000
G1 X63.1000 Y16.6648 Z-20.0000 F5000
G1 X62.9764 Y13.9677 Z-20.0000 F5000
G1 X63.6183 Y11.4403 Z-20.0000 F5000
G1 X64.9519 Y9.1985 Z-20.0000 F5000
G1 X66.9461 Y7.3797 Z-20.0000 F5000
G1 X69.3897 Y6.2335 Z-20.0000 F5000
G1 X71.6825 Y5.9010 Z-20.0000 F5000
G1 X98.1171 Y5.9010 Z-20.0000 F5000
G1 X100.4100 Y6.2335 Z-20.0000 F5000
G1 X102.8535 Y7.3797 Z-20.0000 F5000
G1 X104.8478 Y9.1985 Z-20.0000 F5000
G1 X106.1813 Y11.4403 Z-20.0000 F5000
G1 X106.8233 Y13.9677 Z-20.0000 F5000
G1 X106.6997 Y16.6648 Z-20.0000 F5000
G1 X105.7818 Y19.2032 Z-20.0000 F5000
G1 X104.3959 Y21.0591 Z-20.0000 F5000
G1 X101.4670 Y23.9881 Z-20.0000 F5000
G1 X101.1359 Y24.4316 Z-20.0000 F5000
G1 X101.0356 Y24.6983 Z-20.0000 F5000
G1 X101.0187 Y24.9893 Z-20.0000 F5000
G1 X101.0874 Y25.2658 Z-20.0000 F5000
G1 X101.2344 Y25.5100 Z-20.0000 F5000
G1 X101.4521 Y25.7038 Z-20.0000 F5000
G1 X101.7116 Y25.8214 Z-20.0000 F5000
G1 X102.2591 Y25.9008 Z-20.0000 F5000
G1 X163.8986 Y25.9008 Z-20.0000 F5000
G1 X163.8986 Y58.5561 Z-20.0000 F5000
G1 X158.5562 Y63.8989 Z-20.0000 F5000
G1 X122.8988 Y63.8989 Z-20.0000 F5000
G1 X122.8988 Y65.9008 Z-20.0000 F5000
G1 X127.8988 Y65.9008 Z-20.0000 F5000
G1 X127.8988 Y173.8988 Z-20.0000 F5000
G1 X122.8988 Y173.8988 Z-20.0000 F5000
G1 X122.8988 Y175.9006 Z-20.0000 F5000
G1 X145.8987 Y175.9006 Z-20.0000 F5000
G1 X145.8987 Y293.8984 Z-20.0000 F5000
G1 X140.8987 Y293.8984 Z-20.0000 F5000
G1 X140.8987 Y295.9003 Z-20.0000 F5000
G1 X158.5562 Y295.9003 Z-20.0000 F5000
G1 X163.8986 Y301.2430 Z-20.0000 F5000
G1 X163.8986 Y324.8983 Z-20.0000 F5000
G1 X116.9008 Y324.8983 Z-20.0000 F5000
G1 X116.9008 Y319.8983 Z-20.0000 F5000
G1 X114.8988 Y319.8983 Z-20.0000 F5000
G1 X114.8988 Y339.9003 Z-20.0000 F5000
G1 X116.9008 Y339.9003 Z-20.0000 F5000
G1 X116.9008 Y334.9003 Z-20.0000 F5000
G1 X163.8986 Y334.9003 Z-20.0000 F5000
G1 X163.8986 Y358.5557 Z-20.0000 F5000
G1 X158.5562 Y363.8983 Z-20.0000 F5000
G1 X140.8987 Y363.8983 Z-20.0000 F5000
G1 X140.8987 Y365.9003 Z-20.0000 F5000
G1 X145.8987 Y365.9003 Z-20.0000 F5000
G1 X145.8987 Y593.8978 Z-20.0000 F5000
G1 X140.8987 Y593.8978 Z-20.0000 F5000
G1 X140.8987 Y595.8998 Z-20.0000 F5000
G1 X158.5562 Y595.8998 Z-20.0000 F5000
G1 X163.8986 Y601.2424 Z-20.0000 F5000
G1 X163.8986 Y658.5551 Z-20.0000 F5000
G1 X158.5561 Y663.8975 Z-20.0000 F5000
G1 X140.8987 Y663.8975 Z-20.0000 F5000
G1 X140.8987 Y665.8997 Z-20.0000 F5000
G1 X145.8987 Y665.8997 Z-20.0000 F5000
G1 X145.8987 Y893.8972 Z-20.0000 F5000
G1 X140.8987 Y893.8972 Z-20.0000 F5000
G1 X140.8987 Y895.8992 Z-20.0000 F5000
G1 X158.5561 Y895.8992 Z-20.0000 F5000
G1 X163.8986 Y901.2416 Z-20.0000 F5000
G1 X163.8986 Y924.8970 Z-20.0000 F5000
G1 X116.9008 Y924.8970 Z-20.0000 F5000
G1 X116.9008 Y919.8970 Z-20.0000 F5000
G1 X114.8988 Y919.8970 Z-20.0000 F5000
G1 X114.8988 Y939.8990 Z-20.0000 F5000
G1 X116.9008 Y939.8990 Z-20.0000 F5000
G1 X116.9008 Y934.8990 Z-20.0000 F5000
G1 X163.8986 Y934.8990 Z-20.0000 F5000
G1 X163.8986 Y958.5545 Z-20.0000 F5000
G1 X158.5562 Y963.8970 Z-20.0000 F5000
G1 X140.8987 Y963.8970 Z-20.0000 F5000
G1 X140.8987 Y965.8990 Z-20.0000 F5000
G1 X145.8987 Y965.8990 Z-20.0000 F5000
G1 X145.8987 Y1083.8968 Z-20.0000 F5000
G1 X122.8988 Y1083.8968 Z-20.0000 F5000
G1 X122.8988 Y1085.8987 Z-20.0000 F5000
G1 X127.8988 Y1085.8987 Z-20.0000 F5000
G1 X127.8988 Y1193.8966 Z-20.0000 F5000
G1 X122.8988 Y1193.8966 Z-20.0000 F5000
G1 X122.8988 Y1195.8986 Z-20.0000 F5000
G1 X158.5562 Y1195.8986 Z-20.0000 F5000
G1 X163.8986 Y1201.2411 Z-20.0000 F5000
G1 X163.8986 Y1258.5539 Z-20.0000 F5000
G1 X158.5562 Y1263.8964 Z-20.0000 F5000
G1 X122.8988 Y1263.8964 Z-20.0000 F5000
G1 X122.8988 Y1265.8984 Z-20.0000 F5000
G1 X127.8988 Y1265.8984 Z-20.0000 F5000
G1 X127.8988 Y1493.8959 Z-20.0000 F5000
G1 X122.8988 Y1493.8959 Z-20.0000 F5000
G1 X122.8988 Y1495.8979 Z-20.0000 F5000
G1 X158.5562 Y1495.8979 Z-20.0000 F5000
G1 X163.8986 Y1501.2405 Z-20.0000 F5000
G1 X163.8986 Y1558.5532 Z-20.0000 F5000
G1 X158.5562 Y1563.8958 Z-20.0000 F5000
G1 X122.8988 Y1563.8958 Z-20.0000 F5000
G1 X122.8988 Y1565.8978 Z-20.0000 F5000
G1 X127.8988 Y1565.8978 Z-20.0000 F5000
G1 X127.8988 Y1755.6464 Z-20.0000 F5000
G1 X127.8988 Y1755.6464 Z10.0000 F9999
G1 X471.9964 Y1755.6464 Z10.0000 F9999
G1 X471.9964 Y1755.6464 Z1.0000 F2500
G1 X471.9964 Y1794.6176 Z-9.5000 F2500
G1 X471.9964 Y1755.6464 Z-20.0000 F2500
G1 X471.9964 Y1945.3950 Z-20.0000 F5000
G1 X385.9985 Y1945.3950 Z-20.0000 F5000
G1 X385.9985 Y1565.8978 Z-20.0000 F5000
G1 X390.9985 Y1565.8978 Z-20.0000 F5000
G1 X390.9985 Y1563.8958 Z-20.0000 F5000
G1 X355.3411 Y1563.8958 Z-20.0000 F5000
G1 X349.9986 Y1558.5532 Z-20.0000 F5000
G1 X349.9986 Y1501.2405 Z-20.0000 F5000
G1 X355.3411 Y1495.8979 Z-20.0000 F5000
G1 X390.9985 Y1495.8979 Z-20.0000 F5000
G1 X390.9985 Y1493.8959 Z-20.0000 F5000
G1 X385.9985 Y1493.8959 Z-20.0000 F5000
G1 X385.9985 Y1265.8984 Z-20.0000 F5000
G1 X390.9985 Y1265.8984 Z-20.0000 F5000
G1 X390.9985 Y1263.8964 Z-20.0000 F5000
G1 X355.3411 Y1263.8964 Z-20.0000 F5000
G1 X349.9986 Y1258.5539 Z-20.0000 F5000
G1 X349.9986 Y1201.2411 Z-20.0000 F5000
G1 X355.3411 Y1195.8986 Z-20.0000 F5000
G1 X390.9985 Y1195.8986 Z-20.0000 F5000
G1 X390.9985 Y1193.8966 Z-20.0000 F5000
G1 X385.9985 Y1193.8966 Z-20.0000 F5000
G1 X385.9985 Y1085.8987 Z-20.0000 F5000
G1 X390.9985 Y1085.8987 Z-20.0000 F5000
G1 X390.9985 Y1083.8968 Z-20.0000 F5000
G1 X367.9986 Y1083.8968 Z-20.0000 F5000
G1 X367.9986 Y965.8990 Z-20.0000 F5000
G1 X372.9986 Y965.8990 Z-20.0000 F5000
G1 X372.9986 Y963.8970 Z-20.0000 F5000
G1 X355.3411 Y963.8970 Z-20.0000 F5000
G1 X349.9986 Y958.5545 Z-20.0000 F5000
G1 X349.9986 Y934.8990 Z-20.0000 F5000
G1 X396.9965 Y934.8990 Z-20.0000 F5000
G1 X396.9965 Y939.8990 Z-20.0000 F5000
G1 X398.9985 Y939.8990 Z-20.0000 F5000
G1 X398.9985 Y919.8970 Z-20.0000 F5000
G1 X396.9965 Y919.8970 Z-20.0000 F5000
G1 X396.9965 Y924.8970 Z-20.0000 F5000
G1 X349.9986 Y924.8970 Z-20.0000 F5000
G1 X349.9986 Y901.2416 Z-20.0000 F5000
G1 X355.3412 Y895.8992 Z-20.0000 F5000
G1 X372.9986 Y895.8992 Z-20.0000 F5000
G1 X372.9986 Y893.8972 Z-20.0000 F5000
G1 X367.9986 Y893.8972 Z-20.0000 F5000
G1 X367.9986 Y665.8997 Z-20.0000 F5000
G1 X372.9986 Y665.8997 Z-20.0000 F5000
G1 X372.9986 Y663.8975 Z-20.0000 F5000
G1 X355.3412 Y663.8975 Z-20.0000 F5000
G1 X349.9986 Y658.5551 Z-20.0000 F5000
G1 X349.9986 Y601.2424 Z-20.0000 F5000
G1 X355.3411 Y595.8998 Z-20.0000 F5000
G1 X372.9986 Y595.8998 Z-20.0000 F5000
G1 X372.9986 Y593.8978 Z-20.0000 F5000
G1 X367.9986 Y593.8978 Z-20.0000 F5000
G1 X367.9986 Y365.9003 Z-20.0000 F5000
G1 X372.9986 Y365.9003 Z-20.0000 F5000
G1 X372.9986 Y363.8983 Z-20.0000 F5000
G1 X355.3411 Y363.8983 Z-20.0000 F5000
G1 X349.9986 Y358.5557 Z-20.0000 F5000
G1 X349.9986 Y334.9003 Z-20.0000 F5000
G1 X396.9965 Y334.9003 Z-20.0000 F5000
G1 X396.9965 Y339.9003 Z-20.0000 F5000
G1 X398.9985 Y339.9003 Z-20.0000 F5000
G1 X398.9985 Y319.8983 Z-20.0000 F5000
G1 X396.9965 Y319.8983 Z-20.0000 F5000
G1 X396.9965 Y324.8983 Z-20.0000 F5000
G1 X349.9986 Y324.8983 Z-20.0000 F5000
G1 X349.9986 Y301.2430 Z-20.0000 F5000
G1 X355.3411 Y295.9003 Z-20.0000 F5000
G1 X372.9986 Y295.9003 Z-20.0000 F5000
G1 X372.9986 Y293.8984 Z-20.0000 F5000
G1 X367.9986 Y293.8984 Z-20.0000 F5000
G1 X367.9986 Y175.9006 Z-20.0000 F5000
G1 X390.9985 Y175.9006 Z-20.0000 F5000
G1 X390.9985 Y173.8988 Z-20.0000 F5000
G1 X385.9985 Y173.8988 Z-20.0000 F5000
G1 X385.9985 Y65.9008 Z-20.0000 F5000
G1 X390.9985 Y65.9008 Z-20.0000 F5000
G1 X390.9985 Y63.8989 Z-20.0000 F5000
G1 X355.3411 Y63.8989 Z-20.0000 F5000
G1 X349.9986 Y58.5561 Z-20.0000 F5000
G1 X349.9986 Y25.9008 Z-20.0000 F5000
G1 X411.6381 Y25.9008 Z-20.0000 F5000
G1 X412.1857 Y25.8214 Z-20.0000 F5000
G1 X412.4452 Y25.7038 Z-20.0000 F5000
G1 X412.6629 Y25.5100 Z-20.0000 F5000
G1 X412.8099 Y25.2658 Z-20.0000 F5000
G1 X412.8786 Y24.9893 Z-20.0000 F5000
G1 X412.8617 Y24.6983 Z-20.0000 F5000
G1 X412.7614 Y24.4316 Z-20.0000 F5000
G1 X412.4302 Y23.9881 Z-20.0000 F5000
G1 X409.5014 Y21.0591 Z-20.0000 F5000
G1 X408.1154 Y19.2032 Z-20.0000 F5000
G1 X407.1976 Y16.6648 Z-20.0000 F5000
G1 X407.0740 Y13.9677 Z-20.0000 F5000
G1 X407.7159 Y11.4403 Z-20.0000 F5000
G1 X409.0495 Y9.1985 Z-20.0000 F5000
G1 X411.0438 Y7.3797 Z-20.0000 F5000
G1 X413.4873 Y6.2335 Z-20.0000 F5000
G1 X415.7801 Y5.9010 Z-20.0000 F5000
G1 X442.2148 Y5.9010 Z-20.0000 F5000
G1 X444.5076 Y6.2335 Z-20.0000 F5000
G1 X446.9511 Y7.3797 Z-20.0000 F5000
G1 X448.9454 Y9.1985 Z-20.0000 F5000
G1 X450.2790 Y11.4403 Z-20.0000 F5000
G1 X450.9209 Y13.9677 Z-20.0000 F5000
G1 X450.7973 Y16.6648 Z-20.0000 F5000
G1 X449.8795 Y19.2032 Z-20.0000 F5000
G1 X448.4935 Y21.0591 Z-20.0000 F5000
G1 X445.5647 Y23.9881 Z-20.0000 F5000
G1 X445.2335 Y24.4316 Z-20.0000 F5000
G1 X445.1332 Y24.6983 Z-20.0000 F5000
G1 X445.1163 Y24.9893 Z-20.0000 F5000
G1 X445.1851 Y25.2658 Z-20.0000 F5000
G1 X445.3320 Y25.5100 Z-20.0000 F5000
G1 X445.5497 Y25.7038 Z-20.0000 F5000
G1 X445.8093 Y25.8214 Z-20.0000 F5000
G1 X446.3568 Y25.9008 Z-20.0000 F5000
G1 X507.9963 Y25.9008 Z-20.0000 F5000
G1 X507.9963 Y58.5561 Z-20.0000 F5000
G1 X502.6538 Y63.8989 Z-20.0000 F5000
G1 X466.9964 Y63.8989 Z-20.0000 F5000
G1 X466.9964 Y65.9008 Z-20.0000 F5000
G1 X471.9964 Y65.9008 Z-20.0000 F5000
G1 X471.9964 Y173.8988 Z-20.0000 F5000
G1 X466.9964 Y173.8988 Z-20.0000 F5000
G1 X466.9964 Y175.9006 Z-20.0000 F5000
G1 X489.9963 Y175.9006 Z-20.0000 F5000
G1 X489.9963 Y293.8984 Z-20.0000 F5000
G1 X484.9963 Y293.8984 Z-20.0000 F5000
G1 X484.9963 Y295.9003 Z-20.0000 F5000
G1 X502.6538 Y295.9003 Z-20.0000 F5000
G1 X507.9963 Y301.2430 Z-20.0000 F5000
G1 X507.9963 Y324.8983 Z-20.0000 F5000
G1 X460.9984 Y324.8983 Z-20.0000 F5000
G1 X460.9984 Y319.8983 Z-20.0000 F5000
G1 X458.9964 Y319.8983 Z-20.0000 F5000
G1 X458.9964 Y339.9003 Z-20.0000 F5000
G1 X460.9984 Y339.9003 Z-20.0000 F5000
G1 X460.9984 Y334.9003 Z-20.0000 F5000
G1 X507.9963 Y334.9003 Z-20.0000 F5000
G1 X507.9963 Y358.5557 Z-20.0000 F5000
G1 X502.6538 Y363.8983 Z-20.0000 F5000
G1 X484.9963 Y363.8983 Z-20.0000 F5000
G1 X484.9963 Y365.9003 Z-20.0000 F5000
G1 X489.9963 Y365.9003 Z-20.0000 F5000
G1 X489.9963 Y593.8978 Z-20.0000 F5000
G1 X484.9963 Y593.8978 Z-20.0000 F5000
G1 X484.9963 Y595.8998 Z-20.0000 F5000
G1 X502.6538 Y595.8998 Z-20.0000 F5000
G1 X507.9963 Y601.2424 Z-20.0000 F5000
G1 X507.9963 Y658.5551 Z-20.0000 F5000
G1 X502.6537 Y663.8975 Z-20.0000 F5000
G1 X484.9963 Y663.8975 Z-20.0000 F5000
G1 X484.9963 Y665.8997 Z-20.0000 F5000
G1 X489.9963 Y665.8997 Z-20.0000 F5000
G1 X489.9963 Y893.8972 Z-20.0000 F5000
G1 X484.9963 Y893.8972 Z-20.0000 F5000
G1 X484.9963 Y895.8992 Z-20.0000 F5000
G1 X502.6537 Y895.8992 Z-20.0000 F5000
G1 X507.9963 Y901.2416 Z-20.0000 F5000
G1 X507.9963 Y924.8970 Z-20.0000 F5000
G1 X460.9984 Y924.8970 Z-20.0000 F5000
G1 X460.9984 Y919.8970 Z-20.0000 F5000
G1 X458.9964 Y919.8970 Z-20.0000 F5000
G1 X458.9964 Y939.8990 Z-20.0000 F5000
G1 X460.9984 Y939.8990 Z-20.0000 F5000
G1 X460.9984 Y934.8990 Z-20.0000 F5000
G1 X507.9963 Y934.8990 Z-20.0000 F5000
G1 X507.9963 Y958.5545 Z-20.0000 F5000
G1 X502.6538 Y963.8970 Z-20.0000 F5000
G1 X484.9963 Y963.8970 Z-20.0000 F5000
G1 X484.9963 Y965.8990 Z-20.0000 F5000
G1 X489.9963 Y965.8990 Z-20.0000 F5000
G1 X489.9963 Y1083.8968 Z-20.0000 F5000
G1 X466.9964 Y1083.8968 Z-20.0000 F5000
G1 X466.9964 Y1085.8987 Z-20.0000 F5000
G1 X471.9964 Y1085.8987 Z-20.0000 F5000
G1 X471.9964 Y1193.8966 Z-20.0000 F5000
G1 X466.9964 Y1193.8966 Z-20.0000 F5000
G1 X466.9964 Y1195.8986 Z-20.0000 F5000
G1 X502.6538 Y1195.8986 Z-20.0000 F5000
G1 X507.9963 Y1201.2411 Z-20.0000 F5000
G1 X507.9963 Y1258.5539 Z-20.0000 F5000
G1 X502.6538 Y1263.8964 Z-20.0000 F5000
G1 X466.9964 Y1263.8964 Z-20.0000 F5000
G1 X466.9964 Y1265.8984 Z-20.0000 F5000
G1 X471.9964 Y1265.8984 Z-20.0000 F5000
G1 X471.9964 Y1493.8959 Z-20.0000 F5000
G1 X466.9964 Y1493.8959 Z-20.0000 F5000
G1 X466.9964 Y1495.8979 Z-20.0000 F5000
G1 X502.6538 Y1495.8979 Z-20.0000 F5000
G1 X507.9963 Y1501.2405 Z-20.0000 F5000
G1 X507.9963 Y1558.5532 Z-20.0000 F5000
G1 X502.6538 Y1563.8958 Z-20.0000 F5000
G1 X466.9964 Y1563.8958 Z-20.0000 F5000
G1 X466.9964 Y1565.8978 Z-20.0000 F5000
G1 X471.9964 Y1565.8978 Z-20.0000 F5000
G1 X471.9964 Y1755.6464 Z-20.0000 F5000
G1 X471.9964 Y1755.6464 Z10.0000 F9999
G1 X712.0962 Y459.3991 Z10.0000 F9999
G1 X712.0962 Y459.3991 Z1.0000 F2500
G1 X712.0962 Y420.4279 Z-9.5000 F2500
G1 X712.0962 Y459.3991 Z-20.0000 F2500
G1 X712.0962 Y345.4003 Z-20.0000 F5000
G1 X717.0962 Y345.4003 Z-20.0000 F5000
G1 X717.0962 Y343.3983 Z-20.0000 F5000
G1 X699.4388 Y343.3983 Z-20.0000 F5000
G1 X694.0963 Y338.0557 Z-20.0000 F5000
G1 X694.0963 Y280.7430 Z-20.0000 F5000
G1 X699.4388 Y275.4005 Z-20.0000 F5000
G1 X717.0962 Y275.4005 Z-20.0000 F5000
G1 X717.0962 Y273.3985 Z-20.0000 F5000
G1 X712.0962 Y273.3985 Z-20.0000 F5000
G1 X712.0962 Y107.9832 Z-20.0000 F5000
G1 X712.0962 Y107.9832 Z-10.0000 F9999
G1 X712.0962 Y91.9852 Z-10.0000 F5000
G1 X712.0962 Y91.9852 Z-20.0000 F2500
G1 X712.0962 Y45.4009 Z-20.0000 F5000
G1 X717.0962 Y45.4009 Z-20.0000 F5000
G1 X717.0962 Y43.3989 Z-20.0000 F5000
G1 X699.4388 Y43.3989 Z-20.0000 F5000
G1 X694.0963 Y38.0564 Z-20.0000 F5000
G1 X694.0963 Y5.9010 Z-20.0000 F5000
G1 X756.3125 Y5.9010 Z-20.0000 F5000
G1 X758.4631 Y6.2128 Z-20.0000 F5000
G1 X760.7712 Y7.2953 Z-20.0000 F5000
G1 X762.6546 Y9.0135 Z-20.0000 F5000
G1 X763.9148 Y11.1316 Z-20.0000 F5000
G1 X764.5214 Y13.5204 Z-20.0000 F5000
G1 X764.4046 Y16.0670 Z-20.0000 F5000
G1 X763.5379 Y18.4645 Z-20.0000 F5000
G1 X762.2377 Y20.2057 Z-20.0000 F5000
G1 X759.3088 Y23.1347 Z-20.0000 F5000
G1 X758.8918 Y23.6931 Z-20.0000 F5000
G1 X758.7555 Y24.0363 Z-20.0000 F5000
G1 X758.7098 Y24.4121 Z-20.0000 F5000
G1 X758.7615 Y24.7840 Z-20.0000 F5000
G1 X758.9014 Y25.1217 Z-20.0000 F5000
G1 X759.1278 Y25.4212 Z-20.0000 F5000
G1 X759.4258 Y25.6546 Z-20.0000 F5000
G1 X759.7649 Y25.8010 Z-20.0000 F5000
G1 X760.4546 Y25.9010 Z-20.0000 F5000
G1 X785.7356 Y25.9010 Z-20.0000 F5000
G1 X786.4253 Y25.8010 Z-20.0000 F5000
G1 X786.7644 Y25.6546 Z-20.0000 F5000
G1 X787.0624 Y25.4212 Z-20.0000 F5000
G1 X787.2888 Y25.1217 Z-20.0000 F5000
G1 X787.4287 Y24.7840 Z-20.0000 F5000
G1 X787.4804 Y24.4121 Z-20.0000 F5000
G1 X787.4347 Y24.0363 Z-20.0000 F5000
G1 X787.2984 Y23.6931 Z-20.0000 F5000
G1 X786.8814 Y23.1347 Z-20.0000 F5000
G1 X783.9524 Y20.2057 Z-20.0000 F5000
G1 X782.6523 Y18.4645 Z-20.0000 F5000
G1 X781.7856 Y16.0670 Z-20.0000 F5000
G1 X781.6688 Y13.5204 Z-20.0000 F5000
G1 X782.2754 Y11.1316 Z-20.0000 F5000
G1 X783.5356 Y9.0135 Z-20.0000 F5000
G1 X785.4190 Y7.2953 Z-20.0000 F5000
G1 X787.7271 Y6.2128 Z-20.0000 F5000
G1 X789.8777 Y5.9010 Z-20.0000 F5000
G1 X852.0939 Y5.9010 Z-20.0000 F5000
G1 X852.0939 Y38.0564 Z-20.0000 F5000
G1 X846.7514 Y43.3989 Z-20.0000 F5000
G1 X829.0940 Y43.3989 Z-20.0000 F5000
G1 X829.0940 Y45.4009 Z-20.0000 F5000
G1 X834.0940 Y45.4009 Z-20.0000 F5000
G1 X834.0940 Y91.2422 Z-20.0000 F5000
G1 X834.0940 Y91.2422 Z-10.0000 F9999
G1 X834.0940 Y107.2402 Z-10.0000 F5000
G1 X834.0940 Y107.2402 Z-20.0000 F2500
G1 X834.0940 Y273.3985 Z-20.0000 F5000
G1 X829.0940 Y273.3985 Z-20.0000 F5000
G1 X829.0940 Y275.4005 Z-20.0000 F5000
G1 X846.7514 Y275.4005 Z-20.0000 F5000
G1 X852.0939 Y280.7430 Z-20.0000 F5000
G1 X852.0939 Y338.0557 Z-20.0000 F5000
G1 X846.7514 Y343.3983 Z-20.0000 F5000
G1 X829.0940 Y343.3983 Z-20.0000 F5000
G1 X829.0940 Y345.4003 Z-20.0000 F5000
G1 X834.0940 Y345.4003 Z-20.0000 F5000
G1 X834.0940 Y573.3979 Z-20.0000 F5000
G1 X829.0940 Y573.3979 Z-20.0000 F5000
G1 X829.0940 Y575.3999 Z-20.0000 F5000
G1 X846.7514 Y575.3999 Z-20.0000 F5000
G1 X852.0939 Y580.7425 Z-20.0000 F5000
G1 X852.0939 Y604.3979 Z-20.0000 F5000
G1 X805.0960 Y604.3979 Z-20.0000 F5000
G1 X805.0960 Y599.3978 Z-20.0000 F5000
G1 X803.0940 Y599.3978 Z-20.0000 F5000
G1 X803.0940 Y619.3998 Z-20.0000 F5000
G1 X805.0960 Y619.3998 Z-20.0000 F5000
G1 X805.0960 Y614.3997 Z-20.0000 F5000
G1 X852.0939 Y614.3997 Z-20.0000 F5000
G1 X852.0939 Y638.0552 Z-20.0000 F5000
G1 X846.7514 Y643.3977 Z-20.0000 F5000
G1 X829.0940 Y643.3977 Z-20.0000 F5000
G1 X829.0940 Y645.3997 Z-20.0000 F5000
G1 X834.0940 Y645.3997 Z-20.0000 F5000
G1 X834.0940 Y873.3973 Z-20.0000 F5000
G1 X829.0940 Y873.3973 Z-20.0000 F5000
G1 X829.0940 Y875.3993 Z-20.0000 F5000
G1 X846.7514 Y875.3993 Z-20.0000 F5000
G1 X852.0939 Y880.7418 Z-20.0000 F5000
G1 X852.0939 Y938.0546 Z-20.0000 F5000
G1 X846.7514 Y943.3971 Z-20.0000 F5000
G1 X829.0940 Y943.3971 Z-20.0000 F5000
G1 X829.0940 Y945.3991 Z-20.0000 F5000
G1 X834.0940 Y945.3991 Z-20.0000 F5000
G1 X834.0940 Y1063.3970 Z-20.0000 F5000
G1 X811.0940 Y1063.3970 Z-20.0000 F5000
G1 X811.0940 Y1065.3990 Z-20.0000 F5000
G1 X816.0940 Y1065.3990 Z-20.0000 F5000
G1 X816.0940 Y1173.3967 Z-20.0000 F5000
G1 X811.0940 Y1173.3967 Z-20.0000 F5000
G1 X811.0940 Y1175.3987 Z-20.0000 F5000
G1 X846.7514 Y1175.3987 Z-20.0000 F5000
G1 X852.0939 Y1180.7412 Z-20.0000 F5000
G1 X852.0939 Y1238.0539 Z-20.0000 F5000
G1 X846.7514 Y1243.3965 Z-20.0000 F5000
G1 X811.0940 Y1243.3965 Z-20.0000 F5000
G1 X811.0940 Y1245.3985 Z-20.0000 F5000
G1 X816.0940 Y1245.3985 Z-20.0000 F5000
G1 X816.0940 Y1473.3960 Z-20.0000 F5000
G1 X811.0940 Y1473.3960 Z-20.0000 F5000
