(plotsheet 2n3_nested_153 sheets_final v1_0_sheet 150a_S150.1_text_CC8 - stepover 1mm)
(Material Size) (X=1220.000, Y=2440.000, Z=20.000)
(LinuxCNC_NoArcs_MM_TC_medium_50um_G1_verbose.con)
G90 G80 G21 G49
G64 P0.050
M6 T1
(Tool Number:1) (7.998 mm dia. slot drill)
G43 H1 G0Z80.0000
M3 S18000
G04 P10
G1 X82.6794 Y429.0499 Z10.0000 F9999
G1 X82.6794 Y429.0499 Z-1.0000 F2500
G1 X82.6794 Y443.4902 Z-1.0000 F5000
G1 X82.6794 Y429.0499 Z-1.0000 F5000
G1 X64.3859 Y429.0499 Z-1.0000 F5000
G1 X64.3859 Y444.1691 Z-1.0000 F5000
G1 X64.3859 Y429.0499 Z-1.0000 F5000
G1 X105.4868 Y429.0499 Z-1.0000 F5000
G1 X105.4868 Y429.0499 Z10.0000 F9999
G1 X105.4868 Y459.5820 Z10.0000 F9999
G1 X105.4868 Y459.5820 Z-1.0000 F2500
G1 X64.3859 Y459.5820 Z-1.0000 F5000
G1 X64.3859 Y466.7380 Z-1.0000 F5000
G1 X64.9914 Y470.6095 Z-1.0000 F5000
G1 X66.8079 Y473.8205 Z-1.0000 F5000
G1 X69.9638 Y476.0407 Z-1.0000 F5000
G1 X74.6060 Y476.8847 Z-1.0000 F5000
G1 X79.2849 Y475.7288 Z-1.0000 F5000
G1 X82.6060 Y472.9581 Z-1.0000 F5000
G1 X84.5694 Y469.6370 Z-1.0000 F5000
G1 X85.2299 Y466.7380 Z-1.0000 F5000
G1 X85.2299 Y459.5820 Z-1.0000 F5000
G1 X85.2299 Y466.7380 Z-1.0000 F5000
G1 X84.5694 Y469.6370 Z-1.0000 F5000
G1 X82.6060 Y472.9581 Z-1.0000 F5000
G1 X79.2849 Y475.7288 Z-1.0000 F5000
G1 X74.6060 Y476.8847 Z-1.0000 F5000
G1 X69.9638 Y476.0407 Z-1.0000 F5000
G1 X66.8079 Y473.8205 Z-1.0000 F5000
G1 X64.9914 Y470.6095 Z-1.0000 F5000
G1 X64.3859 Y466.7380 Z-1.0000 F5000
G1 X64.3859 Y459.5820 Z-1.0000 F5000
G1 X64.3859 Y459.5820 Z10.0000 F9999
G1 X64.3859 Y503.6921 Z10.0000 F9999
G1 X64.3859 Y503.6921 Z-1.0000 F2500
G1 X105.4868 Y519.7471 Z-1.0000 F5000
G1 X64.3859 Y503.6921 Z-1.0000 F5000
G1 X105.4868 Y487.6737 Z-1.0000 F5000
G1 X105.4868 Y487.6737 Z10.0000 F9999
G1 X105.4868 Y476.9948 Z10.0000 F9999
G1 X105.4868 Y476.9948 Z-1.0000 F2500
G1 X85.3400 Y463.7655 Z-1.0000 F5000
G1 X105.4868 Y476.9948 Z-1.0000 F5000
G1 X105.4868 Y476.9948 Z10.0000 F9999
G1 X90.7895 Y514.0040 Z10.0000 F9999
G1 X90.7895 Y514.0040 Z-1.0000 F2500
G1 X90.7895 Y493.3068 Z-1.0000 F5000
G1 X90.7895 Y514.0040 Z-1.0000 F5000
G1 X90.7895 Y514.0040 Z10.0000 F9999
G1 X80.8262 Y560.3710 Z10.0000 F9999
G1 X80.8262 Y560.3710 Z-1.0000 F2500
G1 X80.8262 Y531.1233 Z-1.0000 F5000
G1 X80.8262 Y560.3710 Z-1.0000 F5000
G1 X80.8262 Y560.3710 Z10.0000 F9999
G1 X64.3859 Y587.0682 Z10.0000 F9999
G1 X64.3859 Y587.0682 Z-1.0000 F2500
G1 X105.4868 Y603.1233 Z-1.0000 F5000
G1 X64.3859 Y587.0682 Z-1.0000 F5000
G1 X105.4868 Y571.0499 Z-1.0000 F5000
G1 X105.4868 Y571.0499 Z10.0000 F9999
G1 X90.7895 Y597.3802 Z10.0000 F9999
G1 X90.7895 Y597.3802 Z-1.0000 F2500
G1 X90.7895 Y576.6829 Z-1.0000 F5000
G1 X90.7895 Y597.3802 Z-1.0000 F5000
G1 X90.7895 Y597.3802 Z10.0000 F9999
G1 X98.6611 Y655.6003 Z10.0000 F9999
G1 X98.6611 Y655.6003 Z-1.0000 F2500
G1 X101.7070 Y657.5453 Z-1.0000 F5000
G1 X103.7620 Y659.9673 Z-1.0000 F5000
G1 X105.0097 Y663.0866 Z-1.0000 F5000
G1 X105.4868 Y667.2150 Z-1.0000 F5000
G1 X105.0281 Y671.7104 Z-1.0000 F5000
G1 X103.2849 Y675.5269 Z-1.0000 F5000
G1 X100.2941 Y678.2058 Z-1.0000 F5000
G1 X96.1290 Y679.3251 Z-1.0000 F5000
G1 X92.1290 Y678.7930 Z-1.0000 F5000
G1 X89.4501 Y677.2517 Z-1.0000 F5000
G1 X87.7620 Y675.2150 Z-1.0000 F5000
G1 X86.6611 Y673.3068 Z-1.0000 F5000
G1 X81.9271 Y664.1141 Z-1.0000 F5000
G1 X80.5143 Y661.7471 Z-1.0000 F5000
G1 X78.8629 Y659.8939 Z-1.0000 F5000
G1 X76.6794 Y658.6462 Z-1.0000 F5000
G1 X73.7987 Y658.1324 Z-1.0000 F5000
G1 X70.5143 Y658.6646 Z-1.0000 F5000
G1 X67.4868 Y660.4994 Z-1.0000 F5000
G1 X65.2666 Y663.6370 Z-1.0000 F5000
G1 X64.3859 Y668.0040 Z-1.0000 F5000
G1 X65.0648 Y672.2609 Z-1.0000 F5000
G1 X66.5327 Y675.1049 Z-1.0000 F5000
G1 X68.6794 Y677.1967 Z-1.0000 F5000
G1 X66.5327 Y675.1049 Z-1.0000 F5000
G1 X65.0648 Y672.2609 Z-1.0000 F5000
G1 X64.3859 Y668.0040 Z-1.0000 F5000
G1 X65.2666 Y663.6370 Z-1.0000 F5000
G1 X67.4868 Y660.4994 Z-1.0000 F5000
G1 X70.5143 Y658.6646 Z-1.0000 F5000
G1 X73.7987 Y658.1324 Z-1.0000 F5000
G1 X76.6794 Y658.6462 Z-1.0000 F5000
G1 X78.8629 Y659.8939 Z-1.0000 F5000
G1 X80.5143 Y661.7471 Z-1.0000 F5000
G1 X81.9271 Y664.1141 Z-1.0000 F5000
G1 X86.6611 Y673.3068 Z-1.0000 F5000
G1 X87.7620 Y675.2150 Z-1.0000 F5000
G1 X89.4501 Y677.2517 Z-1.0000 F5000
G1 X92.1290 Y678.7930 Z-1.0000 F5000
G1 X96.1290 Y679.3251 Z-1.0000 F5000
G1 X100.2941 Y678.2058 Z-1.0000 F5000
G1 X103.2849 Y675.5269 Z-1.0000 F5000
G1 X105.0281 Y671.7104 Z-1.0000 F5000
G1 X105.4868 Y667.2150 Z-1.0000 F5000
G1 X105.0097 Y663.0866 Z-1.0000 F5000
G1 X103.7620 Y659.9673 Z-1.0000 F5000
G1 X101.7070 Y657.5453 Z-1.0000 F5000
G1 X101.7070 Y657.5453 Z10.0000 F9999
G1 X97.5418 Y690.8297 Z10.0000 F9999
G1 X97.5418 Y690.8297 Z-1.0000 F2500
G1 X100.2207 Y691.5820 Z-1.0000 F5000
G1 X102.7895 Y693.3068 Z-1.0000 F5000
G1 X104.7345 Y696.2609 Z-1.0000 F5000
G1 X105.4868 Y700.8113 Z-1.0000 F5000
G1 X102.8629 Y709.3251 Z-1.0000 F5000
G1 X94.8813 Y712.4260 Z-1.0000 F5000
G1 X90.1473 Y711.5453 Z-1.0000 F5000
G1 X86.7895 Y709.2334 Z-1.0000 F5000
G1 X84.7895 Y706.0224 Z-1.0000 F5000
G1 X84.1106 Y702.4444 Z-1.0000 F5000
G1 X83.3767 Y705.9123 Z-1.0000 F5000
G1 X81.1565 Y708.8664 Z-1.0000 F5000
G1 X77.7804 Y710.9581 Z-1.0000 F5000
G1 X73.5785 Y711.7471 Z-1.0000 F5000
G1 X72.0005 Y711.7104 Z-1.0000 F5000
G1 X70.0189 Y711.4352 Z-1.0000 F5000
G1 X68.0005 Y710.6462 Z-1.0000 F5000
G1 X66.1657 Y709.1233 Z-1.0000 F5000
G1 X64.8629 Y706.5728 Z-1.0000 F5000
G1 X64.3859 Y702.8297 Z-1.0000 F5000
G1 X65.2116 Y697.4535 Z-1.0000 F5000
G1 X67.2299 Y694.3526 Z-1.0000 F5000
G1 X69.8905 Y692.8297 Z-1.0000 F5000
G1 X72.6244 Y692.2425 Z-1.0000 F5000
G1 X69.8905 Y692.8297 Z-1.0000 F5000
G1 X67.2299 Y694.3526 Z-1.0000 F5000
G1 X65.2116 Y697.4535 Z-1.0000 F5000
G1 X64.3859 Y702.8297 Z-1.0000 F5000
G1 X64.8629 Y706.5728 Z-1.0000 F5000
G1 X66.1657 Y709.1233 Z-1.0000 F5000
G1 X68.0005 Y710.6462 Z-1.0000 F5000
G1 X70.0189 Y711.4352 Z-1.0000 F5000
G1 X71.9638 Y711.7104 Z-1.0000 F5000
G1 X73.5785 Y711.7471 Z-1.0000 F5000
G1 X77.7804 Y710.9581 Z-1.0000 F5000
G1 X81.1565 Y708.8664 Z-1.0000 F5000
G1 X83.3767 Y705.9123 Z-1.0000 F5000
G1 X84.1106 Y702.4444 Z-1.0000 F5000
G1 X84.7895 Y706.0224 Z-1.0000 F5000
G1 X86.7895 Y709.2334 Z-1.0000 F5000
G1 X90.1473 Y711.5453 Z-1.0000 F5000
G1 X94.8813 Y712.4260 Z-1.0000 F5000
G1 X102.8629 Y709.3251 Z-1.0000 F5000
G1 X105.4868 Y700.8113 Z-1.0000 F5000
G1 X104.7345 Y696.2609 Z-1.0000 F5000
G1 X102.7895 Y693.3068 Z-1.0000 F5000
G1 X100.2207 Y691.5820 Z-1.0000 F5000
G1 X100.2207 Y691.5820 Z10.0000 F9999
G1 X54.9914 Y644.8847 Z10.0000 F9999
G1 X54.9914 Y644.8847 Z-1.0000 F2500
G1 X107.8354 Y614.4994 Z-1.0000 F5000
G1 X54.9914 Y644.8847 Z-1.0000 F5000
G1 X54.9914 Y644.8847 Z10.0000 F9999
G1 X54.9914 Y754.0957 Z10.0000 F9999
G1 X54.9914 Y754.0957 Z-1.0000 F2500
G1 X107.8354 Y723.7104 Z-1.0000 F5000
G1 X54.9914 Y754.0957 Z-1.0000 F5000
G1 X54.9914 Y754.0957 Z10.0000 F9999
G1 X64.3859 Y769.6003 Z10.0000 F9999
G1 X64.3859 Y769.6003 Z-1.0000 F2500
G1 X105.4868 Y769.6003 Z-1.0000 F5000
G1 X64.3859 Y769.6003 Z-1.0000 F5000
G1 X64.3859 Y769.6003 Z10.0000 F9999
G1 X64.3859 Y789.5636 Z10.0000 F9999
G1 X64.3859 Y789.5636 Z-1.0000 F2500
G1 X105.4868 Y826.6646 Z-1.0000 F5000
G1 X64.3859 Y826.6646 Z-1.0000 F5000
G1 X105.4868 Y826.6646 Z-1.0000 F5000
G1 X64.3859 Y789.5636 Z-1.0000 F5000
G1 X105.4868 Y789.5636 Z-1.0000 F5000
G1 X105.4868 Y789.5636 Z10.0000 F9999
G1 X230.5266 Y754.0957 Z10.0000 F9999
G1 X230.5266 Y754.0957 Z-1.0000 F2500
G1 X283.3707 Y723.7104 Z-1.0000 F5000
G1 X230.5266 Y754.0957 Z-1.0000 F5000
G1 X230.5266 Y754.0957 Z10.0000 F9999
G1 X239.9211 Y769.6003 Z10.0000 F9999
G1 X239.9211 Y769.6003 Z-1.0000 F2500
G1 X281.0220 Y769.6003 Z-1.0000 F5000
G1 X239.9211 Y769.6003 Z-1.0000 F5000
G1 X239.9211 Y769.6003 Z10.0000 F9999
G1 X239.9211 Y789.5636 Z10.0000 F9999
G1 X239.9211 Y789.5636 Z-1.0000 F2500
G1 X281.0220 Y826.6646 Z-1.0000 F5000
G1 X239.9211 Y826.6646 Z-1.0000 F5000
G1 X281.0220 Y826.6646 Z-1.0000 F5000
G1 X239.9211 Y789.5636 Z-1.0000 F5000
G1 X281.0220 Y789.5636 Z-1.0000 F5000
G1 X281.0220 Y789.5636 Z10.0000 F9999
G1 X273.0771 Y690.8297 Z10.0000 F9999
G1 X273.0771 Y690.8297 Z-1.0000 F2500
G1 X275.7560 Y691.5820 Z-1.0000 F5000
G1 X278.3248 Y693.3068 Z-1.0000 F5000
G1 X280.2697 Y696.2609 Z-1.0000 F5000
G1 X281.0220 Y700.8113 Z-1.0000 F5000
G1 X278.3982 Y709.3251 Z-1.0000 F5000
G1 X270.4165 Y712.4260 Z-1.0000 F5000
G1 X265.6826 Y711.5453 Z-1.0000 F5000
G1 X262.3248 Y709.2334 Z-1.0000 F5000
G1 X260.3248 Y706.0224 Z-1.0000 F5000
G1 X259.6459 Y702.4444 Z-1.0000 F5000
G1 X258.9119 Y705.9123 Z-1.0000 F5000
G1 X256.6918 Y708.8664 Z-1.0000 F5000
G1 X253.3156 Y710.9581 Z-1.0000 F5000
G1 X249.1138 Y711.7471 Z-1.0000 F5000
G1 X247.5358 Y711.7104 Z-1.0000 F5000
G1 X245.5541 Y711.4352 Z-1.0000 F5000
G1 X243.5358 Y710.6462 Z-1.0000 F5000
G1 X241.7009 Y709.1233 Z-1.0000 F5000
G1 X240.3982 Y706.5728 Z-1.0000 F5000
G1 X239.9211 Y702.8297 Z-1.0000 F5000
G1 X240.7468 Y697.4535 Z-1.0000 F5000
G1 X242.7651 Y694.3526 Z-1.0000 F5000
G1 X245.4257 Y692.8297 Z-1.0000 F5000
G1 X248.1596 Y692.2425 Z-1.0000 F5000
G1 X245.4257 Y692.8297 Z-1.0000 F5000
G1 X242.7651 Y694.3526 Z-1.0000 F5000
G1 X240.7468 Y697.4535 Z-1.0000 F5000
G1 X239.9211 Y702.8297 Z-1.0000 F5000
G1 X240.3982 Y706.5728 Z-1.0000 F5000
G1 X241.7009 Y709.1233 Z-1.0000 F5000
G1 X243.5358 Y710.6462 Z-1.0000 F5000
G1 X245.5541 Y711.4352 Z-1.0000 F5000
G1 X247.4991 Y711.7104 Z-1.0000 F5000
G1 X249.1138 Y711.7471 Z-1.0000 F5000
G1 X253.3156 Y710.9581 Z-1.0000 F5000
G1 X256.6918 Y708.8664 Z-1.0000 F5000
G1 X258.9119 Y705.9123 Z-1.0000 F5000
G1 X259.6459 Y702.4444 Z-1.0000 F5000
G1 X260.3248 Y706.0224 Z-1.0000 F5000
G1 X262.3248 Y709.2334 Z-1.0000 F5000
G1 X265.6826 Y711.5453 Z-1.0000 F5000
G1 X270.4165 Y712.4260 Z-1.0000 F5000
G1 X278.3982 Y709.3251 Z-1.0000 F5000
G1 X281.0220 Y700.8113 Z-1.0000 F5000
G1 X280.2697 Y696.2609 Z-1.0000 F5000
G1 X278.3248 Y693.3068 Z-1.0000 F5000
G1 X275.7560 Y691.5820 Z-1.0000 F5000
G1 X275.7560 Y691.5820 Z10.0000 F9999
G1 X274.1963 Y655.6003 Z10.0000 F9999
G1 X274.1963 Y655.6003 Z-1.0000 F2500
G1 X277.2422 Y657.5453 Z-1.0000 F5000
G1 X279.2973 Y659.9673 Z-1.0000 F5000
G1 X280.5450 Y663.0866 Z-1.0000 F5000
G1 X281.0220 Y667.2150 Z-1.0000 F5000
G1 X280.5633 Y671.7104 Z-1.0000 F5000
G1 X278.8202 Y675.5269 Z-1.0000 F5000
G1 X275.8294 Y678.2058 Z-1.0000 F5000
G1 X271.6642 Y679.3251 Z-1.0000 F5000
G1 X267.6642 Y678.7930 Z-1.0000 F5000
G1 X264.9853 Y677.2517 Z-1.0000 F5000
G1 X263.2973 Y675.2150 Z-1.0000 F5000
G1 X262.1963 Y673.3068 Z-1.0000 F5000
G1 X257.4624 Y664.1141 Z-1.0000 F5000
G1 X256.0496 Y661.7471 Z-1.0000 F5000
G1 X254.3982 Y659.8939 Z-1.0000 F5000
G1 X252.2147 Y658.6462 Z-1.0000 F5000
G1 X249.3340 Y658.1324 Z-1.0000 F5000
G1 X246.0496 Y658.6646 Z-1.0000 F5000
G1 X243.0220 Y660.4994 Z-1.0000 F5000
G1 X240.8018 Y663.6370 Z-1.0000 F5000
G1 X239.9211 Y668.0040 Z-1.0000 F5000
G1 X240.6000 Y672.2609 Z-1.0000 F5000
G1 X242.0679 Y675.1049 Z-1.0000 F5000
G1 X244.2147 Y677.1967 Z-1.0000 F5000
G1 X242.0679 Y675.1049 Z-1.0000 F5000
G1 X240.6000 Y672.2609 Z-1.0000 F5000
G1 X239.9211 Y668.0040 Z-1.0000 F5000
G1 X240.8018 Y663.6370 Z-1.0000 F5000
G1 X243.0220 Y660.4994 Z-1.0000 F5000
G1 X246.0496 Y658.6646 Z-1.0000 F5000
G1 X249.3340 Y658.1324 Z-1.0000 F5000
G1 X252.2147 Y658.6462 Z-1.0000 F5000
G1 X254.3982 Y659.8939 Z-1.0000 F5000
G1 X256.0496 Y661.7471 Z-1.0000 F5000
G1 X257.4624 Y664.1141 Z-1.0000 F5000
G1 X262.1963 Y673.3068 Z-1.0000 F5000
G1 X263.2973 Y675.2150 Z-1.0000 F5000
G1 X264.9853 Y677.2517 Z-1.0000 F5000
G1 X267.6642 Y678.7930 Z-1.0000 F5000
G1 X271.6642 Y679.3251 Z-1.0000 F5000
G1 X275.8294 Y678.2058 Z-1.0000 F5000
G1 X278.8202 Y675.5269 Z-1.0000 F5000
G1 X280.5633 Y671.7104 Z-1.0000 F5000
G1 X281.0220 Y667.2150 Z-1.0000 F5000
G1 X280.5450 Y663.0866 Z-1.0000 F5000
G1 X279.2973 Y659.9673 Z-1.0000 F5000
G1 X277.2422 Y657.5453 Z-1.0000 F5000
G1 X277.2422 Y657.5453 Z10.0000 F9999
G1 X230.5266 Y644.8847 Z10.0000 F9999
G1 X230.5266 Y644.8847 Z-1.0000 F2500
G1 X283.3707 Y614.4994 Z-1.0000 F5000
G1 X230.5266 Y644.8847 Z-1.0000 F5000
G1 X230.5266 Y644.8847 Z10.0000 F9999
G1 X239.9211 Y587.0682 Z10.0000 F9999
G1 X239.9211 Y587.0682 Z-1.0000 F2500
G1 X281.0220 Y603.1233 Z-1.0000 F5000
G1 X239.9211 Y587.0682 Z-1.0000 F5000
G1 X281.0220 Y571.0499 Z-1.0000 F5000
G1 X281.0220 Y571.0499 Z10.0000 F9999
G1 X256.3615 Y560.3710 Z10.0000 F9999
G1 X256.3615 Y560.3710 Z-1.0000 F2500
G1 X256.3615 Y531.1233 Z-1.0000 F5000
G1 X256.3615 Y560.3710 Z-1.0000 F5000
G1 X256.3615 Y560.3710 Z10.0000 F9999
G1 X266.3248 Y597.3802 Z10.0000 F9999
G1 X266.3248 Y597.3802 Z-1.0000 F2500
G1 X266.3248 Y576.6829 Z-1.0000 F5000
G1 X266.3248 Y597.3802 Z-1.0000 F5000
G1 X266.3248 Y597.3802 Z10.0000 F9999
G1 X266.3248 Y514.0040 Z10.0000 F9999
G1 X266.3248 Y514.0040 Z-1.0000 F2500
G1 X266.3248 Y493.3068 Z-1.0000 F5000
G1 X266.3248 Y514.0040 Z-1.0000 F5000
G1 X266.3248 Y514.0040 Z10.0000 F9999
G1 X239.9211 Y503.6921 Z10.0000 F9999
G1 X239.9211 Y503.6921 Z-1.0000 F2500
G1 X281.0220 Y519.7471 Z-1.0000 F5000
G1 X239.9211 Y503.6921 Z-1.0000 F5000
G1 X281.0220 Y487.6737 Z-1.0000 F5000
G1 X281.0220 Y487.6737 Z10.0000 F9999
G1 X281.0220 Y476.9948 Z10.0000 F9999
G1 X281.0220 Y476.9948 Z-1.0000 F2500
G1 X260.8752 Y463.7655 Z-1.0000 F5000
G1 X281.0220 Y476.9948 Z-1.0000 F5000
G1 X281.0220 Y476.9948 Z10.0000 F9999
G1 X281.0220 Y459.5820 Z10.0000 F9999
G1 X281.0220 Y459.5820 Z-1.0000 F2500
G1 X239.9211 Y459.5820 Z-1.0000 F5000
G1 X239.9211 Y466.7380 Z-1.0000 F5000
G1 X240.5266 Y470.6095 Z-1.0000 F5000
G1 X242.3431 Y473.8205 Z-1.0000 F5000
G1 X245.4991 Y476.0407 Z-1.0000 F5000
G1 X250.1413 Y476.8847 Z-1.0000 F5000
G1 X254.8202 Y475.7288 Z-1.0000 F5000
G1 X258.1413 Y472.9581 Z-1.0000 F5000
G1 X260.1046 Y469.6370 Z-1.0000 F5000
G1 X260.7651 Y466.7380 Z-1.0000 F5000
G1 X260.7651 Y459.5820 Z-1.0000 F5000
G1 X260.7651 Y466.7380 Z-1.0000 F5000
G1 X260.1046 Y469.6370 Z-1.0000 F5000
G1 X258.1413 Y472.9581 Z-1.0000 F5000
G1 X254.8202 Y475.7288 Z-1.0000 F5000
G1 X250.1413 Y476.8847 Z-1.0000 F5000
G1 X245.4991 Y476.0407 Z-1.0000 F5000
G1 X242.3431 Y473.8205 Z-1.0000 F5000
G1 X240.5266 Y470.6095 Z-1.0000 F5000
G1 X239.9211 Y466.7380 Z-1.0000 F5000
G1 X239.9211 Y459.5820 Z-1.0000 F5000
G1 X239.9211 Y459.5820 Z10.0000 F9999
G1 X258.2147 Y429.0499 Z10.0000 F9999
G1 X258.2147 Y429.0499 Z-1.0000 F2500
G1 X258.2147 Y443.4902 Z-1.0000 F5000
G1 X258.2147 Y429.0499 Z-1.0000 F5000
G1 X239.9211 Y429.0499 Z-1.0000 F5000
G1 X239.9211 Y444.1691 Z-1.0000 F5000
G1 X239.9211 Y429.0499 Z-1.0000 F5000
G1 X281.0220 Y429.0499 Z-1.0000 F5000
G1 X281.0220 Y429.0499 Z10.0000 F9999
G1 X426.7771 Y429.0499 Z10.0000 F9999
G1 X426.7771 Y429.0499 Z-1.0000 F2500
G1 X426.7771 Y443.4902 Z-1.0000 F5000
G1 X426.7771 Y429.0499 Z-1.0000 F5000
G1 X408.4835 Y429.0499 Z-1.0000 F5000
G1 X408.4835 Y444.1691 Z-1.0000 F5000
G1 X408.4835 Y429.0499 Z-1.0000 F5000
G1 X449.5844 Y429.0499 Z-1.0000 F5000
G1 X449.5844 Y429.0499 Z10.0000 F9999
G1 X449.5844 Y459.5820 Z10.0000 F9999
G1 X449.5844 Y459.5820 Z-1.0000 F2500
G1 X408.4835 Y459.5820 Z-1.0000 F5000
G1 X408.4835 Y466.7380 Z-1.0000 F5000
G1 X409.0890 Y470.6095 Z-1.0000 F5000
G1 X410.9055 Y473.8205 Z-1.0000 F5000
G1 X414.0615 Y476.0407 Z-1.0000 F5000
G1 X418.7037 Y476.8847 Z-1.0000 F5000
G1 X423.3826 Y475.7288 Z-1.0000 F5000
G1 X426.7037 Y472.9581 Z-1.0000 F5000
G1 X428.6670 Y469.6370 Z-1.0000 F5000
G1 X429.3275 Y466.7380 Z-1.0000 F5000
G1 X429.3275 Y459.5820 Z-1.0000 F5000
G1 X429.3275 Y466.7380 Z-1.0000 F5000
G1 X428.6670 Y469.6370 Z-1.0000 F5000
G1 X426.7037 Y472.9581 Z-1.0000 F5000
G1 X423.3826 Y475.7288 Z-1.0000 F5000
G1 X418.7037 Y476.8847 Z-1.0000 F5000
G1 X414.0615 Y476.0407 Z-1.0000 F5000
G1 X410.9055 Y473.8205 Z-1.0000 F5000
G1 X409.0890 Y470.6095 Z-1.0000 F5000
G1 X408.4835 Y466.7380 Z-1.0000 F5000
G1 X408.4835 Y459.5820 Z-1.0000 F5000
G1 X408.4835 Y459.5820 Z10.0000 F9999
G1 X408.4835 Y503.6921 Z10.0000 F9999
G1 X408.4835 Y503.6921 Z-1.0000 F2500
G1 X449.5844 Y519.7471 Z-1.0000 F5000
G1 X408.4835 Y503.6921 Z-1.0000 F5000
G1 X449.5844 Y487.6737 Z-1.0000 F5000
G1 X449.5844 Y487.6737 Z10.0000 F9999
G1 X449.5844 Y476.9948 Z10.0000 F9999
G1 X449.5844 Y476.9948 Z-1.0000 F2500
G1 X429.4376 Y463.7655 Z-1.0000 F5000
G1 X449.5844 Y476.9948 Z-1.0000 F5000
G1 X449.5844 Y476.9948 Z10.0000 F9999
G1 X434.8872 Y514.0040 Z10.0000 F9999
G1 X434.8872 Y514.0040 Z-1.0000 F2500
G1 X434.8872 Y493.3068 Z-1.0000 F5000
G1 X434.8872 Y514.0040 Z-1.0000 F5000
G1 X434.8872 Y514.0040 Z10.0000 F9999
G1 X424.9239 Y560.3710 Z10.0000 F9999
G1 X424.9239 Y560.3710 Z-1.0000 F2500
G1 X424.9239 Y531.1233 Z-1.0000 F5000
G1 X424.9239 Y560.3710 Z-1.0000 F5000
G1 X424.9239 Y560.3710 Z10.0000 F9999
G1 X408.4835 Y587.0682 Z10.0000 F9999
G1 X408.4835 Y587.0682 Z-1.0000 F2500
G1 X449.5844 Y603.1233 Z-1.0000 F5000
G1 X408.4835 Y587.0682 Z-1.0000 F5000
G1 X449.5844 Y571.0499 Z-1.0000 F5000
G1 X449.5844 Y571.0499 Z10.0000 F9999
G1 X434.8872 Y597.3802 Z10.0000 F9999
G1 X434.8872 Y597.3802 Z-1.0000 F2500
G1 X434.8872 Y576.6829 Z-1.0000 F5000
G1 X434.8872 Y597.3802 Z-1.0000 F5000
G1 X434.8872 Y597.3802 Z10.0000 F9999
G1 X442.7587 Y655.6003 Z10.0000 F9999
G1 X442.7587 Y655.6003 Z-1.0000 F2500
G1 X445.8046 Y657.5453 Z-1.0000 F5000
G1 X447.8597 Y659.9673 Z-1.0000 F5000
G1 X449.1074 Y663.0866 Z-1.0000 F5000
G1 X449.5844 Y667.2150 Z-1.0000 F5000
G1 X449.1257 Y671.7104 Z-1.0000 F5000
G1 X447.3826 Y675.5269 Z-1.0000 F5000
G1 X444.3918 Y678.2058 Z-1.0000 F5000
G1 X440.2266 Y679.3251 Z-1.0000 F5000
G1 X436.2266 Y678.7930 Z-1.0000 F5000
G1 X433.5477 Y677.2517 Z-1.0000 F5000
G1 X431.8597 Y675.2150 Z-1.0000 F5000
G1 X430.7587 Y673.3068 Z-1.0000 F5000
G1 X426.0248 Y664.1141 Z-1.0000 F5000
G1 X424.6119 Y661.7471 Z-1.0000 F5000
G1 X422.9606 Y659.8939 Z-1.0000 F5000
G1 X420.7771 Y658.6462 Z-1.0000 F5000
G1 X417.8963 Y658.1324 Z-1.0000 F5000
G1 X414.6119 Y658.6646 Z-1.0000 F5000
G1 X411.5844 Y660.4994 Z-1.0000 F5000
G1 X409.3642 Y663.6370 Z-1.0000 F5000
G1 X408.4835 Y668.0040 Z-1.0000 F5000
G1 X409.1624 Y672.2609 Z-1.0000 F5000
G1 X410.6303 Y675.1049 Z-1.0000 F5000
G1 X412.7771 Y677.1967 Z-1.0000 F5000
G1 X410.6303 Y675.1049 Z-1.0000 F5000
G1 X409.1624 Y672.2609 Z-1.0000 F5000
G1 X408.4835 Y668.0040 Z-1.0000 F5000
G1 X409.3642 Y663.6370 Z-1.0000 F5000
G1 X411.5844 Y660.4994 Z-1.0000 F5000
G1 X414.6119 Y658.6646 Z-1.0000 F5000
G1 X417.8963 Y658.1324 Z-1.0000 F5000
G1 X420.7771 Y658.6462 Z-1.0000 F5000
G1 X422.9606 Y659.8939 Z-1.0000 F5000
G1 X424.6119 Y661.7471 Z-1.0000 F5000
G1 X426.0248 Y664.1141 Z-1.0000 F5000
G1 X430.7587 Y673.3068 Z-1.0000 F5000
G1 X431.8597 Y675.2150 Z-1.0000 F5000
G1 X433.5477 Y677.2517 Z-1.0000 F5000
G1 X436.2266 Y678.7930 Z-1.0000 F5000
G1 X440.2266 Y679.3251 Z-1.0000 F5000
G1 X444.3918 Y678.2058 Z-1.0000 F5000
G1 X447.3826 Y675.5269 Z-1.0000 F5000
G1 X449.1257 Y671.7104 Z-1.0000 F5000
G1 X449.5844 Y667.2150 Z-1.0000 F5000
G1 X449.1074 Y663.0866 Z-1.0000 F5000
G1 X447.8597 Y659.9673 Z-1.0000 F5000
G1 X445.8046 Y657.5453 Z-1.0000 F5000
G1 X445.8046 Y657.5453 Z10.0000 F9999
G1 X441.6395 Y690.8297 Z10.0000 F9999
G1 X441.6395 Y690.8297 Z-1.0000 F2500
G1 X444.3184 Y691.5820 Z-1.0000 F5000
G1 X446.8872 Y693.3068 Z-1.0000 F5000
G1 X448.8321 Y696.2609 Z-1.0000 F5000
G1 X449.5844 Y700.8113 Z-1.0000 F5000
G1 X446.9606 Y709.3251 Z-1.0000 F5000
G1 X438.9789 Y712.4260 Z-1.0000 F5000
G1 X434.2450 Y711.5453 Z-1.0000 F5000
G1 X430.8872 Y709.2334 Z-1.0000 F5000
G1 X428.8872 Y706.0224 Z-1.0000 F5000
G1 X428.2083 Y702.4444 Z-1.0000 F5000
G1 X427.4743 Y705.9123 Z-1.0000 F5000
G1 X425.2541 Y708.8664 Z-1.0000 F5000
G1 X421.8780 Y710.9581 Z-1.0000 F5000
G1 X417.6762 Y711.7471 Z-1.0000 F5000
G1 X416.0982 Y711.7104 Z-1.0000 F5000
G1 X414.1165 Y711.4352 Z-1.0000 F5000
G1 X412.0982 Y710.6462 Z-1.0000 F5000
G1 X410.2633 Y709.1233 Z-1.0000 F5000
G1 X408.9606 Y706.5728 Z-1.0000 F5000
G1 X408.4835 Y702.8297 Z-1.0000 F5000
G1 X409.3092 Y697.4535 Z-1.0000 F5000
G1 X411.3275 Y694.3526 Z-1.0000 F5000
G1 X413.9881 Y692.8297 Z-1.0000 F5000
G1 X416.7220 Y692.2425 Z-1.0000 F5000
G1 X413.9881 Y692.8297 Z-1.0000 F5000
G1 X411.3275 Y694.3526 Z-1.0000 F5000
G1 X409.3092 Y697.4535 Z-1.0000 F5000
G1 X408.4835 Y702.8297 Z-1.0000 F5000
G1 X408.9606 Y706.5728 Z-1.0000 F5000
G1 X410.2633 Y709.1233 Z-1.0000 F5000
G1 X412.0982 Y710.6462 Z-1.0000 F5000
G1 X414.1165 Y711.4352 Z-1.0000 F5000
G1 X416.0615 Y711.7104 Z-1.0000 F5000
G1 X417.6762 Y711.7471 Z-1.0000 F5000
G1 X421.8780 Y710.9581 Z-1.0000 F5000
G1 X425.2541 Y708.8664 Z-1.0000 F5000
G1 X427.4743 Y705.9123 Z-1.0000 F5000
G1 X428.2083 Y702.4444 Z-1.0000 F5000
G1 X428.8872 Y706.0224 Z-1.0000 F5000
G1 X430.8872 Y709.2334 Z-1.0000 F5000
G1 X434.2450 Y711.5453 Z-1.0000 F5000
G1 X438.9789 Y712.4260 Z-1.0000 F5000
G1 X446.9606 Y709.3251 Z-1.0000 F5000
G1 X449.5844 Y700.8113 Z-1.0000 F5000
G1 X448.8321 Y696.2609 Z-1.0000 F5000
G1 X446.8872 Y693.3068 Z-1.0000 F5000
G1 X444.3184 Y691.5820 Z-1.0000 F5000
G1 X444.3184 Y691.5820 Z10.0000 F9999
G1 X399.0890 Y644.8847 Z10.0000 F9999
G1 X399.0890 Y644.8847 Z-1.0000 F2500
G1 X451.9330 Y614.4994 Z-1.0000 F5000
G1 X399.0890 Y644.8847 Z-1.0000 F5000
G1 X399.0890 Y644.8847 Z10.0000 F9999
G1 X399.0890 Y754.0957 Z10.0000 F9999
G1 X399.0890 Y754.0957 Z-1.0000 F2500
G1 X451.9330 Y723.7104 Z-1.0000 F5000
G1 X399.0890 Y754.0957 Z-1.0000 F5000
G1 X399.0890 Y754.0957 Z10.0000 F9999
G1 X408.4835 Y769.6003 Z10.0000 F9999
G1 X408.4835 Y769.6003 Z-1.0000 F2500
G1 X449.5844 Y769.6003 Z-1.0000 F5000
G1 X408.4835 Y769.6003 Z-1.0000 F5000
G1 X408.4835 Y769.6003 Z10.0000 F9999
G1 X408.4835 Y789.5636 Z10.0000 F9999
G1 X408.4835 Y789.5636 Z-1.0000 F2500
G1 X449.5844 Y826.6646 Z-1.0000 F5000
G1 X408.4835 Y826.6646 Z-1.0000 F5000
G1 X449.5844 Y826.6646 Z-1.0000 F5000
G1 X408.4835 Y789.5636 Z-1.0000 F5000
G1 X449.5844 Y789.5636 Z-1.0000 F5000
G1 X449.5844 Y789.5636 Z10.0000 F9999
G1 X574.6243 Y754.0957 Z10.0000 F9999
G1 X574.6243 Y754.0957 Z-1.0000 F2500
G1 X627.4683 Y723.7104 Z-1.0000 F5000
G1 X574.6243 Y754.0957 Z-1.0000 F5000
G1 X574.6243 Y754.0957 Z10.0000 F9999
G1 X584.0188 Y769.6003 Z10.0000 F9999
G1 X584.0188 Y769.6003 Z-1.0000 F2500
G1 X625.1197 Y769.6003 Z-1.0000 F5000
G1 X584.0188 Y769.6003 Z-1.0000 F5000
G1 X584.0188 Y769.6003 Z10.0000 F9999
G1 X584.0188 Y789.5636 Z10.0000 F9999
G1 X584.0188 Y789.5636 Z-1.0000 F2500
G1 X625.1197 Y826.6646 Z-1.0000 F5000
G1 X584.0188 Y826.6646 Z-1.0000 F5000
G1 X625.1197 Y826.6646 Z-1.0000 F5000
G1 X584.0188 Y789.5636 Z-1.0000 F5000
G1 X625.1197 Y789.5636 Z-1.0000 F5000
G1 X625.1197 Y789.5636 Z10.0000 F9999
G1 X617.1747 Y690.8297 Z10.0000 F9999
G1 X617.1747 Y690.8297 Z-1.0000 F2500
G1 X619.8536 Y691.5820 Z-1.0000 F5000
G1 X622.4224 Y693.3068 Z-1.0000 F5000
G1 X624.3674 Y696.2609 Z-1.0000 F5000
G1 X625.1197 Y700.8113 Z-1.0000 F5000
G1 X622.4958 Y709.3251 Z-1.0000 F5000
G1 X614.5142 Y712.4260 Z-1.0000 F5000
G1 X609.7802 Y711.5453 Z-1.0000 F5000
G1 X606.4224 Y709.2334 Z-1.0000 F5000
G1 X604.4224 Y706.0224 Z-1.0000 F5000
G1 X603.7435 Y702.4444 Z-1.0000 F5000
G1 X603.0096 Y705.9123 Z-1.0000 F5000
G1 X600.7894 Y708.8664 Z-1.0000 F5000
G1 X597.4132 Y710.9581 Z-1.0000 F5000
G1 X593.2114 Y711.7471 Z-1.0000 F5000
G1 X591.6334 Y711.7104 Z-1.0000 F5000
G1 X589.6518 Y711.4352 Z-1.0000 F5000
G1 X587.6334 Y710.6462 Z-1.0000 F5000
G1 X585.7986 Y709.1233 Z-1.0000 F5000
G1 X584.4958 Y706.5728 Z-1.0000 F5000
G1 X584.0188 Y702.8297 Z-1.0000 F5000
G1 X584.8444 Y697.4535 Z-1.0000 F5000
G1 X586.8628 Y694.3526 Z-1.0000 F5000
G1 X589.5233 Y692.8297 Z-1.0000 F5000
G1 X592.2573 Y692.2425 Z-1.0000 F5000
G1 X589.5233 Y692.8297 Z-1.0000 F5000
G1 X586.8628 Y694.3526 Z-1.0000 F5000
G1 X584.8444 Y697.4535 Z-1.0000 F5000
G1 X584.0188 Y702.8297 Z-1.0000 F5000
G1 X584.4958 Y706.5728 Z-1.0000 F5000
G1 X585.7986 Y709.1233 Z-1.0000 F5000
G1 X587.6334 Y710.6462 Z-1.0000 F5000
G1 X589.6518 Y711.4352 Z-1.0000 F5000
G1 X591.5967 Y711.7104 Z-1.0000 F5000
G1 X593.2114 Y711.7471 Z-1.0000 F5000
G1 X597.4132 Y710.9581 Z-1.0000 F5000
G1 X600.7894 Y708.8664 Z-1.0000 F5000
G1 X603.0096 Y705.9123 Z-1.0000 F5000
G1 X603.7435 Y702.4444 Z-1.0000 F5000
G1 X604.4224 Y706.0224 Z-1.0000 F5000
G1 X606.4224 Y709.2334 Z-1.0000 F5000
G1 X609.7802 Y711.5453 Z-1.0000 F5000
G1 X614.5142 Y712.4260 Z-1.0000 F5000
G1 X622.4958 Y709.3251 Z-1.0000 F5000
G1 X625.1197 Y700.8113 Z-1.0000 F5000
G1 X624.3674 Y696.2609 Z-1.0000 F5000
G1 X622.4224 Y693.3068 Z-1.0000 F5000
G1 X619.8536 Y691.5820 Z-1.0000 F5000
G1 X619.8536 Y691.5820 Z10.0000 F9999
G1 X618.2940 Y655.6003 Z10.0000 F9999
G1 X618.2940 Y655.6003 Z-1.0000 F2500
G1 X621.3399 Y657.5453 Z-1.0000 F5000
G1 X623.3949 Y659.9673 Z-1.0000 F5000
G1 X624.6426 Y663.0866 Z-1.0000 F5000
G1 X625.1197 Y667.2150 Z-1.0000 F5000
G1 X624.6610 Y671.7104 Z-1.0000 F5000
G1 X622.9178 Y675.5269 Z-1.0000 F5000
G1 X619.9270 Y678.2058 Z-1.0000 F5000
G1 X615.7619 Y679.3251 Z-1.0000 F5000
G1 X611.7619 Y678.7930 Z-1.0000 F5000
G1 X609.0830 Y677.2517 Z-1.0000 F5000
G1 X607.3949 Y675.2150 Z-1.0000 F5000
G1 X606.2940 Y673.3068 Z-1.0000 F5000
G1 X601.5600 Y664.1141 Z-1.0000 F5000
G1 X600.1472 Y661.7471 Z-1.0000 F5000
G1 X598.4958 Y659.8939 Z-1.0000 F5000
G1 X596.3123 Y658.6462 Z-1.0000 F5000
G1 X593.4316 Y658.1324 Z-1.0000 F5000
G1 X590.1472 Y658.6646 Z-1.0000 F5000
G1 X587.1197 Y660.4994 Z-1.0000 F5000
G1 X584.8995 Y663.6370 Z-1.0000 F5000
G1 X584.0188 Y668.0040 Z-1.0000 F5000
G1 X584.6976 Y672.2609 Z-1.0000 F5000
G1 X586.1655 Y675.1049 Z-1.0000 F5000
G1 X588.3123 Y677.1967 Z-1.0000 F5000
G1 X586.1655 Y675.1049 Z-1.0000 F5000
G1 X584.6976 Y672.2609 Z-1.0000 F5000
G1 X584.0188 Y668.0040 Z-1.0000 F5000
G1 X584.8995 Y663.6370 Z-1.0000 F5000
G1 X587.1197 Y660.4994 Z-1.0000 F5000
G1 X590.1472 Y658.6646 Z-1.0000 F5000
G1 X593.4316 Y658.1324 Z-1.0000 F5000
G1 X596.3123 Y658.6462 Z-1.0000 F5000
G1 X598.4958 Y659.8939 Z-1.0000 F5000
G1 X600.1472 Y661.7471 Z-1.0000 F5000
G1 X601.5600 Y664.1141 Z-1.0000 F5000
G1 X606.2940 Y673.3068 Z-1.0000 F5000
G1 X607.3949 Y675.2150 Z-1.0000 F5000
G1 X609.0830 Y677.2517 Z-1.0000 F5000
G1 X611.7619 Y678.7930 Z-1.0000 F5000
G1 X615.7619 Y679.3251 Z-1.0000 F5000
G1 X619.9270 Y678.2058 Z-1.0000 F5000
G1 X622.9178 Y675.5269 Z-1.0000 F5000
G1 X624.6610 Y671.7104 Z-1.0000 F5000
G1 X625.1197 Y667.2150 Z-1.0000 F5000
G1 X624.6426 Y663.0866 Z-1.0000 F5000
G1 X623.3949 Y659.9673 Z-1.0000 F5000
G1 X621.3399 Y657.5453 Z-1.0000 F5000
G1 X621.3399 Y657.5453 Z10.0000 F9999
G1 X574.6243 Y644.8847 Z10.0000 F9999
G1 X574.6243 Y644.8847 Z-1.0000 F2500
G1 X627.4683 Y614.4994 Z-1.0000 F5000
G1 X574.6243 Y644.8847 Z-1.0000 F5000
G1 X574.6243 Y644.8847 Z10.0000 F9999
G1 X584.0188 Y587.0682 Z10.0000 F9999
G1 X584.0188 Y587.0682 Z-1.0000 F2500
G1 X625.1197 Y603.1233 Z-1.0000 F5000
G1 X584.0188 Y587.0682 Z-1.0000 F5000
G1 X625.1197 Y571.0499 Z-1.0000 F5000
G1 X625.1197 Y571.0499 Z10.0000 F9999
G1 X600.4591 Y560.3710 Z10.0000 F9999
G1 X600.4591 Y560.3710 Z-1.0000 F2500
G1 X600.4591 Y531.1233 Z-1.0000 F5000
G1 X600.4591 Y560.3710 Z-1.0000 F5000
G1 X600.4591 Y560.3710 Z10.0000 F9999
G1 X610.4224 Y597.3802 Z10.0000 F9999
G1 X610.4224 Y597.3802 Z-1.0000 F2500
G1 X610.4224 Y576.6829 Z-1.0000 F5000
G1 X610.4224 Y597.3802 Z-1.0000 F5000
G1 X610.4224 Y597.3802 Z10.0000 F9999
G1 X610.4224 Y514.0040 Z10.0000 F9999
G1 X610.4224 Y514.0040 Z-1.0000 F2500
G1 X610.4224 Y493.3068 Z-1.0000 F5000
G1 X610.4224 Y514.0040 Z-1.0000 F5000
G1 X610.4224 Y514.0040 Z10.0000 F9999
G1 X584.0188 Y503.6921 Z10.0000 F9999
G1 X584.0188 Y503.6921 Z-1.0000 F2500
G1 X625.1197 Y519.7471 Z-1.0000 F5000
G1 X584.0188 Y503.6921 Z-1.0000 F5000
G1 X625.1197 Y487.6737 Z-1.0000 F5000
G1 X625.1197 Y487.6737 Z10.0000 F9999
G1 X625.1197 Y476.9948 Z10.0000 F9999
G1 X625.1197 Y476.9948 Z-1.0000 F2500
G1 X604.9729 Y463.7655 Z-1.0000 F5000
G1 X625.1197 Y476.9948 Z-1.0000 F5000
G1 X625.1197 Y476.9948 Z10.0000 F9999
G1 X625.1197 Y459.5820 Z10.0000 F9999
G1 X625.1197 Y459.5820 Z-1.0000 F2500
G1 X584.0188 Y459.5820 Z-1.0000 F5000
G1 X584.0188 Y466.7380 Z-1.0000 F5000
G1 X584.6243 Y470.6095 Z-1.0000 F5000
G1 X586.4408 Y473.8205 Z-1.0000 F5000
G1 X589.5967 Y476.0407 Z-1.0000 F5000
G1 X594.2389 Y476.8847 Z-1.0000 F5000
G1 X598.9178 Y475.7288 Z-1.0000 F5000
G1 X602.2389 Y472.9581 Z-1.0000 F5000
G1 X604.2022 Y469.6370 Z-1.0000 F5000
G1 X604.8628 Y466.7380 Z-1.0000 F5000
G1 X604.8628 Y459.5820 Z-1.0000 F5000
G1 X604.8628 Y466.7380 Z-1.0000 F5000
G1 X604.2022 Y469.6370 Z-1.0000 F5000
G1 X602.2389 Y472.9581 Z-1.0000 F5000
G1 X598.9178 Y475.7288 Z-1.0000 F5000
G1 X594.2389 Y476.8847 Z-1.0000 F5000
G1 X589.5967 Y476.0407 Z-1.0000 F5000
G1 X586.4408 Y473.8205 Z-1.0000 F5000
G1 X584.6243 Y470.6095 Z-1.0000 F5000
G1 X584.0188 Y466.7380 Z-1.0000 F5000
G1 X584.0188 Y459.5820 Z-1.0000 F5000
G1 X584.0188 Y459.5820 Z10.0000 F9999
G1 X602.3123 Y429.0499 Z10.0000 F9999
G1 X602.3123 Y429.0499 Z-1.0000 F2500
G1 X602.3123 Y443.4902 Z-1.0000 F5000
G1 X602.3123 Y429.0499 Z-1.0000 F5000
G1 X584.0188 Y429.0499 Z-1.0000 F5000
G1 X584.0188 Y444.1691 Z-1.0000 F5000
G1 X584.0188 Y429.0499 Z-1.0000 F5000
G1 X625.1197 Y429.0499 Z-1.0000 F5000
G1 X625.1197 Y429.0499 Z10.0000 F9999
G1 X770.4259 Y429.0499 Z10.0000 F9999
G1 X770.4259 Y429.0499 Z-1.0000 F2500
G1 X770.4259 Y443.4902 Z-1.0000 F5000
G1 X770.4259 Y429.0499 Z-1.0000 F5000
G1 X752.1323 Y429.0499 Z-1.0000 F5000
G1 X752.1323 Y444.1691 Z-1.0000 F5000
G1 X752.1323 Y429.0499 Z-1.0000 F5000
G1 X793.2332 Y429.0499 Z-1.0000 F5000
G1 X793.2332 Y429.0499 Z10.0000 F9999
G1 X793.2332 Y459.5820 Z10.0000 F9999
G1 X793.2332 Y459.5820 Z-1.0000 F2500
G1 X752.1323 Y459.5820 Z-1.0000 F5000
G1 X752.1323 Y466.7380 Z-1.0000 F5000
G1 X752.7378 Y470.6095 Z-1.0000 F5000
G1 X754.5543 Y473.8205 Z-1.0000 F5000
G1 X757.7103 Y476.0407 Z-1.0000 F5000
G1 X762.3525 Y476.8847 Z-1.0000 F5000
G1 X767.0314 Y475.7288 Z-1.0000 F5000
G1 X770.3525 Y472.9581 Z-1.0000 F5000
G1 X772.3158 Y469.6370 Z-1.0000 F5000
G1 X772.9763 Y466.7380 Z-1.0000 F5000
G1 X772.9763 Y459.5820 Z-1.0000 F5000
G1 X772.9763 Y466.7380 Z-1.0000 F5000
G1 X772.3158 Y469.6370 Z-1.0000 F5000
G1 X770.3525 Y472.9581 Z-1.0000 F5000
G1 X767.0314 Y475.7288 Z-1.0000 F5000
G1 X762.3525 Y476.8847 Z-1.0000 F5000
G1 X757.7103 Y476.0407 Z-1.0000 F5000
G1 X754.5543 Y473.8205 Z-1.0000 F5000
G1 X752.7378 Y470.6095 Z-1.0000 F5000
G1 X752.1323 Y466.7380 Z-1.0000 F5000
G1 X752.1323 Y459.5820 Z-1.0000 F5000
G1 X752.1323 Y459.5820 Z10.0000 F9999
G1 X752.1323 Y503.6921 Z10.0000 F9999
G1 X752.1323 Y503.6921 Z-1.0000 F2500
G1 X793.2332 Y519.7471 Z-1.0000 F5000
G1 X752.1323 Y503.6921 Z-1.0000 F5000
G1 X793.2332 Y487.6737 Z-1.0000 F5000
G1 X793.2332 Y487.6737 Z10.0000 F9999
G1 X793.2332 Y476.9948 Z10.0000 F9999
G1 X793.2332 Y476.9948 Z-1.0000 F2500
G1 X773.0864 Y463.7655 Z-1.0000 F5000
G1 X793.2332 Y476.9948 Z-1.0000 F5000
G1 X793.2332 Y476.9948 Z10.0000 F9999
G1 X778.5359 Y514.0040 Z10.0000 F9999
G1 X778.5359 Y514.0040 Z-1.0000 F2500
G1 X778.5359 Y493.3068 Z-1.0000 F5000
G1 X778.5359 Y514.0040 Z-1.0000 F5000
G1 X778.5359 Y514.0040 Z10.0000 F9999
G1 X768.5726 Y560.3710 Z10.0000 F9999
G1 X768.5726 Y560.3710 Z-1.0000 F2500
G1 X768.5726 Y531.1233 Z-1.0000 F5000
G1 X768.5726 Y560.3710 Z-1.0000 F5000
G1 X768.5726 Y560.3710 Z10.0000 F9999
G1 X752.1323 Y587.0682 Z10.0000 F9999
G1 X752.1323 Y587.0682 Z-1.0000 F2500
G1 X793.2332 Y603.1233 Z-1.0000 F5000
G1 X752.1323 Y587.0682 Z-1.0000 F5000
G1 X793.2332 Y571.0499 Z-1.0000 F5000
G1 X793.2332 Y571.0499 Z10.0000 F9999
G1 X778.5359 Y597.3802 Z10.0000 F9999
G1 X778.5359 Y597.3802 Z-1.0000 F2500
G1 X778.5359 Y576.6829 Z-1.0000 F5000
G1 X778.5359 Y597.3802 Z-1.0000 F5000
G1 X778.5359 Y597.3802 Z10.0000 F9999
G1 X786.4075 Y655.6003 Z10.0000 F9999
G1 X786.4075 Y655.6003 Z-1.0000 F2500
G1 X789.4534 Y657.5453 Z-1.0000 F5000
G1 X791.5084 Y659.9673 Z-1.0000 F5000
G1 X792.7561 Y663.0866 Z-1.0000 F5000
G1 X793.2332 Y667.2150 Z-1.0000 F5000
G1 X792.7745 Y671.7104 Z-1.0000 F5000
G1 X791.0314 Y675.5269 Z-1.0000 F5000
G1 X788.0405 Y678.2058 Z-1.0000 F5000
G1 X783.8754 Y679.3251 Z-1.0000 F5000
G1 X779.8754 Y678.7930 Z-1.0000 F5000
G1 X777.1965 Y677.2517 Z-1.0000 F5000
G1 X775.5084 Y675.2150 Z-1.0000 F5000
G1 X774.4075 Y673.3068 Z-1.0000 F5000
G1 X769.6736 Y664.1141 Z-1.0000 F5000
G1 X768.2607 Y661.7471 Z-1.0000 F5000
G1 X766.6093 Y659.8939 Z-1.0000 F5000
G1 X764.4259 Y658.6462 Z-1.0000 F5000
G1 X761.5451 Y658.1324 Z-1.0000 F5000
G1 X758.2607 Y658.6646 Z-1.0000 F5000
G1 X755.2332 Y660.4994 Z-1.0000 F5000
G1 X753.0130 Y663.6370 Z-1.0000 F5000
G1 X752.1323 Y668.0040 Z-1.0000 F5000
G1 X752.8112 Y672.2609 Z-1.0000 F5000
G1 X754.2791 Y675.1049 Z-1.0000 F5000
G1 X756.4259 Y677.1967 Z-1.0000 F5000
G1 X754.2791 Y675.1049 Z-1.0000 F5000
G1 X752.8112 Y672.2609 Z-1.0000 F5000
G1 X752.1323 Y668.0040 Z-1.0000 F5000
G1 X753.0130 Y663.6370 Z-1.0000 F5000
G1 X755.2332 Y660.4994 Z-1.0000 F5000
G1 X758.2607 Y658.6646 Z-1.0000 F5000
G1 X761.5451 Y658.1324 Z-1.0000 F5000
G1 X764.4259 Y658.6462 Z-1.0000 F5000
G1 X766.6093 Y659.8939 Z-1.0000 F5000
G1 X768.2607 Y661.7471 Z-1.0000 F5000
G1 X769.6736 Y664.1141 Z-1.0000 F5000
G1 X774.4075 Y673.3068 Z-1.0000 F5000
G1 X775.5084 Y675.2150 Z-1.0000 F5000
G1 X777.1965 Y677.2517 Z-1.0000 F5000
G1 X779.8754 Y678.7930 Z-1.0000 F5000
G1 X783.8754 Y679.3251 Z-1.0000 F5000
G1 X788.0405 Y678.2058 Z-1.0000 F5000
G1 X791.0314 Y675.5269 Z-1.0000 F5000
G1 X792.7745 Y671.7104 Z-1.0000 F5000
G1 X793.2332 Y667.2150 Z-1.0000 F5000
G1 X792.7561 Y663.0866 Z-1.0000 F5000
G1 X791.5084 Y659.9673 Z-1.0000 F5000
G1 X789.4534 Y657.5453 Z-1.0000 F5000
G1 X789.4534 Y657.5453 Z10.0000 F9999
G1 X785.2882 Y690.8297 Z10.0000 F9999
G1 X785.2882 Y690.8297 Z-1.0000 F2500
G1 X787.9671 Y691.5820 Z-1.0000 F5000
G1 X790.5359 Y693.3068 Z-1.0000 F5000
G1 X792.4809 Y696.2609 Z-1.0000 F5000
G1 X793.2332 Y700.8113 Z-1.0000 F5000
G1 X790.6093 Y709.3251 Z-1.0000 F5000
G1 X782.6277 Y712.4260 Z-1.0000 F5000
G1 X777.8937 Y711.5453 Z-1.0000 F5000
G1 X774.5359 Y709.2334 Z-1.0000 F5000
G1 X772.5359 Y706.0224 Z-1.0000 F5000
G1 X771.8570 Y702.4444 Z-1.0000 F5000
G1 X771.1231 Y705.9123 Z-1.0000 F5000
G1 X768.9029 Y708.8664 Z-1.0000 F5000
G1 X765.5268 Y710.9581 Z-1.0000 F5000
G1 X761.3249 Y711.7471 Z-1.0000 F5000
G1 X759.7470 Y711.7104 Z-1.0000 F5000
G1 X757.7653 Y711.4352 Z-1.0000 F5000
G1 X755.7470 Y710.6462 Z-1.0000 F5000
G1 X753.9121 Y709.1233 Z-1.0000 F5000
G1 X752.6093 Y706.5728 Z-1.0000 F5000
G1 X752.1323 Y702.8297 Z-1.0000 F5000
G1 X752.9580 Y697.4535 Z-1.0000 F5000
G1 X754.9763 Y694.3526 Z-1.0000 F5000
G1 X757.6369 Y692.8297 Z-1.0000 F5000
G1 X760.3708 Y692.2425 Z-1.0000 F5000
G1 X757.6369 Y692.8297 Z-1.0000 F5000
G1 X754.9763 Y694.3526 Z-1.0000 F5000
G1 X752.9580 Y697.4535 Z-1.0000 F5000
G1 X752.1323 Y702.8297 Z-1.0000 F5000
G1 X752.6093 Y706.5728 Z-1.0000 F5000
G1 X753.9121 Y709.1233 Z-1.0000 F5000
G1 X755.7470 Y710.6462 Z-1.0000 F5000
G1 X757.7653 Y711.4352 Z-1.0000 F5000
G1 X759.7103 Y711.7104 Z-1.0000 F5000
G1 X761.3249 Y711.7471 Z-1.0000 F5000
G1 X765.5268 Y710.9581 Z-1.0000 F5000
G1 X768.9029 Y708.8664 Z-1.0000 F5000
G1 X771.1231 Y705.9123 Z-1.0000 F5000
G1 X771.8570 Y702.4444 Z-1.0000 F5000
G1 X772.5359 Y706.0224 Z-1.0000 F5000
G1 X774.5359 Y709.2334 Z-1.0000 F5000
G1 X777.8937 Y711.5453 Z-1.0000 F5000
G1 X782.6277 Y712.4260 Z-1.0000 F5000
G1 X790.6093 Y709.3251 Z-1.0000 F5000
G1 X793.2332 Y700.8113 Z-1.0000 F5000
G1 X792.4809 Y696.2609 Z-1.0000 F5000
G1 X790.5359 Y693.3068 Z-1.0000 F5000
G1 X787.9671 Y691.5820 Z-1.0000 F5000
G1 X787.9671 Y691.5820 Z10.0000 F9999
G1 X742.7378 Y644.8847 Z10.0000 F9999
G1 X742.7378 Y644.8847 Z-1.0000 F2500
G1 X795.5818 Y614.4994 Z-1.0000 F5000
G1 X742.7378 Y644.8847 Z-1.0000 F5000
G1 X742.7378 Y644.8847 Z10.0000 F9999
G1 X742.7378 Y754.0957 Z10.0000 F9999
G1 X742.7378 Y754.0957 Z-1.0000 F2500
G1 X795.5818 Y723.7104 Z-1.0000 F5000
G1 X742.7378 Y754.0957 Z-1.0000 F5000
G1 X742.7378 Y754.0957 Z10.0000 F9999
G1 X752.1323 Y769.6003 Z10.0000 F9999
G1 X752.1323 Y769.6003 Z-1.0000 F2500
G1 X793.2332 Y769.6003 Z-1.0000 F5000
G1 X752.1323 Y769.6003 Z-1.0000 F5000
G1 X752.1323 Y769.6003 Z10.0000 F9999
G1 X752.1323 Y789.5636 Z10.0000 F9999
G1 X752.1323 Y789.5636 Z-1.0000 F2500
G1 X793.2332 Y826.6646 Z-1.0000 F5000
G1 X752.1323 Y826.6646 Z-1.0000 F5000
G1 X793.2332 Y826.6646 Z-1.0000 F5000
G1 X752.1323 Y789.5636 Z-1.0000 F5000
G1 X793.2332 Y789.5636 Z-1.0000 F5000
G1 X793.2332 Y789.5636 Z10.0000 F9999
G1 X918.7219 Y754.0957 Z10.0000 F9999
G1 X918.7219 Y754.0957 Z-1.0000 F2500
G1 X971.5659 Y723.7104 Z-1.0000 F5000
G1 X918.7219 Y754.0957 Z-1.0000 F5000
G1 X918.7219 Y754.0957 Z10.0000 F9999
G1 X928.1164 Y769.6003 Z10.0000 F9999
G1 X928.1164 Y769.6003 Z-1.0000 F2500
G1 X969.2173 Y769.6003 Z-1.0000 F5000
G1 X928.1164 Y769.6003 Z-1.0000 F5000
G1 X928.1164 Y769.6003 Z10.0000 F9999
G1 X928.1164 Y789.5636 Z10.0000 F9999
G1 X928.1164 Y789.5636 Z-1.0000 F2500
G1 X969.2173 Y826.6646 Z-1.0000 F5000
G1 X928.1164 Y826.6646 Z-1.0000 F5000
G1 X969.2173 Y826.6646 Z-1.0000 F5000
G1 X928.1164 Y789.5636 Z-1.0000 F5000
G1 X969.2173 Y789.5636 Z-1.0000 F5000
G1 X969.2173 Y789.5636 Z10.0000 F9999
G1 X961.2724 Y690.8297 Z10.0000 F9999
G1 X961.2724 Y690.8297 Z-1.0000 F2500
G1 X963.9513 Y691.5820 Z-1.0000 F5000
G1 X966.5201 Y693.3068 Z-1.0000 F5000
G1 X968.4650 Y696.2609 Z-1.0000 F5000
G1 X969.2173 Y700.8113 Z-1.0000 F5000
G1 X966.5935 Y709.3251 Z-1.0000 F5000
G1 X958.6118 Y712.4260 Z-1.0000 F5000
G1 X953.8779 Y711.5453 Z-1.0000 F5000
G1 X950.5201 Y709.2334 Z-1.0000 F5000
G1 X948.5201 Y706.0224 Z-1.0000 F5000
G1 X947.8412 Y702.4444 Z-1.0000 F5000
G1 X947.1072 Y705.9123 Z-1.0000 F5000
G1 X944.8870 Y708.8664 Z-1.0000 F5000
G1 X941.5109 Y710.9581 Z-1.0000 F5000
G1 X937.3090 Y711.7471 Z-1.0000 F5000
G1 X935.7311 Y711.7104 Z-1.0000 F5000
G1 X933.7494 Y711.4352 Z-1.0000 F5000
G1 X931.7311 Y710.6462 Z-1.0000 F5000
G1 X929.8962 Y709.1233 Z-1.0000 F5000
G1 X928.5935 Y706.5728 Z-1.0000 F5000
G1 X928.1164 Y702.8297 Z-1.0000 F5000
G1 X928.9421 Y697.4535 Z-1.0000 F5000
G1 X930.9604 Y694.3526 Z-1.0000 F5000
G1 X933.6210 Y692.8297 Z-1.0000 F5000
G1 X936.3549 Y692.2425 Z-1.0000 F5000
G1 X933.6210 Y692.8297 Z-1.0000 F5000
G1 X930.9604 Y694.3526 Z-1.0000 F5000
G1 X928.9421 Y697.4535 Z-1.0000 F5000
G1 X928.1164 Y702.8297 Z-1.0000 F5000
G1 X928.5935 Y706.5728 Z-1.0000 F5000
G1 X929.8962 Y709.1233 Z-1.0000 F5000
G1 X931.7311 Y710.6462 Z-1.0000 F5000
G1 X933.7494 Y711.4352 Z-1.0000 F5000
G1 X935.6944 Y711.7104 Z-1.0000 F5000
G1 X937.3090 Y711.7471 Z-1.0000 F5000
G1 X941.5109 Y710.9581 Z-1.0000 F5000
G1 X944.8870 Y708.8664 Z-1.0000 F5000
G1 X947.1072 Y705.9123 Z-1.0000 F5000
G1 X947.8412 Y702.4444 Z-1.0000 F5000
G1 X948.5201 Y706.0224 Z-1.0000 F5000
G1 X950.5201 Y709.2334 Z-1.0000 F5000
G1 X953.8779 Y711.5453 Z-1.0000 F5000
G1 X958.6118 Y712.4260 Z-1.0000 F5000
G1 X966.5935 Y709.3251 Z-1.0000 F5000
G1 X969.2173 Y700.8113 Z-1.0000 F5000
G1 X968.4650 Y696.2609 Z-1.0000 F5000
G1 X966.5201 Y693.3068 Z-1.0000 F5000
G1 X963.9513 Y691.5820 Z-1.0000 F5000
G1 X963.9513 Y691.5820 Z10.0000 F9999
G1 X962.3916 Y655.6003 Z10.0000 F9999
G1 X962.3916 Y655.6003 Z-1.0000 F2500
G1 X965.4375 Y657.5453 Z-1.0000 F5000
G1 X967.4925 Y659.9673 Z-1.0000 F5000
G1 X968.7402 Y663.0866 Z-1.0000 F5000
G1 X969.2173 Y667.2150 Z-1.0000 F5000
G1 X968.7586 Y671.7104 Z-1.0000 F5000
G1 X967.0155 Y675.5269 Z-1.0000 F5000
G1 X964.0246 Y678.2058 Z-1.0000 F5000
G1 X959.8595 Y679.3251 Z-1.0000 F5000
G1 X955.8595 Y678.7930 Z-1.0000 F5000
G1 X953.1806 Y677.2517 Z-1.0000 F5000
G1 X951.4925 Y675.2150 Z-1.0000 F5000
G1 X950.3916 Y673.3068 Z-1.0000 F5000
G1 X945.6577 Y664.1141 Z-1.0000 F5000
G1 X944.2448 Y661.7471 Z-1.0000 F5000
G1 X942.5935 Y659.8939 Z-1.0000 F5000
G1 X940.4100 Y658.6462 Z-1.0000 F5000
G1 X937.5292 Y658.1324 Z-1.0000 F5000
G1 X934.2448 Y658.6646 Z-1.0000 F5000
G1 X931.2173 Y660.4994 Z-1.0000 F5000
G1 X928.9971 Y663.6370 Z-1.0000 F5000
G1 X928.1164 Y668.0040 Z-1.0000 F5000
G1 X928.7953 Y672.2609 Z-1.0000 F5000
G1 X930.2632 Y675.1049 Z-1.0000 F5000
G1 X932.4100 Y677.1967 Z-1.0000 F5000
G1 X930.2632 Y675.1049 Z-1.0000 F5000
G1 X928.7953 Y672.2609 Z-1.0000 F5000
G1 X928.1164 Y668.0040 Z-1.0000 F5000
G1 X928.9971 Y663.6370 Z-1.0000 F5000
G1 X931.2173 Y660.4994 Z-1.0000 F5000
G1 X934.2448 Y658.6646 Z-1.0000 F5000
G1 X937.5292 Y658.1324 Z-1.0000 F5000
G1 X940.4100 Y658.6462 Z-1.0000 F5000
G1 X942.5935 Y659.8939 Z-1.0000 F5000
G1 X944.2448 Y661.7471 Z-1.0000 F5000
G1 X945.6577 Y664.1141 Z-1.0000 F5000
G1 X950.3916 Y673.3068 Z-1.0000 F5000
G1 X951.4925 Y675.2150 Z-1.0000 F5000
G1 X953.1806 Y677.2517 Z-1.0000 F5000
G1 X955.8595 Y678.7930 Z-1.0000 F5000
G1 X959.8595 Y679.3251 Z-1.0000 F5000
G1 X964.0246 Y678.2058 Z-1.0000 F5000
G1 X967.0155 Y675.5269 Z-1.0000 F5000
G1 X968.7586 Y671.7104 Z-1.0000 F5000
G1 X969.2173 Y667.2150 Z-1.0000 F5000
G1 X968.7402 Y663.0866 Z-1.0000 F5000
G1 X967.4925 Y659.9673 Z-1.0000 F5000
G1 X965.4375 Y657.5453 Z-1.0000 F5000
G1 X965.4375 Y657.5453 Z10.0000 F9999
G1 X918.7219 Y644.8847 Z10.0000 F9999
G1 X918.7219 Y644.8847 Z-1.0000 F2500
G1 X971.5659 Y614.4994 Z-1.0000 F5000
G1 X918.7219 Y644.8847 Z-1.0000 F5000
G1 X918.7219 Y644.8847 Z10.0000 F9999
G1 X928.1164 Y587.0682 Z10.0000 F9999
G1 X928.1164 Y587.0682 Z-1.0000 F2500
G1 X969.2173 Y603.1233 Z-1.0000 F5000
G1 X928.1164 Y587.0682 Z-1.0000 F5000
G1 X969.2173 Y571.0499 Z-1.0000 F5000
G1 X969.2173 Y571.0499 Z10.0000 F9999
G1 X944.5568 Y560.3710 Z10.0000 F9999
G1 X944.5568 Y560.3710 Z-1.0000 F2500
G1 X944.5568 Y531.1233 Z-1.0000 F5000
G1 X944.5568 Y560.3710 Z-1.0000 F5000
G1 X944.5568 Y560.3710 Z10.0000 F9999
G1 X954.5201 Y597.3802 Z10.0000 F9999
G1 X954.5201 Y597.3802 Z-1.0000 F2500
G1 X954.5201 Y576.6829 Z-1.0000 F5000
G1 X954.5201 Y597.3802 Z-1.0000 F5000
G1 X954.5201 Y597.3802 Z10.0000 F9999
G1 X954.5201 Y514.0040 Z10.0000 F9999
G1 X954.5201 Y514.0040 Z-1.0000 F2500
G1 X954.5201 Y493.3068 Z-1.0000 F5000
G1 X954.5201 Y514.0040 Z-1.0000 F5000
G1 X954.5201 Y514.0040 Z10.0000 F9999
G1 X928.1164 Y503.6921 Z10.0000 F9999
G1 X928.1164 Y503.6921 Z-1.0000 F2500
G1 X969.2173 Y519.7471 Z-1.0000 F5000
G1 X928.1164 Y503.6921 Z-1.0000 F5000
G1 X969.2173 Y487.6737 Z-1.0000 F5000
G1 X969.2173 Y487.6737 Z10.0000 F9999
G1 X969.2173 Y476.9948 Z10.0000 F9999
G1 X969.2173 Y476.9948 Z-1.0000 F2500
G1 X949.0705 Y463.7655 Z-1.0000 F5000
G1 X969.2173 Y476.9948 Z-1.0000 F5000
G1 X969.2173 Y476.9948 Z10.0000 F9999
G1 X969.2173 Y459.5820 Z10.0000 F9999
G1 X969.2173 Y459.5820 Z-1.0000 F2500
G1 X928.1164 Y459.5820 Z-1.0000 F5000
G1 X928.1164 Y466.7380 Z-1.0000 F5000
G1 X928.7219 Y470.6095 Z-1.0000 F5000
G1 X930.5384 Y473.8205 Z-1.0000 F5000
G1 X933.6944 Y476.0407 Z-1.0000 F5000
G1 X938.3366 Y476.8847 Z-1.0000 F5000
G1 X943.0155 Y475.7288 Z-1.0000 F5000
G1 X946.3366 Y472.9581 Z-1.0000 F5000
G1 X948.2999 Y469.6370 Z-1.0000 F5000
G1 X948.9604 Y466.7380 Z-1.0000 F5000
G1 X948.9604 Y459.5820 Z-1.0000 F5000
G1 X948.9604 Y466.7380 Z-1.0000 F5000
G1 X948.2999 Y469.6370 Z-1.0000 F5000
G1 X946.3366 Y472.9581 Z-1.0000 F5000
G1 X943.0155 Y475.7288 Z-1.0000 F5000
G1 X938.3366 Y476.8847 Z-1.0000 F5000
G1 X933.6944 Y476.0407 Z-1.0000 F5000
G1 X930.5384 Y473.8205 Z-1.0000 F5000
G1 X928.7219 Y470.6095 Z-1.0000 F5000
G1 X928.1164 Y466.7380 Z-1.0000 F5000
G1 X928.1164 Y459.5820 Z-1.0000 F5000
G1 X928.1164 Y459.5820 Z10.0000 F9999
G1 X946.4100 Y429.0499 Z10.0000 F9999
G1 X946.4100 Y429.0499 Z-1.0000 F2500
G1 X946.4100 Y443.4902 Z-1.0000 F5000
G1 X946.4100 Y429.0499 Z-1.0000 F5000
G1 X928.1164 Y429.0499 Z-1.0000 F5000
G1 X928.1164 Y444.1691 Z-1.0000 F5000
G1 X928.1164 Y429.0499 Z-1.0000 F5000
G1 X969.2173 Y429.0499 Z-1.0000 F5000
G1 X969.2173 Y429.0499 Z10.0000 F9999
G1 X1114.5235 Y429.0499 Z10.0000 F9999
G1 X1114.5235 Y429.0499 Z-1.0000 F2500
G1 X1114.5235 Y443.4902 Z-1.0000 F5000
G1 X1114.5235 Y429.0499 Z-1.0000 F5000
G1 X1096.2299 Y429.0499 Z-1.0000 F5000
G1 X1096.2299 Y444.1691 Z-1.0000 F5000
G1 X1096.2299 Y429.0499 Z-1.0000 F5000
G1 X1137.3308 Y429.0499 Z-1.0000 F5000
G1 X1137.3308 Y429.0499 Z10.0000 F9999
G1 X1137.3308 Y459.5820 Z10.0000 F9999
G1 X1137.3308 Y459.5820 Z-1.0000 F2500
G1 X1096.2299 Y459.5820 Z-1.0000 F5000
G1 X1096.2299 Y466.7380 Z-1.0000 F5000
G1 X1096.8354 Y470.6095 Z-1.0000 F5000
G1 X1098.6519 Y473.8205 Z-1.0000 F5000
G1 X1101.8079 Y476.0407 Z-1.0000 F5000
G1 X1106.4501 Y476.8847 Z-1.0000 F5000
G1 X1111.1290 Y475.7288 Z-1.0000 F5000
G1 X1114.4501 Y472.9581 Z-1.0000 F5000
G1 X1116.4134 Y469.6370 Z-1.0000 F5000
G1 X1117.0739 Y466.7380 Z-1.0000 F5000
G1 X1117.0739 Y459.5820 Z-1.0000 F5000
G1 X1117.0739 Y466.7380 Z-1.0000 F5000
G1 X1116.4134 Y469.6370 Z-1.0000 F5000
G1 X1114.4501 Y472.9581 Z-1.0000 F5000
G1 X1111.1290 Y475.7288 Z-1.0000 F5000
G1 X1106.4501 Y476.8847 Z-1.0000 F5000
G1 X1101.8079 Y476.0407 Z-1.0000 F5000
G1 X1098.6519 Y473.8205 Z-1.0000 F5000
G1 X1096.8354 Y470.6095 Z-1.0000 F5000
G1 X1096.2299 Y466.7380 Z-1.0000 F5000
G1 X1096.2299 Y459.5820 Z-1.0000 F5000
G1 X1096.2299 Y459.5820 Z10.0000 F9999
G1 X1096.2299 Y503.6921 Z10.0000 F9999
G1 X1096.2299 Y503.6921 Z-1.0000 F2500
G1 X1137.3308 Y519.7471 Z-1.0000 F5000
G1 X1096.2299 Y503.6921 Z-1.0000 F5000
G1 X1137.3308 Y487.6737 Z-1.0000 F5000
G1 X1137.3308 Y487.6737 Z10.0000 F9999
G1 X1137.3308 Y476.9948 Z10.0000 F9999
G1 X1137.3308 Y476.9948 Z-1.0000 F2500
G1 X1117.1840 Y463.7655 Z-1.0000 F5000
G1 X1137.3308 Y476.9948 Z-1.0000 F5000
G1 X1137.3308 Y476.9948 Z10.0000 F9999
G1 X1122.6336 Y514.0040 Z10.0000 F9999
G1 X1122.6336 Y514.0040 Z-1.0000 F2500
G1 X1122.6336 Y493.3068 Z-1.0000 F5000
G1 X1122.6336 Y514.0040 Z-1.0000 F5000
G1 X1122.6336 Y514.0040 Z10.0000 F9999
G1 X1112.6703 Y560.3710 Z10.0000 F9999
G1 X1112.6703 Y560.3710 Z-1.0000 F2500
G1 X1112.6703 Y531.1233 Z-1.0000 F5000
G1 X1112.6703 Y560.3710 Z-1.0000 F5000
G1 X1112.6703 Y560.3710 Z10.0000 F9999
G1 X1096.2299 Y587.0682 Z10.0000 F9999
G1 X1096.2299 Y587.0682 Z-1.0000 F2500
G1 X1137.3308 Y603.1233 Z-1.0000 F5000
G1 X1096.2299 Y587.0682 Z-1.0000 F5000
G1 X1137.3308 Y571.0499 Z-1.0000 F5000
G1 X1137.3308 Y571.0499 Z10.0000 F9999
G1 X1122.6336 Y597.3802 Z10.0000 F9999
G1 X1122.6336 Y597.3802 Z-1.0000 F2500
G1 X1122.6336 Y576.6829 Z-1.0000 F5000
G1 X1122.6336 Y597.3802 Z-1.0000 F5000
G1 X1122.6336 Y597.3802 Z10.0000 F9999
G1 X1130.5051 Y655.6003 Z10.0000 F9999
G1 X1130.5051 Y655.6003 Z-1.0000 F2500
G1 X1133.5510 Y657.5453 Z-1.0000 F5000
G1 X1135.6061 Y659.9673 Z-1.0000 F5000
G1 X1136.8538 Y663.0866 Z-1.0000 F5000
G1 X1137.3308 Y667.2150 Z-1.0000 F5000
G1 X1136.8721 Y671.7104 Z-1.0000 F5000
G1 X1135.1290 Y675.5269 Z-1.0000 F5000
G1 X1132.1382 Y678.2058 Z-1.0000 F5000
G1 X1127.9730 Y679.3251 Z-1.0000 F5000
G1 X1123.9730 Y678.7930 Z-1.0000 F5000
G1 X1121.2941 Y677.2517 Z-1.0000 F5000
G1 X1119.6061 Y675.2150 Z-1.0000 F5000
G1 X1118.5051 Y673.3068 Z-1.0000 F5000
G1 X1113.7712 Y664.1141 Z-1.0000 F5000
G1 X1112.3584 Y661.7471 Z-1.0000 F5000
G1 X1110.7070 Y659.8939 Z-1.0000 F5000
G1 X1108.5235 Y658.6462 Z-1.0000 F5000
G1 X1105.6428 Y658.1324 Z-1.0000 F5000
G1 X1102.3584 Y658.6646 Z-1.0000 F5000
G1 X1099.3308 Y660.4994 Z-1.0000 F5000
G1 X1097.1106 Y663.6370 Z-1.0000 F5000
G1 X1096.2299 Y668.0040 Z-1.0000 F5000
G1 X1096.9088 Y672.2609 Z-1.0000 F5000
G1 X1098.3767 Y675.1049 Z-1.0000 F5000
G1 X1100.5235 Y677.1967 Z-1.0000 F5000
G1 X1098.3767 Y675.1049 Z-1.0000 F5000
G1 X1096.9088 Y672.2609 Z-1.0000 F5000
G1 X1096.2299 Y668.0040 Z-1.0000 F5000
G1 X1097.1106 Y663.6370 Z-1.0000 F5000
G1 X1099.3308 Y660.4994 Z-1.0000 F5000
G1 X1102.3584 Y658.6646 Z-1.0000 F5000
G1 X1105.6428 Y658.1324 Z-1.0000 F5000
G1 X1108.5235 Y658.6462 Z-1.0000 F5000
G1 X1110.7070 Y659.8939 Z-1.0000 F5000
G1 X1112.3584 Y661.7471 Z-1.0000 F5000
G1 X1113.7712 Y664.1141 Z-1.0000 F5000
G1 X1118.5051 Y673.3068 Z-1.0000 F5000
G1 X1119.6061 Y675.2150 Z-1.0000 F5000
G1 X1121.2941 Y677.2517 Z-1.0000 F5000
G1 X1123.9730 Y678.7930 Z-1.0000 F5000
G1 X1127.9730 Y679.3251 Z-1.0000 F5000
G1 X1132.1382 Y678.2058 Z-1.0000 F5000
G1 X1135.1290 Y675.5269 Z-1.0000 F5000
G1 X1136.8721 Y671.7104 Z-1.0000 F5000
G1 X1137.3308 Y667.2150 Z-1.0000 F5000
G1 X1136.8538 Y663.0866 Z-1.0000 F5000
G1 X1135.6061 Y659.9673 Z-1.0000 F5000
G1 X1133.5510 Y657.5453 Z-1.0000 F5000
G1 X1133.5510 Y657.5453 Z10.0000 F9999
G1 X1129.3859 Y690.8297 Z10.0000 F9999
G1 X1129.3859 Y690.8297 Z-1.0000 F2500
G1 X1132.0648 Y691.5820 Z-1.0000 F5000
G1 X1134.6336 Y693.3068 Z-1.0000 F5000
G1 X1136.5785 Y696.2609 Z-1.0000 F5000
G1 X1137.3308 Y700.8113 Z-1.0000 F5000
G1 X1134.7070 Y709.3251 Z-1.0000 F5000
G1 X1126.7253 Y712.4260 Z-1.0000 F5000
G1 X1121.9914 Y711.5453 Z-1.0000 F5000
G1 X1118.6336 Y709.2334 Z-1.0000 F5000
G1 X1116.6336 Y706.0224 Z-1.0000 F5000
G1 X1115.9547 Y702.4444 Z-1.0000 F5000
G1 X1115.2207 Y705.9123 Z-1.0000 F5000
G1 X1113.0006 Y708.8664 Z-1.0000 F5000
G1 X1109.6244 Y710.9581 Z-1.0000 F5000
G1 X1105.4226 Y711.7471 Z-1.0000 F5000
G1 X1103.8446 Y711.7104 Z-1.0000 F5000
G1 X1101.8629 Y711.4352 Z-1.0000 F5000
G1 X1099.8446 Y710.6462 Z-1.0000 F5000
G1 X1098.0097 Y709.1233 Z-1.0000 F5000
G1 X1096.7070 Y706.5728 Z-1.0000 F5000
G1 X1096.2299 Y702.8297 Z-1.0000 F5000
G1 X1097.0556 Y697.4535 Z-1.0000 F5000
G1 X1099.0739 Y694.3526 Z-1.0000 F5000
G1 X1101.7345 Y692.8297 Z-1.0000 F5000
G1 X1104.4684 Y692.2425 Z-1.0000 F5000
G1 X1101.7345 Y692.8297 Z-1.0000 F5000
G1 X1099.0739 Y694.3526 Z-1.0000 F5000
G1 X1097.0556 Y697.4535 Z-1.0000 F5000
G1 X1096.2299 Y702.8297 Z-1.0000 F5000
G1 X1096.7070 Y706.5728 Z-1.0000 F5000
G1 X1098.0097 Y709.1233 Z-1.0000 F5000
G1 X1099.8446 Y710.6462 Z-1.0000 F5000
G1 X1101.8629 Y711.4352 Z-1.0000 F5000
G1 X1103.8079 Y711.7104 Z-1.0000 F5000
G1 X1105.4226 Y711.7471 Z-1.0000 F5000
G1 X1109.6244 Y710.9581 Z-1.0000 F5000
G1 X1113.0006 Y708.8664 Z-1.0000 F5000
G1 X1115.2207 Y705.9123 Z-1.0000 F5000
G1 X1115.9547 Y702.4444 Z-1.0000 F5000
G1 X1116.6336 Y706.0224 Z-1.0000 F5000
G1 X1118.6336 Y709.2334 Z-1.0000 F5000
G1 X1121.9914 Y711.5453 Z-1.0000 F5000
G1 X1126.7253 Y712.4260 Z-1.0000 F5000
G1 X1134.7070 Y709.3251 Z-1.0000 F5000
G1 X1137.3308 Y700.8113 Z-1.0000 F5000
G1 X1136.5785 Y696.2609 Z-1.0000 F5000
G1 X1134.6336 Y693.3068 Z-1.0000 F5000
G1 X1132.0648 Y691.5820 Z-1.0000 F5000
G1 X1132.0648 Y691.5820 Z10.0000 F9999
G1 X1086.8354 Y644.8847 Z10.0000 F9999
G1 X1086.8354 Y644.8847 Z-1.0000 F2500
G1 X1139.6795 Y614.4994 Z-1.0000 F5000
G1 X1086.8354 Y644.8847 Z-1.0000 F5000
G1 X1086.8354 Y644.8847 Z10.0000 F9999
G1 X1086.8354 Y754.0957 Z10.0000 F9999
G1 X1086.8354 Y754.0957 Z-1.0000 F2500
G1 X1139.6795 Y723.7104 Z-1.0000 F5000
G1 X1086.8354 Y754.0957 Z-1.0000 F5000
G1 X1086.8354 Y754.0957 Z10.0000 F9999
G1 X1096.2299 Y769.6003 Z10.0000 F9999
G1 X1096.2299 Y769.6003 Z-1.0000 F2500
G1 X1137.3308 Y769.6003 Z-1.0000 F5000
G1 X1096.2299 Y769.6003 Z-1.0000 F5000
G1 X1096.2299 Y769.6003 Z10.0000 F9999
G1 X1096.2299 Y789.5636 Z10.0000 F9999
G1 X1096.2299 Y789.5636 Z-1.0000 F2500
G1 X1137.3308 Y826.6646 Z-1.0000 F5000
G1 X1096.2299 Y826.6646 Z-1.0000 F5000
G1 X1137.3308 Y826.6646 Z-1.0000 F5000
G1 X1096.2299 Y789.5636 Z-1.0000 F5000
G1 X1137.3308 Y789.5636 Z-1.0000 F5000
G1 X1137.3308 Y789.5636 Z10.0000 F9999
(Tool Number:1) (7.998 mm dia. slot drill)
M3 S9000
G1 X0.0000 Y1968.0481 Z10.0000 F9999
G1 X0.0000 Y1968.0481 Z1.0000 F2500
G1 X38.9711 Y1968.0481 Z-9.5000 F2500
G1 X0.0000 Y1968.0481 Z-20.0000 F2500
G1 X1220.0000 Y1968.0481 Z-20.0000 F5000
G1 X1220.0000 Y1968.0481 Z10.0000 F9999
(Tool Number:1) (7.998 mm dia. slot drill)
M3 S9000
G1 X299.9476 Y1755.6464 Z10.0000 F9999
G1 X299.9476 Y1755.6464 Z1.0000 F2500
G1 X299.9476 Y1794.6176 Z-9.5000 F2500
G1 X299.9476 Y1755.6464 Z-20.0000 F2500
G1 X299.9476 Y1945.3950 Z-20.0000 F5000
G1 X213.9497 Y1945.3950 Z-20.0000 F5000
G1 X213.9497 Y1565.8978 Z-20.0000 F5000
G1 X218.9497 Y1565.8978 Z-20.0000 F5000
G1 X218.9497 Y1563.8958 Z-20.0000 F5000
G1 X183.2923 Y1563.8958 Z-20.0000 F5000
G1 X177.9498 Y1558.5532 Z-20.0000 F5000
G1 X177.9498 Y1538.4964 Z-20.0000 F5000
G1 X177.9498 Y1538.4964 Z-10.0000 F9999
G1 X177.9498 Y1522.4984 Z-10.0000 F5000
G1 X177.9498 Y1522.4984 Z-20.0000 F2500
G1 X177.9498 Y1501.2405 Z-20.0000 F5000
G1 X183.2923 Y1495.8979 Z-20.0000 F5000
G1 X218.9497 Y1495.8979 Z-20.0000 F5000
G1 X218.9497 Y1493.8959 Z-20.0000 F5000
G1 X213.9497 Y1493.8959 Z-20.0000 F5000
G1 X213.9497 Y1265.8984 Z-20.0000 F5000
G1 X218.9497 Y1265.8984 Z-20.0000 F5000
G1 X218.9497 Y1263.8964 Z-20.0000 F5000
G1 X183.2923 Y1263.8964 Z-20.0000 F5000
G1 X177.9498 Y1258.5539 Z-20.0000 F5000
G1 X177.9498 Y1201.2411 Z-20.0000 F5000
G1 X183.2923 Y1195.8986 Z-20.0000 F5000
G1 X218.9497 Y1195.8986 Z-20.0000 F5000
G1 X218.9497 Y1193.8966 Z-20.0000 F5000
G1 X213.9497 Y1193.8966 Z-20.0000 F5000
G1 X213.9497 Y1085.8987 Z-20.0000 F5000
G1 X218.9497 Y1085.8987 Z-20.0000 F5000
G1 X218.9497 Y1083.8968 Z-20.0000 F5000
G1 X195.9498 Y1083.8968 Z-20.0000 F5000
G1 X195.9498 Y965.8990 Z-20.0000 F5000
G1 X200.9498 Y965.8990 Z-20.0000 F5000
G1 X200.9498 Y963.8970 Z-20.0000 F5000
G1 X183.2923 Y963.8970 Z-20.0000 F5000
G1 X177.9498 Y958.5545 Z-20.0000 F5000
G1 X177.9498 Y934.8990 Z-20.0000 F5000
G1 X224.9477 Y934.8990 Z-20.0000 F5000
G1 X224.9477 Y939.8990 Z-20.0000 F5000
G1 X226.9497 Y939.8990 Z-20.0000 F5000
G1 X226.9497 Y919.8970 Z-20.0000 F5000
G1 X224.9477 Y919.8970 Z-20.0000 F5000
G1 X224.9477 Y924.8970 Z-20.0000 F5000
G1 X177.9498 Y924.8970 Z-20.0000 F5000
G1 X177.9498 Y901.2416 Z-20.0000 F5000
G1 X183.2923 Y895.8992 Z-20.0000 F5000
G1 X200.9498 Y895.8992 Z-20.0000 F5000
G1 X200.9498 Y893.8972 Z-20.0000 F5000
G1 X195.9498 Y893.8972 Z-20.0000 F5000
G1 X195.9498 Y665.8997 Z-20.0000 F5000
G1 X200.9498 Y665.8997 Z-20.0000 F5000
G1 X200.9498 Y663.8975 Z-20.0000 F5000
G1 X183.2923 Y663.8975 Z-20.0000 F5000
G1 X177.9498 Y658.5551 Z-20.0000 F5000
G1 X177.9498 Y601.2424 Z-20.0000 F5000
G1 X183.2923 Y595.8998 Z-20.0000 F5000
G1 X200.9498 Y595.8998 Z-20.0000 F5000
G1 X200.9498 Y593.8978 Z-20.0000 F5000
G1 X195.9498 Y593.8978 Z-20.0000 F5000
G1 X195.9498 Y365.9003 Z-20.0000 F5000
G1 X200.9498 Y365.9003 Z-20.0000 F5000
G1 X200.9498 Y363.8983 Z-20.0000 F5000
G1 X183.2923 Y363.8983 Z-20.0000 F5000
G1 X177.9498 Y358.5557 Z-20.0000 F5000
G1 X177.9498 Y334.9003 Z-20.0000 F5000
G1 X224.9477 Y334.9003 Z-20.0000 F5000
G1 X224.9477 Y339.9003 Z-20.0000 F5000
G1 X226.9497 Y339.9003 Z-20.0000 F5000
G1 X226.9497 Y319.8983 Z-20.0000 F5000
G1 X224.9477 Y319.8983 Z-20.0000 F5000
G1 X224.9477 Y324.8983 Z-20.0000 F5000
G1 X177.9498 Y324.8983 Z-20.0000 F5000
G1 X177.9498 Y301.2430 Z-20.0000 F5000
G1 X183.2922 Y295.9003 Z-20.0000 F5000
G1 X200.9498 Y295.9003 Z-20.0000 F5000
G1 X200.9498 Y293.8984 Z-20.0000 F5000
G1 X195.9498 Y293.8984 Z-20.0000 F5000
G1 X195.9498 Y236.7195 Z-20.0000 F5000
G1 X195.9498 Y236.7195 Z-10.0000 F9999
G1 X195.9498 Y220.7215 Z-10.0000 F5000
G1 X195.9498 Y220.7215 Z-20.0000 F2500
G1 X195.9498 Y175.9006 Z-20.0000 F5000
G1 X218.9497 Y175.9006 Z-20.0000 F5000
G1 X218.9497 Y173.8988 Z-20.0000 F5000
G1 X213.9497 Y173.8988 Z-20.0000 F5000
G1 X213.9497 Y65.9008 Z-20.0000 F5000
G1 X218.9497 Y65.9008 Z-20.0000 F5000
G1 X218.9497 Y63.8989 Z-20.0000 F5000
G1 X183.2922 Y63.8989 Z-20.0000 F5000
G1 X177.9498 Y58.5561 Z-20.0000 F5000
G1 X177.9498 Y25.9008 Z-20.0000 F5000
G1 X239.5893 Y25.9008 Z-20.0000 F5000
G1 X240.1368 Y25.8214 Z-20.0000 F5000
G1 X240.3964 Y25.7038 Z-20.0000 F5000
G1 X240.6141 Y25.5100 Z-20.0000 F5000
G1 X240.7610 Y25.2658 Z-20.0000 F5000
G1 X240.8298 Y24.9893 Z-20.0000 F5000
G1 X240.8129 Y24.6983 Z-20.0000 F5000
G1 X240.7126 Y24.4316 Z-20.0000 F5000
G1 X240.3814 Y23.9881 Z-20.0000 F5000
G1 X237.4526 Y21.0591 Z-20.0000 F5000
G1 X236.0666 Y19.2032 Z-20.0000 F5000
G1 X235.1488 Y16.6648 Z-20.0000 F5000
G1 X235.0252 Y13.9677 Z-20.0000 F5000
G1 X235.6671 Y11.4403 Z-20.0000 F5000
G1 X237.0007 Y9.1985 Z-20.0000 F5000
G1 X238.9950 Y7.3797 Z-20.0000 F5000
G1 X241.4385 Y6.2335 Z-20.0000 F5000
G1 X243.7313 Y5.9010 Z-20.0000 F5000
G1 X270.1660 Y5.9010 Z-20.0000 F5000
G1 X272.4588 Y6.2335 Z-20.0000 F5000
G1 X274.9023 Y7.3797 Z-20.0000 F5000
G1 X276.8966 Y9.1985 Z-20.0000 F5000
G1 X278.2301 Y11.4403 Z-20.0000 F5000
G1 X278.8721 Y13.9677 Z-20.0000 F5000
G1 X278.7485 Y16.6648 Z-20.0000 F5000
G1 X277.8307 Y19.2032 Z-20.0000 F5000
G1 X276.4447 Y21.0591 Z-20.0000 F5000
G1 X273.5158 Y23.9881 Z-20.0000 F5000
G1 X273.1847 Y24.4316 Z-20.0000 F5000
G1 X273.0844 Y24.6983 Z-20.0000 F5000
G1 X273.0675 Y24.9893 Z-20.0000 F5000
G1 X273.1362 Y25.2658 Z-20.0000 F5000
G1 X273.2832 Y25.5100 Z-20.0000 F5000
G1 X273.5009 Y25.7038 Z-20.0000 F5000
G1 X273.7604 Y25.8214 Z-20.0000 F5000
G1 X274.3079 Y25.9008 Z-20.0000 F5000
G1 X335.9475 Y25.9008 Z-20.0000 F5000
G1 X335.9475 Y58.5561 Z-20.0000 F5000
G1 X330.6050 Y63.8989 Z-20.0000 F5000
G1 X294.9476 Y63.8989 Z-20.0000 F5000
G1 X294.9476 Y65.9008 Z-20.0000 F5000
G1 X299.9476 Y65.9008 Z-20.0000 F5000
G1 X299.9476 Y173.8988 Z-20.0000 F5000
G1 X294.9476 Y173.8988 Z-20.0000 F5000
G1 X294.9476 Y175.9006 Z-20.0000 F5000
G1 X317.9475 Y175.9006 Z-20.0000 F5000
G1 X317.9475 Y219.5410 Z-20.0000 F5000
G1 X317.9475 Y219.5410 Z-10.0000 F9999
G1 X317.9475 Y235.5390 Z-10.0000 F5000
G1 X317.9475 Y235.5390 Z-20.0000 F2500
G1 X317.9475 Y293.8984 Z-20.0000 F5000
G1 X312.9475 Y293.8984 Z-20.0000 F5000
G1 X312.9475 Y295.9003 Z-20.0000 F5000
G1 X330.6050 Y295.9003 Z-20.0000 F5000
G1 X335.9475 Y301.2430 Z-20.0000 F5000
G1 X335.9475 Y324.8983 Z-20.0000 F5000
G1 X288.9496 Y324.8983 Z-20.0000 F5000
G1 X288.9496 Y319.8983 Z-20.0000 F5000
G1 X286.9476 Y319.8983 Z-20.0000 F5000
G1 X286.9476 Y339.9003 Z-20.0000 F5000
G1 X288.9496 Y339.9003 Z-20.0000 F5000
G1 X288.9496 Y334.9003 Z-20.0000 F5000
G1 X335.9475 Y334.9003 Z-20.0000 F5000
G1 X335.9475 Y358.5557 Z-20.0000 F5000
G1 X330.6050 Y363.8983 Z-20.0000 F5000
G1 X312.9475 Y363.8983 Z-20.0000 F5000
G1 X312.9475 Y365.9003 Z-20.0000 F5000
G1 X317.9475 Y365.9003 Z-20.0000 F5000
G1 X317.9475 Y593.8978 Z-20.0000 F5000
G1 X312.9475 Y593.8978 Z-20.0000 F5000
G1 X312.9475 Y595.8998 Z-20.0000 F5000
G1 X330.6050 Y595.8998 Z-20.0000 F5000
G1 X335.9475 Y601.2424 Z-20.0000 F5000
G1 X335.9475 Y658.5551 Z-20.0000 F5000
G1 X330.6049 Y663.8975 Z-20.0000 F5000
G1 X312.9475 Y663.8975 Z-20.0000 F5000
G1 X312.9475 Y665.8997 Z-20.0000 F5000
G1 X317.9475 Y665.8997 Z-20.0000 F5000
G1 X317.9475 Y893.8972 Z-20.0000 F5000
G1 X312.9475 Y893.8972 Z-20.0000 F5000
G1 X312.9475 Y895.8992 Z-20.0000 F5000
G1 X330.6049 Y895.8992 Z-20.0000 F5000
G1 X335.9475 Y901.2416 Z-20.0000 F5000
G1 X335.9475 Y924.8970 Z-20.0000 F5000
G1 X288.9496 Y924.8970 Z-20.0000 F5000
G1 X288.9496 Y919.8970 Z-20.0000 F5000
G1 X286.9476 Y919.8970 Z-20.0000 F5000
G1 X286.9476 Y939.8990 Z-20.0000 F5000
G1 X288.9496 Y939.8990 Z-20.0000 F5000
G1 X288.9496 Y934.8990 Z-20.0000 F5000
G1 X335.9475 Y934.8990 Z-20.0000 F5000
G1 X335.9475 Y958.5545 Z-20.0000 F5000
G1 X330.6050 Y963.8970 Z-20.0000 F5000
G1 X312.9475 Y963.8970 Z-20.0000 F5000
G1 X312.9475 Y965.8990 Z-20.0000 F5000
G1 X317.9475 Y965.8990 Z-20.0000 F5000
G1 X317.9475 Y1083.8968 Z-20.0000 F5000
G1 X294.9476 Y1083.8968 Z-20.0000 F5000
G1 X294.9476 Y1085.8987 Z-20.0000 F5000
G1 X299.9476 Y1085.8987 Z-20.0000 F5000
G1 X299.9476 Y1193.8966 Z-20.0000 F5000
G1 X294.9476 Y1193.8966 Z-20.0000 F5000
G1 X294.9476 Y1195.8986 Z-20.0000 F5000
G1 X330.6050 Y1195.8986 Z-20.0000 F5000
G1 X335.9475 Y1201.2411 Z-20.0000 F5000
G1 X335.9475 Y1258.5539 Z-20.0000 F5000
G1 X330.6050 Y1263.8964 Z-20.0000 F5000
G1 X294.9476 Y1263.8964 Z-20.0000 F5000
G1 X294.9476 Y1265.8984 Z-20.0000 F5000
G1 X299.9476 Y1265.8984 Z-20.0000 F5000
G1 X299.9476 Y1493.8959 Z-20.0000 F5000
G1 X294.9476 Y1493.8959 Z-20.0000 F5000
G1 X294.9476 Y1495.8979 Z-20.0000 F5000
G1 X330.6050 Y1495.8979 Z-20.0000 F5000
G1 X335.9475 Y1501.2405 Z-20.0000 F5000
G1 X335.9475 Y1522.4984 Z-20.0000 F5000
G1 X335.9475 Y1522.4984 Z-10.0000 F9999
G1 X335.9475 Y1538.4964 Z-10.0000 F5000
G1 X335.9475 Y1538.4964 Z-20.0000 F2500
G1 X335.9475 Y1558.5532 Z-20.0000 F5000
G1 X330.6050 Y1563.8958 Z-20.0000 F5000
G1 X294.9476 Y1563.8958 Z-20.0000 F5000
G1 X294.9476 Y1565.8978 Z-20.0000 F5000
G1 X299.9476 Y1565.8978 Z-20.0000 F5000
G1 X299.9476 Y1755.6464 Z-20.0000 F5000
G1 X299.9476 Y1755.6464 Z10.0000 F9999
G1 X644.0452 Y1755.6464 Z10.0000 F9999
G1 X644.0452 Y1755.6464 Z1.0000 F2500
G1 X644.0452 Y1794.6176 Z-9.5000 F2500
G1 X644.0452 Y1755.6464 Z-20.0000 F2500
G1 X644.0452 Y1945.3950 Z-20.0000 F5000
G1 X558.0473 Y1945.3950 Z-20.0000 F5000
G1 X558.0473 Y1565.8978 Z-20.0000 F5000
G1 X563.0473 Y1565.8978 Z-20.0000 F5000
G1 X563.0473 Y1563.8958 Z-20.0000 F5000
G1 X527.3899 Y1563.8958 Z-20.0000 F5000
G1 X522.0475 Y1558.5532 Z-20.0000 F5000
G1 X522.0475 Y1538.4964 Z-20.0000 F5000
G1 X522.0475 Y1538.4964 Z-10.0000 F9999
G1 X522.0475 Y1522.4984 Z-10.0000 F5000
G1 X522.0475 Y1522.4984 Z-20.0000 F2500
G1 X522.0475 Y1501.2405 Z-20.0000 F5000
G1 X527.3899 Y1495.8979 Z-20.0000 F5000
G1 X563.0473 Y1495.8979 Z-20.0000 F5000
G1 X563.0473 Y1493.8959 Z-20.0000 F5000
G1 X558.0473 Y1493.8959 Z-20.0000 F5000
G1 X558.0473 Y1265.8984 Z-20.0000 F5000
G1 X563.0473 Y1265.8984 Z-20.0000 F5000
G1 X563.0473 Y1263.8964 Z-20.0000 F5000
G1 X527.3899 Y1263.8964 Z-20.0000 F5000
G1 X522.0475 Y1258.5539 Z-20.0000 F5000
G1 X522.0475 Y1201.2411 Z-20.0000 F5000
G1 X527.3899 Y1195.8986 Z-20.0000 F5000
G1 X563.0473 Y1195.8986 Z-20.0000 F5000
G1 X563.0473 Y1193.8966 Z-20.0000 F5000
G1 X558.0473 Y1193.8966 Z-20.0000 F5000
G1 X558.0473 Y1085.8987 Z-20.0000 F5000
G1 X563.0473 Y1085.8987 Z-20.0000 F5000
G1 X563.0473 Y1083.8968 Z-20.0000 F5000
G1 X540.0474 Y1083.8968 Z-20.0000 F5000
G1 X540.0474 Y965.8990 Z-20.0000 F5000
G1 X545.0474 Y965.8990 Z-20.0000 F5000
G1 X545.0474 Y963.8970 Z-20.0000 F5000
G1 X527.3899 Y963.8970 Z-20.0000 F5000
G1 X522.0475 Y958.5545 Z-20.0000 F5000
G1 X522.0475 Y934.8990 Z-20.0000 F5000
G1 X569.0453 Y934.8990 Z-20.0000 F5000
G1 X569.0453 Y939.8990 Z-20.0000 F5000
G1 X571.0473 Y939.8990 Z-20.0000 F5000
G1 X571.0473 Y919.8970 Z-20.0000 F5000
G1 X569.0453 Y919.8970 Z-20.0000 F5000
G1 X569.0453 Y924.8970 Z-20.0000 F5000
G1 X522.0475 Y924.8970 Z-20.0000 F5000
G1 X522.0475 Y901.2416 Z-20.0000 F5000
G1 X527.3900 Y895.8992 Z-20.0000 F5000
G1 X545.0474 Y895.8992 Z-20.0000 F5000
G1 X545.0474 Y893.8972 Z-20.0000 F5000
G1 X540.0474 Y893.8972 Z-20.0000 F5000
G1 X540.0474 Y665.8997 Z-20.0000 F5000
G1 X545.0474 Y665.8997 Z-20.0000 F5000
G1 X545.0474 Y663.8975 Z-20.0000 F5000
G1 X527.3900 Y663.8975 Z-20.0000 F5000
G1 X522.0475 Y658.5551 Z-20.0000 F5000
G1 X522.0475 Y601.2424 Z-20.0000 F5000
G1 X527.3899 Y595.8998 Z-20.0000 F5000
G1 X545.0474 Y595.8998 Z-20.0000 F5000
G1 X545.0474 Y593.8978 Z-20.0000 F5000
G1 X540.0474 Y593.8978 Z-20.0000 F5000
G1 X540.0474 Y365.9003 Z-20.0000 F5000
G1 X545.0474 Y365.9003 Z-20.0000 F5000
G1 X545.0474 Y363.8983 Z-20.0000 F5000
G1 X527.3899 Y363.8983 Z-20.0000 F5000
G1 X522.0475 Y358.5557 Z-20.0000 F5000
G1 X522.0475 Y334.9003 Z-20.0000 F5000
G1 X569.0453 Y334.9003 Z-20.0000 F5000
G1 X569.0453 Y339.9003 Z-20.0000 F5000
G1 X571.0473 Y339.9003 Z-20.0000 F5000
G1 X571.0473 Y319.8983 Z-20.0000 F5000
G1 X569.0453 Y319.8983 Z-20.0000 F5000
G1 X569.0453 Y324.8983 Z-20.0000 F5000
G1 X522.0475 Y324.8983 Z-20.0000 F5000
G1 X522.0475 Y301.2430 Z-20.0000 F5000
G1 X527.3899 Y295.9003 Z-20.0000 F5000
G1 X545.0474 Y295.9003 Z-20.0000 F5000
G1 X545.0474 Y293.8984 Z-20.0000 F5000
G1 X540.0474 Y293.8984 Z-20.0000 F5000
G1 X540.0474 Y237.8999 Z-20.0000 F5000
G1 X540.0474 Y237.8999 Z-10.0000 F9999
G1 X540.0474 Y221.9019 Z-10.0000 F5000
G1 X540.0474 Y221.9019 Z-20.0000 F2500
G1 X540.0474 Y175.9006 Z-20.0000 F5000
G1 X563.0473 Y175.9006 Z-20.0000 F5000
G1 X563.0473 Y173.8988 Z-20.0000 F5000
G1 X558.0473 Y173.8988 Z-20.0000 F5000
G1 X558.0473 Y65.9008 Z-20.0000 F5000
G1 X563.0473 Y65.9008 Z-20.0000 F5000
G1 X563.0473 Y63.8989 Z-20.0000 F5000
G1 X527.3899 Y63.8989 Z-20.0000 F5000
G1 X522.0475 Y58.5561 Z-20.0000 F5000
G1 X522.0475 Y25.9008 Z-20.0000 F5000
G1 X583.6870 Y25.9008 Z-20.0000 F5000
G1 X584.2345 Y25.8214 Z-20.0000 F5000
G1 X584.4940 Y25.7038 Z-20.0000 F5000
G1 X584.7117 Y25.5100 Z-20.0000 F5000
G1 X584.8587 Y25.2658 Z-20.0000 F5000
G1 X584.9274 Y24.9893 Z-20.0000 F5000
G1 X584.9105 Y24.6983 Z-20.0000 F5000
G1 X584.8102 Y24.4316 Z-20.0000 F5000
G1 X584.4791 Y23.9881 Z-20.0000 F5000
G1 X581.5502 Y21.0591 Z-20.0000 F5000
G1 X580.1642 Y19.2032 Z-20.0000 F5000
G1 X579.2464 Y16.6648 Z-20.0000 F5000
G1 X579.1228 Y13.9677 Z-20.0000 F5000
G1 X579.7648 Y11.4403 Z-20.0000 F5000
G1 X581.0983 Y9.1985 Z-20.0000 F5000
G1 X583.0926 Y7.3797 Z-20.0000 F5000
G1 X585.5361 Y6.2335 Z-20.0000 F5000
G1 X587.8289 Y5.9010 Z-20.0000 F5000
G1 X614.2636 Y5.9010 Z-20.0000 F5000
G1 X616.5564 Y6.2335 Z-20.0000 F5000
G1 X619.0000 Y7.3797 Z-20.0000 F5000
G1 X620.9942 Y9.1985 Z-20.0000 F5000
G1 X622.3278 Y11.4403 Z-20.0000 F5000
G1 X622.9697 Y13.9677 Z-20.0000 F5000
G1 X622.8461 Y16.6648 Z-20.0000 F5000
G1 X621.9283 Y19.2032 Z-20.0000 F5000
G1 X620.5423 Y21.0591 Z-20.0000 F5000
G1 X617.6135 Y23.9881 Z-20.0000 F5000
G1 X617.2823 Y24.4316 Z-20.0000 F5000
G1 X617.1820 Y24.6983 Z-20.0000 F5000
G1 X617.1651 Y24.9893 Z-20.0000 F5000
G1 X617.2339 Y25.2658 Z-20.0000 F5000
G1 X617.3808 Y25.5100 Z-20.0000 F5000
G1 X617.5986 Y25.7038 Z-20.0000 F5000
G1 X617.8581 Y25.8214 Z-20.0000 F5000
G1 X618.4056 Y25.9008 Z-20.0000 F5000
G1 X680.0451 Y25.9008 Z-20.0000 F5000
G1 X680.0451 Y58.5561 Z-20.0000 F5000
G1 X674.7027 Y63.8989 Z-20.0000 F5000
G1 X639.0452 Y63.8989 Z-20.0000 F5000
G1 X639.0452 Y65.9008 Z-20.0000 F5000
G1 X644.0452 Y65.9008 Z-20.0000 F5000
G1 X644.0452 Y173.8988 Z-20.0000 F5000
G1 X639.0452 Y173.8988 Z-20.0000 F5000
G1 X639.0452 Y175.9006 Z-20.0000 F5000
G1 X662.0452 Y175.9006 Z-20.0000 F5000
G1 X662.0452 Y223.0823 Z-20.0000 F5000
G1 X662.0452 Y223.0823 Z-10.0000 F9999
G1 X662.0452 Y239.0803 Z-10.0000 F5000
G1 X662.0452 Y239.0803 Z-20.0000 F2500
G1 X662.0452 Y293.8984 Z-20.0000 F5000
G1 X657.0452 Y293.8984 Z-20.0000 F5000
G1 X657.0452 Y295.9003 Z-20.0000 F5000
G1 X674.7027 Y295.9003 Z-20.0000 F5000
G1 X680.0451 Y301.2430 Z-20.0000 F5000
G1 X680.0451 Y324.8983 Z-20.0000 F5000
G1 X633.0472 Y324.8983 Z-20.0000 F5000
G1 X633.0472 Y319.8983 Z-20.0000 F5000
G1 X631.0452 Y319.8983 Z-20.0000 F5000
G1 X631.0452 Y339.9003 Z-20.0000 F5000
G1 X633.0472 Y339.9003 Z-20.0000 F5000
G1 X633.0472 Y334.9003 Z-20.0000 F5000
G1 X680.0451 Y334.9003 Z-20.0000 F5000
G1 X680.0451 Y358.5557 Z-20.0000 F5000
G1 X674.7026 Y363.8983 Z-20.0000 F5000
G1 X657.0452 Y363.8983 Z-20.0000 F5000
G1 X657.0452 Y365.9003 Z-20.0000 F5000
G1 X662.0452 Y365.9003 Z-20.0000 F5000
G1 X662.0452 Y593.8978 Z-20.0000 F5000
G1 X657.0452 Y593.8978 Z-20.0000 F5000
G1 X657.0452 Y595.8998 Z-20.0000 F5000
G1 X674.7026 Y595.8998 Z-20.0000 F5000
G1 X680.0451 Y601.2424 Z-20.0000 F5000
G1 X680.0451 Y658.5551 Z-20.0000 F5000
G1 X674.7026 Y663.8975 Z-20.0000 F5000
G1 X657.0452 Y663.8975 Z-20.0000 F5000
G1 X657.0452 Y665.8997 Z-20.0000 F5000
G1 X662.0452 Y665.8997 Z-20.0000 F5000
G1 X662.0452 Y893.8972 Z-20.0000 F5000
G1 X657.0452 Y893.8972 Z-20.0000 F5000
G1 X657.0452 Y895.8992 Z-20.0000 F5000
G1 X674.7026 Y895.8992 Z-20.0000 F5000
G1 X680.0451 Y901.2416 Z-20.0000 F5000
G1 X680.0451 Y924.8970 Z-20.0000 F5000
G1 X633.0472 Y924.8970 Z-20.0000 F5000
G1 X633.0472 Y919.8970 Z-20.0000 F5000
G1 X631.0452 Y919.8970 Z-20.0000 F5000
G1 X631.0452 Y939.8990 Z-20.0000 F5000
G1 X633.0472 Y939.8990 Z-20.0000 F5000
G1 X633.0472 Y934.8990 Z-20.0000 F5000
G1 X680.0451 Y934.8990 Z-20.0000 F5000
G1 X680.0451 Y958.5545 Z-20.0000 F5000
G1 X674.7026 Y963.8970 Z-20.0000 F5000
G1 X657.0452 Y963.8970 Z-20.0000 F5000
G1 X657.0452 Y965.8990 Z-20.0000 F5000
G1 X662.0452 Y965.8990 Z-20.0000 F5000
G1 X662.0452 Y1083.8968 Z-20.0000 F5000
G1 X639.0452 Y1083.8968 Z-20.0000 F5000
G1 X639.0452 Y1085.8987 Z-20.0000 F5000
G1 X644.0452 Y1085.8987 Z-20.0000 F5000
G1 X644.0452 Y1193.8966 Z-20.0000 F5000
G1 X639.0452 Y1193.8966 Z-20.0000 F5000
G1 X639.0452 Y1195.8986 Z-20.0000 F5000
G1 X674.7026 Y1195.8986 Z-20.0000 F5000
G1 X680.0451 Y1201.2411 Z-20.0000 F5000
G1 X680.0451 Y1258.5539 Z-20.0000 F5000
G1 X674.7026 Y1263.8964 Z-20.0000 F5000
G1 X639.0452 Y1263.8964 Z-20.0000 F5000
G1 X639.0452 Y1265.8984 Z-20.0000 F5000
G1 X644.0452 Y1265.8984 Z-20.0000 F5000
G1 X644.0452 Y1493.8959 Z-20.0000 F5000
G1 X639.0452 Y1493.8959 Z-20.0000 F5000
G1 X639.0452 Y1495.8979 Z-20.0000 F5000
G1 X674.7026 Y1495.8979 Z-20.0000 F5000
G1 X680.0451 Y1501.2405 Z-20.0000 F5000
G1 X680.0451 Y1522.0296 Z-20.0000 F5000
G1 X680.0451 Y1522.0296 Z-10.0000 F9999
G1 X680.0451 Y1538.0276 Z-10.0000 F5000
G1 X680.0451 Y1538.0276 Z-20.0000 F2500
G1 X680.0451 Y1558.5532 Z-20.0000 F5000
G1 X674.7026 Y1563.8958 Z-20.0000 F5000
G1 X639.0452 Y1563.8958 Z-20.0000 F5000
G1 X639.0452 Y1565.8978 Z-20.0000 F5000
G1 X644.0452 Y1565.8978 Z-20.0000 F5000
G1 X644.0452 Y1755.6464 Z-20.0000 F5000
G1 X644.0452 Y1755.6464 Z10.0000 F9999
G1 X988.1429 Y1755.6464 Z10.0000 F9999
G1 X988.1429 Y1755.6464 Z1.0000 F2500
G1 X988.1429 Y1794.6176 Z-9.5000 F2500
G1 X988.1429 Y1755.6464 Z-20.0000 F2500
G1 X988.1429 Y1945.3950 Z-20.0000 F5000
G1 X902.1450 Y1945.3950 Z-20.0000 F5000
G1 X902.1450 Y1565.8978 Z-20.0000 F5000
G1 X907.1450 Y1565.8978 Z-20.0000 F5000
G1 X907.1450 Y1563.8958 Z-20.0000 F5000
G1 X871.4876 Y1563.8958 Z-20.0000 F5000
G1 X866.1451 Y1558.5532 Z-20.0000 F5000
G1 X866.1451 Y1538.0792 Z-20.0000 F5000
G1 X866.1451 Y1538.0792 Z-10.0000 F9999
G1 X866.1451 Y1522.0812 Z-10.0000 F5000
G1 X866.1451 Y1522.0812 Z-20.0000 F2500
G1 X866.1451 Y1501.2405 Z-20.0000 F5000
G1 X871.4876 Y1495.8979 Z-20.0000 F5000
G1 X907.1450 Y1495.8979 Z-20.0000 F5000
G1 X907.1450 Y1493.8959 Z-20.0000 F5000
G1 X902.1450 Y1493.8959 Z-20.0000 F5000
G1 X902.1450 Y1265.8984 Z-20.0000 F5000
G1 X907.1450 Y1265.8984 Z-20.0000 F5000
G1 X907.1450 Y1263.8964 Z-20.0000 F5000
G1 X871.4876 Y1263.8964 Z-20.0000 F5000
G1 X866.1451 Y1258.5539 Z-20.0000 F5000
G1 X866.1451 Y1201.2411 Z-20.0000 F5000
G1 X871.4876 Y1195.8986 Z-20.0000 F5000
G1 X907.1450 Y1195.8986 Z-20.0000 F5000
G1 X907.1450 Y1193.8966 Z-20.0000 F5000
G1 X902.1450 Y1193.8966 Z-20.0000 F5000
G1 X902.1450 Y1085.8987 Z-20.0000 F5000
G1 X907.1450 Y1085.8987 Z-20.0000 F5000
G1 X907.1450 Y1083.8968 Z-20.0000 F5000
G1 X884.1450 Y1083.8968 Z-20.0000 F5000
G1 X884.1450 Y965.8990 Z-20.0000 F5000
G1 X889.1450 Y965.8990 Z-20.0000 F5000
G1 X889.1450 Y963.8970 Z-20.0000 F5000
G1 X871.4876 Y963.8970 Z-20.0000 F5000
G1 X866.1451 Y958.5545 Z-20.0000 F5000
G1 X866.1451 Y934.8990 Z-20.0000 F5000
G1 X913.1430 Y934.8990 Z-20.0000 F5000
G1 X913.1430 Y939.8990 Z-20.0000 F5000
G1 X915.1450 Y939.8990 Z-20.0000 F5000
G1 X915.1450 Y919.8970 Z-20.0000 F5000
G1 X913.1430 Y919.8970 Z-20.0000 F5000
G1 X913.1430 Y924.8970 Z-20.0000 F5000
G1 X866.1451 Y924.8970 Z-20.0000 F5000
G1 X866.1451 Y901.2416 Z-20.0000 F5000
G1 X871.4876 Y895.8992 Z-20.0000 F5000
G1 X889.1450 Y895.8992 Z-20.0000 F5000
G1 X889.1450 Y893.8972 Z-20.0000 F5000
G1 X884.1450 Y893.8972 Z-20.0000 F5000
G1 X884.1450 Y665.8997 Z-20.0000 F5000
G1 X889.1450 Y665.8997 Z-20.0000 F5000
G1 X889.1450 Y663.8975 Z-20.0000 F5000
G1 X871.4876 Y663.8975 Z-20.0000 F5000
G1 X866.1451 Y658.5551 Z-20.0000 F5000
G1 X866.1451 Y601.2424 Z-20.0000 F5000
G1 X871.4876 Y595.8998 Z-20.0000 F5000
G1 X889.1450 Y595.8998 Z-20.0000 F5000
G1 X889.1450 Y593.8978 Z-20.0000 F5000
G1 X884.1450 Y593.8978 Z-20.0000 F5000
G1 X884.1450 Y365.9003 Z-20.0000 F5000
G1 X889.1450 Y365.9003 Z-20.0000 F5000
G1 X889.1450 Y363.8983 Z-20.0000 F5000
G1 X871.4876 Y363.8983 Z-20.0000 F5000
G1 X866.1451 Y358.5557 Z-20.0000 F5000
G1 X866.1451 Y334.9003 Z-20.0000 F5000
G1 X913.1430 Y334.9003 Z-20.0000 F5000
G1 X913.1430 Y339.9003 Z-20.0000 F5000
G1 X915.1450 Y339.9003 Z-20.0000 F5000
G1 X915.1450 Y319.8983 Z-20.0000 F5000
G1 X913.1430 Y319.8983 Z-20.0000 F5000
G1 X913.1430 Y324.8983 Z-20.0000 F5000
G1 X866.1451 Y324.8983 Z-20.0000 F5000
G1 X866.1451 Y301.2430 Z-20.0000 F5000
G1 X871.4875 Y295.9003 Z-20.0000 F5000
G1 X889.1450 Y295.9003 Z-20.0000 F5000
G1 X889.1450 Y293.8984 Z-20.0000 F5000
G1 X884.1450 Y293.8984 Z-20.0000 F5000
G1 X884.1450 Y236.7195 Z-20.0000 F5000
G1 X884.1450 Y236.7195 Z-10.0000 F9999
G1 X884.1450 Y220.7215 Z-10.0000 F5000
G1 X884.1450 Y220.7215 Z-20.0000 F2500
G1 X884.1450 Y175.9006 Z-20.0000 F5000
G1 X907.1450 Y175.9006 Z-20.0000 F5000
G1 X907.1450 Y173.8988 Z-20.0000 F5000
G1 X902.1450 Y173.8988 Z-20.0000 F5000
G1 X902.1450 Y65.9008 Z-20.0000 F5000
G1 X907.1450 Y65.9008 Z-20.0000 F5000
G1 X907.1450 Y63.8989 Z-20.0000 F5000
G1 X871.4875 Y63.8989 Z-20.0000 F5000
G1 X866.1451 Y58.5561 Z-20.0000 F5000
G1 X866.1451 Y25.9008 Z-20.0000 F5000
G1 X927.7846 Y25.9008 Z-20.0000 F5000
G1 X928.3321 Y25.8214 Z-20.0000 F5000
G1 X928.5916 Y25.7038 Z-20.0000 F5000
G1 X928.8094 Y25.5100 Z-20.0000 F5000
G1 X928.9563 Y25.2658 Z-20.0000 F5000
G1 X929.0251 Y24.9893 Z-20.0000 F5000
G1 X929.0082 Y24.6983 Z-20.0000 F5000
G1 X928.9079 Y24.4316 Z-20.0000 F5000
G1 X928.5767 Y23.9881 Z-20.0000 F5000
G1 X925.6479 Y21.0591 Z-20.0000 F5000
G1 X924.2619 Y19.2032 Z-20.0000 F5000
G1 X923.3441 Y16.6648 Z-20.0000 F5000
G1 X923.2205 Y13.9677 Z-20.0000 F5000
G1 X923.8624 Y11.4403 Z-20.0000 F5000
G1 X925.1960 Y9.1985 Z-20.0000 F5000
G1 X927.1902 Y7.3797 Z-20.0000 F5000
G1 X929.6338 Y6.2335 Z-20.0000 F5000
G1 X931.9266 Y5.9010 Z-20.0000 F5000
G1 X958.3612 Y5.9010 Z-20.0000 F5000
G1 X960.6541 Y6.2335 Z-20.0000 F5000
G1 X963.0976 Y7.3797 Z-20.0000 F5000
G1 X965.0919 Y9.1985 Z-20.0000 F5000
G1 X966.4254 Y11.4403 Z-20.0000 F5000
G1 X967.0674 Y13.9677 Z-20.0000 F5000
G1 X966.9438 Y16.6648 Z-20.0000 F5000
G1 X966.0259 Y19.2032 Z-20.0000 F5000
G1 X964.6399 Y21.0591 Z-20.0000 F5000
G1 X961.7111 Y23.9881 Z-20.0000 F5000
G1 X961.3799 Y24.4316 Z-20.0000 F5000
G1 X961.2797 Y24.6983 Z-20.0000 F5000
G1 X961.2628 Y24.9893 Z-20.0000 F5000
G1 X961.3315 Y25.2658 Z-20.0000 F5000
G1 X961.4785 Y25.5100 Z-20.0000 F5000
G1 X961.6962 Y25.7038 Z-20.0000 F5000
G1 X961.9557 Y25.8214 Z-20.0000 F5000
G1 X962.5032 Y25.9008 Z-20.0000 F5000
G1 X1024.1427 Y25.9008 Z-20.0000 F5000
G1 X1024.1427 Y58.5561 Z-20.0000 F5000
G1 X1018.8003 Y63.8989 Z-20.0000 F5000
G1 X983.1429 Y63.8989 Z-20.0000 F5000
G1 X983.1429 Y65.9008 Z-20.0000 F5000
G1 X988.1429 Y65.9008 Z-20.0000 F5000
G1 X988.1429 Y173.8988 Z-20.0000 F5000
G1 X983.1429 Y173.8988 Z-20.0000 F5000
G1 X983.1429 Y175.9006 Z-20.0000 F5000
G1 X1006.1428 Y175.9006 Z-20.0000 F5000
G1 X1006.1428 Y218.6233 Z-20.0000 F5000
G1 X1006.1428 Y218.6233 Z-10.0000 F9999
G1 X1006.1428 Y234.6213 Z-10.0000 F5000
G1 X1006.1428 Y234.6213 Z-20.0000 F2500
G1 X1006.1428 Y293.8984 Z-20.0000 F5000
G1 X1001.1428 Y293.8984 Z-20.0000 F5000
G1 X1001.1428 Y295.9003 Z-20.0000 F5000
G1 X1018.8003 Y295.9003 Z-20.0000 F5000
G1 X1024.1427 Y301.2430 Z-20.0000 F5000
G1 X1024.1427 Y324.8983 Z-20.0000 F5000
G1 X977.1449 Y324.8983 Z-20.0000 F5000
G1 X977.1449 Y319.8983 Z-20.0000 F5000
G1 X975.1429 Y319.8983 Z-20.0000 F5000
G1 X975.1429 Y339.9003 Z-20.0000 F5000
G1 X977.1449 Y339.9003 Z-20.0000 F5000
G1 X977.1449 Y334.9003 Z-20.0000 F5000
G1 X1024.1427 Y334.9003 Z-20.0000 F5000
G1 X1024.1427 Y358.5557 Z-20.0000 F5000
G1 X1018.8003 Y363.8983 Z-20.0000 F5000
G1 X1001.1428 Y363.8983 Z-20.0000 F5000
G1 X1001.1428 Y365.9003 Z-20.0000 F5000
G1 X1006.1428 Y365.9003 Z-20.0000 F5000
G1 X1006.1428 Y593.8978 Z-20.0000 F5000
G1 X1001.1428 Y593.8978 Z-20.0000 F5000
G1 X1001.1428 Y595.8998 Z-20.0000 F5000
G1 X1018.8003 Y595.8998 Z-20.0000 F5000
G1 X1024.1427 Y601.2424 Z-20.0000 F5000
G1 X1024.1427 Y658.5551 Z-20.0000 F5000
G1 X1018.8002 Y663.8975 Z-20.0000 F5000
G1 X1001.1428 Y663.8975 Z-20.0000 F5000
G1 X1001.1428 Y665.8997 Z-20.0000 F5000
G1 X1006.1428 Y665.8997 Z-20.0000 F5000
G1 X1006.1428 Y893.8972 Z-20.0000 F5000
G1 X1001.1428 Y893.8972 Z-20.0000 F5000
G1 X1001.1428 Y895.8992 Z-20.0000 F5000
G1 X1018.8002 Y895.8992 Z-20.0000 F5000
G1 X1024.1427 Y901.2416 Z-20.0000 F5000
G1 X1024.1427 Y924.8970 Z-20.0000 F5000
G1 X977.1449 Y924.8970 Z-20.0000 F5000
G1 X977.1449 Y919.8970 Z-20.0000 F5000
G1 X975.1429 Y919.8970 Z-20.0000 F5000
G1 X975.1429 Y939.8990 Z-20.0000 F5000
G1 X977.1449 Y939.8990 Z-20.0000 F5000
G1 X977.1449 Y934.8990 Z-20.0000 F5000
G1 X1024.1427 Y934.8990 Z-20.0000 F5000
G1 X1024.1427 Y958.5545 Z-20.0000 F5000
G1 X1018.8003 Y963.8970 Z-20.0000 F5000
G1 X1001.1428 Y963.8970 Z-20.0000 F5000
G1 X1001.1428 Y965.8990 Z-20.0000 F5000
G1 X1006.1428 Y965.8990 Z-20.0000 F5000
G1 X1006.1428 Y1083.8968 Z-20.0000 F5000
G1 X983.1429 Y1083.8968 Z-20.0000 F5000
G1 X983.1429 Y1085.8987 Z-20.0000 F5000
G1 X988.1429 Y1085.8987 Z-20.0000 F5000
G1 X988.1429 Y1193.8966 Z-20.0000 F5000
G1 X983.1429 Y1193.8966 Z-20.0000 F5000
G1 X983.1429 Y1195.8986 Z-20.0000 F5000
G1 X1018.8003 Y1195.8986 Z-20.0000 F5000
G1 X1024.1427 Y1201.2411 Z-20.0000 F5000
G1 X1024.1427 Y1258.5539 Z-20.0000 F5000
G1 X1018.8003 Y1263.8964 Z-20.0000 F5000
G1 X983.1429 Y1263.8964 Z-20.0000 F5000
G1 X983.1429 Y1265.8984 Z-20.0000 F5000
G1 X988.1429 Y1265.8984 Z-20.0000 F5000
G1 X988.1429 Y1493.8959 Z-20.0000 F5000
G1 X983.1429 Y1493.8959 Z-20.0000 F5000
G1 X983.1429 Y1495.8979 Z-20.0000 F5000
G1 X1018.8003 Y1495.8979 Z-20.0000 F5000
G1 X1024.1427 Y1501.2405 Z-20.0000 F5000
G1 X1024.1427 Y1522.8242 Z-20.0000 F5000
G1 X1024.1427 Y1522.8242 Z-10.0000 F9999
G1 X1024.1427 Y1538.8222 Z-10.0000 F5000
G1 X1024.1427 Y1538.8222 Z-20.0000 F2500
G1 X1024.1427 Y1558.5532 Z-20.0000 F5000
G1 X1018.8003 Y1563.8958 Z-20.0000 F5000
G1 X983.1429 Y1563.8958 Z-20.0000 F5000
G1 X983.1429 Y1565.8978 Z-20.0000 F5000
G1 X988.1429 Y1565.8978 Z-20.0000 F5000
G1 X988.1429 Y1755.6464 Z-20.0000 F5000
G1 X988.1429 Y1755.6464 Z10.0000 F9999
G1 X1074.1938 Y1755.6464 Z10.0000 F9999
G1 X1074.1938 Y1755.6464 Z1.0000 F2500
G1 X1074.1938 Y1716.6753 Z-9.5000 F2500
G1 X1074.1938 Y1755.6464 Z-20.0000 F2500
G1 X1074.1938 Y1565.8978 Z-20.0000 F5000
G1 X1079.1938 Y1565.8978 Z-20.0000 F5000
G1 X1079.1938 Y1563.8958 Z-20.0000 F5000
G1 X1043.5364 Y1563.8958 Z-20.0000 F5000
G1 X1038.1939 Y1558.5532 Z-20.0000 F5000
G1 X1038.1939 Y1501.2405 Z-20.0000 F5000
G1 X1043.5364 Y1495.8979 Z-20.0000 F5000
G1 X1079.1938 Y1495.8979 Z-20.0000 F5000
G1 X1079.1938 Y1493.8959 Z-20.0000 F5000
G1 X1074.1938 Y1493.8959 Z-20.0000 F5000
G1 X1074.1938 Y1265.8984 Z-20.0000 F5000
G1 X1079.1938 Y1265.8984 Z-20.0000 F5000
G1 X1079.1938 Y1263.8964 Z-20.0000 F5000
G1 X1043.5364 Y1263.8964 Z-20.0000 F5000
G1 X1038.1939 Y1258.5539 Z-20.0000 F5000
G1 X1038.1939 Y1201.2411 Z-20.0000 F5000
G1 X1043.5364 Y1195.8986 Z-20.0000 F5000
G1 X1079.1938 Y1195.8986 Z-20.0000 F5000
G1 X1079.1938 Y1193.8966 Z-20.0000 F5000
G1 X1074.1938 Y1193.8966 Z-20.0000 F5000
G1 X1074.1938 Y1085.8987 Z-20.0000 F5000
G1 X1079.1938 Y1085.8987 Z-20.0000 F5000
G1 X1079.1938 Y1083.8968 Z-20.0000 F5000
G1 X1056.1939 Y1083.8968 Z-20.0000 F5000
G1 X1056.1939 Y965.8990 Z-20.0000 F5000
G1 X1061.1939 Y965.8990 Z-20.0000 F5000
G1 X1061.1939 Y963.8970 Z-20.0000 F5000
G1 X1043.5364 Y963.8970 Z-20.0000 F5000
G1 X1038.1939 Y958.5545 Z-20.0000 F5000
G1 X1038.1939 Y934.8990 Z-20.0000 F5000
G1 X1085.1918 Y934.8990 Z-20.0000 F5000
G1 X1085.1918 Y939.8990 Z-20.0000 F5000
G1 X1087.1938 Y939.8990 Z-20.0000 F5000
G1 X1087.1938 Y919.8970 Z-20.0000 F5000
G1 X1085.1918 Y919.8970 Z-20.0000 F5000
G1 X1085.1918 Y924.8970 Z-20.0000 F5000
G1 X1038.1939 Y924.8970 Z-20.0000 F5000
G1 X1038.1939 Y901.2416 Z-20.0000 F5000
G1 X1043.5364 Y895.8992 Z-20.0000 F5000
G1 X1061.1939 Y895.8992 Z-20.0000 F5000
G1 X1061.1939 Y893.8972 Z-20.0000 F5000
G1 X1056.1939 Y893.8972 Z-20.0000 F5000
G1 X1056.1939 Y665.8997 Z-20.0000 F5000
G1 X1061.1939 Y665.8997 Z-20.0000 F5000
G1 X1061.1939 Y663.8975 Z-20.0000 F5000
G1 X1043.5364 Y663.8975 Z-20.0000 F5000
G1 X1038.1939 Y658.5551 Z-20.0000 F5000
G1 X1038.1939 Y601.2424 Z-20.0000 F5000
G1 X1043.5364 Y595.8998 Z-20.0000 F5000
G1 X1061.1939 Y595.8998 Z-20.0000 F5000
G1 X1061.1939 Y593.8978 Z-20.0000 F5000
G1 X1056.1939 Y593.8978 Z-20.0000 F5000
G1 X1056.1939 Y365.9003 Z-20.0000 F5000
G1 X1061.1939 Y365.9003 Z-20.0000 F5000
G1 X1061.1939 Y363.8983 Z-20.0000 F5000
G1 X1043.5364 Y363.8983 Z-20.0000 F5000
G1 X1038.1939 Y358.5557 Z-20.0000 F5000
G1 X1038.1939 Y334.9003 Z-20.0000 F5000
G1 X1085.1918 Y334.9003 Z-20.0000 F5000
G1 X1085.1918 Y339.9003 Z-20.0000 F5000
G1 X1087.1938 Y339.9003 Z-20.0000 F5000
G1 X1087.1938 Y319.8983 Z-20.0000 F5000
G1 X1085.1918 Y319.8983 Z-20.0000 F5000
G1 X1085.1918 Y324.8983 Z-20.0000 F5000
G1 X1038.1939 Y324.8983 Z-20.0000 F5000
G1 X1038.1939 Y301.2430 Z-20.0000 F5000
G1 X1043.5363 Y295.9003 Z-20.0000 F5000
G1 X1061.1939 Y295.9003 Z-20.0000 F5000
G1 X1061.1939 Y293.8984 Z-20.0000 F5000
G1 X1056.1939 Y293.8984 Z-20.0000 F5000
G1 X1056.1939 Y175.9006 Z-20.0000 F5000
G1 X1079.1938 Y175.9006 Z-20.0000 F5000
G1 X1079.1938 Y173.8988 Z-20.0000 F5000
G1 X1074.1938 Y173.8988 Z-20.0000 F5000
G1 X1074.1938 Y65.9008 Z-20.0000 F5000
G1 X1079.1938 Y65.9008 Z-20.0000 F5000
G1 X1079.1938 Y63.8989 Z-20.0000 F5000
G1 X1043.5363 Y63.8989 Z-20.0000 F5000
G1 X1038.1939 Y58.5561 Z-20.0000 F5000
G1 X1038.1939 Y25.9008 Z-20.0000 F5000
G1 X1099.8334 Y25.9008 Z-20.0000 F5000
G1 X1100.3809 Y25.8214 Z-20.0000 F5000
G1 X1100.6404 Y25.7038 Z-20.0000 F5000
G1 X1100.8582 Y25.5100 Z-20.0000 F5000
G1 X1101.0051 Y25.2658 Z-20.0000 F5000
G1 X1101.0739 Y24.9893 Z-20.0000 F5000
G1 X1101.0570 Y24.6983 Z-20.0000 F5000
G1 X1100.9567 Y24.4316 Z-20.0000 F5000
G1 X1100.6255 Y23.9881 Z-20.0000 F5000
G1 X1097.6967 Y21.0591 Z-20.0000 F5000
G1 X1096.3107 Y19.2032 Z-20.0000 F5000
G1 X1095.3929 Y16.6648 Z-20.0000 F5000
G1 X1095.2693 Y13.9677 Z-20.0000 F5000
G1 X1095.9112 Y11.4403 Z-20.0000 F5000
G1 X1097.2448 Y9.1985 Z-20.0000 F5000
G1 X1099.2391 Y7.3797 Z-20.0000 F5000
G1 X1101.6826 Y6.2335 Z-20.0000 F5000
G1 X1103.9754 Y5.9010 Z-20.0000 F5000
G1 X1130.4101 Y5.9010 Z-20.0000 F5000
G1 X1132.7029 Y6.2335 Z-20.0000 F5000
G1 X1135.1464 Y7.3797 Z-20.0000 F5000
G1 X1137.1407 Y9.1985 Z-20.0000 F5000
G1 X1138.4742 Y11.4403 Z-20.0000 F5000
G1 X1139.1162 Y13.9677 Z-20.0000 F5000
G1 X1138.9926 Y16.6648 Z-20.0000 F5000
G1 X1138.0748 Y19.2032 Z-20.0000 F5000
G1 X1136.6888 Y21.0591 Z-20.0000 F5000
G1 X1133.7599 Y23.9881 Z-20.0000 F5000
G1 X1133.4288 Y24.4316 Z-20.0000 F5000
G1 X1133.3285 Y24.6983 Z-20.0000 F5000
G1 X1133.3116 Y24.9893 Z-20.0000 F5000
G1 X1133.3803 Y25.2658 Z-20.0000 F5000
G1 X1133.5273 Y25.5100 Z-20.0000 F5000
G1 X1133.7450 Y25.7038 Z-20.0000 F5000
G1 X1134.0045 Y25.8214 Z-20.0000 F5000
G1 X1134.5520 Y25.9008 Z-20.0000 F5000
G1 X1196.1915 Y25.9008 Z-20.0000 F5000
G1 X1196.1915 Y58.5561 Z-20.0000 F5000
G1 X1190.8491 Y63.8989 Z-20.0000 F5000
G1 X1155.1917 Y63.8989 Z-20.0000 F5000
G1 X1155.1917 Y65.9008 Z-20.0000 F5000
G1 X1160.1917 Y65.9008 Z-20.0000 F5000
G1 X1160.1917 Y173.8988 Z-20.0000 F5000
G1 X1155.1917 Y173.8988 Z-20.0000 F5000
G1 X1155.1917 Y175.9006 Z-20.0000 F5000
G1 X1178.1916 Y175.9006 Z-20.0000 F5000
G1 X1178.1916 Y293.8984 Z-20.0000 F5000
G1 X1173.1916 Y293.8984 Z-20.0000 F5000
G1 X1173.1916 Y295.9003 Z-20.0000 F5000
G1 X1190.8491 Y295.9003 Z-20.0000 F5000
G1 X1196.1915 Y301.2430 Z-20.0000 F5000
G1 X1196.1915 Y324.8983 Z-20.0000 F5000
G1 X1149.1937 Y324.8983 Z-20.0000 F5000
G1 X1149.1937 Y319.8983 Z-20.0000 F5000
G1 X1147.1917 Y319.8983 Z-20.0000 F5000
G1 X1147.1917 Y339.9003 Z-20.0000 F5000
G1 X1149.1937 Y339.9003 Z-20.0000 F5000
G1 X1149.1937 Y334.9003 Z-20.0000 F5000
G1 X1196.1915 Y334.9003 Z-20.0000 F5000
G1 X1196.1915 Y358.5557 Z-20.0000 F5000
G1 X1190.8491 Y363.8983 Z-20.0000 F5000
G1 X1173.1916 Y363.8983 Z-20.0000 F5000
G1 X1173.1916 Y365.9003 Z-20.0000 F5000
G1 X1178.1916 Y365.9003 Z-20.0000 F5000
G1 X1178.1916 Y593.8978 Z-20.0000 F5000
G1 X1173.1916 Y593.8978 Z-20.0000 F5000
G1 X1173.1916 Y595.8998 Z-20.0000 F5000
G1 X1190.8491 Y595.8998 Z-20.0000 F5000
G1 X1196.1915 Y601.2424 Z-20.0000 F5000
G1 X1196.1915 Y658.5551 Z-20.0000 F5000
G1 X1190.8490 Y663.8975 Z-20.0000 F5000
G1 X1173.1916 Y663.8975 Z-20.0000 F5000
G1 X1173.1916 Y665.8997 Z-20.0000 F5000
G1 X1178.1916 Y665.8997 Z-20.0000 F5000
G1 X1178.1916 Y893.8972 Z-20.0000 F5000
G1 X1173.1916 Y893.8972 Z-20.0000 F5000
G1 X1173.1916 Y895.8992 Z-20.0000 F5000
G1 X1190.8490 Y895.8992 Z-20.0000 F5000
G1 X1196.1915 Y901.2416 Z-20.0000 F5000
G1 X1196.1915 Y924.8970 Z-20.0000 F5000
G1 X1149.1937 Y924.8970 Z-20.0000 F5000
G1 X1149.1937 Y919.8970 Z-20.0000 F5000
G1 X1147.1917 Y919.8970 Z-20.0000 F5000
G1 X1147.1917 Y939.8990 Z-20.0000 F5000
G1 X1149.1937 Y939.8990 Z-20.0000 F5000
G1 X1149.1937 Y934.8990 Z-20.0000 F5000
G1 X1196.1915 Y934.8990 Z-20.0000 F5000
G1 X1196.1915 Y958.5545 Z-20.0000 F5000
G1 X1190.8491 Y963.8970 Z-20.0000 F5000
G1 X1173.1916 Y963.8970 Z-20.0000 F5000
G1 X1173.1916 Y965.8990 Z-20.0000 F5000
G1 X1178.1916 Y965.8990 Z-20.0000 F5000
G1 X1178.1916 Y1083.8968 Z-20.0000 F5000
G1 X1155.1917 Y1083.8968 Z-20.0000 F5000
G1 X1155.1917 Y1085.8987 Z-20.0000 F5000
G1 X1160.1917 Y1085.8987 Z-20.0000 F5000
G1 X1160.1917 Y1193.8966 Z-20.0000 F5000
G1 X1155.1917 Y1193.8966 Z-20.0000 F5000
G1 X1155.1917 Y1195.8986 Z-20.0000 F5000
G1 X1190.8491 Y1195.8986 Z-20.0000 F5000
G1 X1196.1915 Y1201.2411 Z-20.0000 F5000
G1 X1196.1915 Y1258.5539 Z-20.0000 F5000
G1 X1190.8491 Y1263.8964 Z-20.0000 F5000
G1 X1155.1917 Y1263.8964 Z-20.0000 F5000
G1 X1155.1917 Y1265.8984 Z-20.0000 F5000
G1 X1160.1917 Y1265.8984 Z-20.0000 F5000
G1 X1160.1917 Y1493.8959 Z-20.0000 F5000
G1 X1155.1917 Y1493.8959 Z-20.0000 F5000
G1 X1155.1917 Y1495.8979 Z-20.0000 F5000
G1 X1190.8491 Y1495.8979 Z-20.0000 F5000
G1 X1196.1915 Y1501.2405 Z-20.0000 F5000
G1 X1196.1915 Y1558.5532 Z-20.0000 F5000
G1 X1190.8491 Y1563.8958 Z-20.0000 F5000
G1 X1155.1917 Y1563.8958 Z-20.0000 F5000
G1 X1155.1917 Y1565.8978 Z-20.0000 F5000
G1 X1160.1917 Y1565.8978 Z-20.0000 F5000
G1 X1160.1917 Y1945.3950 Z-20.0000 F5000
G1 X1074.1938 Y1945.3950 Z-20.0000 F5000
G1 X1074.1938 Y1755.6464 Z-20.0000 F5000
G1 X1074.1938 Y1755.6464 Z10.0000 F9999
G1 X41.9009 Y1755.6464 Z10.0000 F9999
G1 X41.9009 Y1755.6464 Z1.0000 F2500
G1 X41.9009 Y1716.6753 Z-9.5000 F2500
G1 X41.9009 Y1755.6464 Z-20.0000 F2500
G1 X41.9009 Y1565.8978 Z-20.0000 F5000
G1 X46.9009 Y1565.8978 Z-20.0000 F5000
G1 X46.9009 Y1563.8958 Z-20.0000 F5000
G1 X11.2435 Y1563.8958 Z-20.0000 F5000
G1 X5.9010 Y1558.5532 Z-20.0000 F5000
G1 X5.9010 Y1501.2405 Z-20.0000 F5000
G1 X11.2435 Y1495.8979 Z-20.0000 F5000
G1 X46.9009 Y1495.8979 Z-20.0000 F5000
G1 X46.9009 Y1493.8959 Z-20.0000 F5000
G1 X41.9009 Y1493.8959 Z-20.0000 F5000
G1 X41.9009 Y1265.8984 Z-20.0000 F5000
G1 X46.9009 Y1265.8984 Z-20.0000 F5000
G1 X46.9009 Y1263.8964 Z-20.0000 F5000
G1 X11.2435 Y1263.8964 Z-20.0000 F5000
G1 X5.9010 Y1258.5539 Z-20.0000 F5000
G1 X5.9010 Y1201.2411 Z-20.0000 F5000
G1 X11.2435 Y1195.8986 Z-20.0000 F5000
G1 X46.9009 Y1195.8986 Z-20.0000 F5000
G1 X46.9009 Y1193.8966 Z-20.0000 F5000
G1 X41.9009 Y1193.8966 Z-20.0000 F5000
G1 X41.9009 Y1085.8987 Z-20.0000 F5000
G1 X46.9009 Y1085.8987 Z-20.0000 F5000
G1 X46.9009 Y1083.8968 Z-20.0000 F5000
G1 X23.9009 Y1083.8968 Z-20.0000 F5000
G1 X23.9009 Y965.8990 Z-20.0000 F5000
G1 X28.9009 Y965.8990 Z-20.0000 F5000
G1 X28.9009 Y963.8970 Z-20.0000 F5000
G1 X11.2435 Y963.8970 Z-20.0000 F5000
G1 X5.9010 Y958.5545 Z-20.0000 F5000
G1 X5.9010 Y934.8990 Z-20.0000 F5000
G1 X52.8989 Y934.8990 Z-20.0000 F5000
G1 X52.8989 Y939.8990 Z-20.0000 F5000
G1 X54.9009 Y939.8990 Z-20.0000 F5000
G1 X54.9009 Y919.8970 Z-20.0000 F5000
G1 X52.8989 Y919.8970 Z-20.0000 F5000
G1 X52.8989 Y924.8970 Z-20.0000 F5000
G1 X5.9010 Y924.8970 Z-20.0000 F5000
G1 X5.9010 Y901.2416 Z-20.0000 F5000
G1 X11.2435 Y895.8992 Z-20.0000 F5000
G1 X28.9009 Y895.8992 Z-20.0000 F5000
G1 X28.9009 Y893.8972 Z-20.0000 F5000
G1 X23.9009 Y893.8972 Z-20.0000 F5000
G1 X23.9009 Y665.8997 Z-20.0000 F5000
G1 X28.9009 Y665.8997 Z-20.0000 F5000
G1 X28.9009 Y663.8975 Z-20.0000 F5000
G1 X11.2435 Y663.8975 Z-20.0000 F5000
G1 X5.9010 Y658.5551 Z-20.0000 F5000
G1 X5.9010 Y601.2424 Z-20.0000 F5000
G1 X11.2435 Y595.8998 Z-20.0000 F5000
G1 X28.9009 Y595.8998 Z-20.0000 F5000
G1 X28.9009 Y593.8978 Z-20.0000 F5000
G1 X23.9009 Y593.8978 Z-20.0000 F5000
G1 X23.9009 Y365.9003 Z-20.0000 F5000
G1 X28.9009 Y365.9003 Z-20.0000 F5000
G1 X28.9009 Y363.8983 Z-20.0000 F5000
G1 X11.2435 Y363.8983 Z-20.0000 F5000
G1 X5.9010 Y358.5557 Z-20.0000 F5000
G1 X5.9010 Y334.9003 Z-20.0000 F5000
G1 X52.8989 Y334.9003 Z-20.0000 F5000
G1 X52.8989 Y339.9003 Z-20.0000 F5000
G1 X54.9009 Y339.9003 Z-20.0000 F5000
G1 X54.9009 Y319.8983 Z-20.0000 F5000
G1 X52.8989 Y319.8983 Z-20.0000 F5000
G1 X52.8989 Y324.8983 Z-20.0000 F5000
G1 X5.9010 Y324.8983 Z-20.0000 F5000
G1 X5.9010 Y301.2430 Z-20.0000 F5000
G1 X11.2434 Y295.9003 Z-20.0000 F5000
G1 X28.9009 Y295.9003 Z-20.0000 F5000
G1 X28.9009 Y293.8984 Z-20.0000 F5000
G1 X23.9009 Y293.8984 Z-20.0000 F5000
G1 X23.9009 Y175.9006 Z-20.0000 F5000
G1 X46.9009 Y175.9006 Z-20.0000 F5000
G1 X46.9009 Y173.8988 Z-20.0000 F5000
G1 X41.9009 Y173.8988 Z-20.0000 F5000
G1 X41.9009 Y65.9008 Z-20.0000 F5000
G1 X46.9009 Y65.9008 Z-20.0000 F5000
G1 X46.9009 Y63.8989 Z-20.0000 F5000
G1 X11.2434 Y63.8989 Z-20.0000 F5000
G1 X5.9010 Y58.5561 Z-20.0000 F5000
G1 X5.9010 Y25.9008 Z-20.0000 F5000
G1 X67.5405 Y25.9008 Z-20.0000 F5000
G1 X68.0880 Y25.8214 Z-20.0000 F5000
G1 X68.3475 Y25.7038 Z-20.0000 F5000
G1 X68.5653 Y25.5100 Z-20.0000 F5000
G1 X68.7122 Y25.2658 Z-20.0000 F5000
G1 X68.7810 Y24.9893 Z-20.0000 F5000
G1 X68.7641 Y24.6983 Z-20.0000 F5000
G1 X68.6638 Y24.4316 Z-20.0000 F5000
G1 X68.3326 Y23.9881 Z-20.0000 F5000
G1 X65.4038 Y21.0591 Z-20.0000 F5000
G1 X64.0178 Y19.2032 Z-20.0000 F5000
G1 X63.1000 Y16.6648 Z-20.0000 F5000
G1 X62.9764 Y13.9677 Z-20.0000 F5000
G1 X63.6183 Y11.4403 Z-20.0000 F5000
G1 X64.9519 Y9.1985 Z-20.0000 F5000
G1 X66.9461 Y7.3797 Z-20.0000 F5000
G1 X69.3897 Y6.2335 Z-20.0000 F5000
G1 X71.6825 Y5.9010 Z-20.0000 F5000
G1 X98.1171 Y5.9010 Z-20.0000 F5000
G1 X100.4100 Y6.2335 Z-20.0000 F5000
G1 X102.8535 Y7.3797 Z-20.0000 F5000
G1 X104.8478 Y9.1985 Z-20.0000 F5000
G1 X106.1813 Y11.4403 Z-20.0000 F5000
G1 X106.8233 Y13.9677 Z-20.0000 F5000
G1 X106.6997 Y16.6648 Z-20.0000 F5000
G1 X105.7818 Y19.2032 Z-20.0000 F5000
G1 X104.3959 Y21.0591 Z-20.0000 F5000
G1 X101.4670 Y23.9881 Z-20.0000 F5000
G1 X101.1359 Y24.4316 Z-20.0000 F5000
G1 X101.0356 Y24.6983 Z-20.0000 F5000
G1 X101.0187 Y24.9893 Z-20.0000 F5000
G1 X101.0874 Y25.2658 Z-20.0000 F5000
G1 X101.2344 Y25.5100 Z-20.0000 F5000
G1 X101.4521 Y25.7038 Z-20.0000 F5000
G1 X101.7116 Y25.8214 Z-20.0000 F5000
G1 X102.2591 Y25.9008 Z-20.0000 F5000
G1 X163.8986 Y25.9008 Z-20.0000 F5000
G1 X163.8986 Y58.5561 Z-20.0000 F5000
G1 X158.5562 Y63.8989 Z-20.0000 F5000
G1 X122.8988 Y63.8989 Z-20.0000 F5000
G1 X122.8988 Y65.9008 Z-20.0000 F5000
G1 X127.8988 Y65.9008 Z-20.0000 F5000
G1 X127.8988 Y173.8988 Z-20.0000 F5000
G1 X122.8988 Y173.8988 Z-20.0000 F5000
G1 X122.8988 Y175.9006 Z-20.0000 F5000
G1 X145.8987 Y175.9006 Z-20.0000 F5000
G1 X145.8987 Y293.8984 Z-20.0000 F5000
G1 X140.8987 Y293.8984 Z-20.0000 F5000
G1 X140.8987 Y295.9003 Z-20.0000 F5000
G1 X158.5562 Y295.9003 Z-20.0000 F5000
G1 X163.8986 Y301.2430 Z-20.0000 F5000
G1 X163.8986 Y324.8983 Z-20.0000 F5000
G1 X116.9008 Y324.8983 Z-20.0000 F5000
G1 X116.9008 Y319.8983 Z-20.0000 F5000
G1 X114.8988 Y319.8983 Z-20.0000 F5000
G1 X114.8988 Y339.9003 Z-20.0000 F5000
G1 X116.9008 Y339.9003 Z-20.0000 F5000
G1 X116.9008 Y334.9003 Z-20.0000 F5000
G1 X163.8986 Y334.9003 Z-20.0000 F5000
G1 X163.8986 Y358.5557 Z-20.0000 F5000
G1 X158.5562 Y363.8983 Z-20.0000 F5000
G1 X140.8987 Y363.8983 Z-20.0000 F5000
G1 X140.8987 Y365.9003 Z-20.0000 F5000
G1 X145.8987 Y365.9003 Z-20.0000 F5000
G1 X145.8987 Y593.8978 Z-20.0000 F5000
G1 X140.8987 Y593.8978 Z-20.0000 F5000
G1 X140.8987 Y595.8998 Z-20.0000 F5000
G1 X158.5562 Y595.8998 Z-20.0000 F5000
G1 X163.8986 Y601.2424 Z-20.0000 F5000
G1 X163.8986 Y658.5551 Z-20.0000 F5000
G1 X158.5561 Y663.8975 Z-20.0000 F5000
G1 X140.8987 Y663.8975 Z-20.0000 F5000
G1 X140.8987 Y665.8997 Z-20.0000 F5000
G1 X145.8987 Y665.8997 Z-20.0000 F5000
G1 X145.8987 Y893.8972 Z-20.0000 F5000
G1 X140.8987 Y893.8972 Z-20.0000 F5000
G1 X140.8987 Y895.8992 Z-20.0000 F5000
G1 X158.5561 Y895.8992 Z-20.0000 F5000
G1 X163.8986 Y901.2416 Z-20.0000 F5000
G1 X163.8986 Y924.8970 Z-20.0000 F5000
G1 X116.9008 Y924.8970 Z-20.0000 F5000
G1 X116.9008 Y919.8970 Z-20.0000 F5000
G1 X114.8988 Y919.8970 Z-20.0000 F5000
G1 X114.8988 Y939.8990 Z-20.0000 F5000
G1 X116.9008 Y939.8990 Z-20.0000 F5000
G1 X116.9008 Y934.8990 Z-20.0000 F5000
G1 X163.8986 Y934.8990 Z-20.0000 F5000
G1 X163.8986 Y958.5545 Z-20.0000 F5000
G1 X158.5562 Y963.8970 Z-20.0000 F5000
G1 X140.8987 Y963.8970 Z-20.0000 F5000
G1 X140.8987 Y965.8990 Z-20.0000 F5000
G1 X145.8987 Y965.8990 Z-20.0000 F5000
G1 X145.8987 Y1083.8968 Z-20.0000 F5000
G1 X122.8988 Y1083.8968 Z-20.0000 F5000
G1 X122.8988 Y1085.8987 Z-20.0000 F5000
G1 X127.8988 Y1085.8987 Z-20.0000 F5000
G1 X127.8988 Y1193.8966 Z-20.0000 F5000
G1 X122.8988 Y1193.8966 Z-20.0000 F5000
G1 X122.8988 Y1195.8986 Z-20.0000 F5000
G1 X158.5562 Y1195.8986 Z-20.0000 F5000
G1 X163.8986 Y1201.2411 Z-20.0000 F5000
G1 X163.8986 Y1258.5539 Z-20.0000 F5000
G1 X158.5562 Y1263.8964 Z-20.0000 F5000
G1 X122.8988 Y1263.8964 Z-20.0000 F5000
G1 X122.8988 Y1265.8984 Z-20.0000 F5000
G1 X127.8988 Y1265.8984 Z-20.0000 F5000
G1 X127.8988 Y1493.8959 Z-20.0000 F5000
G1 X122.8988 Y1493.8959 Z-20.0000 F5000
G1 X122.8988 Y1495.8979 Z-20.0000 F5000
G1 X158.5562 Y1495.8979 Z-20.0000 F5000
G1 X163.8986 Y1501.2405 Z-20.0000 F5000
G1 X163.8986 Y1558.5532 Z-20.0000 F5000
G1 X158.5562 Y1563.8958 Z-20.0000 F5000
G1 X122.8988 Y1563.8958 Z-20.0000 F5000
G1 X122.8988 Y1565.8978 Z-20.0000 F5000
G1 X127.8988 Y1565.8978 Z-20.0000 F5000
G1 X127.8988 Y1945.3950 Z-20.0000 F5000
G1 X41.9009 Y1945.3950 Z-20.0000 F5000
G1 X41.9009 Y1755.6464 Z-20.0000 F5000
G1 X41.9009 Y1755.6464 Z10.0000 F9999
G1 X385.9985 Y1755.6464 Z10.0000 F9999
G1 X385.9985 Y1755.6464 Z1.0000 F2500
G1 X385.9985 Y1716.6753 Z-9.5000 F2500
G1 X385.9985 Y1755.6464 Z-20.0000 F2500
G1 X385.9985 Y1565.8978 Z-20.0000 F5000
G1 X390.9985 Y1565.8978 Z-20.0000 F5000
G1 X390.9985 Y1563.8958 Z-20.0000 F5000
G1 X355.3411 Y1563.8958 Z-20.0000 F5000
G1 X349.9986 Y1558.5532 Z-20.0000 F5000
G1 X349.9986 Y1501.2405 Z-20.0000 F5000
G1 X355.3411 Y1495.8979 Z-20.0000 F5000
G1 X390.9985 Y1495.8979 Z-20.0000 F5000
G1 X390.9985 Y1493.8959 Z-20.0000 F5000
G1 X385.9985 Y1493.8959 Z-20.0000 F5000
G1 X385.9985 Y1265.8984 Z-20.0000 F5000
G1 X390.9985 Y1265.8984 Z-20.0000 F5000
G1 X390.9985 Y1263.8964 Z-20.0000 F5000
G1 X355.3411 Y1263.8964 Z-20.0000 F5000
G1 X349.9986 Y1258.5539 Z-20.0000 F5000
G1 X349.9986 Y1201.2411 Z-20.0000 F5000
G1 X355.3411 Y1195.8986 Z-20.0000 F5000
G1 X390.9985 Y1195.8986 Z-20.0000 F5000
G1 X390.9985 Y1193.8966 Z-20.0000 F5000
G1 X385.9985 Y1193.8966 Z-20.0000 F5000
G1 X385.9985 Y1085.8987 Z-20.0000 F5000
G1 X390.9985 Y1085.8987 Z-20.0000 F5000
G1 X390.9985 Y1083.8968 Z-20.0000 F5000
G1 X367.9986 Y1083.8968 Z-20.0000 F5000
G1 X367.9986 Y965.8990 Z-20.0000 F5000
G1 X372.9986 Y965.8990 Z-20.0000 F5000
G1 X372.9986 Y963.8970 Z-20.0000 F5000
G1 X355.3411 Y963.8970 Z-20.0000 F5000
G1 X349.9986 Y958.5545 Z-20.0000 F5000
G1 X349.9986 Y934.8990 Z-20.0000 F5000
G1 X396.9965 Y934.8990 Z-20.0000 F5000
G1 X396.9965 Y939.8990 Z-20.0000 F5000
G1 X398.9985 Y939.8990 Z-20.0000 F5000
G1 X398.9985 Y919.8970 Z-20.0000 F5000
G1 X396.9965 Y919.8970 Z-20.0000 F5000
G1 X396.9965 Y924.8970 Z-20.0000 F5000
G1 X349.9986 Y924.8970 Z-20.0000 F5000
G1 X349.9986 Y901.2416 Z-20.0000 F5000
G1 X355.3412 Y895.8992 Z-20.0000 F5000
G1 X372.9986 Y895.8992 Z-20.0000 F5000
G1 X372.9986 Y893.8972 Z-20.0000 F5000
G1 X367.9986 Y893.8972 Z-20.0000 F5000
G1 X367.9986 Y665.8997 Z-20.0000 F5000
G1 X372.9986 Y665.8997 Z-20.0000 F5000
G1 X372.9986 Y663.8975 Z-20.0000 F5000
G1 X355.3412 Y663.8975 Z-20.0000 F5000
G1 X349.9986 Y658.5551 Z-20.0000 F5000
G1 X349.9986 Y601.2424 Z-20.0000 F5000
G1 X355.3411 Y595.8998 Z-20.0000 F5000
G1 X372.9986 Y595.8998 Z-20.0000 F5000
G1 X372.9986 Y593.8978 Z-20.0000 F5000
G1 X367.9986 Y593.8978 Z-20.0000 F5000
G1 X367.9986 Y365.9003 Z-20.0000 F5000
G1 X372.9986 Y365.9003 Z-20.0000 F5000
G1 X372.9986 Y363.8983 Z-20.0000 F5000
G1 X355.3411 Y363.8983 Z-20.0000 F5000
G1 X349.9986 Y358.5557 Z-20.0000 F5000
G1 X349.9986 Y334.9003 Z-20.0000 F5000
G1 X396.9965 Y334.9003 Z-20.0000 F5000
G1 X396.9965 Y339.9003 Z-20.0000 F5000
G1 X398.9985 Y339.9003 Z-20.0000 F5000
G1 X398.9985 Y319.8983 Z-20.0000 F5000
G1 X396.9965 Y319.8983 Z-20.0000 F5000
G1 X396.9965 Y324.8983 Z-20.0000 F5000
G1 X349.9986 Y324.8983 Z-20.0000 F5000
G1 X349.9986 Y301.2430 Z-20.0000 F5000
G1 X355.3411 Y295.9003 Z-20.0000 F5000
G1 X372.9986 Y295.9003 Z-20.0000 F5000
G1 X372.9986 Y293.8984 Z-20.0000 F5000
G1 X367.9986 Y293.8984 Z-20.0000 F5000
G1 X367.9986 Y175.9006 Z-20.0000 F5000
G1 X390.9985 Y175.9006 Z-20.0000 F5000
G1 X390.9985 Y173.8988 Z-20.0000 F5000
G1 X385.9985 Y173.8988 Z-20.0000 F5000
G1 X385.9985 Y65.9008 Z-20.0000 F5000
G1 X390.9985 Y65.9008 Z-20.0000 F5000
G1 X390.9985 Y63.8989 Z-20.0000 F5000
G1 X355.3411 Y63.8989 Z-20.0000 F5000
G1 X349.9986 Y58.5561 Z-20.0000 F5000
G1 X349.9986 Y25.9008 Z-20.0000 F5000
G1 X411.6381 Y25.9008 Z-20.0000 F5000
G1 X412.1857 Y25.8214 Z-20.0000 F5000
G1 X412.4452 Y25.7038 Z-20.0000 F5000
G1 X412.6629 Y25.5100 Z-20.0000 F5000
G1 X412.8099 Y25.2658 Z-20.0000 F5000
G1 X412.8786 Y24.9893 Z-20.0000 F5000
G1 X412.8617 Y24.6983 Z-20.0000 F5000
G1 X412.7614 Y24.4316 Z-20.0000 F5000
G1 X412.4302 Y23.9881 Z-20.0000 F5000
G1 X409.5014 Y21.0591 Z-20.0000 F5000
G1 X408.1154 Y19.2032 Z-20.0000 F5000
G1 X407.1976 Y16.6648 Z-20.0000 F5000
G1 X407.0740 Y13.9677 Z-20.0000 F5000
G1 X407.7159 Y11.4403 Z-20.0000 F5000
G1 X409.0495 Y9.1985 Z-20.0000 F5000
G1 X411.0438 Y7.3797 Z-20.0000 F5000
G1 X413.4873 Y6.2335 Z-20.0000 F5000
G1 X415.7801 Y5.9010 Z-20.0000 F5000
G1 X442.2148 Y5.9010 Z-20.0000 F5000
G1 X444.5076 Y6.2335 Z-20.0000 F5000
G1 X446.9511 Y7.3797 Z-20.0000 F5000
G1 X448.9454 Y9.1985 Z-20.0000 F5000
G1 X450.2790 Y11.4403 Z-20.0000 F5000
G1 X450.9209 Y13.9677 Z-20.0000 F5000
G1 X450.7973 Y16.6648 Z-20.0000 F5000
G1 X449.8795 Y19.2032 Z-20.0000 F5000
G1 X448.4935 Y21.0591 Z-20.0000 F5000
G1 X445.5647 Y23.9881 Z-20.0000 F5000
G1 X445.2335 Y24.4316 Z-20.0000 F5000
G1 X445.1332 Y24.6983 Z-20.0000 F5000
G1 X445.1163 Y24.9893 Z-20.0000 F5000
G1 X445.1851 Y25.2658 Z-20.0000 F5000
G1 X445.3320 Y25.5100 Z-20.0000 F5000
G1 X445.5497 Y25.7038 Z-20.0000 F5000
G1 X445.8093 Y25.8214 Z-20.0000 F5000
G1 X446.3568 Y25.9008 Z-20.0000 F5000
G1 X507.9963 Y25.9008 Z-20.0000 F5000
G1 X507.9963 Y58.5561 Z-20.0000 F5000
G1 X502.6538 Y63.8989 Z-20.0000 F5000
G1 X466.9964 Y63.8989 Z-20.0000 F5000
G1 X466.9964 Y65.9008 Z-20.0000 F5000
G1 X471.9964 Y65.9008 Z-20.0000 F5000
G1 X471.9964 Y173.8988 Z-20.0000 F5000
G1 X466.9964 Y173.8988 Z-20.0000 F5000
G1 X466.9964 Y175.9006 Z-20.0000 F5000
G1 X489.9963 Y175.9006 Z-20.0000 F5000
G1 X489.9963 Y293.8984 Z-20.0000 F5000
G1 X484.9963 Y293.8984 Z-20.0000 F5000
G1 X484.9963 Y295.9003 Z-20.0000 F5000
G1 X502.6538 Y295.9003 Z-20.0000 F5000
G1 X507.9963 Y301.2430 Z-20.0000 F5000
G1 X507.9963 Y324.8983 Z-20.0000 F5000
G1 X460.9984 Y324.8983 Z-20.0000 F5000
G1 X460.9984 Y319.8983 Z-20.0000 F5000
G1 X458.9964 Y319.8983 Z-20.0000 F5000
G1 X458.9964 Y339.9003 Z-20.0000 F5000
G1 X460.9984 Y339.9003 Z-20.0000 F5000
G1 X460.9984 Y334.9003 Z-20.0000 F5000
G1 X507.9963 Y334.9003 Z-20.0000 F5000
G1 X507.9963 Y358.5557 Z-20.0000 F5000
G1 X502.6538 Y363.8983 Z-20.0000 F5000
G1 X484.9963 Y363.8983 Z-20.0000 F5000
G1 X484.9963 Y365.9003 Z-20.0000 F5000
G1 X489.9963 Y365.9003 Z-20.0000 F5000
G1 X489.9963 Y593.8978 Z-20.0000 F5000
G1 X484.9963 Y593.8978 Z-20.0000 F5000
G1 X484.9963 Y595.8998 Z-20.0000 F5000
G1 X502.6538 Y595.8998 Z-20.0000 F5000
G1 X507.9963 Y601.2424 Z-20.0000 F5000
G1 X507.9963 Y658.5551 Z-20.0000 F5000
G1 X502.6537 Y663.8975 Z-20.0000 F5000
G1 X484.9963 Y663.8975 Z-20.0000 F5000
G1 X484.9963 Y665.8997 Z-20.0000 F5000
G1 X489.9963 Y665.8997 Z-20.0000 F5000
G1 X489.9963 Y893.8972 Z-20.0000 F5000
G1 X484.9963 Y893.8972 Z-20.0000 F5000
G1 X484.9963 Y895.8992 Z-20.0000 F5000
G1 X502.6537 Y895.8992 Z-20.0000 F5000
G1 X507.9963 Y901.2416 Z-20.0000 F5000
G1 X507.9963 Y924.8970 Z-20.0000 F5000
G1 X460.9984 Y924.8970 Z-20.0000 F5000
G1 X460.9984 Y919.8970 Z-20.0000 F5000
G1 X458.9964 Y919.8970 Z-20.0000 F5000
G1 X458.9964 Y939.8990 Z-20.0000 F5000
G1 X460.9984 Y939.8990 Z-20.0000 F5000
G1 X460.9984 Y934.8990 Z-20.0000 F5000
G1 X507.9963 Y934.8990 Z-20.0000 F5000
G1 X507.9963 Y958.5545 Z-20.0000 F5000
G1 X502.6538 Y963.8970 Z-20.0000 F5000
G1 X484.9963 Y963.8970 Z-20.0000 F5000
G1 X484.9963 Y965.8990 Z-20.0000 F5000
G1 X489.9963 Y965.8990 Z-20.0000 F5000
G1 X489.9963 Y1083.8968 Z-20.0000 F5000
G1 X466.9964 Y1083.8968 Z-20.0000 F5000
G1 X466.9964 Y1085.8987 Z-20.0000 F5000
G1 X471.9964 Y1085.8987 Z-20.0000 F5000
G1 X471.9964 Y1193.8966 Z-20.0000 F5000
G1 X466.9964 Y1193.8966 Z-20.0000 F5000
G1 X466.9964 Y1195.8986 Z-20.0000 F5000
G1 X502.6538 Y1195.8986 Z-20.0000 F5000
G1 X507.9963 Y1201.2411 Z-20.0000 F5000
G1 X507.9963 Y1258.5539 Z-20.0000 F5000
G1 X502.6538 Y1263.8964 Z-20.0000 F5000
G1 X466.9964 Y1263.8964 Z-20.0000 F5000
G1 X466.9964 Y1265.8984 Z-20.0000 F5000
G1 X471.9964 Y1265.8984 Z-20.0000 F5000
G1 X471.9964 Y1493.8959 Z-20.0000 F5000
G1 X466.9964 Y1493.8959 Z-20.0000 F5000
G1 X466.9964 Y1495.8979 Z-20.0000 F5000
