(plotsheet 2n3_nested_153 sheets_final v1_0_sheet 80_S80.1_text_CC8 - stepover 1mm)
(Material Size) (X=1220.000, Y=2440.000, Z=21.000)
(LinuxCNC_NoArcs_MM_TC_medium_50um_G1_verbose.con)
G90 G80 G21 G49
G64 P0.050
M6 T1
(Tool Number:1) (7.998 mm dia. slot drill)
G43 H1 G0Z80.0000
M3 S19000
G04 P10
G1 X391.6232 Y510.1890 Z10.0000 F9999
G1 X391.6232 Y510.1890 Z-0.9000 F2000
G1 X360.7975 Y482.3633 Z-0.9000 F2750
G1 X391.6232 Y482.3633 Z-0.9000 F2750
G1 X360.7975 Y482.3633 Z-0.9000 F2750
G1 X391.6232 Y510.1890 Z-0.9000 F2750
G1 X360.7975 Y510.1890 Z-0.9000 F2750
G1 X360.7975 Y510.1890 Z10.0000 F9999
G1 X391.6232 Y525.1614 Z10.0000 F9999
G1 X391.6232 Y525.1614 Z-0.9000 F2000
G1 X360.7975 Y525.1614 Z-0.9000 F2750
G1 X391.6232 Y525.1614 Z-0.9000 F2750
G1 X391.6232 Y525.1614 Z10.0000 F9999
G1 X398.6691 Y536.7899 Z10.0000 F9999
G1 X398.6691 Y536.7899 Z-0.9000 F2000
G1 X359.0361 Y559.5789 Z-0.9000 F2750
G1 X398.6691 Y536.7899 Z-0.9000 F2750
G1 X398.6691 Y536.7899 Z10.0000 F9999
G1 X391.6232 Y572.8725 Z10.0000 F9999
G1 X391.6232 Y572.8725 Z-0.9000 F2000
G1 X366.5773 Y589.5238 Z-0.9000 F2750
G1 X366.5773 Y567.9183 Z-0.9000 F2750
G1 X366.5773 Y589.5238 Z-0.9000 F2750
G1 X391.6232 Y572.8725 Z-0.9000 F2750
G1 X360.7975 Y572.8725 Z-0.9000 F2750
G1 X360.7975 Y572.8725 Z10.0000 F9999
G1 X365.9168 Y615.9459 Z10.0000 F9999
G1 X365.9168 Y615.9459 Z-0.9000 F2000
G1 X363.6324 Y614.4871 Z-0.9000 F2750
G1 X362.0911 Y612.6706 Z-0.9000 F2750
G1 X361.1553 Y610.3312 Z-0.9000 F2750
G1 X360.7975 Y607.2348 Z-0.9000 F2750
G1 X361.1416 Y603.8633 Z-0.9000 F2750
G1 X362.4489 Y601.0009 Z-0.9000 F2750
G1 X364.6920 Y598.9917 Z-0.9000 F2750
G1 X367.8159 Y598.1523 Z-0.9000 F2750
G1 X370.8159 Y598.5514 Z-0.9000 F2750
G1 X372.8250 Y599.7073 Z-0.9000 F2750
G1 X374.0911 Y601.2348 Z-0.9000 F2750
G1 X374.9168 Y602.6660 Z-0.9000 F2750
G1 X378.4673 Y609.5605 Z-0.9000 F2750
G1 X379.5269 Y611.3358 Z-0.9000 F2750
G1 X380.7654 Y612.7257 Z-0.9000 F2750
G1 X382.4030 Y613.6614 Z-0.9000 F2750
G1 X384.5636 Y614.0468 Z-0.9000 F2750
G1 X387.0269 Y613.6477 Z-0.9000 F2750
G1 X389.2975 Y612.2715 Z-0.9000 F2750
G1 X390.9627 Y609.9183 Z-0.9000 F2750
G1 X391.6232 Y606.6431 Z-0.9000 F2750
G1 X391.1140 Y603.4504 Z-0.9000 F2750
G1 X390.0131 Y601.3174 Z-0.9000 F2750
G1 X388.4030 Y599.7486 Z-0.9000 F2750
G1 X390.0131 Y601.3174 Z-0.9000 F2750
G1 X391.1140 Y603.4504 Z-0.9000 F2750
G1 X391.6232 Y606.6431 Z-0.9000 F2750
G1 X390.9627 Y609.9183 Z-0.9000 F2750
G1 X389.2975 Y612.2715 Z-0.9000 F2750
G1 X387.0269 Y613.6477 Z-0.9000 F2750
G1 X384.5636 Y614.0468 Z-0.9000 F2750
G1 X382.4030 Y613.6614 Z-0.9000 F2750
G1 X380.7654 Y612.7257 Z-0.9000 F2750
G1 X379.5269 Y611.3358 Z-0.9000 F2750
G1 X378.4673 Y609.5605 Z-0.9000 F2750
G1 X374.9168 Y602.6660 Z-0.9000 F2750
G1 X374.0911 Y601.2348 Z-0.9000 F2750
G1 X372.8250 Y599.7073 Z-0.9000 F2750
G1 X370.8159 Y598.5514 Z-0.9000 F2750
G1 X367.8159 Y598.1523 Z-0.9000 F2750
G1 X364.6920 Y598.9917 Z-0.9000 F2750
G1 X362.4489 Y601.0009 Z-0.9000 F2750
G1 X361.1416 Y603.8633 Z-0.9000 F2750
G1 X360.7975 Y607.2348 Z-0.9000 F2750
G1 X361.1553 Y610.3312 Z-0.9000 F2750
G1 X362.0911 Y612.6706 Z-0.9000 F2750
G1 X363.6324 Y614.4871 Z-0.9000 F2750
G1 X363.6324 Y614.4871 Z10.0000 F9999
G1 X398.6691 Y623.9826 Z10.0000 F9999
G1 X398.6691 Y623.9826 Z-0.9000 F2000
G1 X359.0361 Y646.7715 Z-0.9000 F2750
G1 X398.6691 Y623.9826 Z-0.9000 F2750
G1 X398.6691 Y623.9826 Z10.0000 F9999
G1 X391.6232 Y667.3449 Z10.0000 F9999
G1 X391.6232 Y667.3449 Z-0.9000 F2000
G1 X360.7975 Y655.3037 Z-0.9000 F2750
G1 X391.6232 Y667.3449 Z-0.9000 F2750
G1 X360.7975 Y679.3587 Z-0.9000 F2750
G1 X360.7975 Y679.3587 Z10.0000 F9999
G1 X379.2929 Y687.3679 Z10.0000 F9999
G1 X379.2929 Y687.3679 Z-0.9000 F2000
G1 X379.2929 Y709.3037 Z-0.9000 F2750
G1 X379.2929 Y687.3679 Z-0.9000 F2750
G1 X379.2929 Y687.3679 Z10.0000 F9999
G1 X371.8205 Y659.6110 Z10.0000 F9999
G1 X371.8205 Y659.6110 Z-0.9000 F2000
G1 X371.8205 Y675.1339 Z-0.9000 F2750
G1 X371.8205 Y659.6110 Z-0.9000 F2750
G1 X371.8205 Y659.6110 Z10.0000 F9999
G1 X371.8205 Y722.1431 Z10.0000 F9999
G1 X371.8205 Y722.1431 Z-0.9000 F2000
G1 X371.8205 Y737.6660 Z-0.9000 F2750
G1 X371.8205 Y722.1431 Z-0.9000 F2750
G1 X371.8205 Y722.1431 Z10.0000 F9999
G1 X391.6232 Y729.8770 Z10.0000 F9999
G1 X391.6232 Y729.8770 Z-0.9000 F2000
G1 X360.7975 Y717.8358 Z-0.9000 F2750
G1 X391.6232 Y729.8770 Z-0.9000 F2750
G1 X360.7975 Y741.8908 Z-0.9000 F2750
G1 X360.7975 Y741.8908 Z10.0000 F9999
G1 X360.7975 Y749.9000 Z10.0000 F9999
G1 X360.7975 Y749.9000 Z-0.9000 F2000
G1 X375.9076 Y759.8220 Z-0.9000 F2750
G1 X360.7975 Y749.9000 Z-0.9000 F2750
G1 X360.7975 Y749.9000 Z10.0000 F9999
G1 X360.7975 Y762.9596 Z10.0000 F9999
G1 X360.7975 Y762.9596 Z-0.9000 F2000
G1 X391.6232 Y762.9596 Z-0.9000 F2750
G1 X391.6232 Y757.5926 Z-0.9000 F2750
G1 X391.1691 Y754.6890 Z-0.9000 F2750
G1 X389.8067 Y752.2807 Z-0.9000 F2750
G1 X387.4397 Y750.6156 Z-0.9000 F2750
G1 X383.9581 Y749.9826 Z-0.9000 F2750
G1 X380.4489 Y750.8495 Z-0.9000 F2750
G1 X377.9581 Y752.9275 Z-0.9000 F2750
G1 X376.4856 Y755.4183 Z-0.9000 F2750
G1 X375.9902 Y757.5926 Z-0.9000 F2750
G1 X375.9902 Y762.9596 Z-0.9000 F2750
G1 X375.9902 Y757.5926 Z-0.9000 F2750
G1 X376.4856 Y755.4183 Z-0.9000 F2750
G1 X377.9581 Y752.9275 Z-0.9000 F2750
G1 X380.4489 Y750.8495 Z-0.9000 F2750
G1 X383.9581 Y749.9826 Z-0.9000 F2750
G1 X387.4397 Y750.6156 Z-0.9000 F2750
G1 X389.8067 Y752.2807 Z-0.9000 F2750
G1 X391.1691 Y754.6890 Z-0.9000 F2750
G1 X391.6232 Y757.5926 Z-0.9000 F2750
G1 X391.6232 Y762.9596 Z-0.9000 F2750
G1 X391.6232 Y762.9596 Z10.0000 F9999
G1 X377.9030 Y785.8587 Z10.0000 F9999
G1 X377.9030 Y785.8587 Z-0.9000 F2000
G1 X377.9030 Y775.0284 Z-0.9000 F2750
G1 X377.9030 Y785.8587 Z-0.9000 F2750
G1 X391.6232 Y785.8587 Z-0.9000 F2750
G1 X391.6232 Y774.5192 Z-0.9000 F2750
G1 X391.6232 Y785.8587 Z-0.9000 F2750
G1 X360.7975 Y785.8587 Z-0.9000 F2750
G1 X360.7975 Y785.8587 Z10.0000 F9999
G1 X174.6016 Y807.0475 Z10.0000 F9999
G1 X174.6016 Y807.0475 Z-0.9000 F2000
G1 X174.6016 Y786.3503 Z-0.9000 F2750
G1 X174.6016 Y807.0475 Z-0.9000 F2750
G1 X174.6016 Y807.0475 Z10.0000 F9999
G1 X148.1979 Y796.7356 Z10.0000 F9999
G1 X148.1979 Y796.7356 Z-0.9000 F2000
G1 X189.2988 Y812.7907 Z-0.9000 F2750
G1 X148.1979 Y796.7356 Z-0.9000 F2750
G1 X189.2988 Y780.7173 Z-0.9000 F2750
G1 X189.2988 Y780.7173 Z10.0000 F9999
G1 X164.6383 Y770.0384 Z10.0000 F9999
G1 X164.6383 Y770.0384 Z-0.9000 F2000
G1 X164.6383 Y740.7907 Z-0.9000 F2750
G1 X164.6383 Y770.0384 Z-0.9000 F2750
G1 X164.6383 Y770.0384 Z10.0000 F9999
G1 X174.6016 Y723.6714 Z10.0000 F9999
G1 X174.6016 Y723.6714 Z-0.9000 F2000
G1 X174.6016 Y702.9741 Z-0.9000 F2750
G1 X174.6016 Y723.6714 Z-0.9000 F2750
G1 X174.6016 Y723.6714 Z10.0000 F9999
G1 X148.1979 Y713.3595 Z10.0000 F9999
G1 X148.1979 Y713.3595 Z-0.9000 F2000
G1 X189.2988 Y729.4145 Z-0.9000 F2750
G1 X148.1979 Y713.3595 Z-0.9000 F2750
G1 X189.2988 Y697.3411 Z-0.9000 F2750
G1 X189.2988 Y697.3411 Z10.0000 F9999
G1 X189.2988 Y686.6622 Z10.0000 F9999
G1 X189.2988 Y686.6622 Z-0.9000 F2000
G1 X169.1520 Y673.4329 Z-0.9000 F2750
G1 X189.2988 Y686.6622 Z-0.9000 F2750
G1 X189.2988 Y686.6622 Z10.0000 F9999
G1 X189.2988 Y669.2494 Z10.0000 F9999
G1 X189.2988 Y669.2494 Z-0.9000 F2000
G1 X148.1979 Y669.2494 Z-0.9000 F2750
G1 X148.1979 Y676.4053 Z-0.9000 F2750
G1 X148.8034 Y680.2769 Z-0.9000 F2750
G1 X150.6199 Y683.4879 Z-0.9000 F2750
G1 X153.7759 Y685.7081 Z-0.9000 F2750
G1 X158.4181 Y686.5521 Z-0.9000 F2750
G1 X163.0970 Y685.3962 Z-0.9000 F2750
G1 X166.4181 Y682.6255 Z-0.9000 F2750
G1 X168.3814 Y679.3044 Z-0.9000 F2750
G1 X169.0420 Y676.4053 Z-0.9000 F2750
G1 X169.0420 Y669.2494 Z-0.9000 F2750
G1 X169.0420 Y676.4053 Z-0.9000 F2750
G1 X168.3814 Y679.3044 Z-0.9000 F2750
G1 X166.4181 Y682.6255 Z-0.9000 F2750
G1 X163.0970 Y685.3962 Z-0.9000 F2750
G1 X158.4181 Y686.5521 Z-0.9000 F2750
G1 X153.7759 Y685.7081 Z-0.9000 F2750
G1 X150.6199 Y683.4879 Z-0.9000 F2750
G1 X148.8034 Y680.2769 Z-0.9000 F2750
G1 X148.1979 Y676.4053 Z-0.9000 F2750
G1 X148.1979 Y669.2494 Z-0.9000 F2750
G1 X148.1979 Y669.2494 Z10.0000 F9999
G1 X166.4915 Y638.7173 Z10.0000 F9999
G1 X166.4915 Y638.7173 Z-0.9000 F2000
G1 X166.4915 Y653.1576 Z-0.9000 F2750
G1 X166.4915 Y638.7173 Z-0.9000 F2750
G1 X148.1979 Y638.7173 Z-0.9000 F2750
G1 X148.1979 Y653.8365 Z-0.9000 F2750
G1 X148.1979 Y638.7173 Z-0.9000 F2750
G1 X189.2988 Y638.7173 Z-0.9000 F2750
G1 X189.2988 Y638.7173 Z10.0000 F9999
G1 X138.8034 Y854.5521 Z10.0000 F9999
G1 X138.8034 Y854.5521 Z-0.9000 F2000
G1 X191.6475 Y824.1668 Z-0.9000 F2750
G1 X138.8034 Y854.5521 Z-0.9000 F2750
G1 X138.8034 Y854.5521 Z10.0000 F9999
G1 X166.4915 Y870.0567 Z10.0000 F9999
G1 X166.4915 Y870.0567 Z-0.9000 F2000
G1 X166.4915 Y884.4971 Z-0.9000 F2750
G1 X166.4915 Y870.0567 Z-0.9000 F2750
G1 X148.1979 Y870.0567 Z-0.9000 F2750
G1 X148.1979 Y885.1760 Z-0.9000 F2750
G1 X148.1979 Y870.0567 Z-0.9000 F2750
G1 X189.2988 Y870.0567 Z-0.9000 F2750
G1 X189.2988 Y870.0567 Z10.0000 F9999
G1 X148.1979 Y911.7448 Z10.0000 F9999
G1 X148.1979 Y911.7448 Z-0.9000 F2000
G1 X164.1612 Y900.4420 Z-0.9000 F2750
G1 X166.1231 Y899.0554 Z-0.9000 F2750
G1 X168.1245 Y897.7264 Z-0.9000 F2750
G1 X175.3355 Y895.7998 Z-0.9000 F2750
G1 X180.7667 Y896.9007 Z-0.9000 F2750
G1 X185.1887 Y899.8549 Z-0.9000 F2750
G1 X188.1979 Y904.2218 Z-0.9000 F2750
G1 X189.2988 Y909.6163 Z-0.9000 F2750
G1 X188.1979 Y915.0108 Z-0.9000 F2750
G1 X185.1887 Y919.4512 Z-0.9000 F2750
G1 X180.7667 Y922.4420 Z-0.9000 F2750
G1 X175.3355 Y923.5429 Z-0.9000 F2750
G1 X169.9227 Y922.4420 Z-0.9000 F2750
G1 X165.5007 Y919.4512 Z-0.9000 F2750
G1 X162.5282 Y915.0108 Z-0.9000 F2750
G1 X161.4273 Y909.6163 Z-0.9000 F2750
G1 X163.2805 Y902.6989 Z-0.9000 F2750
G1 X168.1245 Y897.7264 Z-0.9000 F2750
G1 X163.2805 Y902.6989 Z-0.9000 F2750
G1 X161.4273 Y909.6163 Z-0.9000 F2750
G1 X162.5282 Y915.0108 Z-0.9000 F2750
G1 X165.5007 Y919.4512 Z-0.9000 F2750
G1 X169.9227 Y922.4420 Z-0.9000 F2750
G1 X175.3355 Y923.5429 Z-0.9000 F2750
G1 X180.7667 Y922.4420 Z-0.9000 F2750
G1 X185.1887 Y919.4512 Z-0.9000 F2750
G1 X188.1979 Y915.0108 Z-0.9000 F2750
G1 X189.2988 Y909.6163 Z-0.9000 F2750
G1 X188.1979 Y904.2218 Z-0.9000 F2750
G1 X185.1887 Y899.8549 Z-0.9000 F2750
G1 X180.7667 Y896.9007 Z-0.9000 F2750
G1 X175.3355 Y895.7998 Z-0.9000 F2750
G1 X168.1245 Y897.7264 Z-0.9000 F2750
G1 X166.6750 Y898.6806 Z-0.9000 F2750
G1 X157.3906 Y905.2127 Z-0.9000 F2750
G1 X157.3906 Y905.2127 Z10.0000 F9999
G1 X391.6232 Y1110.1984 Z10.0000 F9999
G1 X391.6232 Y1110.1984 Z-0.9000 F2000
G1 X360.7975 Y1082.3727 Z-0.9000 F2750
G1 X391.6232 Y1082.3727 Z-0.9000 F2750
G1 X360.7975 Y1082.3727 Z-0.9000 F2750
G1 X391.6232 Y1110.1984 Z-0.9000 F2750
G1 X360.7975 Y1110.1984 Z-0.9000 F2750
G1 X360.7975 Y1110.1984 Z10.0000 F9999
G1 X391.6232 Y1125.1709 Z10.0000 F9999
G1 X391.6232 Y1125.1709 Z-0.9000 F2000
G1 X360.7975 Y1125.1709 Z-0.9000 F2750
G1 X391.6232 Y1125.1709 Z-0.9000 F2750
G1 X391.6232 Y1125.1709 Z10.0000 F9999
G1 X398.6691 Y1136.7993 Z10.0000 F9999
G1 X398.6691 Y1136.7993 Z-0.9000 F2000
G1 X359.0361 Y1159.5883 Z-0.9000 F2750
G1 X398.6691 Y1136.7993 Z-0.9000 F2750
G1 X398.6691 Y1136.7993 Z10.0000 F9999
G1 X391.6232 Y1172.8819 Z10.0000 F9999
G1 X391.6232 Y1172.8819 Z-0.9000 F2000
G1 X366.5773 Y1189.5333 Z-0.9000 F2750
G1 X366.5773 Y1167.9278 Z-0.9000 F2750
G1 X366.5773 Y1189.5333 Z-0.9000 F2750
G1 X391.6232 Y1172.8819 Z-0.9000 F2750
G1 X360.7975 Y1172.8819 Z-0.9000 F2750
G1 X360.7975 Y1172.8819 Z10.0000 F9999
G1 X365.9168 Y1215.9553 Z10.0000 F9999
G1 X365.9168 Y1215.9553 Z-0.9000 F2000
G1 X363.6324 Y1214.4966 Z-0.9000 F2750
G1 X362.0911 Y1212.6801 Z-0.9000 F2750
G1 X361.1553 Y1210.3406 Z-0.9000 F2750
G1 X360.7975 Y1207.2443 Z-0.9000 F2750
G1 X361.1416 Y1203.8727 Z-0.9000 F2750
G1 X362.4489 Y1201.0103 Z-0.9000 F2750
G1 X364.6920 Y1199.0012 Z-0.9000 F2750
G1 X367.8159 Y1198.1617 Z-0.9000 F2750
G1 X370.8159 Y1198.5608 Z-0.9000 F2750
G1 X372.8250 Y1199.7168 Z-0.9000 F2750
G1 X374.0911 Y1201.2443 Z-0.9000 F2750
G1 X374.9168 Y1202.6755 Z-0.9000 F2750
G1 X378.4673 Y1209.5700 Z-0.9000 F2750
G1 X379.5269 Y1211.3452 Z-0.9000 F2750
G1 X380.7654 Y1212.7351 Z-0.9000 F2750
G1 X382.4030 Y1213.6709 Z-0.9000 F2750
G1 X384.5636 Y1214.0562 Z-0.9000 F2750
G1 X387.0269 Y1213.6571 Z-0.9000 F2750
G1 X389.2975 Y1212.2810 Z-0.9000 F2750
G1 X390.9627 Y1209.9278 Z-0.9000 F2750
G1 X391.6232 Y1206.6525 Z-0.9000 F2750
G1 X391.1140 Y1203.4599 Z-0.9000 F2750
G1 X390.0131 Y1201.3269 Z-0.9000 F2750
G1 X388.4030 Y1199.7581 Z-0.9000 F2750
G1 X390.0131 Y1201.3269 Z-0.9000 F2750
G1 X391.1140 Y1203.4599 Z-0.9000 F2750
G1 X391.6232 Y1206.6525 Z-0.9000 F2750
G1 X390.9627 Y1209.9278 Z-0.9000 F2750
G1 X389.2975 Y1212.2810 Z-0.9000 F2750
G1 X387.0269 Y1213.6571 Z-0.9000 F2750
G1 X384.5636 Y1214.0562 Z-0.9000 F2750
G1 X382.4030 Y1213.6709 Z-0.9000 F2750
G1 X380.7654 Y1212.7351 Z-0.9000 F2750
G1 X379.5269 Y1211.3452 Z-0.9000 F2750
G1 X378.4673 Y1209.5700 Z-0.9000 F2750
G1 X374.9168 Y1202.6755 Z-0.9000 F2750
G1 X374.0911 Y1201.2443 Z-0.9000 F2750
G1 X372.8250 Y1199.7168 Z-0.9000 F2750
G1 X370.8159 Y1198.5608 Z-0.9000 F2750
G1 X367.8159 Y1198.1617 Z-0.9000 F2750
G1 X364.6920 Y1199.0012 Z-0.9000 F2750
G1 X362.4489 Y1201.0103 Z-0.9000 F2750
G1 X361.1416 Y1203.8727 Z-0.9000 F2750
G1 X360.7975 Y1207.2443 Z-0.9000 F2750
G1 X361.1553 Y1210.3406 Z-0.9000 F2750
G1 X362.0911 Y1212.6801 Z-0.9000 F2750
G1 X363.6324 Y1214.4966 Z-0.9000 F2750
G1 X363.6324 Y1214.4966 Z10.0000 F9999
G1 X398.6691 Y1223.9920 Z10.0000 F9999
G1 X398.6691 Y1223.9920 Z-0.9000 F2000
G1 X359.0361 Y1246.7810 Z-0.9000 F2750
G1 X398.6691 Y1223.9920 Z-0.9000 F2750
G1 X398.6691 Y1223.9920 Z10.0000 F9999
G1 X391.6232 Y1267.3544 Z10.0000 F9999
G1 X391.6232 Y1267.3544 Z-0.9000 F2000
G1 X360.7975 Y1255.3131 Z-0.9000 F2750
G1 X391.6232 Y1267.3544 Z-0.9000 F2750
G1 X360.7975 Y1279.3681 Z-0.9000 F2750
G1 X360.7975 Y1279.3681 Z10.0000 F9999
G1 X379.2929 Y1287.3773 Z10.0000 F9999
G1 X379.2929 Y1287.3773 Z-0.9000 F2000
G1 X379.2929 Y1309.3131 Z-0.9000 F2750
G1 X379.2929 Y1287.3773 Z-0.9000 F2750
G1 X379.2929 Y1287.3773 Z10.0000 F9999
G1 X371.8205 Y1259.6204 Z10.0000 F9999
G1 X371.8205 Y1259.6204 Z-0.9000 F2000
G1 X371.8205 Y1275.1434 Z-0.9000 F2750
G1 X371.8205 Y1259.6204 Z-0.9000 F2750
G1 X371.8205 Y1259.6204 Z10.0000 F9999
G1 X371.8205 Y1322.1525 Z10.0000 F9999
G1 X371.8205 Y1322.1525 Z-0.9000 F2000
G1 X371.8205 Y1337.6755 Z-0.9000 F2750
G1 X371.8205 Y1322.1525 Z-0.9000 F2750
G1 X371.8205 Y1322.1525 Z10.0000 F9999
G1 X391.6232 Y1329.8865 Z10.0000 F9999
G1 X391.6232 Y1329.8865 Z-0.9000 F2000
G1 X360.7975 Y1317.8452 Z-0.9000 F2750
G1 X391.6232 Y1329.8865 Z-0.9000 F2750
G1 X360.7975 Y1341.9003 Z-0.9000 F2750
G1 X360.7975 Y1341.9003 Z10.0000 F9999
G1 X360.7975 Y1349.9094 Z10.0000 F9999
G1 X360.7975 Y1349.9094 Z-0.9000 F2000
G1 X375.9076 Y1359.8314 Z-0.9000 F2750
G1 X360.7975 Y1349.9094 Z-0.9000 F2750
G1 X360.7975 Y1349.9094 Z10.0000 F9999
G1 X360.7975 Y1362.9691 Z10.0000 F9999
G1 X360.7975 Y1362.9691 Z-0.9000 F2000
G1 X391.6232 Y1362.9691 Z-0.9000 F2750
G1 X391.6232 Y1357.6021 Z-0.9000 F2750
G1 X391.1691 Y1354.6984 Z-0.9000 F2750
G1 X389.8067 Y1352.2902 Z-0.9000 F2750
G1 X387.4397 Y1350.6250 Z-0.9000 F2750
G1 X383.9581 Y1349.9920 Z-0.9000 F2750
G1 X380.4489 Y1350.8590 Z-0.9000 F2750
G1 X377.9581 Y1352.9370 Z-0.9000 F2750
G1 X376.4856 Y1355.4278 Z-0.9000 F2750
G1 X375.9902 Y1357.6021 Z-0.9000 F2750
G1 X375.9902 Y1362.9691 Z-0.9000 F2750
G1 X375.9902 Y1357.6021 Z-0.9000 F2750
G1 X376.4856 Y1355.4278 Z-0.9000 F2750
G1 X377.9581 Y1352.9370 Z-0.9000 F2750
G1 X380.4489 Y1350.8590 Z-0.9000 F2750
G1 X383.9581 Y1349.9920 Z-0.9000 F2750
G1 X387.4397 Y1350.6250 Z-0.9000 F2750
G1 X389.8067 Y1352.2902 Z-0.9000 F2750
G1 X391.1691 Y1354.6984 Z-0.9000 F2750
G1 X391.6232 Y1357.6021 Z-0.9000 F2750
G1 X391.6232 Y1362.9691 Z-0.9000 F2750
G1 X391.6232 Y1362.9691 Z10.0000 F9999
G1 X377.9030 Y1385.8681 Z10.0000 F9999
G1 X377.9030 Y1385.8681 Z-0.9000 F2000
G1 X377.9030 Y1375.0379 Z-0.9000 F2750
G1 X377.9030 Y1385.8681 Z-0.9000 F2750
G1 X391.6232 Y1385.8681 Z-0.9000 F2750
G1 X391.6232 Y1374.5287 Z-0.9000 F2750
G1 X391.6232 Y1385.8681 Z-0.9000 F2750
G1 X360.7975 Y1385.8681 Z-0.9000 F2750
G1 X360.7975 Y1385.8681 Z10.0000 F9999
G1 X453.9921 Y1584.1607 Z10.0000 F9999
G1 X453.9921 Y1584.1607 Z-0.9000 F2000
G1 X426.1664 Y1614.9864 Z-0.9000 F2750
G1 X426.1664 Y1584.1607 Z-0.9000 F2750
G1 X426.1664 Y1614.9864 Z-0.9000 F2750
G1 X453.9921 Y1584.1607 Z-0.9000 F2750
G1 X453.9921 Y1614.9864 Z-0.9000 F2750
G1 X453.9921 Y1614.9864 Z10.0000 F9999
G1 X468.9646 Y1584.1607 Z10.0000 F9999
G1 X468.9646 Y1584.1607 Z-0.9000 F2000
G1 X468.9646 Y1614.9864 Z-0.9000 F2750
G1 X468.9646 Y1584.1607 Z-0.9000 F2750
G1 X468.9646 Y1584.1607 Z10.0000 F9999
G1 X480.5930 Y1577.1148 Z10.0000 F9999
G1 X480.5930 Y1577.1148 Z-0.9000 F2000
G1 X503.3820 Y1616.7478 Z-0.9000 F2750
G1 X480.5930 Y1577.1148 Z-0.9000 F2750
G1 X480.5930 Y1577.1148 Z10.0000 F9999
G1 X516.6756 Y1584.1607 Z10.0000 F9999
G1 X516.6756 Y1584.1607 Z-0.9000 F2000
G1 X533.3270 Y1609.2065 Z-0.9000 F2750
G1 X511.7215 Y1609.2065 Z-0.9000 F2750
G1 X533.3270 Y1609.2065 Z-0.9000 F2750
G1 X516.6756 Y1584.1607 Z-0.9000 F2750
G1 X516.6756 Y1614.9864 Z-0.9000 F2750
G1 X516.6756 Y1614.9864 Z10.0000 F9999
G1 X559.7490 Y1609.8671 Z10.0000 F9999
G1 X559.7490 Y1609.8671 Z-0.9000 F2000
G1 X558.2903 Y1612.1515 Z-0.9000 F2750
G1 X556.4738 Y1613.6928 Z-0.9000 F2750
G1 X554.1343 Y1614.6286 Z-0.9000 F2750
G1 X551.0380 Y1614.9864 Z-0.9000 F2750
G1 X547.6664 Y1614.6423 Z-0.9000 F2750
G1 X544.8040 Y1613.3350 Z-0.9000 F2750
G1 X542.7949 Y1611.0919 Z-0.9000 F2750
G1 X541.9554 Y1607.9680 Z-0.9000 F2750
G1 X542.3545 Y1604.9680 Z-0.9000 F2750
G1 X543.5105 Y1602.9588 Z-0.9000 F2750
G1 X545.0380 Y1601.6928 Z-0.9000 F2750
G1 X546.4692 Y1600.8671 Z-0.9000 F2750
G1 X553.3637 Y1597.3166 Z-0.9000 F2750
G1 X555.1389 Y1596.2570 Z-0.9000 F2750
G1 X556.5288 Y1595.0185 Z-0.9000 F2750
G1 X557.4646 Y1593.3809 Z-0.9000 F2750
G1 X557.8499 Y1591.2203 Z-0.9000 F2750
G1 X557.4508 Y1588.7570 Z-0.9000 F2750
G1 X556.0747 Y1586.4864 Z-0.9000 F2750
G1 X553.7215 Y1584.8212 Z-0.9000 F2750
G1 X550.4463 Y1584.1607 Z-0.9000 F2750
G1 X547.2536 Y1584.6698 Z-0.9000 F2750
G1 X545.1206 Y1585.7708 Z-0.9000 F2750
G1 X543.5518 Y1587.3809 Z-0.9000 F2750
G1 X545.1206 Y1585.7708 Z-0.9000 F2750
G1 X547.2536 Y1584.6698 Z-0.9000 F2750
G1 X550.4463 Y1584.1607 Z-0.9000 F2750
G1 X553.7215 Y1584.8212 Z-0.9000 F2750
G1 X556.0747 Y1586.4864 Z-0.9000 F2750
G1 X557.4508 Y1588.7570 Z-0.9000 F2750
G1 X557.8499 Y1591.2203 Z-0.9000 F2750
G1 X557.4646 Y1593.3809 Z-0.9000 F2750
G1 X556.5288 Y1595.0185 Z-0.9000 F2750
G1 X555.1389 Y1596.2570 Z-0.9000 F2750
G1 X553.3637 Y1597.3166 Z-0.9000 F2750
G1 X546.4692 Y1600.8671 Z-0.9000 F2750
G1 X545.0380 Y1601.6928 Z-0.9000 F2750
G1 X543.5105 Y1602.9588 Z-0.9000 F2750
G1 X542.3545 Y1604.9680 Z-0.9000 F2750
G1 X541.9554 Y1607.9680 Z-0.9000 F2750
G1 X542.7949 Y1611.0919 Z-0.9000 F2750
G1 X544.8040 Y1613.3350 Z-0.9000 F2750
G1 X547.6664 Y1614.6423 Z-0.9000 F2750
G1 X551.0380 Y1614.9864 Z-0.9000 F2750
G1 X554.1343 Y1614.6286 Z-0.9000 F2750
G1 X556.4738 Y1613.6928 Z-0.9000 F2750
G1 X558.2903 Y1612.1515 Z-0.9000 F2750
G1 X558.2903 Y1612.1515 Z10.0000 F9999
G1 X567.7857 Y1577.1148 Z10.0000 F9999
G1 X567.7857 Y1577.1148 Z-0.9000 F2000
G1 X590.5747 Y1616.7478 Z-0.9000 F2750
G1 X567.7857 Y1577.1148 Z-0.9000 F2750
G1 X567.7857 Y1577.1148 Z10.0000 F9999
G1 X611.1481 Y1584.1607 Z10.0000 F9999
G1 X611.1481 Y1584.1607 Z-0.9000 F2000
G1 X599.1068 Y1614.9864 Z-0.9000 F2750
G1 X611.1481 Y1584.1607 Z-0.9000 F2750
G1 X623.1618 Y1614.9864 Z-0.9000 F2750
G1 X623.1618 Y1614.9864 Z10.0000 F9999
G1 X631.1710 Y1596.4909 Z10.0000 F9999
G1 X631.1710 Y1596.4909 Z-0.9000 F2000
G1 X653.1068 Y1596.4909 Z-0.9000 F2750
G1 X631.1710 Y1596.4909 Z-0.9000 F2750
G1 X631.1710 Y1596.4909 Z10.0000 F9999
G1 X603.4141 Y1603.9634 Z10.0000 F9999
G1 X603.4141 Y1603.9634 Z-0.9000 F2000
G1 X618.9371 Y1603.9634 Z-0.9000 F2750
G1 X603.4141 Y1603.9634 Z-0.9000 F2750
G1 X603.4141 Y1603.9634 Z10.0000 F9999
G1 X665.9463 Y1603.9634 Z10.0000 F9999
G1 X665.9463 Y1603.9634 Z-0.9000 F2000
G1 X681.4692 Y1603.9634 Z-0.9000 F2750
G1 X665.9463 Y1603.9634 Z-0.9000 F2750
G1 X665.9463 Y1603.9634 Z10.0000 F9999
G1 X673.6802 Y1584.1607 Z10.0000 F9999
G1 X673.6802 Y1584.1607 Z-0.9000 F2000
G1 X661.6389 Y1614.9864 Z-0.9000 F2750
G1 X673.6802 Y1584.1607 Z-0.9000 F2750
G1 X685.6940 Y1614.9864 Z-0.9000 F2750
G1 X685.6940 Y1614.9864 Z10.0000 F9999
G1 X693.7031 Y1614.9864 Z10.0000 F9999
G1 X693.7031 Y1614.9864 Z-0.9000 F2000
G1 X703.6251 Y1599.8763 Z-0.9000 F2750
G1 X693.7031 Y1614.9864 Z-0.9000 F2750
G1 X693.7031 Y1614.9864 Z10.0000 F9999
G1 X706.7628 Y1614.9864 Z10.0000 F9999
G1 X706.7628 Y1614.9864 Z-0.9000 F2000
G1 X706.7628 Y1584.1607 Z-0.9000 F2750
G1 X701.3958 Y1584.1607 Z-0.9000 F2750
G1 X698.4921 Y1584.6148 Z-0.9000 F2750
G1 X696.0839 Y1585.9772 Z-0.9000 F2750
G1 X694.4187 Y1588.3442 Z-0.9000 F2750
G1 X693.7857 Y1591.8258 Z-0.9000 F2750
G1 X694.6527 Y1595.3350 Z-0.9000 F2750
G1 X696.7307 Y1597.8258 Z-0.9000 F2750
G1 X699.2215 Y1599.2983 Z-0.9000 F2750
G1 X701.3958 Y1599.7937 Z-0.9000 F2750
G1 X706.7628 Y1599.7937 Z-0.9000 F2750
G1 X701.3958 Y1599.7937 Z-0.9000 F2750
G1 X699.2215 Y1599.2983 Z-0.9000 F2750
G1 X696.7307 Y1597.8258 Z-0.9000 F2750
G1 X694.6527 Y1595.3350 Z-0.9000 F2750
G1 X693.7857 Y1591.8258 Z-0.9000 F2750
G1 X694.4187 Y1588.3442 Z-0.9000 F2750
G1 X696.0839 Y1585.9772 Z-0.9000 F2750
G1 X698.4921 Y1584.6148 Z-0.9000 F2750
G1 X701.3958 Y1584.1607 Z-0.9000 F2750
G1 X706.7628 Y1584.1607 Z-0.9000 F2750
G1 X706.7628 Y1584.1607 Z10.0000 F9999
G1 X729.6618 Y1597.8809 Z10.0000 F9999
G1 X729.6618 Y1597.8809 Z-0.9000 F2000
G1 X718.8316 Y1597.8809 Z-0.9000 F2750
G1 X729.6618 Y1597.8809 Z-0.9000 F2750
G1 X729.6618 Y1584.1607 Z-0.9000 F2750
G1 X718.3224 Y1584.1607 Z-0.9000 F2750
G1 X729.6618 Y1584.1607 Z-0.9000 F2750
G1 X729.6618 Y1614.9864 Z-0.9000 F2750
G1 X729.6618 Y1614.9864 Z10.0000 F9999
G1 X983.3137 Y1529.2683 Z10.0000 F9999
G1 X983.3137 Y1529.2683 Z-0.9000 F2000
G1 X1024.4146 Y1529.2683 Z-0.9000 F2750
G1 X1024.4146 Y1522.1124 Z-0.9000 F2750
G1 X1023.8091 Y1518.2408 Z-0.9000 F2750
G1 X1021.9926 Y1515.0298 Z-0.9000 F2750
G1 X1018.8366 Y1512.8096 Z-0.9000 F2750
G1 X1014.1944 Y1511.9656 Z-0.9000 F2750
G1 X1009.5155 Y1513.1215 Z-0.9000 F2750
G1 X1006.1944 Y1515.8922 Z-0.9000 F2750
G1 X1004.2311 Y1519.2133 Z-0.9000 F2750
G1 X1003.5706 Y1522.1124 Z-0.9000 F2750
G1 X1003.5706 Y1529.2683 Z-0.9000 F2750
G1 X1003.5706 Y1522.1124 Z-0.9000 F2750
G1 X1004.2311 Y1519.2133 Z-0.9000 F2750
G1 X1006.1944 Y1515.8922 Z-0.9000 F2750
G1 X1009.5155 Y1513.1215 Z-0.9000 F2750
G1 X1014.1944 Y1511.9656 Z-0.9000 F2750
G1 X1018.8366 Y1512.8096 Z-0.9000 F2750
G1 X1021.9926 Y1515.0298 Z-0.9000 F2750
G1 X1023.8091 Y1518.2408 Z-0.9000 F2750
G1 X1024.4146 Y1522.1124 Z-0.9000 F2750
G1 X1024.4146 Y1529.2683 Z-0.9000 F2750
G1 X1024.4146 Y1529.2683 Z10.0000 F9999
G1 X1006.1210 Y1559.8004 Z10.0000 F9999
G1 X1006.1210 Y1559.8004 Z-0.9000 F2000
G1 X1006.1210 Y1545.3601 Z-0.9000 F2750
G1 X1006.1210 Y1559.8004 Z-0.9000 F2750
G1 X1024.4146 Y1559.8004 Z-0.9000 F2750
G1 X1024.4146 Y1544.6812 Z-0.9000 F2750
G1 X1024.4146 Y1559.8004 Z-0.9000 F2750
G1 X983.3137 Y1559.8004 Z-0.9000 F2750
G1 X983.3137 Y1559.8004 Z10.0000 F9999
G1 X983.3137 Y1511.8555 Z10.0000 F9999
G1 X983.3137 Y1511.8555 Z-0.9000 F2000
G1 X1003.4605 Y1525.0848 Z-0.9000 F2750
G1 X983.3137 Y1511.8555 Z-0.9000 F2750
G1 X983.3137 Y1511.8555 Z10.0000 F9999
G1 X998.0110 Y1474.8463 Z10.0000 F9999
G1 X998.0110 Y1474.8463 Z-0.9000 F2000
G1 X998.0110 Y1495.5436 Z-0.9000 F2750
G1 X998.0110 Y1474.8463 Z-0.9000 F2750
G1 X998.0110 Y1474.8463 Z10.0000 F9999
G1 X1024.4146 Y1485.1582 Z10.0000 F9999
G1 X1024.4146 Y1485.1582 Z-0.9000 F2000
G1 X983.3137 Y1469.1032 Z-0.9000 F2750
G1 X1024.4146 Y1485.1582 Z-0.9000 F2750
G1 X983.3137 Y1501.1766 Z-0.9000 F2750
G1 X983.3137 Y1501.1766 Z10.0000 F9999
G1 X1007.9743 Y1428.4793 Z10.0000 F9999
G1 X1007.9743 Y1428.4793 Z-0.9000 F2000
G1 X1007.9743 Y1457.7270 Z-0.9000 F2750
G1 X1007.9743 Y1428.4793 Z-0.9000 F2750
G1 X1007.9743 Y1428.4793 Z10.0000 F9999
G1 X1024.4146 Y1401.7821 Z10.0000 F9999
G1 X1024.4146 Y1401.7821 Z-0.9000 F2000
G1 X983.3137 Y1385.7270 Z-0.9000 F2750
G1 X1024.4146 Y1401.7821 Z-0.9000 F2750
G1 X983.3137 Y1417.8004 Z-0.9000 F2750
G1 X983.3137 Y1417.8004 Z10.0000 F9999
G1 X998.0110 Y1391.4702 Z10.0000 F9999
G1 X998.0110 Y1391.4702 Z-0.9000 F2000
G1 X998.0110 Y1412.1674 Z-0.9000 F2750
G1 X998.0110 Y1391.4702 Z-0.9000 F2750
G1 X998.0110 Y1391.4702 Z10.0000 F9999
G1 X1033.8091 Y1343.9656 Z10.0000 F9999
G1 X1033.8091 Y1343.9656 Z-0.9000 F2000
G1 X980.9651 Y1374.3509 Z-0.9000 F2750
G1 X1033.8091 Y1343.9656 Z-0.9000 F2750
G1 X1033.8091 Y1343.9656 Z10.0000 F9999
G1 X1006.1210 Y1328.4610 Z10.0000 F9999
G1 X1006.1210 Y1328.4610 Z-0.9000 F2000
G1 X1006.1210 Y1314.0206 Z-0.9000 F2750
G1 X1006.1210 Y1328.4610 Z-0.9000 F2750
G1 X1024.4146 Y1328.4610 Z-0.9000 F2750
G1 X1024.4146 Y1313.3417 Z-0.9000 F2750
G1 X1024.4146 Y1328.4610 Z-0.9000 F2750
G1 X983.3137 Y1328.4610 Z-0.9000 F2750
G1 X983.3137 Y1328.4610 Z10.0000 F9999
G1 X1024.4146 Y1286.7729 Z10.0000 F9999
G1 X1024.4146 Y1286.7729 Z-0.9000 F2000
G1 X1008.4513 Y1298.0757 Z-0.9000 F2750
G1 X1006.4894 Y1299.4623 Z-0.9000 F2750
G1 X1004.4880 Y1300.7913 Z-0.9000 F2750
G1 X997.2770 Y1302.7179 Z-0.9000 F2750
G1 X991.8458 Y1301.6169 Z-0.9000 F2750
G1 X987.4238 Y1298.6628 Z-0.9000 F2750
G1 X984.4146 Y1294.2958 Z-0.9000 F2750
G1 X983.3137 Y1288.9014 Z-0.9000 F2750
G1 X984.4146 Y1283.5069 Z-0.9000 F2750
G1 X987.4238 Y1279.0665 Z-0.9000 F2750
G1 X991.8458 Y1276.0757 Z-0.9000 F2750
G1 X997.2770 Y1274.9747 Z-0.9000 F2750
G1 X1002.6899 Y1276.0757 Z-0.9000 F2750
G1 X1007.1119 Y1279.0665 Z-0.9000 F2750
G1 X1010.0843 Y1283.5069 Z-0.9000 F2750
G1 X1011.1853 Y1288.9014 Z-0.9000 F2750
G1 X1009.3321 Y1295.8188 Z-0.9000 F2750
G1 X1004.4880 Y1300.7913 Z-0.9000 F2750
G1 X1009.3321 Y1295.8188 Z-0.9000 F2750
G1 X1011.1853 Y1288.9014 Z-0.9000 F2750
G1 X1010.0843 Y1283.5069 Z-0.9000 F2750
G1 X1007.1119 Y1279.0665 Z-0.9000 F2750
G1 X1002.6899 Y1276.0757 Z-0.9000 F2750
G1 X997.2770 Y1274.9747 Z-0.9000 F2750
G1 X991.8458 Y1276.0757 Z-0.9000 F2750
G1 X987.4238 Y1279.0665 Z-0.9000 F2750
G1 X984.4146 Y1283.5069 Z-0.9000 F2750
G1 X983.3137 Y1288.9014 Z-0.9000 F2750
G1 X984.4146 Y1294.2958 Z-0.9000 F2750
G1 X987.4238 Y1298.6628 Z-0.9000 F2750
G1 X991.8458 Y1301.6169 Z-0.9000 F2750
G1 X997.2770 Y1302.7179 Z-0.9000 F2750
G1 X1004.4880 Y1300.7913 Z-0.9000 F2750
G1 X1005.9376 Y1299.8371 Z-0.9000 F2750
G1 X1015.2220 Y1293.3050 Z-0.9000 F2750
G1 X1015.2220 Y1293.3050 Z10.0000 F9999
G1 X611.2634 Y1028.0323 Z10.0000 F9999
G1 X611.2634 Y1028.0323 Z-0.9000 F2000
G1 X611.2634 Y1042.4726 Z-0.9000 F2750
G1 X611.2634 Y1028.0323 Z-0.9000 F2750
G1 X592.9698 Y1028.0323 Z-0.9000 F2750
G1 X592.9698 Y1043.1515 Z-0.9000 F2750
G1 X592.9698 Y1028.0323 Z-0.9000 F2750
G1 X634.0707 Y1028.0323 Z-0.9000 F2750
G1 X634.0707 Y1028.0323 Z10.0000 F9999
G1 X583.5753 Y1012.5277 Z10.0000 F9999
G1 X583.5753 Y1012.5277 Z-0.9000 F2000
G1 X636.4194 Y982.1424 Z-0.9000 F2750
G1 X583.5753 Y1012.5277 Z-0.9000 F2750
G1 X583.5753 Y1012.5277 Z10.0000 F9999
G1 X634.0707 Y971.4635 Z10.0000 F9999
G1 X634.0707 Y971.4635 Z-0.9000 F2000
G1 X613.9239 Y958.2341 Z-0.9000 F2750
G1 X634.0707 Y971.4635 Z-0.9000 F2750
G1 X634.0707 Y971.4635 Z10.0000 F9999
G1 X634.0707 Y954.0506 Z10.0000 F9999
G1 X634.0707 Y954.0506 Z-0.9000 F2000
G1 X592.9698 Y954.0506 Z-0.9000 F2750
G1 X592.9698 Y961.2066 Z-0.9000 F2750
G1 X593.5753 Y965.0782 Z-0.9000 F2750
G1 X595.3918 Y968.2892 Z-0.9000 F2750
G1 X598.5478 Y970.5093 Z-0.9000 F2750
G1 X603.1900 Y971.3534 Z-0.9000 F2750
G1 X607.8689 Y970.1974 Z-0.9000 F2750
G1 X611.1900 Y967.4268 Z-0.9000 F2750
G1 X613.1533 Y964.1057 Z-0.9000 F2750
G1 X613.8138 Y961.2066 Z-0.9000 F2750
G1 X613.8138 Y954.0506 Z-0.9000 F2750
G1 X613.8138 Y961.2066 Z-0.9000 F2750
G1 X613.1533 Y964.1057 Z-0.9000 F2750
G1 X611.1900 Y967.4268 Z-0.9000 F2750
G1 X607.8689 Y970.1974 Z-0.9000 F2750
G1 X603.1900 Y971.3534 Z-0.9000 F2750
G1 X598.5478 Y970.5093 Z-0.9000 F2750
G1 X595.3918 Y968.2892 Z-0.9000 F2750
G1 X593.5753 Y965.0782 Z-0.9000 F2750
G1 X592.9698 Y961.2066 Z-0.9000 F2750
G1 X592.9698 Y954.0506 Z-0.9000 F2750
G1 X592.9698 Y954.0506 Z10.0000 F9999
G1 X634.0707 Y921.1699 Z10.0000 F9999
G1 X634.0707 Y921.1699 Z-0.9000 F2000
G1 X611.2634 Y921.1699 Z-0.9000 F2750
G1 X611.2634 Y937.6286 Z-0.9000 F2750
G1 X611.2634 Y921.1699 Z-0.9000 F2750
G1 X592.9698 Y921.1699 Z-0.9000 F2750
G1 X592.9698 Y938.9314 Z-0.9000 F2750
G1 X592.9698 Y921.1699 Z-0.9000 F2750
G1 X634.0707 Y921.1699 Z-0.9000 F2750
G1 X634.0707 Y938.9314 Z-0.9000 F2750
G1 X634.0707 Y938.9314 Z10.0000 F9999
G1 X628.3827 Y905.3167 Z10.0000 F9999
G1 X628.3827 Y905.3167 Z-0.9000 F2000
G1 X632.5478 Y898.6928 Z-0.9000 F2750
G1 X634.0707 Y890.7112 Z-0.9000 F2750
G1 X632.4377 Y882.4359 Z-0.9000 F2750
G1 X628.0157 Y875.6653 Z-0.9000 F2750
G1 X621.4836 Y871.0965 Z-0.9000 F2750
G1 X613.4836 Y869.4084 Z-0.9000 F2750
G1 X605.5386 Y871.0965 Z-0.9000 F2750
G1 X599.0249 Y875.6653 Z-0.9000 F2750
G1 X594.6028 Y882.4359 Z-0.9000 F2750
G1 X592.9698 Y890.7112 Z-0.9000 F2750
G1 X594.3827 Y898.4910 Z-0.9000 F2750
G1 X598.3276 Y905.0415 Z-0.9000 F2750
G1 X594.3827 Y898.4910 Z-0.9000 F2750
G1 X592.9698 Y890.7112 Z-0.9000 F2750
G1 X594.6028 Y882.4359 Z-0.9000 F2750
G1 X599.0249 Y875.6653 Z-0.9000 F2750
G1 X605.5386 Y871.0965 Z-0.9000 F2750
G1 X613.4836 Y869.4084 Z-0.9000 F2750
G1 X621.4836 Y871.0965 Z-0.9000 F2750
G1 X628.0157 Y875.6653 Z-0.9000 F2750
G1 X632.4377 Y882.4359 Z-0.9000 F2750
G1 X634.0707 Y890.7112 Z-0.9000 F2750
G1 X632.5478 Y898.6928 Z-0.9000 F2750
G1 X632.5478 Y898.6928 Z10.0000 F9999
G1 X619.3735 Y852.2892 Z10.0000 F9999
G1 X619.3735 Y852.2892 Z-0.9000 F2000
G1 X619.3735 Y831.5919 Z-0.9000 F2750
G1 X619.3735 Y852.2892 Z-0.9000 F2750
G1 X619.3735 Y852.2892 Z10.0000 F9999
G1 X592.9698 Y841.9772 Z10.0000 F9999
G1 X592.9698 Y841.9772 Z-0.9000 F2000
G1 X634.0707 Y858.0323 Z-0.9000 F2750
G1 X592.9698 Y841.9772 Z-0.9000 F2750
G1 X634.0707 Y825.9589 Z-0.9000 F2750
G1 X634.0707 Y825.9589 Z10.0000 F9999
G1 X592.9698 Y796.6928 Z10.0000 F9999
G1 X592.9698 Y796.6928 Z-0.9000 F2000
G1 X592.9698 Y803.1148 Z-0.9000 F2750
G1 X595.5386 Y811.7387 Z-0.9000 F2750
G1 X603.1349 Y814.7295 Z-0.9000 F2750
G1 X611.0065 Y811.6470 Z-0.9000 F2750
G1 X613.8322 Y803.4084 Z-0.9000 F2750
G1 X613.8322 Y796.6928 Z-0.9000 F2750
G1 X613.8322 Y803.4084 Z-0.9000 F2750
G1 X611.0065 Y811.6470 Z-0.9000 F2750
G1 X603.1349 Y814.7295 Z-0.9000 F2750
G1 X595.5386 Y811.7387 Z-0.9000 F2750
G1 X592.9698 Y803.1148 Z-0.9000 F2750
G1 X592.9698 Y796.6928 Z-0.9000 F2750
G1 X634.0707 Y796.6928 Z-0.9000 F2750
G1 X634.0707 Y796.6928 Z10.0000 F9999
G1 X627.2450 Y756.6745 Z10.0000 F9999
G1 X627.2450 Y756.6745 Z-0.9000 F2000
G1 X630.2909 Y758.6194 Z-0.9000 F2750
G1 X632.3460 Y761.0415 Z-0.9000 F2750
G1 X633.5937 Y764.1607 Z-0.9000 F2750
G1 X634.0707 Y768.2892 Z-0.9000 F2750
G1 X633.6120 Y772.7846 Z-0.9000 F2750
G1 X631.8689 Y776.6011 Z-0.9000 F2750
G1 X628.8781 Y779.2800 Z-0.9000 F2750
G1 X624.7129 Y780.3993 Z-0.9000 F2750
G1 X620.7129 Y779.8671 Z-0.9000 F2750
G1 X618.0340 Y778.3259 Z-0.9000 F2750
G1 X616.3460 Y776.2892 Z-0.9000 F2750
G1 X615.2450 Y774.3809 Z-0.9000 F2750
G1 X610.5111 Y765.1882 Z-0.9000 F2750
G1 X609.0983 Y762.8213 Z-0.9000 F2750
G1 X607.4469 Y760.9681 Z-0.9000 F2750
G1 X605.2634 Y759.7204 Z-0.9000 F2750
G1 X602.3827 Y759.2066 Z-0.9000 F2750
G1 X599.0983 Y759.7387 Z-0.9000 F2750
G1 X596.0707 Y761.5736 Z-0.9000 F2750
G1 X593.8505 Y764.7112 Z-0.9000 F2750
G1 X592.9698 Y769.0782 Z-0.9000 F2750
G1 X593.6487 Y773.3350 Z-0.9000 F2750
G1 X595.1166 Y776.1791 Z-0.9000 F2750
G1 X597.2634 Y778.2708 Z-0.9000 F2750
G1 X595.1166 Y776.1791 Z-0.9000 F2750
G1 X593.6487 Y773.3350 Z-0.9000 F2750
G1 X592.9698 Y769.0782 Z-0.9000 F2750
G1 X593.8505 Y764.7112 Z-0.9000 F2750
G1 X596.0707 Y761.5736 Z-0.9000 F2750
G1 X599.0983 Y759.7387 Z-0.9000 F2750
G1 X602.3827 Y759.2066 Z-0.9000 F2750
G1 X605.2634 Y759.7204 Z-0.9000 F2750
G1 X607.4469 Y760.9681 Z-0.9000 F2750
G1 X609.0983 Y762.8213 Z-0.9000 F2750
G1 X610.5111 Y765.1882 Z-0.9000 F2750
G1 X615.2450 Y774.3809 Z-0.9000 F2750
G1 X616.3460 Y776.2892 Z-0.9000 F2750
G1 X618.0340 Y778.3259 Z-0.9000 F2750
G1 X620.7129 Y779.8671 Z-0.9000 F2750
G1 X624.7129 Y780.3993 Z-0.9000 F2750
G1 X628.8781 Y779.2800 Z-0.9000 F2750
G1 X631.8689 Y776.6011 Z-0.9000 F2750
G1 X633.6120 Y772.7846 Z-0.9000 F2750
G1 X634.0707 Y768.2892 Z-0.9000 F2750
G1 X633.5937 Y764.1607 Z-0.9000 F2750
G1 X632.3460 Y761.0415 Z-0.9000 F2750
G1 X630.2909 Y758.6194 Z-0.9000 F2750
G1 X630.2909 Y758.6194 Z10.0000 F9999
G1 X497.2842 Y2214.2446 Z10.0000 F9999
G1 X497.2842 Y2214.2446 Z-0.9000 F2000
G1 X527.6695 Y2267.0886 Z-0.9000 F2750
G1 X497.2842 Y2214.2446 Z-0.9000 F2750
G1 X497.2842 Y2214.2446 Z10.0000 F9999
G1 X481.7796 Y2241.9327 Z10.0000 F9999
G1 X481.7796 Y2241.9327 Z-0.9000 F2000
G1 X467.3392 Y2241.9327 Z-0.9000 F2750
G1 X481.7796 Y2241.9327 Z-0.9000 F2750
G1 X481.7796 Y2223.6391 Z-0.9000 F2750
G1 X466.6603 Y2223.6391 Z-0.9000 F2750
G1 X481.7796 Y2223.6391 Z-0.9000 F2750
G1 X481.7796 Y2264.7400 Z-0.9000 F2750
G1 X481.7796 Y2264.7400 Z10.0000 F9999
G1 X538.3484 Y2264.7400 Z10.0000 F9999
G1 X538.3484 Y2264.7400 Z-0.9000 F2000
G1 X551.5777 Y2244.5932 Z-0.9000 F2750
G1 X538.3484 Y2264.7400 Z-0.9000 F2750
G1 X538.3484 Y2264.7400 Z10.0000 F9999
G1 X555.7612 Y2264.7400 Z10.0000 F9999
G1 X555.7612 Y2264.7400 Z-0.9000 F2000
G1 X555.7612 Y2223.6391 Z-0.9000 F2750
G1 X548.6053 Y2223.6391 Z-0.9000 F2750
G1 X544.7337 Y2224.2446 Z-0.9000 F2750
G1 X541.5227 Y2226.0611 Z-0.9000 F2750
G1 X539.3025 Y2229.2171 Z-0.9000 F2750
G1 X538.4585 Y2233.8593 Z-0.9000 F2750
G1 X539.6144 Y2238.5382 Z-0.9000 F2750
G1 X542.3851 Y2241.8593 Z-0.9000 F2750
G1 X545.7062 Y2243.8226 Z-0.9000 F2750
G1 X548.6053 Y2244.4831 Z-0.9000 F2750
G1 X555.7612 Y2244.4831 Z-0.9000 F2750
G1 X548.6053 Y2244.4831 Z-0.9000 F2750
G1 X545.7062 Y2243.8226 Z-0.9000 F2750
G1 X542.3851 Y2241.8593 Z-0.9000 F2750
G1 X539.6144 Y2238.5382 Z-0.9000 F2750
G1 X538.4585 Y2233.8593 Z-0.9000 F2750
G1 X539.3025 Y2229.2171 Z-0.9000 F2750
G1 X541.5227 Y2226.0611 Z-0.9000 F2750
G1 X544.7337 Y2224.2446 Z-0.9000 F2750
G1 X548.6053 Y2223.6391 Z-0.9000 F2750
G1 X555.7612 Y2223.6391 Z-0.9000 F2750
G1 X555.7612 Y2223.6391 Z10.0000 F9999
G1 X588.6420 Y2264.7400 Z10.0000 F9999
G1 X588.6420 Y2264.7400 Z-0.9000 F2000
G1 X588.6420 Y2241.9327 Z-0.9000 F2750
G1 X572.1832 Y2241.9327 Z-0.9000 F2750
G1 X588.6420 Y2241.9327 Z-0.9000 F2750
G1 X588.6420 Y2223.6391 Z-0.9000 F2750
G1 X570.8805 Y2223.6391 Z-0.9000 F2750
G1 X588.6420 Y2223.6391 Z-0.9000 F2750
G1 X588.6420 Y2264.7400 Z-0.9000 F2750
G1 X570.8805 Y2264.7400 Z-0.9000 F2750
G1 X570.8805 Y2264.7400 Z10.0000 F9999
G1 X604.4952 Y2259.0519 Z10.0000 F9999
G1 X604.4952 Y2259.0519 Z-0.9000 F2000
G1 X611.1190 Y2263.2171 Z-0.9000 F2750
G1 X619.1007 Y2264.7400 Z-0.9000 F2750
G1 X627.3759 Y2263.1070 Z-0.9000 F2750
G1 X634.1465 Y2258.6850 Z-0.9000 F2750
G1 X638.7154 Y2252.1529 Z-0.9000 F2750
G1 X640.4034 Y2244.1529 Z-0.9000 F2750
G1 X638.7154 Y2236.2079 Z-0.9000 F2750
G1 X634.1465 Y2229.6941 Z-0.9000 F2750
G1 X627.3759 Y2225.2721 Z-0.9000 F2750
G1 X619.1007 Y2223.6391 Z-0.9000 F2750
G1 X611.3209 Y2225.0519 Z-0.9000 F2750
G1 X604.7704 Y2228.9969 Z-0.9000 F2750
G1 X611.3209 Y2225.0519 Z-0.9000 F2750
G1 X619.1007 Y2223.6391 Z-0.9000 F2750
G1 X627.3759 Y2225.2721 Z-0.9000 F2750
G1 X634.1465 Y2229.6941 Z-0.9000 F2750
G1 X638.7154 Y2236.2079 Z-0.9000 F2750
G1 X640.4034 Y2244.1529 Z-0.9000 F2750
G1 X638.7154 Y2252.1529 Z-0.9000 F2750
G1 X634.1465 Y2258.6850 Z-0.9000 F2750
G1 X627.3759 Y2263.1070 Z-0.9000 F2750
G1 X619.1007 Y2264.7400 Z-0.9000 F2750
G1 X611.1190 Y2263.2171 Z-0.9000 F2750
G1 X611.1190 Y2263.2171 Z10.0000 F9999
G1 X657.5227 Y2250.0428 Z10.0000 F9999
G1 X657.5227 Y2250.0428 Z-0.9000 F2000
G1 X678.2199 Y2250.0428 Z-0.9000 F2750
G1 X657.5227 Y2250.0428 Z-0.9000 F2750
G1 X657.5227 Y2250.0428 Z10.0000 F9999
G1 X667.8346 Y2223.6391 Z10.0000 F9999
G1 X667.8346 Y2223.6391 Z-0.9000 F2000
G1 X651.7796 Y2264.7400 Z-0.9000 F2750
G1 X667.8346 Y2223.6391 Z-0.9000 F2750
G1 X683.8530 Y2264.7400 Z-0.9000 F2750
G1 X683.8530 Y2264.7400 Z10.0000 F9999
G1 X713.1190 Y2223.6391 Z10.0000 F9999
G1 X713.1190 Y2223.6391 Z-0.9000 F2000
G1 X706.6970 Y2223.6391 Z-0.9000 F2750
G1 X698.0732 Y2226.2079 Z-0.9000 F2750
G1 X695.0823 Y2233.8042 Z-0.9000 F2750
G1 X698.1649 Y2241.6758 Z-0.9000 F2750
G1 X706.4034 Y2244.5015 Z-0.9000 F2750
G1 X713.1190 Y2244.5015 Z-0.9000 F2750
G1 X706.4034 Y2244.5015 Z-0.9000 F2750
G1 X698.1649 Y2241.6758 Z-0.9000 F2750
G1 X695.0823 Y2233.8042 Z-0.9000 F2750
G1 X698.0732 Y2226.2079 Z-0.9000 F2750
G1 X706.6970 Y2223.6391 Z-0.9000 F2750
G1 X713.1190 Y2223.6391 Z-0.9000 F2750
G1 X713.1190 Y2264.7400 Z-0.9000 F2750
G1 X713.1190 Y2264.7400 Z10.0000 F9999
G1 X753.1374 Y2257.9143 Z10.0000 F9999
G1 X753.1374 Y2257.9143 Z-0.9000 F2000
G1 X751.1924 Y2260.9602 Z-0.9000 F2750
G1 X748.7704 Y2263.0152 Z-0.9000 F2750
G1 X745.6511 Y2264.2630 Z-0.9000 F2750
G1 X741.5227 Y2264.7400 Z-0.9000 F2750
G1 X737.0273 Y2264.2813 Z-0.9000 F2750
G1 X733.2108 Y2262.5382 Z-0.9000 F2750
G1 X730.5319 Y2259.5474 Z-0.9000 F2750
G1 X729.4126 Y2255.3822 Z-0.9000 F2750
G1 X729.9447 Y2251.3822 Z-0.9000 F2750
G1 X731.4860 Y2248.7033 Z-0.9000 F2750
G1 X733.5227 Y2247.0152 Z-0.9000 F2750
G1 X735.4310 Y2245.9143 Z-0.9000 F2750
G1 X744.6236 Y2241.1804 Z-0.9000 F2750
G1 X746.9906 Y2239.7675 Z-0.9000 F2750
G1 X748.8438 Y2238.1162 Z-0.9000 F2750
G1 X750.0915 Y2235.9327 Z-0.9000 F2750
G1 X750.6053 Y2233.0519 Z-0.9000 F2750
G1 X750.0732 Y2229.7675 Z-0.9000 F2750
G1 X748.2383 Y2226.7400 Z-0.9000 F2750
G1 X745.1007 Y2224.5198 Z-0.9000 F2750
G1 X740.7337 Y2223.6391 Z-0.9000 F2750
G1 X736.4768 Y2224.3180 Z-0.9000 F2750
G1 X733.6328 Y2225.7859 Z-0.9000 F2750
G1 X731.5410 Y2227.9327 Z-0.9000 F2750
G1 X733.6328 Y2225.7859 Z-0.9000 F2750
G1 X736.4768 Y2224.3180 Z-0.9000 F2750
G1 X740.7337 Y2223.6391 Z-0.9000 F2750
G1 X745.1007 Y2224.5198 Z-0.9000 F2750
G1 X748.2383 Y2226.7400 Z-0.9000 F2750
G1 X750.0732 Y2229.7675 Z-0.9000 F2750
G1 X750.6053 Y2233.0519 Z-0.9000 F2750
G1 X750.0915 Y2235.9327 Z-0.9000 F2750
G1 X748.8438 Y2238.1162 Z-0.9000 F2750
G1 X746.9906 Y2239.7675 Z-0.9000 F2750
G1 X744.6236 Y2241.1804 Z-0.9000 F2750
G1 X735.4310 Y2245.9143 Z-0.9000 F2750
G1 X733.5227 Y2247.0152 Z-0.9000 F2750
G1 X731.4860 Y2248.7033 Z-0.9000 F2750
G1 X729.9447 Y2251.3822 Z-0.9000 F2750
G1 X729.4126 Y2255.3822 Z-0.9000 F2750
G1 X730.5319 Y2259.5474 Z-0.9000 F2750
G1 X733.2108 Y2262.5382 Z-0.9000 F2750
G1 X737.0273 Y2264.2813 Z-0.9000 F2750
G1 X741.5227 Y2264.7400 Z-0.9000 F2750
G1 X745.6511 Y2264.2630 Z-0.9000 F2750
G1 X748.7704 Y2263.0152 Z-0.9000 F2750
G1 X751.1924 Y2260.9602 Z-0.9000 F2750
G1 X751.1924 Y2260.9602 Z10.0000 F9999
(Tool Number:1) (7.998 mm dia. slot drill)
M3 S19000
G1 X31.8990 Y153.9002 Z10.0000 F9999
G1 X31.8990 Y153.9002 Z1.0000 F2000
G1 X31.8990 Y184.9006 Z-6.9547 F2000
G1 X31.9010 Y182.8996 Z-7.4682 F2000
G1 X31.9432 Y182.3201 Z-7.6173 F2000
G1 X32.0775 Y181.7246 Z-7.7739 F2000
G1 X32.3114 Y181.1350 Z-7.9367 F2000
G1 X32.6455 Y180.5757 Z-8.1038 F2000
G1 X33.0723 Y180.0719 Z-8.2733 F2000
G1 X33.5761 Y179.6451 Z-8.4427 F2000
G1 X34.1354 Y179.3110 Z-8.6099 F2000
G1 X34.7250 Y179.0771 Z-8.7726 F2000
G1 X35.3205 Y178.9428 Z-8.9293 F2000
G1 X35.5955 Y178.9228 Z-9.0000 F2000
G1 X35.3205 Y178.9428 Z-9.0707 F2000
G1 X34.7250 Y179.0771 Z-9.2274 F2000
G1 X34.1354 Y179.3110 Z-9.3901 F2000
G1 X33.5761 Y179.6451 Z-9.5573 F2000
G1 X33.0723 Y180.0719 Z-9.7267 F2000
G1 X32.6455 Y180.5757 Z-9.8962 F2000
G1 X32.3114 Y181.1350 Z-10.0633 F2000
G1 X32.0775 Y181.7246 Z-10.2261 F2000
G1 X31.9432 Y182.3201 Z-10.3827 F2000
G1 X31.9010 Y182.8996 Z-10.5318 F2000
G1 X31.8990 Y184.9006 Z-11.0453 F2000
G1 X31.8990 Y153.9002 Z-19.0000 F2000
G1 X31.8990 Y184.9006 Z-19.0000 F2750
G1 X31.9010 Y182.8996 Z-19.0000 F2750
G1 X31.9432 Y182.3201 Z-19.0000 F2750
G1 X32.0775 Y181.7246 Z-19.0000 F2750
G1 X32.3114 Y181.1350 Z-19.0000 F2750
G1 X32.6455 Y180.5757 Z-19.0000 F2750
G1 X33.0723 Y180.0719 Z-19.0000 F2750
G1 X33.5761 Y179.6451 Z-19.0000 F2750
G1 X34.1354 Y179.3110 Z-19.0000 F2750
G1 X34.7250 Y179.0771 Z-19.0000 F2750
G1 X35.3205 Y178.9428 Z-19.0000 F2750
G1 X35.9000 Y178.9006 Z-19.0000 F2750
G1 X47.9010 Y178.9006 Z-19.0000 F2750
G1 X45.9000 Y178.8986 Z-19.0000 F2750
G1 X45.3204 Y178.8564 Z-19.0000 F2750
G1 X44.7250 Y178.7221 Z-19.0000 F2750
G1 X44.1353 Y178.4882 Z-19.0000 F2750
G1 X43.5761 Y178.1541 Z-19.0000 F2750
G1 X43.0722 Y177.7273 Z-19.0000 F2750
G1 X42.6455 Y177.2234 Z-19.0000 F2750
G1 X42.3114 Y176.6642 Z-19.0000 F2750
G1 X42.0775 Y176.0745 Z-19.0000 F2750
G1 X41.9432 Y175.4791 Z-19.0000 F2750
G1 X41.9010 Y174.8996 Z-19.0000 F2750
G1 X41.9010 Y130.8998 Z-19.0000 F2750
G1 X41.9490 Y130.2820 Z-19.0000 F2750
G1 X42.0955 Y129.6678 Z-19.0000 F2750
G1 X42.3386 Y129.0808 Z-19.0000 F2750
G1 X42.6693 Y128.5430 Z-19.0000 F2750
G1 X43.0722 Y128.0721 Z-19.0000 F2750
G1 X43.5431 Y127.6692 Z-19.0000 F2750
G1 X44.0810 Y127.3385 Z-19.0000 F2750
G1 X44.6680 Y127.0953 Z-19.0000 F2750
G1 X45.2821 Y126.9489 Z-19.0000 F2750
G1 X45.9000 Y126.9008 Z-19.0000 F2750
G1 X47.9010 Y126.9008 Z-19.0000 F2750
G1 X35.9000 Y126.8988 Z-19.0000 F2750
G1 X35.3205 Y126.8566 Z-19.0000 F2750
G1 X34.7250 Y126.7223 Z-19.0000 F2750
G1 X34.1354 Y126.4884 Z-19.0000 F2750
G1 X33.5761 Y126.1543 Z-19.0000 F2750
G1 X33.0723 Y125.7276 Z-19.0000 F2750
G1 X32.6455 Y125.2237 Z-19.0000 F2750
G1 X32.3114 Y124.6645 Z-19.0000 F2750
G1 X32.0775 Y124.0748 Z-19.0000 F2750
G1 X31.9432 Y123.4794 Z-19.0000 F2750
G1 X31.9010 Y122.8998 Z-19.0000 F2750
G1 X31.9010 Y120.8988 Z-19.0000 F2750
G1 X31.8918 Y137.3995 Z-19.0000 F2750
G1 X31.8990 Y153.9002 Z-19.0000 F2750
G1 X31.8990 Y153.9002 Z10.0000 F9999
G1 X152.8999 Y157.9007 Z10.0000 F9999
G1 X152.8999 Y157.9007 Z1.0000 F2000
G1 X178.8999 Y157.9007 Z-5.6716 F2000
G1 X179.4335 Y157.9365 Z-5.8088 F2000
G1 X179.9789 Y158.0490 Z-5.9517 F2000
G1 X180.5198 Y158.2435 Z-6.0992 F2000
G1 X181.0378 Y158.5202 Z-6.2499 F2000
G1 X181.5147 Y158.8740 Z-6.4023 F2000
G1 X181.9339 Y159.2945 Z-6.5547 F2000
G1 X182.2827 Y159.7670 Z-6.7054 F2000
G1 X182.5535 Y160.2740 Z-6.8528 F2000
G1 X182.7439 Y160.7974 Z-6.9958 F2000
G1 X182.8567 Y161.3202 Z-7.1330 F2000
G1 X182.9065 Y162.1097 Z-7.3360 F2000
G1 X182.8989 Y162.9007 Z-7.5390 F2000
G1 X184.9008 Y162.9007 Z-8.0526 F2000
G1 X184.9008 Y159.2087 Z-9.0000 F2000
G1 X184.9008 Y162.9007 Z-9.9474 F2000
G1 X182.8989 Y162.9007 Z-10.4610 F2000
G1 X182.9065 Y162.1097 Z-10.6640 F2000
G1 X182.8567 Y161.3202 Z-10.8670 F2000
G1 X182.7439 Y160.7974 Z-11.0042 F2000
G1 X182.5535 Y160.2740 Z-11.1472 F2000
G1 X182.2827 Y159.7670 Z-11.2946 F2000
G1 X181.9339 Y159.2945 Z-11.4453 F2000
G1 X181.5147 Y158.8740 Z-11.5977 F2000
G1 X181.0378 Y158.5202 Z-11.7501 F2000
G1 X180.5198 Y158.2435 Z-11.9008 F2000
G1 X179.9789 Y158.0490 Z-12.0483 F2000
G1 X179.4335 Y157.9365 Z-12.1912 F2000
G1 X178.8999 Y157.9007 Z-12.3284 F2000
G1 X152.8999 Y157.9007 Z-19.0000 F2000
G1 X178.8999 Y157.9007 Z-19.0000 F2750
G1 X179.4335 Y157.9365 Z-19.0000 F2750
G1 X179.9789 Y158.0490 Z-19.0000 F2750
G1 X180.5198 Y158.2435 Z-19.0000 F2750
G1 X181.0378 Y158.5202 Z-19.0000 F2750
G1 X181.5147 Y158.8740 Z-19.0000 F2750
G1 X181.9339 Y159.2945 Z-19.0000 F2750
G1 X182.2827 Y159.7670 Z-19.0000 F2750
G1 X182.5535 Y160.2740 Z-19.0000 F2750
G1 X182.7439 Y160.7974 Z-19.0000 F2750
G1 X182.8567 Y161.3202 Z-19.0000 F2750
G1 X182.9065 Y162.1097 Z-19.0000 F2750
G1 X182.8989 Y162.9007 Z-19.0000 F2750
G1 X184.9008 Y162.9007 Z-19.0000 F2750
G1 X184.9008 Y142.8987 Z-19.0000 F2750
G1 X182.8989 Y142.8987 Z-19.0000 F2750
G1 X182.9065 Y143.6898 Z-19.0000 F2750
G1 X182.8567 Y144.4793 Z-19.0000 F2750
G1 X182.7439 Y145.0021 Z-19.0000 F2750
G1 X182.5535 Y145.5254 Z-19.0000 F2750
G1 X182.2827 Y146.0324 Z-19.0000 F2750
G1 X181.9339 Y146.5049 Z-19.0000 F2750
G1 X181.5147 Y146.9254 Z-19.0000 F2750
G1 X181.0378 Y147.2792 Z-19.0000 F2750
G1 X180.5198 Y147.5559 Z-19.0000 F2750
G1 X179.9789 Y147.7504 Z-19.0000 F2750
G1 X179.4335 Y147.8630 Z-19.0000 F2750
G1 X178.8999 Y147.8987 Z-19.0000 F2750
G1 X126.8999 Y147.8987 Z-19.0000 F2750
G1 X126.3663 Y147.8630 Z-19.0000 F2750
G1 X125.8208 Y147.7504 Z-19.0000 F2750
G1 X125.2800 Y147.5559 Z-19.0000 F2750
G1 X124.7619 Y147.2792 Z-19.0000 F2750
G1 X124.2851 Y146.9254 Z-19.0000 F2750
G1 X123.8659 Y146.5049 Z-19.0000 F2750
G1 X123.5170 Y146.0324 Z-19.0000 F2750
G1 X123.2462 Y145.5254 Z-19.0000 F2750
G1 X123.0558 Y145.0021 Z-19.0000 F2750
G1 X122.9431 Y144.4793 Z-19.0000 F2750
G1 X122.8932 Y143.6898 Z-19.0000 F2750
G1 X122.9009 Y142.8987 Z-19.0000 F2750
G1 X120.8989 Y142.8987 Z-19.0000 F2750
G1 X120.8989 Y162.9007 Z-19.0000 F2750
G1 X122.9009 Y162.9007 Z-19.0000 F2750
G1 X122.8932 Y162.1097 Z-19.0000 F2750
G1 X122.9431 Y161.3202 Z-19.0000 F2750
G1 X123.0558 Y160.7974 Z-19.0000 F2750
G1 X123.2462 Y160.2740 Z-19.0000 F2750
G1 X123.5170 Y159.7670 Z-19.0000 F2750
G1 X123.8659 Y159.2945 Z-19.0000 F2750
G1 X124.2851 Y158.8740 Z-19.0000 F2750
G1 X124.7619 Y158.5202 Z-19.0000 F2750
G1 X125.2800 Y158.2435 Z-19.0000 F2750
G1 X125.8208 Y158.0490 Z-19.0000 F2750
G1 X126.3663 Y157.9365 Z-19.0000 F2750
G1 X126.8999 Y157.9007 Z-19.0000 F2750
G1 X152.8999 Y157.9007 Z-19.0000 F2750
G1 X152.8999 Y157.9007 Z10.0000 F9999
G1 X147.8989 Y243.3995 Z10.0000 F9999
G1 X147.8989 Y243.3995 Z1.0000 F2000
G1 X147.8989 Y282.3707 Z-9.0000 F2000
G1 X147.8989 Y243.3995 Z-19.0000 F2000
G1 X147.8989 Y302.8994 Z-19.0000 F2750
G1 X147.8509 Y303.5173 Z-19.0000 F2750
G1 X147.7044 Y304.1314 Z-19.0000 F2750
G1 X147.4612 Y304.7184 Z-19.0000 F2750
G1 X147.1305 Y305.2563 Z-19.0000 F2750
G1 X146.7276 Y305.7271 Z-19.0000 F2750
G1 X146.2567 Y306.1301 Z-19.0000 F2750
G1 X145.7189 Y306.4607 Z-19.0000 F2750
G1 X145.1319 Y306.7039 Z-19.0000 F2750
G1 X144.5177 Y306.8504 Z-19.0000 F2750
G1 X143.8999 Y306.8984 Z-19.0000 F2750
G1 X141.8989 Y306.9004 Z-19.0000 F2750
G1 X163.9009 Y306.8984 Z-19.0000 F2750
G1 X161.8999 Y306.8984 Z-19.0000 F2750
G1 X161.3203 Y306.8562 Z-19.0000 F2750
G1 X160.7249 Y306.7219 Z-19.0000 F2750
G1 X160.1352 Y306.4880 Z-19.0000 F2750
G1 X159.5760 Y306.1539 Z-19.0000 F2750
G1 X159.0722 Y305.7271 Z-19.0000 F2750
G1 X158.6454 Y305.2232 Z-19.0000 F2750
G1 X158.3113 Y304.6640 Z-19.0000 F2750
G1 X158.0774 Y304.0743 Z-19.0000 F2750
G1 X157.9431 Y303.4789 Z-19.0000 F2750
G1 X157.9009 Y302.8994 Z-19.0000 F2750
G1 X157.9009 Y183.8997 Z-19.0000 F2750
G1 X157.9431 Y183.3201 Z-19.0000 F2750
G1 X158.0774 Y182.7247 Z-19.0000 F2750
G1 X158.3113 Y182.1351 Z-19.0000 F2750
G1 X158.6454 Y181.5758 Z-19.0000 F2750
G1 X159.0722 Y181.0720 Z-19.0000 F2750
G1 X159.5760 Y180.6452 Z-19.0000 F2750
G1 X160.1352 Y180.3111 Z-19.0000 F2750
G1 X160.7249 Y180.0772 Z-19.0000 F2750
G1 X161.3203 Y179.9429 Z-19.0000 F2750
G1 X161.8999 Y179.9007 Z-19.0000 F2750
G1 X163.9009 Y179.9007 Z-19.0000 F2750
G1 X141.8989 Y179.8987 Z-19.0000 F2750
G1 X143.8999 Y179.9007 Z-19.0000 F2750
G1 X144.5177 Y179.9487 Z-19.0000 F2750
G1 X145.1319 Y180.0952 Z-19.0000 F2750
G1 X145.7189 Y180.3383 Z-19.0000 F2750
G1 X146.2567 Y180.6690 Z-19.0000 F2750
G1 X146.7276 Y181.0720 Z-19.0000 F2750
G1 X147.1305 Y181.5428 Z-19.0000 F2750
G1 X147.4612 Y182.0807 Z-19.0000 F2750
G1 X147.7044 Y182.6677 Z-19.0000 F2750
G1 X147.8509 Y183.2818 Z-19.0000 F2750
G1 X147.8989 Y183.8997 Z-19.0000 F2750
G1 X147.8989 Y243.3995 Z-19.0000 F2750
G1 X147.8989 Y243.3995 Z10.0000 F9999
G1 X31.8990 Y453.8996 Z10.0000 F9999
G1 X31.8990 Y453.8996 Z1.0000 F2000
G1 X31.8990 Y484.9000 Z-6.9547 F2000
G1 X31.9010 Y482.8990 Z-7.4682 F2000
G1 X31.9490 Y482.2811 Z-7.6272 F2000
G1 X32.0955 Y481.6669 Z-7.7892 F2000
G1 X32.3387 Y481.0800 Z-7.9522 F2000
G1 X32.6693 Y480.5421 Z-8.1142 F2000
G1 X33.0723 Y480.0712 Z-8.2733 F2000
G1 X33.5431 Y479.6683 Z-8.4323 F2000
G1 X34.0810 Y479.3376 Z-8.5943 F2000
G1 X34.6680 Y479.0945 Z-8.7573 F2000
G1 X35.2821 Y478.9480 Z-8.9193 F2000
G1 X35.5955 Y478.9236 Z-9.0000 F2000
G1 X35.2821 Y478.9480 Z-9.0807 F2000
G1 X34.6680 Y479.0945 Z-9.2427 F2000
G1 X34.0810 Y479.3376 Z-9.4057 F2000
G1 X33.5431 Y479.6683 Z-9.5677 F2000
G1 X33.0723 Y480.0712 Z-9.7267 F2000
G1 X32.6693 Y480.5421 Z-9.8858 F2000
G1 X32.3387 Y481.0800 Z-10.0478 F2000
G1 X32.0955 Y481.6669 Z-10.2108 F2000
G1 X31.9490 Y482.2811 Z-10.3728 F2000
G1 X31.9010 Y482.8990 Z-10.5318 F2000
G1 X31.8990 Y484.9000 Z-11.0453 F2000
G1 X31.8990 Y453.8996 Z-19.0000 F2000
G1 X31.8990 Y484.9000 Z-19.0000 F2750
G1 X31.9010 Y482.8990 Z-19.0000 F2750
G1 X31.9490 Y482.2811 Z-19.0000 F2750
G1 X32.0955 Y481.6669 Z-19.0000 F2750
G1 X32.3387 Y481.0800 Z-19.0000 F2750
G1 X32.6693 Y480.5421 Z-19.0000 F2750
G1 X33.0723 Y480.0712 Z-19.0000 F2750
G1 X33.5431 Y479.6683 Z-19.0000 F2750
G1 X34.0810 Y479.3376 Z-19.0000 F2750
G1 X34.6680 Y479.0945 Z-19.0000 F2750
G1 X35.2821 Y478.9480 Z-19.0000 F2750
G1 X35.9000 Y478.9000 Z-19.0000 F2750
G1 X47.9010 Y478.9000 Z-19.0000 F2750
G1 X45.9000 Y478.8980 Z-19.0000 F2750
G1 X45.3204 Y478.8557 Z-19.0000 F2750
G1 X44.7250 Y478.7215 Z-19.0000 F2750
G1 X44.1353 Y478.4876 Z-19.0000 F2750
G1 X43.5761 Y478.1535 Z-19.0000 F2750
G1 X43.0722 Y477.7267 Z-19.0000 F2750
G1 X42.6455 Y477.2228 Z-19.0000 F2750
G1 X42.3114 Y476.6636 Z-19.0000 F2750
G1 X42.0775 Y476.0739 Z-19.0000 F2750
G1 X41.9432 Y475.4785 Z-19.0000 F2750
G1 X41.9010 Y474.8990 Z-19.0000 F2750
G1 X41.9010 Y430.8992 Z-19.0000 F2750
G1 X41.9490 Y430.2813 Z-19.0000 F2750
G1 X42.0955 Y429.6672 Z-19.0000 F2750
G1 X42.3386 Y429.0802 Z-19.0000 F2750
G1 X42.6693 Y428.5423 Z-19.0000 F2750
G1 X43.0722 Y428.0715 Z-19.0000 F2750
G1 X43.5431 Y427.6685 Z-19.0000 F2750
G1 X44.0810 Y427.3379 Z-19.0000 F2750
G1 X44.6680 Y427.0947 Z-19.0000 F2750
G1 X45.2821 Y426.9482 Z-19.0000 F2750
G1 X45.9000 Y426.9002 Z-19.0000 F2750
G1 X47.9010 Y426.9002 Z-19.0000 F2750
G1 X35.9000 Y426.8982 Z-19.0000 F2750
G1 X35.3205 Y426.8560 Z-19.0000 F2750
G1 X34.7250 Y426.7217 Z-19.0000 F2750
G1 X34.1354 Y426.4878 Z-19.0000 F2750
G1 X33.5761 Y426.1537 Z-19.0000 F2750
G1 X33.0723 Y425.7269 Z-19.0000 F2750
G1 X32.6455 Y425.2231 Z-19.0000 F2750
G1 X32.3114 Y424.6638 Z-19.0000 F2750
G1 X32.0775 Y424.0742 Z-19.0000 F2750
G1 X31.9432 Y423.4787 Z-19.0000 F2750
G1 X31.9010 Y422.8992 Z-19.0000 F2750
G1 X31.9010 Y420.8982 Z-19.0000 F2750
G1 X31.8918 Y437.3989 Z-19.0000 F2750
G1 X31.8990 Y453.8996 Z-19.0000 F2750
G1 X31.8990 Y453.8996 Z10.0000 F9999
G1 X273.9005 Y451.8986 Z10.0000 F9999
G1 X273.9005 Y451.8986 Z1.0000 F2000
G1 X273.9005 Y420.8982 Z-6.9547 F2000
G1 X273.8985 Y422.8992 Z-7.4682 F2000
G1 X273.8505 Y423.5171 Z-7.6272 F2000
G1 X273.7040 Y424.1312 Z-7.7892 F2000
G1 X273.4608 Y424.7182 Z-7.9522 F2000
G1 X273.1302 Y425.2561 Z-8.1142 F2000
G1 X272.7272 Y425.7269 Z-8.2733 F2000
G1 X272.2563 Y426.1299 Z-8.4323 F2000
G1 X271.7185 Y426.4606 Z-8.5943 F2000
G1 X271.1315 Y426.7037 Z-8.7573 F2000
G1 X270.5174 Y426.8502 Z-8.9193 F2000
G1 X270.2040 Y426.8745 Z-9.0000 F2000
G1 X270.5174 Y426.8502 Z-9.0807 F2000
G1 X271.1315 Y426.7037 Z-9.2427 F2000
G1 X271.7185 Y426.4606 Z-9.4057 F2000
G1 X272.2563 Y426.1299 Z-9.5677 F2000
G1 X272.7272 Y425.7269 Z-9.7267 F2000
G1 X273.1302 Y425.2561 Z-9.8858 F2000
G1 X273.4608 Y424.7182 Z-10.0478 F2000
G1 X273.7040 Y424.1312 Z-10.2108 F2000
G1 X273.8505 Y423.5171 Z-10.3728 F2000
G1 X273.8985 Y422.8992 Z-10.5318 F2000
G1 X273.9005 Y420.8982 Z-11.0453 F2000
G1 X273.9005 Y451.8986 Z-19.0000 F2000
G1 X273.9005 Y420.8982 Z-19.0000 F2750
G1 X273.8985 Y422.8992 Z-19.0000 F2750
G1 X273.8505 Y423.5171 Z-19.0000 F2750
G1 X273.7040 Y424.1312 Z-19.0000 F2750
G1 X273.4608 Y424.7182 Z-19.0000 F2750
G1 X273.1302 Y425.2561 Z-19.0000 F2750
G1 X272.7272 Y425.7269 Z-19.0000 F2750
G1 X272.2563 Y426.1299 Z-19.0000 F2750
G1 X271.7185 Y426.4606 Z-19.0000 F2750
G1 X271.1315 Y426.7037 Z-19.0000 F2750
G1 X270.5174 Y426.8502 Z-19.0000 F2750
G1 X269.8995 Y426.8982 Z-19.0000 F2750
G1 X257.8985 Y426.8982 Z-19.0000 F2750
G1 X259.8995 Y426.9002 Z-19.0000 F2750
G1 X260.5174 Y426.9482 Z-19.0000 F2750
G1 X261.1315 Y427.0947 Z-19.0000 F2750
G1 X261.7185 Y427.3379 Z-19.0000 F2750
G1 X262.2564 Y427.6685 Z-19.0000 F2750
G1 X262.7272 Y428.0715 Z-19.0000 F2750
G1 X263.1302 Y428.5423 Z-19.0000 F2750
G1 X263.4609 Y429.0802 Z-19.0000 F2750
G1 X263.7040 Y429.6672 Z-19.0000 F2750
G1 X263.8505 Y430.2813 Z-19.0000 F2750
G1 X263.8985 Y430.8992 Z-19.0000 F2750
G1 X263.8985 Y474.8990 Z-19.0000 F2750
G1 X263.8563 Y475.4785 Z-19.0000 F2750
G1 X263.7220 Y476.0739 Z-19.0000 F2750
G1 X263.4881 Y476.6636 Z-19.0000 F2750
G1 X263.1540 Y477.2228 Z-19.0000 F2750
G1 X262.7272 Y477.7267 Z-19.0000 F2750
G1 X262.2234 Y478.1535 Z-19.0000 F2750
G1 X261.6641 Y478.4876 Z-19.0000 F2750
G1 X261.0745 Y478.7215 Z-19.0000 F2750
G1 X260.4790 Y478.8557 Z-19.0000 F2750
G1 X259.8995 Y478.8980 Z-19.0000 F2750
G1 X257.8985 Y478.8980 Z-19.0000 F2750
G1 X269.8995 Y478.9000 Z-19.0000 F2750
G1 X270.4790 Y478.9422 Z-19.0000 F2750
G1 X271.0744 Y479.0765 Z-19.0000 F2750
G1 X271.6641 Y479.3104 Z-19.0000 F2750
G1 X272.2233 Y479.6445 Z-19.0000 F2750
G1 X272.7272 Y480.0712 Z-19.0000 F2750
G1 X273.1540 Y480.5751 Z-19.0000 F2750
G1 X273.4881 Y481.1343 Z-19.0000 F2750
G1 X273.7220 Y481.7240 Z-19.0000 F2750
G1 X273.8563 Y482.3194 Z-19.0000 F2750
G1 X273.8985 Y482.8990 Z-19.0000 F2750
G1 X273.8985 Y484.9000 Z-19.0000 F2750
G1 X273.9077 Y468.3993 Z-19.0000 F2750
G1 X273.9005 Y451.8986 Z-19.0000 F2750
G1 X273.9005 Y451.8986 Z10.0000 F9999
G1 X453.8997 Y273.9005 Z10.0000 F9999
G1 X453.8997 Y273.9005 Z1.0000 F2000
G1 X484.9001 Y273.9005 Z-6.9547 F2000
G1 X482.8991 Y273.8985 Z-7.4682 F2000
G1 X482.3196 Y273.8562 Z-7.6173 F2000
G1 X481.7241 Y273.7219 Z-7.7739 F2000
G1 X481.1345 Y273.4881 Z-7.9367 F2000
G1 X480.5752 Y273.1539 Z-8.1038 F2000
G1 X480.0714 Y272.7272 Z-8.2733 F2000
G1 X479.6446 Y272.2233 Z-8.4427 F2000
G1 X479.3105 Y271.6641 Z-8.6099 F2000
G1 X479.0766 Y271.0744 Z-8.7726 F2000
G1 X478.9423 Y270.4790 Z-8.9293 F2000
G1 X478.9223 Y270.2040 Z-9.0000 F2000
G1 X478.9423 Y270.4790 Z-9.0707 F2000
G1 X479.0766 Y271.0744 Z-9.2274 F2000
G1 X479.3105 Y271.6641 Z-9.3901 F2000
G1 X479.6446 Y272.2233 Z-9.5573 F2000
G1 X480.0714 Y272.7272 Z-9.7267 F2000
G1 X480.5752 Y273.1539 Z-9.8962 F2000
G1 X481.1345 Y273.4881 Z-10.0633 F2000
G1 X481.7241 Y273.7219 Z-10.2261 F2000
G1 X482.3196 Y273.8562 Z-10.3827 F2000
G1 X482.8991 Y273.8985 Z-10.5318 F2000
G1 X484.9001 Y273.9005 Z-11.0453 F2000
G1 X453.8997 Y273.9005 Z-19.0000 F2000
G1 X484.9001 Y273.9005 Z-19.0000 F2750
G1 X482.8991 Y273.8985 Z-19.0000 F2750
G1 X482.3196 Y273.8562 Z-19.0000 F2750
G1 X481.7241 Y273.7219 Z-19.0000 F2750
G1 X481.1345 Y273.4881 Z-19.0000 F2750
G1 X480.5752 Y273.1539 Z-19.0000 F2750
G1 X480.0714 Y272.7272 Z-19.0000 F2750
G1 X479.6446 Y272.2233 Z-19.0000 F2750
G1 X479.3105 Y271.6641 Z-19.0000 F2750
G1 X479.0766 Y271.0744 Z-19.0000 F2750
G1 X478.9423 Y270.4790 Z-19.0000 F2750
G1 X478.9001 Y269.8995 Z-19.0000 F2750
G1 X478.9001 Y257.8985 Z-19.0000 F2750
G1 X478.8981 Y259.8995 Z-19.0000 F2750
G1 X478.8559 Y260.4790 Z-19.0000 F2750
G1 X478.7216 Y261.0744 Z-19.0000 F2750
G1 X478.4877 Y261.6641 Z-19.0000 F2750
G1 X478.1536 Y262.2233 Z-19.0000 F2750
G1 X477.7268 Y262.7272 Z-19.0000 F2750
G1 X477.2229 Y263.1540 Z-19.0000 F2750
G1 X476.6637 Y263.4881 Z-19.0000 F2750
G1 X476.0740 Y263.7220 Z-19.0000 F2750
G1 X475.4786 Y263.8563 Z-19.0000 F2750
G1 X474.8991 Y263.8985 Z-19.0000 F2750
G1 X430.8993 Y263.8985 Z-19.0000 F2750
G1 X430.3198 Y263.8563 Z-19.0000 F2750
G1 X429.7244 Y263.7220 Z-19.0000 F2750
G1 X429.1347 Y263.4881 Z-19.0000 F2750
G1 X428.5755 Y263.1540 Z-19.0000 F2750
G1 X428.0716 Y262.7272 Z-19.0000 F2750
G1 X427.6448 Y262.2233 Z-19.0000 F2750
G1 X427.3107 Y261.6641 Z-19.0000 F2750
G1 X427.0768 Y261.0744 Z-19.0000 F2750
G1 X426.9425 Y260.4790 Z-19.0000 F2750
G1 X426.9003 Y259.8995 Z-19.0000 F2750
G1 X426.9003 Y257.8985 Z-19.0000 F2750
G1 X426.8983 Y269.8995 Z-19.0000 F2750
G1 X426.8503 Y270.5173 Z-19.0000 F2750
G1 X426.7038 Y271.1315 Z-19.0000 F2750
G1 X426.4607 Y271.7185 Z-19.0000 F2750
G1 X426.1300 Y272.2563 Z-19.0000 F2750
G1 X425.7270 Y272.7272 Z-19.0000 F2750
G1 X425.2562 Y273.1301 Z-19.0000 F2750
G1 X424.7183 Y273.4608 Z-19.0000 F2750
G1 X424.1313 Y273.7039 Z-19.0000 F2750
G1 X423.5172 Y273.8504 Z-19.0000 F2750
G1 X422.8993 Y273.8985 Z-19.0000 F2750
G1 X420.8983 Y273.8985 Z-19.0000 F2750
G1 X437.3990 Y273.9077 Z-19.0000 F2750
G1 X453.8997 Y273.9005 Z-19.0000 F2750
G1 X453.8997 Y273.9005 Z10.0000 F9999
G1 X457.9001 Y152.8997 Z10.0000 F9999
G1 X457.9001 Y152.8997 Z1.0000 F2000
G1 X457.9001 Y126.8998 Z-5.6716 F2000
G1 X457.9359 Y126.3662 Z-5.8088 F2000
G1 X458.0485 Y125.8207 Z-5.9517 F2000
G1 X458.2429 Y125.2798 Z-6.0992 F2000
G1 X458.5196 Y124.7618 Z-6.2499 F2000
G1 X458.8735 Y124.2850 Z-6.4023 F2000
G1 X459.2940 Y123.8658 Z-6.5546 F2000
G1 X459.7665 Y123.5169 Z-6.7053 F2000
G1 X460.2734 Y123.2461 Z-6.8528 F2000
G1 X460.7968 Y123.0557 Z-6.9957 F2000
G1 X461.3196 Y122.9430 Z-7.1330 F2000
G1 X462.1091 Y122.8931 Z-7.3360 F2000
G1 X462.9001 Y122.9008 Z-7.5390 F2000
G1 X462.9001 Y120.8988 Z-8.0527 F2000
G1 X459.2083 Y120.8988 Z-9.0000 F2000
G1 X462.9001 Y120.8988 Z-9.9473 F2000
G1 X462.9001 Y122.9008 Z-10.4610 F2000
G1 X462.1091 Y122.8931 Z-10.6640 F2000
G1 X461.3196 Y122.9430 Z-10.8670 F2000
G1 X460.7968 Y123.0557 Z-11.0043 F2000
G1 X460.2734 Y123.2461 Z-11.1472 F2000
G1 X459.7665 Y123.5169 Z-11.2947 F2000
G1 X459.2940 Y123.8658 Z-11.4454 F2000
G1 X458.8735 Y124.2850 Z-11.5977 F2000
G1 X458.5196 Y124.7618 Z-11.7501 F2000
G1 X458.2429 Y125.2798 Z-11.9008 F2000
G1 X458.0485 Y125.8207 Z-12.0483 F2000
G1 X457.9359 Y126.3662 Z-12.1912 F2000
G1 X457.9001 Y126.8998 Z-12.3284 F2000
G1 X457.9001 Y152.8997 Z-19.0000 F2000
G1 X457.9001 Y126.8998 Z-19.0000 F2750
G1 X457.9359 Y126.3662 Z-19.0000 F2750
G1 X458.0485 Y125.8207 Z-19.0000 F2750
G1 X458.2429 Y125.2798 Z-19.0000 F2750
G1 X458.5196 Y124.7618 Z-19.0000 F2750
G1 X458.8735 Y124.2850 Z-19.0000 F2750
G1 X459.2940 Y123.8658 Z-19.0000 F2750
G1 X459.7665 Y123.5169 Z-19.0000 F2750
G1 X460.2734 Y123.2461 Z-19.0000 F2750
G1 X460.7968 Y123.0557 Z-19.0000 F2750
G1 X461.3196 Y122.9430 Z-19.0000 F2750
G1 X462.1091 Y122.8931 Z-19.0000 F2750
G1 X462.9001 Y122.9008 Z-19.0000 F2750
G1 X462.9001 Y120.8988 Z-19.0000 F2750
G1 X442.8983 Y120.8988 Z-19.0000 F2750
G1 X442.8983 Y122.9008 Z-19.0000 F2750
G1 X443.6893 Y122.8931 Z-19.0000 F2750
G1 X444.4788 Y122.9430 Z-19.0000 F2750
G1 X445.0016 Y123.0557 Z-19.0000 F2750
G1 X445.5250 Y123.2461 Z-19.0000 F2750
G1 X446.0319 Y123.5169 Z-19.0000 F2750
G1 X446.5044 Y123.8658 Z-19.0000 F2750
G1 X446.9250 Y124.2850 Z-19.0000 F2750
G1 X447.2788 Y124.7618 Z-19.0000 F2750
G1 X447.5555 Y125.2798 Z-19.0000 F2750
G1 X447.7499 Y125.8207 Z-19.0000 F2750
G1 X447.8625 Y126.3662 Z-19.0000 F2750
G1 X447.8983 Y126.8998 Z-19.0000 F2750
G1 X447.8983 Y178.8997 Z-19.0000 F2750
G1 X447.8625 Y179.4333 Z-19.0000 F2750
G1 X447.7499 Y179.9787 Z-19.0000 F2750
G1 X447.5555 Y180.5196 Z-19.0000 F2750
G1 X447.2788 Y181.0376 Z-19.0000 F2750
G1 X446.9250 Y181.5145 Z-19.0000 F2750
G1 X446.5044 Y181.9337 Z-19.0000 F2750
G1 X446.0319 Y182.2825 Z-19.0000 F2750
G1 X445.5250 Y182.5533 Z-19.0000 F2750
G1 X445.0016 Y182.7437 Z-19.0000 F2750
G1 X444.4788 Y182.8564 Z-19.0000 F2750
G1 X443.6893 Y182.9063 Z-19.0000 F2750
G1 X442.8983 Y182.8987 Z-19.0000 F2750
G1 X442.8983 Y184.9006 Z-19.0000 F2750
G1 X462.9001 Y184.9006 Z-19.0000 F2750
G1 X462.9001 Y182.8987 Z-19.0000 F2750
G1 X462.1091 Y182.9063 Z-19.0000 F2750
G1 X461.3196 Y182.8564 Z-19.0000 F2750
G1 X460.7968 Y182.7437 Z-19.0000 F2750
G1 X460.2734 Y182.5533 Z-19.0000 F2750
G1 X459.7665 Y182.2825 Z-19.0000 F2750
G1 X459.2940 Y181.9337 Z-19.0000 F2750
G1 X458.8735 Y181.5145 Z-19.0000 F2750
G1 X458.5196 Y181.0376 Z-19.0000 F2750
G1 X458.2429 Y180.5196 Z-19.0000 F2750
G1 X458.0485 Y179.9787 Z-19.0000 F2750
G1 X457.9359 Y179.4333 Z-19.0000 F2750
G1 X457.9001 Y178.8997 Z-19.0000 F2750
G1 X457.9001 Y152.8997 Z-19.0000 F2750
G1 X457.9001 Y152.8997 Z10.0000 F9999
G1 X451.8987 Y31.8990 Z10.0000 F9999
G1 X451.8987 Y31.8990 Z1.0000 F2000
G1 X420.8983 Y31.8990 Z-6.9547 F2000
G1 X422.8993 Y31.9010 Z-7.4682 F2000
G1 X423.5172 Y31.9490 Z-7.6272 F2000
G1 X424.1313 Y32.0955 Z-7.7892 F2000
G1 X424.7183 Y32.3386 Z-7.9522 F2000
G1 X425.2562 Y32.6693 Z-8.1142 F2000
G1 X425.7270 Y33.0722 Z-8.2733 F2000
G1 X426.1300 Y33.5431 Z-8.4323 F2000
G1 X426.4607 Y34.0810 Z-8.5943 F2000
G1 X426.7038 Y34.6679 Z-8.7573 F2000
G1 X426.8503 Y35.2821 Z-8.9193 F2000
G1 X426.8747 Y35.5955 Z-9.0000 F2000
G1 X426.8503 Y35.2821 Z-9.0807 F2000
G1 X426.7038 Y34.6679 Z-9.2427 F2000
G1 X426.4607 Y34.0810 Z-9.4057 F2000
G1 X426.1300 Y33.5431 Z-9.5677 F2000
G1 X425.7270 Y33.0722 Z-9.7267 F2000
G1 X425.2562 Y32.6693 Z-9.8858 F2000
G1 X424.7183 Y32.3386 Z-10.0478 F2000
G1 X424.1313 Y32.0955 Z-10.2108 F2000
G1 X423.5172 Y31.9490 Z-10.3728 F2000
G1 X422.8993 Y31.9010 Z-10.5318 F2000
G1 X420.8983 Y31.8990 Z-11.0453 F2000
G1 X451.8987 Y31.8990 Z-19.0000 F2000
G1 X420.8983 Y31.8990 Z-19.0000 F2750
G1 X422.8993 Y31.9010 Z-19.0000 F2750
G1 X423.5172 Y31.9490 Z-19.0000 F2750
G1 X424.1313 Y32.0955 Z-19.0000 F2750
G1 X424.7183 Y32.3386 Z-19.0000 F2750
G1 X425.2562 Y32.6693 Z-19.0000 F2750
G1 X425.7270 Y33.0722 Z-19.0000 F2750
G1 X426.1300 Y33.5431 Z-19.0000 F2750
G1 X426.4607 Y34.0810 Z-19.0000 F2750
G1 X426.7038 Y34.6679 Z-19.0000 F2750
G1 X426.8503 Y35.2821 Z-19.0000 F2750
G1 X426.8983 Y35.9000 Z-19.0000 F2750
G1 X426.8983 Y47.9009 Z-19.0000 F2750
G1 X426.9003 Y45.8999 Z-19.0000 F2750
G1 X426.9425 Y45.3204 Z-19.0000 F2750
G1 X427.0768 Y44.7250 Z-19.0000 F2750
G1 X427.3107 Y44.1353 Z-19.0000 F2750
G1 X427.6448 Y43.5761 Z-19.0000 F2750
G1 X428.0716 Y43.0722 Z-19.0000 F2750
G1 X428.5755 Y42.6454 Z-19.0000 F2750
G1 X429.1347 Y42.3113 Z-19.0000 F2750
G1 X429.7244 Y42.0774 Z-19.0000 F2750
G1 X430.3198 Y41.9432 Z-19.0000 F2750
G1 X430.8993 Y41.9009 Z-19.0000 F2750
G1 X474.8991 Y41.9009 Z-19.0000 F2750
G1 X475.5170 Y41.9490 Z-19.0000 F2750
G1 X476.1311 Y42.0954 Z-19.0000 F2750
G1 X476.7181 Y42.3386 Z-19.0000 F2750
G1 X477.2559 Y42.6693 Z-19.0000 F2750
G1 X477.7268 Y43.0722 Z-19.0000 F2750
G1 X478.1297 Y43.5431 Z-19.0000 F2750
G1 X478.4604 Y44.0809 Z-19.0000 F2750
G1 X478.7036 Y44.6679 Z-19.0000 F2750
G1 X478.8501 Y45.2821 Z-19.0000 F2750
G1 X478.8981 Y45.8999 Z-19.0000 F2750
G1 X478.8981 Y47.9009 Z-19.0000 F2750
G1 X478.9001 Y35.9000 Z-19.0000 F2750
G1 X478.9423 Y35.3204 Z-19.0000 F2750
G1 X479.0766 Y34.7250 Z-19.0000 F2750
G1 X479.3105 Y34.1353 Z-19.0000 F2750
G1 X479.6446 Y33.5761 Z-19.0000 F2750
G1 X480.0714 Y33.0722 Z-19.0000 F2750
G1 X480.5752 Y32.6455 Z-19.0000 F2750
G1 X481.1345 Y32.3114 Z-19.0000 F2750
G1 X481.7241 Y32.0775 Z-19.0000 F2750
G1 X482.3196 Y31.9432 Z-19.0000 F2750
G1 X482.8991 Y31.9010 Z-19.0000 F2750
G1 X484.9001 Y31.9010 Z-19.0000 F2750
G1 X468.3994 Y31.8917 Z-19.0000 F2750
G1 X451.8987 Y31.8990 Z-19.0000 F2750
G1 X451.8987 Y31.8990 Z10.0000 F9999
G1 X751.8982 Y31.8990 Z10.0000 F9999
G1 X751.8982 Y31.8990 Z1.0000 F2000
G1 X720.8978 Y31.8990 Z-6.9547 F2000
G1 X722.8988 Y31.9010 Z-7.4682 F2000
G1 X723.5167 Y31.9490 Z-7.6272 F2000
G1 X724.1308 Y32.0955 Z-7.7892 F2000
G1 X724.7178 Y32.3386 Z-7.9522 F2000
G1 X725.2556 Y32.6693 Z-8.1142 F2000
G1 X725.7265 Y33.0722 Z-8.2733 F2000
G1 X726.1294 Y33.5431 Z-8.4323 F2000
G1 X726.4601 Y34.0810 Z-8.5943 F2000
G1 X726.7033 Y34.6679 Z-8.7573 F2000
G1 X726.8498 Y35.2821 Z-8.9193 F2000
G1 X726.8741 Y35.5955 Z-9.0000 F2000
G1 X726.8498 Y35.2821 Z-9.0807 F2000
G1 X726.7033 Y34.6679 Z-9.2427 F2000
G1 X726.4601 Y34.0810 Z-9.4057 F2000
G1 X726.1294 Y33.5431 Z-9.5677 F2000
G1 X725.7265 Y33.0722 Z-9.7267 F2000
G1 X725.2556 Y32.6693 Z-9.8858 F2000
G1 X724.7178 Y32.3386 Z-10.0478 F2000
G1 X724.1308 Y32.0955 Z-10.2108 F2000
G1 X723.5167 Y31.9490 Z-10.3728 F2000
G1 X722.8988 Y31.9010 Z-10.5318 F2000
G1 X720.8978 Y31.8990 Z-11.0453 F2000
G1 X751.8982 Y31.8990 Z-19.0000 F2000
G1 X720.8978 Y31.8990 Z-19.0000 F2750
G1 X722.8988 Y31.9010 Z-19.0000 F2750
G1 X723.5167 Y31.9490 Z-19.0000 F2750
G1 X724.1308 Y32.0955 Z-19.0000 F2750
G1 X724.7178 Y32.3386 Z-19.0000 F2750
G1 X725.2556 Y32.6693 Z-19.0000 F2750
G1 X725.7265 Y33.0722 Z-19.0000 F2750
G1 X726.1294 Y33.5431 Z-19.0000 F2750
G1 X726.4601 Y34.0810 Z-19.0000 F2750
G1 X726.7033 Y34.6679 Z-19.0000 F2750
G1 X726.8498 Y35.2821 Z-19.0000 F2750
G1 X726.8978 Y35.9000 Z-19.0000 F2750
G1 X726.8978 Y47.9009 Z-19.0000 F2750
G1 X726.8998 Y45.8999 Z-19.0000 F2750
G1 X726.9420 Y45.3204 Z-19.0000 F2750
G1 X727.0763 Y44.7250 Z-19.0000 F2750
G1 X727.3102 Y44.1353 Z-19.0000 F2750
G1 X727.6443 Y43.5761 Z-19.0000 F2750
G1 X728.0711 Y43.0722 Z-19.0000 F2750
G1 X728.5749 Y42.6454 Z-19.0000 F2750
G1 X729.1342 Y42.3113 Z-19.0000 F2750
G1 X729.7238 Y42.0774 Z-19.0000 F2750
G1 X730.3192 Y41.9432 Z-19.0000 F2750
G1 X730.8988 Y41.9009 Z-19.0000 F2750
G1 X774.8985 Y41.9009 Z-19.0000 F2750
G1 X775.4781 Y41.9432 Z-19.0000 F2750
G1 X776.0735 Y42.0774 Z-19.0000 F2750
G1 X776.6632 Y42.3113 Z-19.0000 F2750
G1 X777.2224 Y42.6454 Z-19.0000 F2750
G1 X777.7263 Y43.0722 Z-19.0000 F2750
G1 X778.1530 Y43.5761 Z-19.0000 F2750
G1 X778.4871 Y44.1353 Z-19.0000 F2750
G1 X778.7210 Y44.7250 Z-19.0000 F2750
G1 X778.8553 Y45.3204 Z-19.0000 F2750
G1 X778.8975 Y45.8999 Z-19.0000 F2750
G1 X778.8975 Y47.9009 Z-19.0000 F2750
G1 X778.8995 Y35.9000 Z-19.0000 F2750
G1 X778.9476 Y35.2821 Z-19.0000 F2750
G1 X779.0940 Y34.6679 Z-19.0000 F2750
G1 X779.3372 Y34.0810 Z-19.0000 F2750
G1 X779.6679 Y33.5431 Z-19.0000 F2750
G1 X780.0708 Y33.0722 Z-19.0000 F2750
G1 X780.5417 Y32.6693 Z-19.0000 F2750
G1 X781.0795 Y32.3386 Z-19.0000 F2750
G1 X781.6665 Y32.0955 Z-19.0000 F2750
G1 X782.2807 Y31.9490 Z-19.0000 F2750
G1 X782.8985 Y31.9010 Z-19.0000 F2750
G1 X784.8995 Y31.9010 Z-19.0000 F2750
G1 X768.3988 Y31.8917 Z-19.0000 F2750
G1 X751.8982 Y31.8990 Z-19.0000 F2750
G1 X751.8982 Y31.8990 Z10.0000 F9999
G1 X753.8992 Y273.9005 Z10.0000 F9999
G1 X753.8992 Y273.9005 Z1.0000 F2000
G1 X784.8995 Y273.9005 Z-6.9547 F2000
G1 X782.8985 Y273.8985 Z-7.4682 F2000
G1 X782.3190 Y273.8562 Z-7.6173 F2000
G1 X781.7236 Y273.7219 Z-7.7739 F2000
G1 X781.1339 Y273.4881 Z-7.9367 F2000
G1 X780.5747 Y273.1539 Z-8.1038 F2000
G1 X780.0708 Y272.7272 Z-8.2733 F2000
G1 X779.6440 Y272.2233 Z-8.4427 F2000
G1 X779.3099 Y271.6641 Z-8.6099 F2000
G1 X779.0760 Y271.0744 Z-8.7726 F2000
G1 X778.9418 Y270.4790 Z-8.9293 F2000
G1 X778.9217 Y270.2040 Z-9.0000 F2000
G1 X778.9418 Y270.4790 Z-9.0707 F2000
G1 X779.0760 Y271.0744 Z-9.2274 F2000
G1 X779.3099 Y271.6641 Z-9.3901 F2000
G1 X779.6440 Y272.2233 Z-9.5573 F2000
G1 X780.0708 Y272.7272 Z-9.7267 F2000
G1 X780.5747 Y273.1539 Z-9.8962 F2000
G1 X781.1339 Y273.4881 Z-10.0633 F2000
G1 X781.7236 Y273.7219 Z-10.2261 F2000
G1 X782.3190 Y273.8562 Z-10.3827 F2000
G1 X782.8985 Y273.8985 Z-10.5318 F2000
G1 X784.8995 Y273.9005 Z-11.0453 F2000
G1 X753.8992 Y273.9005 Z-19.0000 F2000
G1 X784.8995 Y273.9005 Z-19.0000 F2750
G1 X782.8985 Y273.8985 Z-19.0000 F2750
G1 X782.3190 Y273.8562 Z-19.0000 F2750
G1 X781.7236 Y273.7219 Z-19.0000 F2750
G1 X781.1339 Y273.4881 Z-19.0000 F2750
G1 X780.5747 Y273.1539 Z-19.0000 F2750
G1 X780.0708 Y272.7272 Z-19.0000 F2750
G1 X779.6440 Y272.2233 Z-19.0000 F2750
G1 X779.3099 Y271.6641 Z-19.0000 F2750
G1 X779.0760 Y271.0744 Z-19.0000 F2750
G1 X778.9418 Y270.4790 Z-19.0000 F2750
G1 X778.8995 Y269.8995 Z-19.0000 F2750
G1 X778.8995 Y257.8985 Z-19.0000 F2750
G1 X778.8975 Y259.8995 Z-19.0000 F2750
G1 X778.8495 Y260.5174 Z-19.0000 F2750
G1 X778.7030 Y261.1315 Z-19.0000 F2750
G1 X778.4599 Y261.7185 Z-19.0000 F2750
G1 X778.1292 Y262.2563 Z-19.0000 F2750
G1 X777.7263 Y262.7272 Z-19.0000 F2750
G1 X777.2554 Y263.1301 Z-19.0000 F2750
G1 X776.7175 Y263.4608 Z-19.0000 F2750
G1 X776.1306 Y263.7040 Z-19.0000 F2750
G1 X775.5164 Y263.8505 Z-19.0000 F2750
G1 X774.8985 Y263.8985 Z-19.0000 F2750
G1 X730.8988 Y263.8985 Z-19.0000 F2750
G1 X730.3192 Y263.8563 Z-19.0000 F2750
G1 X729.7238 Y263.7220 Z-19.0000 F2750
G1 X729.1342 Y263.4881 Z-19.0000 F2750
G1 X728.5749 Y263.1540 Z-19.0000 F2750
G1 X728.0711 Y262.7272 Z-19.0000 F2750
G1 X727.6443 Y262.2233 Z-19.0000 F2750
G1 X727.3102 Y261.6641 Z-19.0000 F2750
G1 X727.0763 Y261.0744 Z-19.0000 F2750
G1 X726.9420 Y260.4790 Z-19.0000 F2750
G1 X726.8998 Y259.8995 Z-19.0000 F2750
G1 X726.8998 Y257.8985 Z-19.0000 F2750
G1 X726.8978 Y269.8995 Z-19.0000 F2750
G1 X726.8498 Y270.5173 Z-19.0000 F2750
G1 X726.7033 Y271.1315 Z-19.0000 F2750
G1 X726.4601 Y271.7185 Z-19.0000 F2750
G1 X726.1294 Y272.2563 Z-19.0000 F2750
G1 X725.7265 Y272.7272 Z-19.0000 F2750
G1 X725.2556 Y273.1301 Z-19.0000 F2750
G1 X724.7178 Y273.4608 Z-19.0000 F2750
G1 X724.1308 Y273.7039 Z-19.0000 F2750
G1 X723.5167 Y273.8504 Z-19.0000 F2750
G1 X722.8988 Y273.8985 Z-19.0000 F2750
G1 X720.8978 Y273.8985 Z-19.0000 F2750
G1 X737.3985 Y273.9077 Z-19.0000 F2750
G1 X753.8992 Y273.9005 Z-19.0000 F2750
G1 X753.8992 Y273.9005 Z10.0000 F9999
G1 X600.9974 Y352.9151 Z10.0000 F9999
G1 X600.9974 Y352.9151 Z1.0000 F2000
G1 X610.9984 Y352.9151 Z-1.5663 F2000
G1 X610.9984 Y350.9131 Z-2.0800 F2000
G1 X610.2074 Y350.9207 Z-2.2830 F2000
G1 X609.4179 Y350.8708 Z-2.4859 F2000
G1 X608.8951 Y350.7581 Z-2.6232 F2000
G1 X608.3717 Y350.5677 Z-2.7661 F2000
G1 X607.8647 Y350.2969 Z-2.9136 F2000
G1 X607.3922 Y349.9481 Z-3.0643 F2000
G1 X606.9717 Y349.5289 Z-3.2166 F2000
G1 X606.6179 Y349.0520 Z-3.3690 F2000
G1 X606.3412 Y348.5340 Z-3.5197 F2000
G1 X606.1467 Y347.9931 Z-3.6672 F2000
G1 X606.0342 Y347.4477 Z-3.8101 F2000
G1 X605.9984 Y346.9141 Z-3.9473 F2000
G1 X605.9984 Y327.9141 Z-8.8227 F2000
G1 X606.0342 Y327.3805 Z-8.9600 F2000
G1 X606.0657 Y327.2277 Z-9.0000 F2000
G1 X606.0342 Y327.3805 Z-9.0400 F2000
G1 X605.9984 Y327.9141 Z-9.1773 F2000
G1 X605.9984 Y346.9141 Z-14.0527 F2000
G1 X606.0342 Y347.4477 Z-14.1899 F2000
G1 X606.1467 Y347.9931 Z-14.3328 F2000
G1 X606.3412 Y348.5340 Z-14.4803 F2000
G1 X606.6179 Y349.0520 Z-14.6310 F2000
G1 X606.9717 Y349.5289 Z-14.7834 F2000
G1 X607.3922 Y349.9481 Z-14.9357 F2000
G1 X607.8647 Y350.2969 Z-15.0864 F2000
G1 X608.3717 Y350.5677 Z-15.2339 F2000
G1 X608.8951 Y350.7581 Z-15.3768 F2000
G1 X609.4179 Y350.8708 Z-15.5141 F2000
G1 X610.2074 Y350.9207 Z-15.7170 F2000
G1 X610.9984 Y350.9131 Z-15.9200 F2000
G1 X610.9984 Y352.9151 Z-16.4337 F2000
G1 X600.9974 Y352.9151 Z-19.0000 F2000
G1 X610.9984 Y352.9151 Z-19.0000 F2750
G1 X610.9984 Y350.9131 Z-19.0000 F2750
G1 X610.2074 Y350.9207 Z-19.0000 F2750
G1 X609.4179 Y350.8708 Z-19.0000 F2750
G1 X608.8951 Y350.7581 Z-19.0000 F2750
G1 X608.3717 Y350.5677 Z-19.0000 F2750
G1 X607.8647 Y350.2969 Z-19.0000 F2750
G1 X607.3922 Y349.9481 Z-19.0000 F2750
G1 X606.9717 Y349.5289 Z-19.0000 F2750
G1 X606.6179 Y349.0520 Z-19.0000 F2750
G1 X606.3412 Y348.5340 Z-19.0000 F2750
G1 X606.1467 Y347.9931 Z-19.0000 F2750
G1 X606.0342 Y347.4477 Z-19.0000 F2750
G1 X605.9984 Y346.9141 Z-19.0000 F2750
G1 X605.9984 Y327.9141 Z-19.0000 F2750
G1 X606.0342 Y327.3805 Z-19.0000 F2750
G1 X606.1467 Y326.8351 Z-19.0000 F2750
G1 X606.3412 Y326.2942 Z-19.0000 F2750
G1 X606.6179 Y325.7761 Z-19.0000 F2750
G1 X606.9717 Y325.2993 Z-19.0000 F2750
G1 X607.3922 Y324.8801 Z-19.0000 F2750
G1 X607.8647 Y324.5313 Z-19.0000 F2750
G1 X608.3717 Y324.2605 Z-19.0000 F2750
G1 X608.8951 Y324.0700 Z-19.0000 F2750
G1 X609.4179 Y323.9573 Z-19.0000 F2750
G1 X610.2074 Y323.9075 Z-19.0000 F2750
G1 X610.9984 Y323.9151 Z-19.0000 F2750
G1 X610.9984 Y321.9131 Z-19.0000 F2750
G1 X590.9964 Y321.9131 Z-19.0000 F2750
G1 X590.9964 Y323.9151 Z-19.0000 F2750
G1 X591.7874 Y323.9075 Z-19.0000 F2750
G1 X592.5769 Y323.9573 Z-19.0000 F2750
G1 X593.0997 Y324.0700 Z-19.0000 F2750
G1 X593.6231 Y324.2605 Z-19.0000 F2750
G1 X594.1301 Y324.5313 Z-19.0000 F2750
G1 X594.6025 Y324.8801 Z-19.0000 F2750
G1 X595.0231 Y325.2993 Z-19.0000 F2750
G1 X595.3769 Y325.7761 Z-19.0000 F2750
G1 X595.6536 Y326.2942 Z-19.0000 F2750
G1 X595.8481 Y326.8351 Z-19.0000 F2750
G1 X595.9606 Y327.3805 Z-19.0000 F2750
G1 X595.9964 Y327.9141 Z-19.0000 F2750
G1 X595.9964 Y346.9141 Z-19.0000 F2750
G1 X595.9606 Y347.4477 Z-19.0000 F2750
G1 X595.8481 Y347.9931 Z-19.0000 F2750
G1 X595.6536 Y348.5340 Z-19.0000 F2750
G1 X595.3769 Y349.0520 Z-19.0000 F2750
G1 X595.0231 Y349.5289 Z-19.0000 F2750
G1 X594.6025 Y349.9481 Z-19.0000 F2750
G1 X594.1301 Y350.2969 Z-19.0000 F2750
G1 X593.6231 Y350.5677 Z-19.0000 F2750
G1 X593.0997 Y350.7581 Z-19.0000 F2750
G1 X592.5769 Y350.8708 Z-19.0000 F2750
G1 X591.7874 Y350.9207 Z-19.0000 F2750
G1 X590.9964 Y350.9131 Z-19.0000 F2750
G1 X590.9964 Y352.9151 Z-19.0000 F2750
G1 X600.9974 Y352.9151 Z-19.0000 F2750
G1 X600.9974 Y352.9151 Z10.0000 F9999
G1 X905.5587 Y442.5774 Z10.0000 F9999
G1 X905.5587 Y442.5774 Z1.0000 F2000
G1 X905.5587 Y473.5777 Z-6.9547 F2000
G1 X905.5607 Y471.5767 Z-7.4682 F2000
G1 X905.6088 Y470.9589 Z-7.6272 F2000
G1 X905.7552 Y470.3447 Z-7.7892 F2000
G1 X905.9984 Y469.7577 Z-7.9522 F2000
G1 X906.3291 Y469.2199 Z-8.1142 F2000
G1 X906.7320 Y468.7490 Z-8.2733 F2000
G1 X907.2029 Y468.3461 Z-8.4323 F2000
G1 X907.7407 Y468.0154 Z-8.5943 F2000
G1 X908.3277 Y467.7722 Z-8.7573 F2000
G1 X908.9419 Y467.6258 Z-8.9193 F2000
G1 X909.2553 Y467.6014 Z-9.0000 F2000
G1 X908.9419 Y467.6258 Z-9.0807 F2000
G1 X908.3277 Y467.7722 Z-9.2427 F2000
G1 X907.7407 Y468.0154 Z-9.4057 F2000
G1 X907.2029 Y468.3461 Z-9.5677 F2000
G1 X906.7320 Y468.7490 Z-9.7267 F2000
G1 X906.3291 Y469.2199 Z-9.8858 F2000
G1 X905.9984 Y469.7577 Z-10.0478 F2000
G1 X905.7552 Y470.3447 Z-10.2108 F2000
G1 X905.6088 Y470.9589 Z-10.3728 F2000
G1 X905.5607 Y471.5767 Z-10.5318 F2000
G1 X905.5587 Y473.5777 Z-11.0453 F2000
G1 X905.5587 Y442.5774 Z-19.0000 F2000
G1 X905.5587 Y473.5777 Z-19.0000 F2750
G1 X905.5607 Y471.5767 Z-19.0000 F2750
G1 X905.6088 Y470.9589 Z-19.0000 F2750
G1 X905.7552 Y470.3447 Z-19.0000 F2750
G1 X905.9984 Y469.7577 Z-19.0000 F2750
G1 X906.3291 Y469.2199 Z-19.0000 F2750
G1 X906.7320 Y468.7490 Z-19.0000 F2750
G1 X907.2029 Y468.3461 Z-19.0000 F2750
G1 X907.7407 Y468.0154 Z-19.0000 F2750
G1 X908.3277 Y467.7722 Z-19.0000 F2750
G1 X908.9419 Y467.6258 Z-19.0000 F2750
G1 X909.5597 Y467.5777 Z-19.0000 F2750
G1 X921.5607 Y467.5777 Z-19.0000 F2750
G1 X919.5597 Y467.5757 Z-19.0000 F2750
G1 X918.9802 Y467.5335 Z-19.0000 F2750
G1 X918.3848 Y467.3992 Z-19.0000 F2750
G1 X917.7951 Y467.1653 Z-19.0000 F2750
G1 X917.2359 Y466.8312 Z-19.0000 F2750
G1 X916.7320 Y466.4045 Z-19.0000 F2750
G1 X916.3052 Y465.9006 Z-19.0000 F2750
G1 X915.9711 Y465.3414 Z-19.0000 F2750
G1 X915.7372 Y464.7517 Z-19.0000 F2750
G1 X915.6029 Y464.1563 Z-19.0000 F2750
G1 X915.5607 Y463.5767 Z-19.0000 F2750
G1 X915.5607 Y419.5770 Z-19.0000 F2750
G1 X915.6087 Y418.9591 Z-19.0000 F2750
G1 X915.7552 Y418.3450 Z-19.0000 F2750
G1 X915.9984 Y417.7580 Z-19.0000 F2750
G1 X916.3290 Y417.2201 Z-19.0000 F2750
G1 X916.7320 Y416.7493 Z-19.0000 F2750
G1 X917.2028 Y416.3463 Z-19.0000 F2750
G1 X917.7407 Y416.0156 Z-19.0000 F2750
G1 X918.3277 Y415.7725 Z-19.0000 F2750
G1 X918.9418 Y415.6260 Z-19.0000 F2750
G1 X919.5597 Y415.5780 Z-19.0000 F2750
G1 X921.5607 Y415.5780 Z-19.0000 F2750
G1 X909.5597 Y415.5760 Z-19.0000 F2750
G1 X908.9802 Y415.5338 Z-19.0000 F2750
G1 X908.3848 Y415.3995 Z-19.0000 F2750
G1 X907.7951 Y415.1656 Z-19.0000 F2750
G1 X907.2359 Y414.8315 Z-19.0000 F2750
G1 X906.7320 Y414.4047 Z-19.0000 F2750
G1 X906.3052 Y413.9008 Z-19.0000 F2750
G1 X905.9711 Y413.3416 Z-19.0000 F2750
G1 X905.7372 Y412.7519 Z-19.0000 F2750
G1 X905.6030 Y412.1565 Z-19.0000 F2750
G1 X905.5607 Y411.5770 Z-19.0000 F2750
G1 X905.5607 Y409.5760 Z-19.0000 F2750
G1 X905.5515 Y426.0767 Z-19.0000 F2750
G1 X905.5587 Y442.5774 Z-19.0000 F2750
G1 X905.5587 Y442.5774 Z10.0000 F9999
G1 X1026.5573 Y446.5712 Z10.0000 F9999
G1 X1026.5573 Y446.5712 Z1.0000 F2000
G1 X1038.5573 Y446.5645 Z-2.0792 F2000
G1 X1039.1754 Y446.6122 Z-2.2383 F2000
G1 X1039.7898 Y446.7585 Z-2.4004 F2000
G1 X1040.3771 Y447.0015 Z-2.5634 F2000
G1 X1040.9153 Y447.3321 Z-2.7255 F2000
G1 X1041.3865 Y447.7350 Z-2.8846 F2000
G1 X1041.7897 Y448.2059 Z-3.0437 F2000
G1 X1042.1206 Y448.7439 Z-3.2057 F2000
G1 X1042.3639 Y449.3311 Z-3.3688 F2000
G1 X1042.5105 Y449.9455 Z-3.5309 F2000
G1 X1042.5585 Y450.5635 Z-3.6900 F2000
G1 X1042.5605 Y452.5556 Z-4.2011 F2000
G1 X1042.5605 Y433.8539 Z-9.0000 F2000
G1 X1042.5605 Y452.5556 Z-13.7989 F2000
G1 X1042.5585 Y450.5635 Z-14.3100 F2000
G1 X1042.5105 Y449.9455 Z-14.4691 F2000
G1 X1042.3639 Y449.3311 Z-14.6312 F2000
G1 X1042.1206 Y448.7439 Z-14.7943 F2000
G1 X1041.7897 Y448.2059 Z-14.9563 F2000
G1 X1041.3865 Y447.7350 Z-15.1154 F2000
G1 X1040.9153 Y447.3321 Z-15.2745 F2000
G1 X1040.3771 Y447.0015 Z-15.4366 F2000
G1 X1039.7898 Y446.7585 Z-15.5996 F2000
G1 X1039.1754 Y446.6122 Z-15.7617 F2000
G1 X1038.5573 Y446.5645 Z-15.9208 F2000
G1 X1026.5573 Y446.5712 Z-19.0000 F2000
G1 X1038.5573 Y446.5645 Z-19.0000 F2750
G1 X1039.1754 Y446.6122 Z-19.0000 F2750
G1 X1039.7898 Y446.7585 Z-19.0000 F2750
G1 X1040.3771 Y447.0015 Z-19.0000 F2750
G1 X1040.9153 Y447.3321 Z-19.0000 F2750
G1 X1041.3865 Y447.7350 Z-19.0000 F2750
G1 X1041.7897 Y448.2059 Z-19.0000 F2750
G1 X1042.1206 Y448.7439 Z-19.0000 F2750
G1 X1042.3639 Y449.3311 Z-19.0000 F2750
G1 X1042.5105 Y449.9455 Z-19.0000 F2750
G1 X1042.5585 Y450.5635 Z-19.0000 F2750
G1 X1042.5605 Y452.5556 Z-19.0000 F2750
G1 X1042.5605 Y430.5759 Z-19.0000 F2750
G1 X1042.5585 Y432.5769 Z-19.0000 F2750
G1 X1042.5105 Y433.1948 Z-19.0000 F2750
G1 X1042.3640 Y433.8089 Z-19.0000 F2750
G1 X1042.1209 Y434.3959 Z-19.0000 F2750
G1 X1041.7902 Y434.9338 Z-19.0000 F2750
G1 X1041.3872 Y435.4046 Z-19.0000 F2750
G1 X1040.9164 Y435.8076 Z-19.0000 F2750
G1 X1040.3785 Y436.1383 Z-19.0000 F2750
G1 X1039.7915 Y436.3814 Z-19.0000 F2750
G1 X1039.1774 Y436.5279 Z-19.0000 F2750
G1 X1038.5595 Y436.5759 Z-19.0000 F2750
G1 X1014.5595 Y436.5759 Z-19.0000 F2750
G1 X1013.9417 Y436.5279 Z-19.0000 F2750
G1 X1013.3275 Y436.3814 Z-19.0000 F2750
G1 X1012.7405 Y436.1383 Z-19.0000 F2750
G1 X1012.2027 Y435.8076 Z-19.0000 F2750
G1 X1011.7318 Y435.4046 Z-19.0000 F2750
G1 X1011.3289 Y434.9338 Z-19.0000 F2750
G1 X1010.9982 Y434.3959 Z-19.0000 F2750
G1 X1010.7550 Y433.8089 Z-19.0000 F2750
G1 X1010.6085 Y433.1948 Z-19.0000 F2750
G1 X1010.5605 Y432.5769 Z-19.0000 F2750
G1 X1010.5605 Y430.5759 Z-19.0000 F2750
G1 X1010.5585 Y452.5556 Z-19.0000 F2750
G1 X1010.5605 Y450.5769 Z-19.0000 F2750
G1 X1010.6027 Y449.9976 Z-19.0000 F2750
G1 X1010.7369 Y449.4023 Z-19.0000 F2750
G1 X1010.9707 Y448.8128 Z-19.0000 F2750
G1 X1011.3045 Y448.2538 Z-19.0000 F2750
G1 X1011.7310 Y447.7500 Z-19.0000 F2750
G1 X1012.2346 Y447.3232 Z-19.0000 F2750
G1 X1012.7934 Y446.9890 Z-19.0000 F2750
G1 X1013.3828 Y446.7550 Z-19.0000 F2750
G1 X1013.9780 Y446.6204 Z-19.0000 F2750
G1 X1014.5573 Y446.5779 Z-19.0000 F2750
G1 X1026.5573 Y446.5712 Z-19.0000 F2750
G1 X1026.5573 Y446.5712 Z10.0000 F9999
G1 X1147.5602 Y440.5764 Z10.0000 F9999
G1 X1147.5602 Y440.5764 Z1.0000 F2000
G1 X1147.5602 Y409.5760 Z-6.9547 F2000
G1 X1147.5582 Y411.5770 Z-7.4682 F2000
G1 X1147.5102 Y412.1949 Z-7.6272 F2000
G1 X1147.3637 Y412.8090 Z-7.7892 F2000
G1 X1147.1206 Y413.3960 Z-7.9522 F2000
G1 X1146.7899 Y413.9338 Z-8.1142 F2000
G1 X1146.3869 Y414.4047 Z-8.2733 F2000
G1 X1145.9161 Y414.8076 Z-8.4323 F2000
G1 X1145.3782 Y415.1383 Z-8.5943 F2000
G1 X1144.7912 Y415.3815 Z-8.7573 F2000
G1 X1144.1771 Y415.5280 Z-8.9193 F2000
G1 X1143.8637 Y415.5523 Z-9.0000 F2000
G1 X1144.1771 Y415.5280 Z-9.0807 F2000
G1 X1144.7912 Y415.3815 Z-9.2427 F2000
G1 X1145.3782 Y415.1383 Z-9.4057 F2000
G1 X1145.9161 Y414.8076 Z-9.5677 F2000
G1 X1146.3869 Y414.4047 Z-9.7267 F2000
G1 X1146.7899 Y413.9338 Z-9.8858 F2000
G1 X1147.1206 Y413.3960 Z-10.0478 F2000
G1 X1147.3637 Y412.8090 Z-10.2108 F2000
G1 X1147.5102 Y412.1949 Z-10.3728 F2000
G1 X1147.5582 Y411.5770 Z-10.5318 F2000
G1 X1147.5602 Y409.5760 Z-11.0453 F2000
G1 X1147.5602 Y440.5764 Z-19.0000 F2000
G1 X1147.5602 Y409.5760 Z-19.0000 F2750
G1 X1147.5582 Y411.5770 Z-19.0000 F2750
G1 X1147.5102 Y412.1949 Z-19.0000 F2750
G1 X1147.3637 Y412.8090 Z-19.0000 F2750
G1 X1147.1206 Y413.3960 Z-19.0000 F2750
G1 X1146.7899 Y413.9338 Z-19.0000 F2750
G1 X1146.3869 Y414.4047 Z-19.0000 F2750
G1 X1145.9161 Y414.8076 Z-19.0000 F2750
G1 X1145.3782 Y415.1383 Z-19.0000 F2750
G1 X1144.7912 Y415.3815 Z-19.0000 F2750
G1 X1144.1771 Y415.5280 Z-19.0000 F2750
G1 X1143.5592 Y415.5760 Z-19.0000 F2750
G1 X1131.5583 Y415.5760 Z-19.0000 F2750
G1 X1133.5593 Y415.5780 Z-19.0000 F2750
G1 X1134.1388 Y415.6202 Z-19.0000 F2750
G1 X1134.7342 Y415.7545 Z-19.0000 F2750
G1 X1135.3239 Y415.9884 Z-19.0000 F2750
G1 X1135.8831 Y416.3225 Z-19.0000 F2750
G1 X1136.3870 Y416.7493 Z-19.0000 F2750
G1 X1136.8137 Y417.2531 Z-19.0000 F2750
G1 X1137.1479 Y417.8124 Z-19.0000 F2750
G1 X1137.3817 Y418.4020 Z-19.0000 F2750
G1 X1137.5160 Y418.9974 Z-19.0000 F2750
G1 X1137.5583 Y419.5770 Z-19.0000 F2750
G1 X1137.5583 Y463.5767 Z-19.0000 F2750
G1 X1137.5102 Y464.1946 Z-19.0000 F2750
G1 X1137.3637 Y464.8088 Z-19.0000 F2750
G1 X1137.1206 Y465.3957 Z-19.0000 F2750
G1 X1136.7899 Y465.9336 Z-19.0000 F2750
G1 X1136.3870 Y466.4045 Z-19.0000 F2750
G1 X1135.9161 Y466.8074 Z-19.0000 F2750
G1 X1135.3783 Y467.1381 Z-19.0000 F2750
G1 X1134.7913 Y467.3812 Z-19.0000 F2750
G1 X1134.1771 Y467.5277 Z-19.0000 F2750
G1 X1133.5593 Y467.5757 Z-19.0000 F2750
G1 X1131.5583 Y467.5757 Z-19.0000 F2750
G1 X1143.5592 Y467.5777 Z-19.0000 F2750
G1 X1144.1388 Y467.6200 Z-19.0000 F2750
G1 X1144.7342 Y467.7542 Z-19.0000 F2750
G1 X1145.3238 Y467.9881 Z-19.0000 F2750
G1 X1145.8831 Y468.3222 Z-19.0000 F2750
G1 X1146.3869 Y468.7490 Z-19.0000 F2750
G1 X1146.8137 Y469.2529 Z-19.0000 F2750
G1 X1147.1478 Y469.8121 Z-19.0000 F2750
G1 X1147.3817 Y470.4018 Z-19.0000 F2750
G1 X1147.5160 Y470.9972 Z-19.0000 F2750
G1 X1147.5582 Y471.5767 Z-19.0000 F2750
G1 X1147.5582 Y473.5777 Z-19.0000 F2750
G1 X1147.5675 Y457.0770 Z-19.0000 F2750
G1 X1147.5602 Y440.5764 Z-19.0000 F2750
G1 X1147.5602 Y440.5764 Z10.0000 F9999
G1 X1147.5602 Y740.5757 Z10.0000 F9999
G1 X1147.5602 Y740.5757 Z1.0000 F2000
G1 X1147.5602 Y709.5754 Z-6.9547 F2000
G1 X1147.5582 Y711.5764 Z-7.4682 F2000
G1 X1147.5102 Y712.1942 Z-7.6272 F2000
G1 X1147.3637 Y712.8084 Z-7.7892 F2000
G1 X1147.1206 Y713.3954 Z-7.9522 F2000
G1 X1146.7899 Y713.9332 Z-8.1142 F2000
G1 X1146.3869 Y714.4041 Z-8.2733 F2000
G1 X1145.9161 Y714.8070 Z-8.4323 F2000
G1 X1145.3782 Y715.1377 Z-8.5943 F2000
G1 X1144.7912 Y715.3809 Z-8.7573 F2000
G1 X1144.1771 Y715.5274 Z-8.9193 F2000
G1 X1143.8637 Y715.5517 Z-9.0000 F2000
G1 X1144.1771 Y715.5274 Z-9.0807 F2000
G1 X1144.7912 Y715.3809 Z-9.2427 F2000
G1 X1145.3782 Y715.1377 Z-9.4057 F2000
G1 X1145.9161 Y714.8070 Z-9.5677 F2000
G1 X1146.3869 Y714.4041 Z-9.7267 F2000
G1 X1146.7899 Y713.9332 Z-9.8858 F2000
G1 X1147.1206 Y713.3954 Z-10.0478 F2000
G1 X1147.3637 Y712.8084 Z-10.2108 F2000
G1 X1147.5102 Y712.1942 Z-10.3728 F2000
G1 X1147.5582 Y711.5764 Z-10.5318 F2000
G1 X1147.5602 Y709.5754 Z-11.0453 F2000
G1 X1147.5602 Y740.5757 Z-19.0000 F2000
G1 X1147.5602 Y709.5754 Z-19.0000 F2750
G1 X1147.5582 Y711.5764 Z-19.0000 F2750
G1 X1147.5102 Y712.1942 Z-19.0000 F2750
G1 X1147.3637 Y712.8084 Z-19.0000 F2750
G1 X1147.1206 Y713.3954 Z-19.0000 F2750
G1 X1146.7899 Y713.9332 Z-19.0000 F2750
G1 X1146.3869 Y714.4041 Z-19.0000 F2750
G1 X1145.9161 Y714.8070 Z-19.0000 F2750
G1 X1145.3782 Y715.1377 Z-19.0000 F2750
G1 X1144.7912 Y715.3809 Z-19.0000 F2750
G1 X1144.1771 Y715.5274 Z-19.0000 F2750
G1 X1143.5592 Y715.5754 Z-19.0000 F2750
G1 X1131.5583 Y715.5754 Z-19.0000 F2750
G1 X1133.5593 Y715.5774 Z-19.0000 F2750
G1 X1134.1388 Y715.6196 Z-19.0000 F2750
G1 X1134.7342 Y715.7539 Z-19.0000 F2750
G1 X1135.3239 Y715.9878 Z-19.0000 F2750
G1 X1135.8831 Y716.3219 Z-19.0000 F2750
G1 X1136.3870 Y716.7487 Z-19.0000 F2750
G1 X1136.8137 Y717.2525 Z-19.0000 F2750
G1 X1137.1479 Y717.8117 Z-19.0000 F2750
G1 X1137.3817 Y718.4014 Z-19.0000 F2750
G1 X1137.5160 Y718.9968 Z-19.0000 F2750
G1 X1137.5583 Y719.5764 Z-19.0000 F2750
G1 X1137.5583 Y763.5761 Z-19.0000 F2750
G1 X1137.5102 Y764.1940 Z-19.0000 F2750
G1 X1137.3637 Y764.8081 Z-19.0000 F2750
G1 X1137.1206 Y765.3951 Z-19.0000 F2750
G1 X1136.7899 Y765.9330 Z-19.0000 F2750
G1 X1136.3870 Y766.4038 Z-19.0000 F2750
G1 X1135.9161 Y766.8068 Z-19.0000 F2750
G1 X1135.3783 Y767.1375 Z-19.0000 F2750
G1 X1134.7913 Y767.3806 Z-19.0000 F2750
G1 X1134.1771 Y767.5271 Z-19.0000 F2750
G1 X1133.5593 Y767.5751 Z-19.0000 F2750
G1 X1131.5583 Y767.5751 Z-19.0000 F2750
G1 X1143.5592 Y767.5771 Z-19.0000 F2750
G1 X1144.1388 Y767.6193 Z-19.0000 F2750
G1 X1144.7342 Y767.7536 Z-19.0000 F2750
G1 X1145.3238 Y767.9875 Z-19.0000 F2750
G1 X1145.8831 Y768.3216 Z-19.0000 F2750
G1 X1146.3869 Y768.7484 Z-19.0000 F2750
G1 X1146.8137 Y769.2523 Z-19.0000 F2750
G1 X1147.1478 Y769.8115 Z-19.0000 F2750
G1 X1147.3817 Y770.4012 Z-19.0000 F2750
G1 X1147.5160 Y770.9966 Z-19.0000 F2750
G1 X1147.5582 Y771.5761 Z-19.0000 F2750
G1 X1147.5582 Y773.5771 Z-19.0000 F2750
G1 X1147.5675 Y757.0764 Z-19.0000 F2750
G1 X1147.5602 Y740.5757 Z-19.0000 F2750
G1 X1147.5602 Y740.5757 Z10.0000 F9999
G1 X905.5587 Y742.5767 Z10.0000 F9999
G1 X905.5587 Y742.5767 Z1.0000 F2000
G1 X905.5587 Y773.5771 Z-6.9547 F2000
G1 X905.5607 Y771.5761 Z-7.4682 F2000
G1 X905.6088 Y770.9583 Z-7.6272 F2000
G1 X905.7552 Y770.3441 Z-7.7892 F2000
G1 X905.9984 Y769.7571 Z-7.9522 F2000
G1 X906.3291 Y769.2193 Z-8.1142 F2000
G1 X906.7320 Y768.7484 Z-8.2733 F2000
G1 X907.2029 Y768.3455 Z-8.4323 F2000
G1 X907.7407 Y768.0148 Z-8.5943 F2000
G1 X908.3277 Y767.7716 Z-8.7573 F2000
G1 X908.9419 Y767.6251 Z-8.9193 F2000
G1 X909.2553 Y767.6008 Z-9.0000 F2000
G1 X908.9419 Y767.6251 Z-9.0807 F2000
G1 X908.3277 Y767.7716 Z-9.2427 F2000
G1 X907.7407 Y768.0148 Z-9.4057 F2000
G1 X907.2029 Y768.3455 Z-9.5677 F2000
G1 X906.7320 Y768.7484 Z-9.7267 F2000
G1 X906.3291 Y769.2193 Z-9.8858 F2000
G1 X905.9984 Y769.7571 Z-10.0478 F2000
G1 X905.7552 Y770.3441 Z-10.2108 F2000
G1 X905.6088 Y770.9583 Z-10.3728 F2000
G1 X905.5607 Y771.5761 Z-10.5318 F2000
G1 X905.5587 Y773.5771 Z-11.0453 F2000
G1 X905.5587 Y742.5767 Z-19.0000 F2000
G1 X905.5587 Y773.5771 Z-19.0000 F2750
G1 X905.5607 Y771.5761 Z-19.0000 F2750
G1 X905.6088 Y770.9583 Z-19.0000 F2750
G1 X905.7552 Y770.3441 Z-19.0000 F2750
G1 X905.9984 Y769.7571 Z-19.0000 F2750
G1 X906.3291 Y769.2193 Z-19.0000 F2750
G1 X906.7320 Y768.7484 Z-19.0000 F2750
G1 X907.2029 Y768.3455 Z-19.0000 F2750
G1 X907.7407 Y768.0148 Z-19.0000 F2750
G1 X908.3277 Y767.7716 Z-19.0000 F2750
G1 X908.9419 Y767.6251 Z-19.0000 F2750
G1 X909.5597 Y767.5771 Z-19.0000 F2750
G1 X921.5607 Y767.5771 Z-19.0000 F2750
G1 X919.5597 Y767.5751 Z-19.0000 F2750
G1 X918.9802 Y767.5329 Z-19.0000 F2750
G1 X918.3848 Y767.3986 Z-19.0000 F2750
G1 X917.7951 Y767.1647 Z-19.0000 F2750
G1 X917.2359 Y766.8306 Z-19.0000 F2750
G1 X916.7320 Y766.4038 Z-19.0000 F2750
G1 X916.3052 Y765.9000 Z-19.0000 F2750
G1 X915.9711 Y765.3408 Z-19.0000 F2750
G1 X915.7372 Y764.7511 Z-19.0000 F2750
G1 X915.6029 Y764.1557 Z-19.0000 F2750
G1 X915.5607 Y763.5761 Z-19.0000 F2750
G1 X915.5607 Y719.5764 Z-19.0000 F2750
G1 X915.6087 Y718.9585 Z-19.0000 F2750
G1 X915.7552 Y718.3444 Z-19.0000 F2750
G1 X915.9984 Y717.7574 Z-19.0000 F2750
G1 X916.3290 Y717.2195 Z-19.0000 F2750
G1 X916.7320 Y716.7487 Z-19.0000 F2750
G1 X917.2028 Y716.3457 Z-19.0000 F2750
G1 X917.7407 Y716.0150 Z-19.0000 F2750
G1 X918.3277 Y715.7719 Z-19.0000 F2750
G1 X918.9418 Y715.6254 Z-19.0000 F2750
G1 X919.5597 Y715.5774 Z-19.0000 F2750
G1 X921.5607 Y715.5774 Z-19.0000 F2750
G1 X909.5597 Y715.5754 Z-19.0000 F2750
G1 X908.9802 Y715.5332 Z-19.0000 F2750
G1 X908.3848 Y715.3989 Z-19.0000 F2750
G1 X907.7951 Y715.1650 Z-19.0000 F2750
G1 X907.2359 Y714.8309 Z-19.0000 F2750
G1 X906.7320 Y714.4041 Z-19.0000 F2750
G1 X906.3052 Y713.9002 Z-19.0000 F2750
G1 X905.9711 Y713.3410 Z-19.0000 F2750
G1 X905.7372 Y712.7513 Z-19.0000 F2750
G1 X905.6030 Y712.1559 Z-19.0000 F2750
G1 X905.5607 Y711.5764 Z-19.0000 F2750
G1 X905.5607 Y709.5754 Z-19.0000 F2750
G1 X905.5515 Y726.0761 Z-19.0000 F2750
G1 X905.5587 Y742.5767 Z-19.0000 F2750
G1 X905.5587 Y742.5767 Z10.0000 F9999
G1 X905.5587 Y1042.5761 Z10.0000 F9999
G1 X905.5587 Y1042.5761 Z1.0000 F2000
G1 X905.5587 Y1073.5765 Z-6.9547 F2000
G1 X905.5607 Y1071.5755 Z-7.4682 F2000
G1 X905.6030 Y1070.9960 Z-7.6173 F2000
G1 X905.7372 Y1070.4006 Z-7.7739 F2000
G1 X905.9711 Y1069.8109 Z-7.9367 F2000
G1 X906.3052 Y1069.2517 Z-8.1038 F2000
G1 X906.7320 Y1068.7478 Z-8.2733 F2000
G1 X907.2359 Y1068.3210 Z-8.4427 F2000
G1 X907.7951 Y1067.9869 Z-8.6099 F2000
G1 X908.3848 Y1067.7530 Z-8.7726 F2000
G1 X908.9802 Y1067.6187 Z-8.9293 F2000
G1 X909.2552 Y1067.5987 Z-9.0000 F2000
G1 X908.9802 Y1067.6187 Z-9.0707 F2000
G1 X908.3848 Y1067.7530 Z-9.2274 F2000
G1 X907.7951 Y1067.9869 Z-9.3901 F2000
G1 X907.2359 Y1068.3210 Z-9.5573 F2000
G1 X906.7320 Y1068.7478 Z-9.7267 F2000
G1 X906.3052 Y1069.2517 Z-9.8962 F2000
G1 X905.9711 Y1069.8109 Z-10.0633 F2000
G1 X905.7372 Y1070.4006 Z-10.2261 F2000
G1 X905.6030 Y1070.9960 Z-10.3827 F2000
G1 X905.5607 Y1071.5755 Z-10.5318 F2000
G1 X905.5587 Y1073.5765 Z-11.0453 F2000
G1 X905.5587 Y1042.5761 Z-19.0000 F2000
G1 X905.5587 Y1073.5765 Z-19.0000 F2750
G1 X905.5607 Y1071.5755 Z-19.0000 F2750
G1 X905.6030 Y1070.9960 Z-19.0000 F2750
G1 X905.7372 Y1070.4006 Z-19.0000 F2750
G1 X905.9711 Y1069.8109 Z-19.0000 F2750
G1 X906.3052 Y1069.2517 Z-19.0000 F2750
G1 X906.7320 Y1068.7478 Z-19.0000 F2750
G1 X907.2359 Y1068.3210 Z-19.0000 F2750
G1 X907.7951 Y1067.9869 Z-19.0000 F2750
G1 X908.3848 Y1067.7530 Z-19.0000 F2750
G1 X908.9802 Y1067.6187 Z-19.0000 F2750
G1 X909.5597 Y1067.5765 Z-19.0000 F2750
G1 X921.5607 Y1067.5765 Z-19.0000 F2750
G1 X919.5597 Y1067.5745 Z-19.0000 F2750
G1 X918.9418 Y1067.5265 Z-19.0000 F2750
G1 X918.3277 Y1067.3800 Z-19.0000 F2750
G1 X917.7407 Y1067.1369 Z-19.0000 F2750
G1 X917.2028 Y1066.8062 Z-19.0000 F2750
G1 X916.7320 Y1066.4032 Z-19.0000 F2750
G1 X916.3290 Y1065.9324 Z-19.0000 F2750
G1 X915.9984 Y1065.3945 Z-19.0000 F2750
G1 X915.7552 Y1064.8075 Z-19.0000 F2750
G1 X915.6087 Y1064.1934 Z-19.0000 F2750
G1 X915.5607 Y1063.5755 Z-19.0000 F2750
G1 X915.5607 Y1019.5758 Z-19.0000 F2750
G1 X915.6087 Y1018.9579 Z-19.0000 F2750
G1 X915.7552 Y1018.3437 Z-19.0000 F2750
G1 X915.9984 Y1017.7568 Z-19.0000 F2750
G1 X916.3290 Y1017.2189 Z-19.0000 F2750
G1 X916.7320 Y1016.7480 Z-19.0000 F2750
G1 X917.2028 Y1016.3451 Z-19.0000 F2750
G1 X917.7407 Y1016.0144 Z-19.0000 F2750
G1 X918.3277 Y1015.7713 Z-19.0000 F2750
G1 X918.9418 Y1015.6248 Z-19.0000 F2750
G1 X919.5597 Y1015.5768 Z-19.0000 F2750
G1 X921.5607 Y1015.5768 Z-19.0000 F2750
G1 X909.5597 Y1015.5748 Z-19.0000 F2750
G1 X908.9419 Y1015.5267 Z-19.0000 F2750
G1 X908.3277 Y1015.3802 Z-19.0000 F2750
G1 X907.7407 Y1015.1371 Z-19.0000 F2750
G1 X907.2029 Y1014.8064 Z-19.0000 F2750
G1 X906.7320 Y1014.4035 Z-19.0000 F2750
G1 X906.3291 Y1013.9326 Z-19.0000 F2750
G1 X905.9984 Y1013.3948 Z-19.0000 F2750
G1 X905.7552 Y1012.8078 Z-19.0000 F2750
G1 X905.6088 Y1012.1936 Z-19.0000 F2750
G1 X905.5607 Y1011.5758 Z-19.0000 F2750
G1 X905.5607 Y1009.5748 Z-19.0000 F2750
G1 X905.5515 Y1026.0755 Z-19.0000 F2750
G1 X905.5587 Y1042.5761 Z-19.0000 F2750
G1 X905.5587 Y1042.5761 Z10.0000 F9999
G1 X1026.5573 Y1046.5699 Z10.0000 F9999
G1 X1026.5573 Y1046.5699 Z1.0000 F2000
G1 X1038.5573 Y1046.5632 Z-2.0792 F2000
G1 X1039.1754 Y1046.6109 Z-2.2383 F2000
G1 X1039.7898 Y1046.7572 Z-2.4004 F2000
G1 X1040.3771 Y1047.0001 Z-2.5634 F2000
G1 X1040.9153 Y1047.3307 Z-2.7255 F2000
G1 X1041.3865 Y1047.7337 Z-2.8846 F2000
G1 X1041.7897 Y1048.2046 Z-3.0437 F2000
G1 X1042.1206 Y1048.7426 Z-3.2057 F2000
G1 X1042.3639 Y1049.3298 Z-3.3688 F2000
G1 X1042.5105 Y1049.9441 Z-3.5309 F2000
G1 X1042.5585 Y1050.5622 Z-3.6900 F2000
G1 X1042.5605 Y1052.5543 Z-4.2011 F2000
G1 X1042.5605 Y1033.8526 Z-9.0000 F2000
G1 X1042.5605 Y1052.5543 Z-13.7989 F2000
G1 X1042.5585 Y1050.5622 Z-14.3100 F2000
G1 X1042.5105 Y1049.9441 Z-14.4691 F2000
G1 X1042.3639 Y1049.3298 Z-14.6312 F2000
G1 X1042.1206 Y1048.7426 Z-14.7943 F2000
G1 X1041.7897 Y1048.2046 Z-14.9563 F2000
G1 X1041.3865 Y1047.7337 Z-15.1154 F2000
G1 X1040.9153 Y1047.3307 Z-15.2745 F2000
G1 X1040.3771 Y1047.0001 Z-15.4366 F2000
G1 X1039.7898 Y1046.7572 Z-15.5996 F2000
G1 X1039.1754 Y1046.6109 Z-15.7617 F2000
G1 X1038.5573 Y1046.5632 Z-15.9208 F2000
G1 X1026.5573 Y1046.5699 Z-19.0000 F2000
G1 X1038.5573 Y1046.5632 Z-19.0000 F2750
G1 X1039.1754 Y1046.6109 Z-19.0000 F2750
G1 X1039.7898 Y1046.7572 Z-19.0000 F2750
G1 X1040.3771 Y1047.0001 Z-19.0000 F2750
G1 X1040.9153 Y1047.3307 Z-19.0000 F2750
G1 X1041.3865 Y1047.7337 Z-19.0000 F2750
G1 X1041.7897 Y1048.2046 Z-19.0000 F2750
G1 X1042.1206 Y1048.7426 Z-19.0000 F2750
G1 X1042.3639 Y1049.3298 Z-19.0000 F2750
G1 X1042.5105 Y1049.9441 Z-19.0000 F2750
G1 X1042.5585 Y1050.5622 Z-19.0000 F2750
G1 X1042.5605 Y1052.5543 Z-19.0000 F2750
G1 X1042.5605 Y1030.5746 Z-19.0000 F2750
G1 X1042.5585 Y1032.5756 Z-19.0000 F2750
G1 X1042.5163 Y1033.1551 Z-19.0000 F2750
G1 X1042.3820 Y1033.7505 Z-19.0000 F2750
G1 X1042.1481 Y1034.3402 Z-19.0000 F2750
G1 X1041.8140 Y1034.8994 Z-19.0000 F2750
G1 X1041.3872 Y1035.4033 Z-19.0000 F2750
G1 X1040.8834 Y1035.8301 Z-19.0000 F2750
G1 X1040.3242 Y1036.1642 Z-19.0000 F2750
G1 X1039.7345 Y1036.3981 Z-19.0000 F2750
G1 X1039.1391 Y1036.5324 Z-19.0000 F2750
G1 X1038.5595 Y1036.5746 Z-19.0000 F2750
G1 X1014.5595 Y1036.5746 Z-19.0000 F2750
G1 X1013.9417 Y1036.5266 Z-19.0000 F2750
G1 X1013.3275 Y1036.3801 Z-19.0000 F2750
G1 X1012.7405 Y1036.1369 Z-19.0000 F2750
G1 X1012.2027 Y1035.8062 Z-19.0000 F2750
G1 X1011.7318 Y1035.4033 Z-19.0000 F2750
G1 X1011.3289 Y1034.9324 Z-19.0000 F2750
G1 X1010.9982 Y1034.3946 Z-19.0000 F2750
G1 X1010.7550 Y1033.8076 Z-19.0000 F2750
G1 X1010.6085 Y1033.1935 Z-19.0000 F2750
G1 X1010.5605 Y1032.5756 Z-19.0000 F2750
G1 X1010.5605 Y1030.5746 Z-19.0000 F2750
G1 X1010.5585 Y1052.5543 Z-19.0000 F2750
G1 X1010.5605 Y1050.5756 Z-19.0000 F2750
G1 X1010.6027 Y1049.9962 Z-19.0000 F2750
G1 X1010.7369 Y1049.4010 Z-19.0000 F2750
G1 X1010.9707 Y1048.8115 Z-19.0000 F2750
G1 X1011.3045 Y1048.2524 Z-19.0000 F2750
G1 X1011.7310 Y1047.7486 Z-19.0000 F2750
G1 X1012.2346 Y1047.3219 Z-19.0000 F2750
G1 X1012.7934 Y1046.9877 Z-19.0000 F2750
G1 X1013.3828 Y1046.7536 Z-19.0000 F2750
G1 X1013.9780 Y1046.6191 Z-19.0000 F2750
G1 X1014.5573 Y1046.5766 Z-19.0000 F2750
G1 X1026.5573 Y1046.5699 Z-19.0000 F2750
G1 X1026.5573 Y1046.5699 Z10.0000 F9999
G1 X1147.5602 Y1040.5751 Z10.0000 F9999
G1 X1147.5602 Y1040.5751 Z1.0000 F2000
G1 X1147.5602 Y1009.5748 Z-6.9547 F2000
G1 X1147.5582 Y1011.5758 Z-7.4682 F2000
G1 X1147.5102 Y1012.1936 Z-7.6272 F2000
G1 X1147.3637 Y1012.8078 Z-7.7892 F2000
G1 X1147.1206 Y1013.3948 Z-7.9522 F2000
G1 X1146.7899 Y1013.9326 Z-8.1142 F2000
G1 X1146.3869 Y1014.4035 Z-8.2733 F2000
G1 X1145.9161 Y1014.8064 Z-8.4323 F2000
G1 X1145.3782 Y1015.1371 Z-8.5943 F2000
G1 X1144.7912 Y1015.3802 Z-8.7573 F2000
G1 X1144.1771 Y1015.5267 Z-8.9193 F2000
G1 X1143.8637 Y1015.5511 Z-9.0000 F2000
G1 X1144.1771 Y1015.5267 Z-9.0807 F2000
G1 X1144.7912 Y1015.3802 Z-9.2427 F2000
G1 X1145.3782 Y1015.1371 Z-9.4057 F2000
G1 X1145.9161 Y1014.8064 Z-9.5677 F2000
G1 X1146.3869 Y1014.4035 Z-9.7267 F2000
G1 X1146.7899 Y1013.9326 Z-9.8858 F2000
G1 X1147.1206 Y1013.3948 Z-10.0478 F2000
G1 X1147.3637 Y1012.8078 Z-10.2108 F2000
G1 X1147.5102 Y1012.1936 Z-10.3728 F2000
G1 X1147.5582 Y1011.5758 Z-10.5318 F2000
G1 X1147.5602 Y1009.5748 Z-11.0453 F2000
G1 X1147.5602 Y1040.5751 Z-19.0000 F2000
G1 X1147.5602 Y1009.5748 Z-19.0000 F2750
G1 X1147.5582 Y1011.5758 Z-19.0000 F2750
G1 X1147.5102 Y1012.1936 Z-19.0000 F2750
G1 X1147.3637 Y1012.8078 Z-19.0000 F2750
G1 X1147.1206 Y1013.3948 Z-19.0000 F2750
G1 X1146.7899 Y1013.9326 Z-19.0000 F2750
G1 X1146.3869 Y1014.4035 Z-19.0000 F2750
G1 X1145.9161 Y1014.8064 Z-19.0000 F2750
G1 X1145.3782 Y1015.1371 Z-19.0000 F2750
G1 X1144.7912 Y1015.3802 Z-19.0000 F2750
G1 X1144.1771 Y1015.5267 Z-19.0000 F2750
G1 X1143.5592 Y1015.5748 Z-19.0000 F2750
G1 X1131.5583 Y1015.5748 Z-19.0000 F2750
G1 X1133.5593 Y1015.5768 Z-19.0000 F2750
G1 X1134.1388 Y1015.6190 Z-19.0000 F2750
G1 X1134.7342 Y1015.7533 Z-19.0000 F2750
G1 X1135.3239 Y1015.9872 Z-19.0000 F2750
G1 X1135.8831 Y1016.3213 Z-19.0000 F2750
G1 X1136.3870 Y1016.7480 Z-19.0000 F2750
G1 X1136.8137 Y1017.2519 Z-19.0000 F2750
G1 X1137.1479 Y1017.8111 Z-19.0000 F2750
G1 X1137.3817 Y1018.4008 Z-19.0000 F2750
G1 X1137.5160 Y1018.9962 Z-19.0000 F2750
G1 X1137.5583 Y1019.5758 Z-19.0000 F2750
G1 X1137.5583 Y1063.5755 Z-19.0000 F2750
G1 X1137.5102 Y1064.1934 Z-19.0000 F2750
G1 X1137.3637 Y1064.8075 Z-19.0000 F2750
G1 X1137.1206 Y1065.3945 Z-19.0000 F2750
G1 X1136.7899 Y1065.9324 Z-19.0000 F2750
G1 X1136.3870 Y1066.4032 Z-19.0000 F2750
G1 X1135.9161 Y1066.8062 Z-19.0000 F2750
G1 X1135.3783 Y1067.1369 Z-19.0000 F2750
G1 X1134.7913 Y1067.3800 Z-19.0000 F2750
G1 X1134.1771 Y1067.5265 Z-19.0000 F2750
G1 X1133.5593 Y1067.5745 Z-19.0000 F2750
G1 X1131.5583 Y1067.5745 Z-19.0000 F2750
G1 X1143.5592 Y1067.5765 Z-19.0000 F2750
G1 X1144.1388 Y1067.6187 Z-19.0000 F2750
G1 X1144.7342 Y1067.7530 Z-19.0000 F2750
G1 X1145.3238 Y1067.9869 Z-19.0000 F2750
G1 X1145.8831 Y1068.3210 Z-19.0000 F2750
G1 X1146.3869 Y1068.7478 Z-19.0000 F2750
G1 X1146.8137 Y1069.2517 Z-19.0000 F2750
G1 X1147.1478 Y1069.8109 Z-19.0000 F2750
G1 X1147.3817 Y1070.4006 Z-19.0000 F2750
G1 X1147.5160 Y1070.9960 Z-19.0000 F2750
G1 X1147.5582 Y1071.5755 Z-19.0000 F2750
G1 X1147.5582 Y1073.5765 Z-19.0000 F2750
G1 X1147.5675 Y1057.0758 Z-19.0000 F2750
G1 X1147.5602 Y1040.5751 Z-19.0000 F2750
G1 X1147.5602 Y1040.5751 Z10.0000 F9999
G1 X1147.5602 Y1340.5745 Z10.0000 F9999
G1 X1147.5602 Y1340.5745 Z1.0000 F2000
G1 X1147.5602 Y1309.5742 Z-6.9547 F2000
G1 X1147.5582 Y1311.5752 Z-7.4682 F2000
G1 X1147.5102 Y1312.1930 Z-7.6272 F2000
G1 X1147.3637 Y1312.8072 Z-7.7892 F2000
G1 X1147.1206 Y1313.3942 Z-7.9522 F2000
G1 X1146.7899 Y1313.9320 Z-8.1142 F2000
G1 X1146.3869 Y1314.4029 Z-8.2733 F2000
G1 X1145.9161 Y1314.8058 Z-8.4323 F2000
G1 X1145.3782 Y1315.1365 Z-8.5943 F2000
G1 X1144.7912 Y1315.3796 Z-8.7573 F2000
G1 X1144.1771 Y1315.5261 Z-8.9193 F2000
G1 X1143.8637 Y1315.5505 Z-9.0000 F2000
G1 X1144.1771 Y1315.5261 Z-9.0807 F2000
G1 X1144.7912 Y1315.3796 Z-9.2427 F2000
G1 X1145.3782 Y1315.1365 Z-9.4057 F2000
G1 X1145.9161 Y1314.8058 Z-9.5677 F2000
G1 X1146.3869 Y1314.4029 Z-9.7267 F2000
G1 X1146.7899 Y1313.9320 Z-9.8858 F2000
G1 X1147.1206 Y1313.3942 Z-10.0478 F2000
G1 X1147.3637 Y1312.8072 Z-10.2108 F2000
G1 X1147.5102 Y1312.1930 Z-10.3728 F2000
G1 X1147.5582 Y1311.5752 Z-10.5318 F2000
G1 X1147.5602 Y1309.5742 Z-11.0453 F2000
G1 X1147.5602 Y1340.5745 Z-19.0000 F2000
G1 X1147.5602 Y1309.5742 Z-19.0000 F2750
G1 X1147.5582 Y1311.5752 Z-19.0000 F2750
G1 X1147.5102 Y1312.1930 Z-19.0000 F2750
G1 X1147.3637 Y1312.8072 Z-19.0000 F2750
G1 X1147.1206 Y1313.3942 Z-19.0000 F2750
G1 X1146.7899 Y1313.9320 Z-19.0000 F2750
G1 X1146.3869 Y1314.4029 Z-19.0000 F2750
G1 X1145.9161 Y1314.8058 Z-19.0000 F2750
G1 X1145.3782 Y1315.1365 Z-19.0000 F2750
G1 X1144.7912 Y1315.3796 Z-19.0000 F2750
G1 X1144.1771 Y1315.5261 Z-19.0000 F2750
G1 X1143.5592 Y1315.5742 Z-19.0000 F2750
G1 X1131.5583 Y1315.5742 Z-19.0000 F2750
G1 X1133.5593 Y1315.5762 Z-19.0000 F2750
G1 X1134.1771 Y1315.6242 Z-19.0000 F2750
G1 X1134.7913 Y1315.7707 Z-19.0000 F2750
G1 X1135.3783 Y1316.0138 Z-19.0000 F2750
G1 X1135.9161 Y1316.3445 Z-19.0000 F2750
G1 X1136.3870 Y1316.7474 Z-19.0000 F2750
G1 X1136.7899 Y1317.2183 Z-19.0000 F2750
G1 X1137.1206 Y1317.7561 Z-19.0000 F2750
G1 X1137.3637 Y1318.3431 Z-19.0000 F2750
G1 X1137.5102 Y1318.9573 Z-19.0000 F2750
G1 X1137.5583 Y1319.5752 Z-19.0000 F2750
G1 X1137.5583 Y1363.5749 Z-19.0000 F2750
G1 X1137.5102 Y1364.1928 Z-19.0000 F2750
G1 X1137.3637 Y1364.8069 Z-19.0000 F2750
G1 X1137.1206 Y1365.3939 Z-19.0000 F2750
G1 X1136.7899 Y1365.9318 Z-19.0000 F2750
G1 X1136.3870 Y1366.4026 Z-19.0000 F2750
G1 X1135.9161 Y1366.8056 Z-19.0000 F2750
G1 X1135.3783 Y1367.1363 Z-19.0000 F2750
G1 X1134.7913 Y1367.3794 Z-19.0000 F2750
G1 X1134.1771 Y1367.5259 Z-19.0000 F2750
G1 X1133.5593 Y1367.5739 Z-19.0000 F2750
G1 X1131.5583 Y1367.5739 Z-19.0000 F2750
G1 X1143.5592 Y1367.5759 Z-19.0000 F2750
G1 X1144.1388 Y1367.6181 Z-19.0000 F2750
G1 X1144.7342 Y1367.7524 Z-19.0000 F2750
G1 X1145.3238 Y1367.9863 Z-19.0000 F2750
G1 X1145.8831 Y1368.3204 Z-19.0000 F2750
G1 X1146.3869 Y1368.7472 Z-19.0000 F2750
G1 X1146.8137 Y1369.2511 Z-19.0000 F2750
G1 X1147.1478 Y1369.8103 Z-19.0000 F2750
G1 X1147.3817 Y1370.4000 Z-19.0000 F2750
G1 X1147.5160 Y1370.9954 Z-19.0000 F2750
G1 X1147.5582 Y1371.5749 Z-19.0000 F2750
G1 X1147.5582 Y1373.5759 Z-19.0000 F2750
G1 X1147.5675 Y1357.0752 Z-19.0000 F2750
G1 X1147.5602 Y1340.5745 Z-19.0000 F2750
G1 X1147.5602 Y1340.5745 Z10.0000 F9999
G1 X905.5587 Y1342.5755 Z10.0000 F9999
G1 X905.5587 Y1342.5755 Z1.0000 F2000
G1 X905.5587 Y1373.5759 Z-6.9547 F2000
G1 X905.5607 Y1371.5749 Z-7.4682 F2000
G1 X905.6030 Y1370.9954 Z-7.6173 F2000
G1 X905.7372 Y1370.4000 Z-7.7739 F2000
G1 X905.9711 Y1369.8103 Z-7.9367 F2000
G1 X906.3052 Y1369.2511 Z-8.1038 F2000
G1 X906.7320 Y1368.7472 Z-8.2733 F2000
G1 X907.2359 Y1368.3204 Z-8.4427 F2000
G1 X907.7951 Y1367.9863 Z-8.6099 F2000
G1 X908.3848 Y1367.7524 Z-8.7726 F2000
G1 X908.9802 Y1367.6181 Z-8.9293 F2000
G1 X909.2552 Y1367.5981 Z-9.0000 F2000
