(plotsheet 2n3_nested_153 sheets_final v1_0_sheet 154b_S154.1_text_CC8 - HSM Finish 4~8mil)
(Material Size) (X=1220.000, Y=2440.000, Z=20.000)
(LinuxCNC_NoArcs_MM_TC_medium_50um_G1_verbose.con)
G90 G80 G21 G49
G64 P0.050
M6 T1
(Tool Number:1) (7.998 mm dia. slot drill)
G43 H1 G0Z80.0000
M3 S18000
G04 P10
G1 X685.6382 Y275.1280 Z10.0000 F9999
G1 X685.6382 Y275.1280 Z-1.5000 F2500
G1 X684.0308 Y274.6766 Z-1.5000 F5000
G1 X682.4895 Y273.6418 Z-1.5000 F5000
G1 X681.3226 Y271.8693 Z-1.5000 F5000
G1 X680.8712 Y269.1390 Z-1.5000 F5000
G1 X682.4455 Y264.0308 Z-1.5000 F5000
G1 X687.2345 Y262.1702 Z-1.5000 F5000
G1 X690.0749 Y262.6986 Z-1.5000 F5000
G1 X692.0895 Y264.0858 Z-1.5000 F5000
G1 X693.2895 Y266.0124 Z-1.5000 F5000
G1 X693.6969 Y268.1592 Z-1.5000 F5000
G1 X694.1373 Y266.0785 Z-1.5000 F5000
G1 X695.4694 Y264.3060 Z-1.5000 F5000
G1 X697.4950 Y263.0509 Z-1.5000 F5000
G1 X700.0162 Y262.5775 Z-1.5000 F5000
G1 X700.7318 Y262.5853 Z-1.5000 F5000
G1 X701.4458 Y262.6479 Z-1.5000 F5000
G1 X702.1519 Y262.7647 Z-1.5000 F5000
G1 X703.3629 Y263.2381 Z-1.5000 F5000
G1 X704.4639 Y264.1519 Z-1.5000 F5000
G1 X705.2455 Y265.6821 Z-1.5000 F5000
G1 X705.5317 Y267.9280 Z-1.5000 F5000
G1 X705.0363 Y271.1537 Z-1.5000 F5000
G1 X703.8253 Y273.0142 Z-1.5000 F5000
G1 X702.2290 Y273.9280 Z-1.5000 F5000
G1 X700.5886 Y274.2803 Z-1.5000 F5000
G1 X702.2290 Y273.9280 Z-1.5000 F5000
G1 X703.8253 Y273.0142 Z-1.5000 F5000
G1 X705.0363 Y271.1537 Z-1.5000 F5000
G1 X705.5317 Y267.9280 Z-1.5000 F5000
G1 X705.2455 Y265.6821 Z-1.5000 F5000
G1 X704.4639 Y264.1519 Z-1.5000 F5000
G1 X703.3629 Y263.2381 Z-1.5000 F5000
G1 X702.1519 Y262.7647 Z-1.5000 F5000
G1 X701.4460 Y262.6464 Z-1.5000 F5000
G1 X700.7319 Y262.5839 Z-1.5000 F5000
G1 X700.0162 Y262.5775 Z-1.5000 F5000
G1 X697.4950 Y263.0509 Z-1.5000 F5000
G1 X695.4694 Y264.3060 Z-1.5000 F5000
G1 X694.1373 Y266.0785 Z-1.5000 F5000
G1 X693.6969 Y268.1592 Z-1.5000 F5000
G1 X693.2895 Y266.0124 Z-1.5000 F5000
G1 X692.0895 Y264.0858 Z-1.5000 F5000
G1 X690.0749 Y262.6986 Z-1.5000 F5000
G1 X687.2345 Y262.1702 Z-1.5000 F5000
G1 X682.4455 Y264.0308 Z-1.5000 F5000
G1 X680.8712 Y269.1390 Z-1.5000 F5000
G1 X681.3226 Y271.8693 Z-1.5000 F5000
G1 X682.4895 Y273.6418 Z-1.5000 F5000
G1 X684.0308 Y274.6766 Z-1.5000 F5000
G1 X684.0308 Y274.6766 Z10.0000 F9999
G1 X705.5317 Y293.8643 Z10.0000 F9999
G1 X705.5317 Y293.8643 Z-1.5000 F2500
G1 X685.4950 Y307.1854 Z-1.5000 F5000
G1 X685.4950 Y289.9010 Z-1.5000 F5000
G1 X685.4950 Y307.1854 Z-1.5000 F5000
G1 X705.5317 Y293.8643 Z-1.5000 F5000
G1 X680.8712 Y293.8643 Z-1.5000 F5000
G1 X680.8712 Y293.8643 Z10.0000 F9999
G1 X680.8712 Y324.3698 Z10.0000 F9999
G1 X680.8712 Y324.3698 Z-1.5000 F2500
G1 X680.8712 Y331.9441 Z-1.5000 F5000
G1 X705.5317 Y331.9441 Z-1.5000 F5000
G1 X680.8712 Y331.9441 Z-1.5000 F5000
G1 X680.8712 Y331.9441 Z10.0000 F9999
G1 X845.6157 Y440.9364 Z10.0000 F9999
G1 X845.6157 Y440.9364 Z-1.5000 F2500
G1 X845.6157 Y455.3768 Z-1.5000 F5000
G1 X845.6157 Y440.9364 Z-1.5000 F5000
G1 X827.3221 Y440.9364 Z-1.5000 F5000
G1 X827.3221 Y456.0557 Z-1.5000 F5000
G1 X827.3221 Y440.9364 Z-1.5000 F5000
G1 X868.4230 Y440.9364 Z-1.5000 F5000
G1 X868.4230 Y440.9364 Z10.0000 F9999
G1 X868.4230 Y471.4685 Z10.0000 F9999
G1 X868.4230 Y471.4685 Z-1.5000 F2500
G1 X827.3221 Y471.4685 Z-1.5000 F5000
G1 X827.3221 Y478.6245 Z-1.5000 F5000
G1 X827.9276 Y482.4961 Z-1.5000 F5000
G1 X829.7441 Y485.7071 Z-1.5000 F5000
G1 X832.9001 Y487.9273 Z-1.5000 F5000
G1 X837.5423 Y488.7713 Z-1.5000 F5000
G1 X842.2212 Y487.6153 Z-1.5000 F5000
G1 X845.5423 Y484.8447 Z-1.5000 F5000
G1 X847.5056 Y481.5236 Z-1.5000 F5000
G1 X848.1661 Y478.6245 Z-1.5000 F5000
G1 X848.1661 Y471.4685 Z-1.5000 F5000
G1 X848.1661 Y478.6245 Z-1.5000 F5000
G1 X847.5056 Y481.5236 Z-1.5000 F5000
G1 X845.5423 Y484.8447 Z-1.5000 F5000
G1 X842.2212 Y487.6153 Z-1.5000 F5000
G1 X837.5423 Y488.7713 Z-1.5000 F5000
G1 X832.9001 Y487.9273 Z-1.5000 F5000
G1 X829.7441 Y485.7071 Z-1.5000 F5000
G1 X827.9276 Y482.4961 Z-1.5000 F5000
G1 X827.3221 Y478.6245 Z-1.5000 F5000
G1 X827.3221 Y471.4685 Z-1.5000 F5000
G1 X827.3221 Y471.4685 Z10.0000 F9999
G1 X827.3221 Y515.5786 Z10.0000 F9999
G1 X827.3221 Y515.5786 Z-1.5000 F2500
G1 X868.4230 Y531.6337 Z-1.5000 F5000
G1 X827.3221 Y515.5786 Z-1.5000 F5000
G1 X868.4230 Y499.5603 Z-1.5000 F5000
G1 X868.4230 Y499.5603 Z10.0000 F9999
G1 X868.4230 Y488.8814 Z10.0000 F9999
G1 X868.4230 Y488.8814 Z-1.5000 F2500
G1 X848.2762 Y475.6520 Z-1.5000 F5000
G1 X868.4230 Y488.8814 Z-1.5000 F5000
G1 X868.4230 Y488.8814 Z10.0000 F9999
G1 X853.7258 Y525.8906 Z10.0000 F9999
G1 X853.7258 Y525.8906 Z-1.5000 F2500
G1 X853.7258 Y505.1933 Z-1.5000 F5000
G1 X853.7258 Y525.8906 Z-1.5000 F5000
G1 X853.7258 Y525.8906 Z10.0000 F9999
G1 X843.7625 Y572.2575 Z10.0000 F9999
G1 X843.7625 Y572.2575 Z-1.5000 F2500
G1 X843.7625 Y543.0098 Z-1.5000 F5000
G1 X843.7625 Y572.2575 Z-1.5000 F5000
G1 X843.7625 Y572.2575 Z10.0000 F9999
G1 X827.3221 Y598.9548 Z10.0000 F9999
G1 X827.3221 Y598.9548 Z-1.5000 F2500
G1 X868.4230 Y615.0098 Z-1.5000 F5000
G1 X827.3221 Y598.9548 Z-1.5000 F5000
G1 X868.4230 Y582.9364 Z-1.5000 F5000
G1 X868.4230 Y582.9364 Z10.0000 F9999
G1 X853.7258 Y609.2667 Z10.0000 F9999
G1 X853.7258 Y609.2667 Z-1.5000 F2500
G1 X853.7258 Y588.5695 Z-1.5000 F5000
G1 X853.7258 Y609.2667 Z-1.5000 F5000
G1 X853.7258 Y609.2667 Z10.0000 F9999
G1 X861.5973 Y667.4869 Z10.0000 F9999
G1 X861.5973 Y667.4869 Z-1.5000 F2500
G1 X864.6432 Y669.4318 Z-1.5000 F5000
G1 X866.6983 Y671.8539 Z-1.5000 F5000
G1 X867.9460 Y674.9731 Z-1.5000 F5000
G1 X868.4230 Y679.1016 Z-1.5000 F5000
G1 X867.9643 Y683.5970 Z-1.5000 F5000
G1 X866.2212 Y687.4135 Z-1.5000 F5000
G1 X863.2304 Y690.0924 Z-1.5000 F5000
G1 X859.0652 Y691.2117 Z-1.5000 F5000
G1 X855.0652 Y690.6795 Z-1.5000 F5000
G1 X852.3863 Y689.1383 Z-1.5000 F5000
G1 X850.6983 Y687.1016 Z-1.5000 F5000
G1 X849.5973 Y685.1933 Z-1.5000 F5000
G1 X844.8634 Y676.0006 Z-1.5000 F5000
G1 X843.4505 Y673.6337 Z-1.5000 F5000
G1 X841.7992 Y671.7805 Z-1.5000 F5000
G1 X839.6157 Y670.5328 Z-1.5000 F5000
G1 X836.7350 Y670.0190 Z-1.5000 F5000
G1 X833.4505 Y670.5511 Z-1.5000 F5000
G1 X830.4230 Y672.3860 Z-1.5000 F5000
G1 X828.2028 Y675.5236 Z-1.5000 F5000
G1 X827.3221 Y679.8906 Z-1.5000 F5000
G1 X828.0010 Y684.1474 Z-1.5000 F5000
G1 X829.4689 Y686.9915 Z-1.5000 F5000
G1 X831.6157 Y689.0832 Z-1.5000 F5000
G1 X829.4689 Y686.9915 Z-1.5000 F5000
G1 X828.0010 Y684.1474 Z-1.5000 F5000
G1 X827.3221 Y679.8906 Z-1.5000 F5000
G1 X828.2028 Y675.5236 Z-1.5000 F5000
G1 X830.4230 Y672.3860 Z-1.5000 F5000
G1 X833.4505 Y670.5511 Z-1.5000 F5000
G1 X836.7350 Y670.0190 Z-1.5000 F5000
G1 X839.6157 Y670.5328 Z-1.5000 F5000
G1 X841.7992 Y671.7805 Z-1.5000 F5000
G1 X843.4505 Y673.6337 Z-1.5000 F5000
G1 X844.8634 Y676.0006 Z-1.5000 F5000
G1 X849.5973 Y685.1933 Z-1.5000 F5000
G1 X850.6983 Y687.1016 Z-1.5000 F5000
G1 X852.3863 Y689.1383 Z-1.5000 F5000
G1 X855.0652 Y690.6795 Z-1.5000 F5000
G1 X859.0652 Y691.2117 Z-1.5000 F5000
G1 X863.2304 Y690.0924 Z-1.5000 F5000
G1 X866.2212 Y687.4135 Z-1.5000 F5000
G1 X867.9643 Y683.5970 Z-1.5000 F5000
G1 X868.4230 Y679.1016 Z-1.5000 F5000
G1 X867.9460 Y674.9731 Z-1.5000 F5000
G1 X866.6983 Y671.8539 Z-1.5000 F5000
G1 X864.6432 Y669.4318 Z-1.5000 F5000
G1 X864.6432 Y669.4318 Z10.0000 F9999
G1 X860.4781 Y702.7162 Z10.0000 F9999
G1 X860.4781 Y702.7162 Z-1.5000 F2500
G1 X863.1570 Y703.4685 Z-1.5000 F5000
G1 X865.7258 Y705.1933 Z-1.5000 F5000
G1 X867.6707 Y708.1474 Z-1.5000 F5000
G1 X868.4230 Y712.6979 Z-1.5000 F5000
G1 X865.7992 Y721.2117 Z-1.5000 F5000
G1 X857.8175 Y724.3126 Z-1.5000 F5000
G1 X853.0836 Y723.4318 Z-1.5000 F5000
G1 X849.7258 Y721.1199 Z-1.5000 F5000
G1 X847.7258 Y717.9089 Z-1.5000 F5000
G1 X847.0469 Y714.3309 Z-1.5000 F5000
G1 X846.3129 Y717.7988 Z-1.5000 F5000
G1 X844.0927 Y720.7529 Z-1.5000 F5000
G1 X840.7166 Y722.8447 Z-1.5000 F5000
G1 X836.5148 Y723.6337 Z-1.5000 F5000
G1 X834.9368 Y723.5970 Z-1.5000 F5000
G1 X832.9551 Y723.3217 Z-1.5000 F5000
G1 X830.9368 Y722.5328 Z-1.5000 F5000
G1 X829.1019 Y721.0098 Z-1.5000 F5000
G1 X827.7992 Y718.4594 Z-1.5000 F5000
G1 X827.3221 Y714.7162 Z-1.5000 F5000
G1 X828.1478 Y709.3401 Z-1.5000 F5000
G1 X830.1661 Y706.2392 Z-1.5000 F5000
G1 X832.8267 Y704.7162 Z-1.5000 F5000
G1 X835.5606 Y704.1291 Z-1.5000 F5000
G1 X832.8267 Y704.7162 Z-1.5000 F5000
G1 X830.1661 Y706.2392 Z-1.5000 F5000
G1 X828.1478 Y709.3401 Z-1.5000 F5000
G1 X827.3221 Y714.7162 Z-1.5000 F5000
G1 X827.7992 Y718.4594 Z-1.5000 F5000
G1 X829.1019 Y721.0098 Z-1.5000 F5000
G1 X830.9368 Y722.5328 Z-1.5000 F5000
G1 X832.9551 Y723.3217 Z-1.5000 F5000
G1 X834.9001 Y723.5970 Z-1.5000 F5000
G1 X836.5148 Y723.6337 Z-1.5000 F5000
G1 X840.7166 Y722.8447 Z-1.5000 F5000
G1 X844.0927 Y720.7529 Z-1.5000 F5000
G1 X846.3129 Y717.7988 Z-1.5000 F5000
G1 X847.0469 Y714.3309 Z-1.5000 F5000
G1 X847.7258 Y717.9089 Z-1.5000 F5000
G1 X849.7258 Y721.1199 Z-1.5000 F5000
G1 X853.0836 Y723.4318 Z-1.5000 F5000
G1 X857.8175 Y724.3126 Z-1.5000 F5000
G1 X865.7992 Y721.2117 Z-1.5000 F5000
G1 X868.4230 Y712.6979 Z-1.5000 F5000
G1 X867.6707 Y708.1474 Z-1.5000 F5000
G1 X865.7258 Y705.1933 Z-1.5000 F5000
G1 X863.1570 Y703.4685 Z-1.5000 F5000
G1 X863.1570 Y703.4685 Z10.0000 F9999
G1 X817.9276 Y656.7713 Z10.0000 F9999
G1 X817.9276 Y656.7713 Z-1.5000 F2500
G1 X870.7716 Y626.3860 Z-1.5000 F5000
G1 X817.9276 Y656.7713 Z-1.5000 F5000
G1 X817.9276 Y656.7713 Z10.0000 F9999
G1 X817.9276 Y765.9823 Z10.0000 F9999
G1 X817.9276 Y765.9823 Z-1.5000 F2500
G1 X870.7716 Y735.5970 Z-1.5000 F5000
G1 X817.9276 Y765.9823 Z-1.5000 F5000
G1 X817.9276 Y765.9823 Z10.0000 F9999
G1 X827.3221 Y781.4869 Z10.0000 F9999
G1 X827.3221 Y781.4869 Z-1.5000 F2500
G1 X868.4230 Y781.4869 Z-1.5000 F5000
G1 X827.3221 Y781.4869 Z-1.5000 F5000
G1 X827.3221 Y781.4869 Z10.0000 F9999
G1 X827.3221 Y801.4502 Z10.0000 F9999
G1 X827.3221 Y801.4502 Z-1.5000 F2500
G1 X868.4230 Y838.5511 Z-1.5000 F5000
G1 X827.3221 Y838.5511 Z-1.5000 F5000
G1 X868.4230 Y838.5511 Z-1.5000 F5000
G1 X827.3221 Y801.4502 Z-1.5000 F5000
G1 X868.4230 Y801.4502 Z-1.5000 F5000
G1 X868.4230 Y801.4502 Z10.0000 F9999
G1 X980.8339 Y918.3919 Z10.0000 F9999
G1 X980.8339 Y918.3919 Z-1.5000 F2500
G1 X982.7788 Y915.3460 Z-1.5000 F5000
G1 X985.2008 Y913.2910 Z-1.5000 F5000
G1 X988.3201 Y912.0433 Z-1.5000 F5000
G1 X992.4486 Y911.5662 Z-1.5000 F5000
G1 X996.9440 Y912.0249 Z-1.5000 F5000
G1 X1000.7605 Y913.7680 Z-1.5000 F5000
G1 X1003.4394 Y916.7589 Z-1.5000 F5000
G1 X1004.5586 Y920.9240 Z-1.5000 F5000
G1 X1004.0265 Y924.9240 Z-1.5000 F5000
G1 X1002.4853 Y927.6029 Z-1.5000 F5000
G1 X1000.4486 Y929.2910 Z-1.5000 F5000
G1 X998.5403 Y930.3919 Z-1.5000 F5000
G1 X989.3476 Y935.1258 Z-1.5000 F5000
G1 X986.9807 Y936.5387 Z-1.5000 F5000
G1 X985.1275 Y938.1901 Z-1.5000 F5000
G1 X983.8797 Y940.3735 Z-1.5000 F5000
G1 X983.3660 Y943.2543 Z-1.5000 F5000
G1 X983.8981 Y946.5387 Z-1.5000 F5000
G1 X985.7330 Y949.5662 Z-1.5000 F5000
G1 X988.8706 Y951.7864 Z-1.5000 F5000
G1 X993.2375 Y952.6671 Z-1.5000 F5000
G1 X997.4944 Y951.9882 Z-1.5000 F5000
G1 X1000.3385 Y950.5203 Z-1.5000 F5000
G1 X1002.4302 Y948.3735 Z-1.5000 F5000
G1 X1000.3385 Y950.5203 Z-1.5000 F5000
G1 X997.4944 Y951.9882 Z-1.5000 F5000
G1 X993.2375 Y952.6671 Z-1.5000 F5000
G1 X988.8706 Y951.7864 Z-1.5000 F5000
G1 X985.7330 Y949.5662 Z-1.5000 F5000
G1 X983.8981 Y946.5387 Z-1.5000 F5000
G1 X983.3660 Y943.2543 Z-1.5000 F5000
G1 X983.8797 Y940.3735 Z-1.5000 F5000
G1 X985.1275 Y938.1901 Z-1.5000 F5000
G1 X986.9807 Y936.5387 Z-1.5000 F5000
G1 X989.3476 Y935.1258 Z-1.5000 F5000
G1 X998.5403 Y930.3919 Z-1.5000 F5000
G1 X1000.4486 Y929.2910 Z-1.5000 F5000
G1 X1002.4853 Y927.6029 Z-1.5000 F5000
G1 X1004.0265 Y924.9240 Z-1.5000 F5000
G1 X1004.5586 Y920.9240 Z-1.5000 F5000
G1 X1003.4394 Y916.7589 Z-1.5000 F5000
G1 X1000.7605 Y913.7680 Z-1.5000 F5000
G1 X996.9440 Y912.0249 Z-1.5000 F5000
G1 X992.4486 Y911.5662 Z-1.5000 F5000
G1 X988.3201 Y912.0433 Z-1.5000 F5000
G1 X985.2008 Y913.2910 Z-1.5000 F5000
G1 X982.7788 Y915.3460 Z-1.5000 F5000
G1 X982.7788 Y915.3460 Z10.0000 F9999
G1 X1020.8522 Y932.4286 Z10.0000 F9999
G1 X1020.8522 Y932.4286 Z-1.5000 F2500
G1 X1043.5128 Y911.5662 Z-1.5000 F5000
G1 X1020.8522 Y932.4286 Z-1.5000 F5000
G1 X1043.4027 Y952.6671 Z-1.5000 F5000
G1 X1020.8522 Y932.4286 Z-1.5000 F5000
G1 X1020.8522 Y952.6671 Z-1.5000 F5000
G1 X1020.8522 Y911.5662 Z-1.5000 F5000
G1 X1020.8522 Y911.5662 Z10.0000 F9999
G1 X1059.6045 Y952.6671 Z10.0000 F9999
G1 X1059.6045 Y952.6671 Z-1.5000 F2500
G1 X1059.6045 Y911.5662 Z-1.5000 F5000
G1 X1059.6045 Y952.6671 Z-1.5000 F5000
G1 X1059.6045 Y952.6671 Z10.0000 F9999
G1 X1105.1642 Y962.0616 Z10.0000 F9999
G1 X1105.1642 Y962.0616 Z-1.5000 F2500
G1 X1074.7788 Y909.2176 Z-1.5000 F5000
G1 X1105.1642 Y962.0616 Z-1.5000 F5000
G1 X1105.1642 Y962.0616 Z10.0000 F9999
G1 X1131.8981 Y952.6671 Z10.0000 F9999
G1 X1131.8981 Y952.6671 Z-1.5000 F2500
G1 X1147.9531 Y911.5662 Z-1.5000 F5000
G1 X1131.8981 Y952.6671 Z-1.5000 F5000
G1 X1115.8797 Y911.5662 Z-1.5000 F5000
G1 X1115.8797 Y911.5662 Z10.0000 F9999
G1 X1142.2100 Y926.2635 Z10.0000 F9999
G1 X1142.2100 Y926.2635 Z-1.5000 F2500
G1 X1121.5128 Y926.2635 Z-1.5000 F5000
G1 X1142.2100 Y926.2635 Z-1.5000 F5000
G1 X1142.2100 Y926.2635 Z10.0000 F9999
G1 X725.1839 Y885.2334 Z10.0000 F9999
G1 X725.1839 Y885.2334 Z-1.5000 F2500
G1 X705.1472 Y898.5545 Z-1.5000 F5000
G1 X705.1472 Y881.2701 Z-1.5000 F5000
G1 X705.1472 Y898.5545 Z-1.5000 F5000
G1 X725.1839 Y885.2334 Z-1.5000 F5000
G1 X700.5233 Y885.2334 Z-1.5000 F5000
G1 X700.5233 Y885.2334 Z10.0000 F9999
G1 X705.2903 Y866.4971 Z10.0000 F9999
G1 X705.2903 Y866.4971 Z-1.5000 F2500
G1 X703.6830 Y866.0457 Z-1.5000 F5000
G1 X702.1417 Y865.0109 Z-1.5000 F5000
G1 X700.9747 Y863.2384 Z-1.5000 F5000
G1 X700.5233 Y860.5081 Z-1.5000 F5000
G1 X702.0976 Y855.3998 Z-1.5000 F5000
G1 X706.8866 Y853.5393 Z-1.5000 F5000
G1 X709.7270 Y854.0677 Z-1.5000 F5000
G1 X711.7417 Y855.4549 Z-1.5000 F5000
G1 X712.9417 Y857.3815 Z-1.5000 F5000
G1 X713.3490 Y859.5283 Z-1.5000 F5000
G1 X713.7894 Y857.4475 Z-1.5000 F5000
G1 X715.1215 Y855.6751 Z-1.5000 F5000
G1 X717.1472 Y854.4200 Z-1.5000 F5000
G1 X719.6683 Y853.9466 Z-1.5000 F5000
G1 X720.3839 Y853.9544 Z-1.5000 F5000
G1 X721.0980 Y854.0170 Z-1.5000 F5000
G1 X721.8041 Y854.1338 Z-1.5000 F5000
G1 X723.0151 Y854.6072 Z-1.5000 F5000
G1 X724.1160 Y855.5209 Z-1.5000 F5000
G1 X724.8976 Y857.0512 Z-1.5000 F5000
G1 X725.1839 Y859.2971 Z-1.5000 F5000
G1 X724.6885 Y862.5228 Z-1.5000 F5000
G1 X723.4775 Y864.3833 Z-1.5000 F5000
G1 X721.8811 Y865.2971 Z-1.5000 F5000
G1 X720.2408 Y865.6494 Z-1.5000 F5000
G1 X721.8811 Y865.2971 Z-1.5000 F5000
G1 X723.4775 Y864.3833 Z-1.5000 F5000
G1 X724.6885 Y862.5228 Z-1.5000 F5000
G1 X725.1839 Y859.2971 Z-1.5000 F5000
G1 X724.8976 Y857.0512 Z-1.5000 F5000
G1 X724.1160 Y855.5209 Z-1.5000 F5000
G1 X723.0151 Y854.6072 Z-1.5000 F5000
G1 X721.8041 Y854.1338 Z-1.5000 F5000
G1 X721.0981 Y854.0155 Z-1.5000 F5000
G1 X720.3840 Y853.9529 Z-1.5000 F5000
G1 X719.6683 Y853.9466 Z-1.5000 F5000
G1 X717.1472 Y854.4200 Z-1.5000 F5000
G1 X715.1215 Y855.6751 Z-1.5000 F5000
G1 X713.7894 Y857.4475 Z-1.5000 F5000
G1 X713.3490 Y859.5283 Z-1.5000 F5000
G1 X712.9417 Y857.3815 Z-1.5000 F5000
G1 X711.7417 Y855.4549 Z-1.5000 F5000
G1 X709.7270 Y854.0677 Z-1.5000 F5000
G1 X706.8866 Y853.5393 Z-1.5000 F5000
G1 X702.0976 Y855.3998 Z-1.5000 F5000
G1 X700.5233 Y860.5081 Z-1.5000 F5000
G1 X700.9747 Y863.2384 Z-1.5000 F5000
G1 X702.1417 Y865.0109 Z-1.5000 F5000
G1 X703.6830 Y866.0457 Z-1.5000 F5000
G1 X703.6830 Y866.0457 Z10.0000 F9999
G1 X700.5233 Y915.7389 Z10.0000 F9999
G1 X700.5233 Y915.7389 Z-1.5000 F2500
G1 X700.5233 Y923.3132 Z-1.5000 F5000
G1 X725.1839 Y923.3132 Z-1.5000 F5000
G1 X700.5233 Y923.3132 Z-1.5000 F5000
G1 X700.5233 Y923.3132 Z10.0000 F9999
G1 X679.1456 Y631.5268 Z10.0000 F9999
G1 X679.1456 Y631.5268 Z-1.5000 F2500
G1 X679.1456 Y639.1011 Z-1.5000 F5000
G1 X703.8061 Y639.1011 Z-1.5000 F5000
G1 X679.1456 Y639.1011 Z-1.5000 F5000
G1 X679.1456 Y639.1011 Z10.0000 F9999
G1 X703.8061 Y601.0213 Z10.0000 F9999
G1 X703.8061 Y601.0213 Z-1.5000 F2500
G1 X683.7694 Y614.3424 Z-1.5000 F5000
G1 X683.7694 Y597.0580 Z-1.5000 F5000
G1 X683.7694 Y614.3424 Z-1.5000 F5000
G1 X703.8061 Y601.0213 Z-1.5000 F5000
G1 X679.1456 Y601.0213 Z-1.5000 F5000
G1 X679.1456 Y601.0213 Z10.0000 F9999
G1 X683.9126 Y582.2850 Z10.0000 F9999
G1 X683.9126 Y582.2850 Z-1.5000 F2500
G1 X682.3052 Y581.8336 Z-1.5000 F5000
G1 X680.7639 Y580.7988 Z-1.5000 F5000
G1 X679.5970 Y579.0263 Z-1.5000 F5000
G1 X679.1456 Y576.2960 Z-1.5000 F5000
G1 X680.7199 Y571.1878 Z-1.5000 F5000
G1 X685.5089 Y569.3272 Z-1.5000 F5000
G1 X688.3493 Y569.8556 Z-1.5000 F5000
G1 X690.3639 Y571.2428 Z-1.5000 F5000
G1 X691.5639 Y573.1694 Z-1.5000 F5000
G1 X691.9713 Y575.3162 Z-1.5000 F5000
G1 X692.4117 Y573.2355 Z-1.5000 F5000
G1 X693.7438 Y571.4630 Z-1.5000 F5000
G1 X695.7694 Y570.2079 Z-1.5000 F5000
G1 X698.2905 Y569.7345 Z-1.5000 F5000
G1 X699.0062 Y569.7423 Z-1.5000 F5000
G1 X699.7202 Y569.8049 Z-1.5000 F5000
G1 X700.4263 Y569.9217 Z-1.5000 F5000
G1 X701.6373 Y570.3951 Z-1.5000 F5000
G1 X702.7383 Y571.3089 Z-1.5000 F5000
G1 X703.5199 Y572.8391 Z-1.5000 F5000
G1 X703.8061 Y575.0850 Z-1.5000 F5000
G1 X703.3107 Y578.3107 Z-1.5000 F5000
G1 X702.0997 Y580.1712 Z-1.5000 F5000
G1 X700.5034 Y581.0850 Z-1.5000 F5000
G1 X698.8630 Y581.4373 Z-1.5000 F5000
G1 X700.5034 Y581.0850 Z-1.5000 F5000
G1 X702.0997 Y580.1712 Z-1.5000 F5000
G1 X703.3107 Y578.3107 Z-1.5000 F5000
G1 X703.8061 Y575.0850 Z-1.5000 F5000
G1 X703.5199 Y572.8391 Z-1.5000 F5000
G1 X702.7383 Y571.3089 Z-1.5000 F5000
G1 X701.6373 Y570.3951 Z-1.5000 F5000
G1 X700.4263 Y569.9217 Z-1.5000 F5000
G1 X699.7204 Y569.8034 Z-1.5000 F5000
G1 X699.0063 Y569.7409 Z-1.5000 F5000
G1 X698.2905 Y569.7345 Z-1.5000 F5000
G1 X695.7694 Y570.2079 Z-1.5000 F5000
G1 X693.7438 Y571.4630 Z-1.5000 F5000
G1 X692.4117 Y573.2355 Z-1.5000 F5000
G1 X691.9713 Y575.3162 Z-1.5000 F5000
G1 X691.5639 Y573.1694 Z-1.5000 F5000
G1 X690.3639 Y571.2428 Z-1.5000 F5000
G1 X688.3493 Y569.8556 Z-1.5000 F5000
G1 X685.5089 Y569.3272 Z-1.5000 F5000
G1 X680.7199 Y571.1878 Z-1.5000 F5000
G1 X679.1456 Y576.2960 Z-1.5000 F5000
G1 X679.5970 Y579.0263 Z-1.5000 F5000
G1 X680.7639 Y580.7988 Z-1.5000 F5000
G1 X682.3052 Y581.8336 Z-1.5000 F5000
G1 X682.3052 Y581.8336 Z10.0000 F9999
G1 X866.0324 Y2082.2327 Z10.0000 F9999
G1 X866.0324 Y2082.2327 Z-1.5000 F2500
G1 X867.9773 Y2079.1868 Z-1.5000 F5000
G1 X870.3994 Y2077.1317 Z-1.5000 F5000
G1 X873.5186 Y2075.8840 Z-1.5000 F5000
G1 X877.6471 Y2075.4070 Z-1.5000 F5000
G1 X882.1425 Y2075.8657 Z-1.5000 F5000
G1 X885.9590 Y2077.6088 Z-1.5000 F5000
G1 X888.6379 Y2080.5996 Z-1.5000 F5000
G1 X889.7572 Y2084.7648 Z-1.5000 F5000
G1 X889.2250 Y2088.7648 Z-1.5000 F5000
G1 X887.6838 Y2091.4437 Z-1.5000 F5000
G1 X885.6471 Y2093.1317 Z-1.5000 F5000
G1 X883.7388 Y2094.2327 Z-1.5000 F5000
G1 X874.5462 Y2098.9666 Z-1.5000 F5000
G1 X872.1792 Y2100.3795 Z-1.5000 F5000
G1 X870.3260 Y2102.0308 Z-1.5000 F5000
G1 X869.0783 Y2104.2143 Z-1.5000 F5000
G1 X868.5645 Y2107.0951 Z-1.5000 F5000
G1 X869.0966 Y2110.3795 Z-1.5000 F5000
G1 X870.9315 Y2113.4070 Z-1.5000 F5000
G1 X874.0691 Y2115.6272 Z-1.5000 F5000
G1 X878.4361 Y2116.5079 Z-1.5000 F5000
G1 X882.6929 Y2115.8290 Z-1.5000 F5000
G1 X885.5370 Y2114.3611 Z-1.5000 F5000
G1 X887.6287 Y2112.2143 Z-1.5000 F5000
G1 X885.5370 Y2114.3611 Z-1.5000 F5000
G1 X882.6929 Y2115.8290 Z-1.5000 F5000
G1 X878.4361 Y2116.5079 Z-1.5000 F5000
G1 X874.0691 Y2115.6272 Z-1.5000 F5000
G1 X870.9315 Y2113.4070 Z-1.5000 F5000
G1 X869.0966 Y2110.3795 Z-1.5000 F5000
G1 X868.5645 Y2107.0951 Z-1.5000 F5000
G1 X869.0783 Y2104.2143 Z-1.5000 F5000
G1 X870.3260 Y2102.0308 Z-1.5000 F5000
G1 X872.1792 Y2100.3795 Z-1.5000 F5000
G1 X874.5462 Y2098.9666 Z-1.5000 F5000
G1 X883.7388 Y2094.2327 Z-1.5000 F5000
G1 X885.6471 Y2093.1317 Z-1.5000 F5000
G1 X887.6838 Y2091.4437 Z-1.5000 F5000
G1 X889.2250 Y2088.7648 Z-1.5000 F5000
G1 X889.7572 Y2084.7648 Z-1.5000 F5000
G1 X888.6379 Y2080.5996 Z-1.5000 F5000
G1 X885.9590 Y2077.6088 Z-1.5000 F5000
G1 X882.1425 Y2075.8657 Z-1.5000 F5000
G1 X877.6471 Y2075.4070 Z-1.5000 F5000
G1 X873.5186 Y2075.8840 Z-1.5000 F5000
G1 X870.3994 Y2077.1317 Z-1.5000 F5000
G1 X867.9773 Y2079.1868 Z-1.5000 F5000
G1 X867.9773 Y2079.1868 Z10.0000 F9999
G1 X942.3627 Y2082.2327 Z10.0000 F9999
G1 X942.3627 Y2082.2327 Z-1.5000 F2500
G1 X944.3076 Y2079.1868 Z-1.5000 F5000
G1 X946.7296 Y2077.1317 Z-1.5000 F5000
G1 X949.8489 Y2075.8840 Z-1.5000 F5000
G1 X953.9773 Y2075.4070 Z-1.5000 F5000
G1 X958.4728 Y2075.8657 Z-1.5000 F5000
G1 X962.2893 Y2077.6088 Z-1.5000 F5000
G1 X964.9682 Y2080.5996 Z-1.5000 F5000
G1 X966.0874 Y2084.7648 Z-1.5000 F5000
G1 X965.5553 Y2088.7648 Z-1.5000 F5000
G1 X964.0140 Y2091.4437 Z-1.5000 F5000
G1 X961.9773 Y2093.1317 Z-1.5000 F5000
G1 X960.0691 Y2094.2327 Z-1.5000 F5000
G1 X950.8764 Y2098.9666 Z-1.5000 F5000
G1 X948.5095 Y2100.3795 Z-1.5000 F5000
G1 X946.6562 Y2102.0308 Z-1.5000 F5000
G1 X945.4085 Y2104.2143 Z-1.5000 F5000
G1 X944.8948 Y2107.0951 Z-1.5000 F5000
G1 X945.4269 Y2110.3795 Z-1.5000 F5000
G1 X947.2617 Y2113.4070 Z-1.5000 F5000
G1 X950.3994 Y2115.6272 Z-1.5000 F5000
G1 X954.7663 Y2116.5079 Z-1.5000 F5000
G1 X959.0232 Y2115.8290 Z-1.5000 F5000
G1 X961.8673 Y2114.3611 Z-1.5000 F5000
G1 X963.9590 Y2112.2143 Z-1.5000 F5000
G1 X961.8673 Y2114.3611 Z-1.5000 F5000
G1 X959.0232 Y2115.8290 Z-1.5000 F5000
G1 X954.7663 Y2116.5079 Z-1.5000 F5000
G1 X950.3994 Y2115.6272 Z-1.5000 F5000
G1 X947.2617 Y2113.4070 Z-1.5000 F5000
G1 X945.4269 Y2110.3795 Z-1.5000 F5000
G1 X944.8948 Y2107.0951 Z-1.5000 F5000
G1 X945.4085 Y2104.2143 Z-1.5000 F5000
G1 X946.6562 Y2102.0308 Z-1.5000 F5000
G1 X948.5095 Y2100.3795 Z-1.5000 F5000
G1 X950.8764 Y2098.9666 Z-1.5000 F5000
G1 X960.0691 Y2094.2327 Z-1.5000 F5000
G1 X961.9773 Y2093.1317 Z-1.5000 F5000
G1 X964.0140 Y2091.4437 Z-1.5000 F5000
G1 X965.5553 Y2088.7648 Z-1.5000 F5000
G1 X966.0874 Y2084.7648 Z-1.5000 F5000
G1 X964.9682 Y2080.5996 Z-1.5000 F5000
G1 X962.2893 Y2077.6088 Z-1.5000 F5000
G1 X958.4728 Y2075.8657 Z-1.5000 F5000
G1 X953.9773 Y2075.4070 Z-1.5000 F5000
G1 X949.8489 Y2075.8840 Z-1.5000 F5000
G1 X946.7296 Y2077.1317 Z-1.5000 F5000
G1 X944.3076 Y2079.1868 Z-1.5000 F5000
G1 X944.3076 Y2079.1868 Z10.0000 F9999
G1 X931.6471 Y2125.9024 Z10.0000 F9999
G1 X931.6471 Y2125.9024 Z-1.5000 F2500
G1 X901.2617 Y2073.0584 Z-1.5000 F5000
G1 X931.6471 Y2125.9024 Z-1.5000 F5000
G1 X931.6471 Y2125.9024 Z10.0000 F9999
G1 X965.4761 Y2308.9106 Z10.0000 F9999
G1 X965.4761 Y2308.9106 Z-1.5000 F2500
G1 X967.4210 Y2305.8647 Z-1.5000 F5000
G1 X969.8431 Y2303.8097 Z-1.5000 F5000
G1 X972.9623 Y2302.5620 Z-1.5000 F5000
G1 X977.0908 Y2302.0849 Z-1.5000 F5000
G1 X981.5862 Y2302.5436 Z-1.5000 F5000
G1 X985.4027 Y2304.2868 Z-1.5000 F5000
G1 X988.0816 Y2307.2776 Z-1.5000 F5000
G1 X989.2008 Y2311.4427 Z-1.5000 F5000
G1 X988.6687 Y2315.4427 Z-1.5000 F5000
G1 X987.1275 Y2318.1216 Z-1.5000 F5000
G1 X985.0908 Y2319.8097 Z-1.5000 F5000
G1 X983.1825 Y2320.9106 Z-1.5000 F5000
G1 X973.9898 Y2325.6446 Z-1.5000 F5000
G1 X971.6229 Y2327.0574 Z-1.5000 F5000
G1 X969.7697 Y2328.7088 Z-1.5000 F5000
G1 X968.5219 Y2330.8923 Z-1.5000 F5000
G1 X968.0082 Y2333.7730 Z-1.5000 F5000
G1 X968.5403 Y2337.0574 Z-1.5000 F5000
G1 X970.3752 Y2340.0849 Z-1.5000 F5000
G1 X973.5128 Y2342.3051 Z-1.5000 F5000
G1 X977.8797 Y2343.1858 Z-1.5000 F5000
G1 X982.1366 Y2342.5069 Z-1.5000 F5000
G1 X984.9807 Y2341.0390 Z-1.5000 F5000
G1 X987.0724 Y2338.8923 Z-1.5000 F5000
G1 X984.9807 Y2341.0390 Z-1.5000 F5000
G1 X982.1366 Y2342.5069 Z-1.5000 F5000
G1 X977.8797 Y2343.1858 Z-1.5000 F5000
G1 X973.5128 Y2342.3051 Z-1.5000 F5000
G1 X970.3752 Y2340.0849 Z-1.5000 F5000
G1 X968.5403 Y2337.0574 Z-1.5000 F5000
G1 X968.0082 Y2333.7730 Z-1.5000 F5000
G1 X968.5219 Y2330.8923 Z-1.5000 F5000
G1 X969.7697 Y2328.7088 Z-1.5000 F5000
G1 X971.6229 Y2327.0574 Z-1.5000 F5000
G1 X973.9898 Y2325.6446 Z-1.5000 F5000
G1 X983.1825 Y2320.9106 Z-1.5000 F5000
G1 X985.0908 Y2319.8097 Z-1.5000 F5000
G1 X987.1275 Y2318.1216 Z-1.5000 F5000
G1 X988.6687 Y2315.4427 Z-1.5000 F5000
G1 X989.2008 Y2311.4427 Z-1.5000 F5000
G1 X988.0816 Y2307.2776 Z-1.5000 F5000
G1 X985.4027 Y2304.2868 Z-1.5000 F5000
G1 X981.5862 Y2302.5436 Z-1.5000 F5000
G1 X977.0908 Y2302.0849 Z-1.5000 F5000
G1 X972.9623 Y2302.5620 Z-1.5000 F5000
G1 X969.8431 Y2303.8097 Z-1.5000 F5000
G1 X967.4210 Y2305.8647 Z-1.5000 F5000
G1 X967.4210 Y2305.8647 Z10.0000 F9999
G1 X954.7605 Y2352.5803 Z10.0000 F9999
G1 X954.7605 Y2352.5803 Z-1.5000 F2500
G1 X924.3752 Y2299.7363 Z-1.5000 F5000
G1 X954.7605 Y2352.5803 Z-1.5000 F5000
G1 X954.7605 Y2352.5803 Z10.0000 F9999
G1 X889.1458 Y2308.9106 Z10.0000 F9999
G1 X889.1458 Y2308.9106 Z-1.5000 F2500
G1 X891.0908 Y2305.8647 Z-1.5000 F5000
G1 X893.5128 Y2303.8097 Z-1.5000 F5000
G1 X896.6320 Y2302.5620 Z-1.5000 F5000
G1 X900.7605 Y2302.0849 Z-1.5000 F5000
G1 X905.2559 Y2302.5436 Z-1.5000 F5000
G1 X909.0724 Y2304.2868 Z-1.5000 F5000
G1 X911.7513 Y2307.2776 Z-1.5000 F5000
G1 X912.8706 Y2311.4427 Z-1.5000 F5000
G1 X912.3385 Y2315.4427 Z-1.5000 F5000
G1 X910.7972 Y2318.1216 Z-1.5000 F5000
G1 X908.7605 Y2319.8097 Z-1.5000 F5000
G1 X906.8522 Y2320.9106 Z-1.5000 F5000
G1 X897.6596 Y2325.6446 Z-1.5000 F5000
G1 X895.2926 Y2327.0574 Z-1.5000 F5000
G1 X893.4394 Y2328.7088 Z-1.5000 F5000
G1 X892.1917 Y2330.8923 Z-1.5000 F5000
G1 X891.6779 Y2333.7730 Z-1.5000 F5000
G1 X892.2100 Y2337.0574 Z-1.5000 F5000
G1 X894.0449 Y2340.0849 Z-1.5000 F5000
G1 X897.1825 Y2342.3051 Z-1.5000 F5000
G1 X901.5495 Y2343.1858 Z-1.5000 F5000
G1 X905.8064 Y2342.5069 Z-1.5000 F5000
G1 X908.6504 Y2341.0390 Z-1.5000 F5000
G1 X910.7421 Y2338.8923 Z-1.5000 F5000
G1 X908.6504 Y2341.0390 Z-1.5000 F5000
G1 X905.8064 Y2342.5069 Z-1.5000 F5000
G1 X901.5495 Y2343.1858 Z-1.5000 F5000
G1 X897.1825 Y2342.3051 Z-1.5000 F5000
G1 X894.0449 Y2340.0849 Z-1.5000 F5000
G1 X892.2100 Y2337.0574 Z-1.5000 F5000
G1 X891.6779 Y2333.7730 Z-1.5000 F5000
G1 X892.1917 Y2330.8923 Z-1.5000 F5000
G1 X893.4394 Y2328.7088 Z-1.5000 F5000
G1 X895.2926 Y2327.0574 Z-1.5000 F5000
G1 X897.6596 Y2325.6446 Z-1.5000 F5000
G1 X906.8522 Y2320.9106 Z-1.5000 F5000
G1 X908.7605 Y2319.8097 Z-1.5000 F5000
G1 X910.7972 Y2318.1216 Z-1.5000 F5000
G1 X912.3385 Y2315.4427 Z-1.5000 F5000
G1 X912.8706 Y2311.4427 Z-1.5000 F5000
G1 X911.7513 Y2307.2776 Z-1.5000 F5000
G1 X909.0724 Y2304.2868 Z-1.5000 F5000
G1 X905.2559 Y2302.5436 Z-1.5000 F5000
G1 X900.7605 Y2302.0849 Z-1.5000 F5000
G1 X896.6320 Y2302.5620 Z-1.5000 F5000
G1 X893.5128 Y2303.8097 Z-1.5000 F5000
G1 X891.0908 Y2305.8647 Z-1.5000 F5000
G1 X891.0908 Y2305.8647 Z10.0000 F9999
G1 X1169.2163 Y2150.0274 Z10.0000 F9999
G1 X1169.2163 Y2150.0274 Z-1.5000 F2500
G1 X1169.2163 Y2157.6017 Z-1.5000 F5000
G1 X1193.8769 Y2157.6017 Z-1.5000 F5000
G1 X1169.2163 Y2157.6017 Z-1.5000 F5000
G1 X1169.2163 Y2157.6017 Z10.0000 F9999
G1 X1193.8769 Y2119.5219 Z10.0000 F9999
G1 X1193.8769 Y2119.5219 Z-1.5000 F2500
G1 X1173.8402 Y2132.8430 Z-1.5000 F5000
G1 X1173.8402 Y2115.5586 Z-1.5000 F5000
G1 X1173.8402 Y2132.8430 Z-1.5000 F5000
G1 X1193.8769 Y2119.5219 Z-1.5000 F5000
G1 X1169.2163 Y2119.5219 Z-1.5000 F5000
G1 X1169.2163 Y2119.5219 Z10.0000 F9999
G1 X1173.9833 Y2100.7856 Z10.0000 F9999
G1 X1173.9833 Y2100.7856 Z-1.5000 F2500
G1 X1172.3759 Y2100.3342 Z-1.5000 F5000
G1 X1170.8347 Y2099.2994 Z-1.5000 F5000
G1 X1169.6677 Y2097.5269 Z-1.5000 F5000
G1 X1169.2163 Y2094.7966 Z-1.5000 F5000
G1 X1170.7906 Y2089.6884 Z-1.5000 F5000
G1 X1175.5796 Y2087.8278 Z-1.5000 F5000
G1 X1178.4200 Y2088.3562 Z-1.5000 F5000
G1 X1180.4347 Y2089.7434 Z-1.5000 F5000
G1 X1181.6347 Y2091.6700 Z-1.5000 F5000
G1 X1182.0420 Y2093.8168 Z-1.5000 F5000
G1 X1182.4824 Y2091.7361 Z-1.5000 F5000
G1 X1183.8145 Y2089.9636 Z-1.5000 F5000
G1 X1185.8402 Y2088.7085 Z-1.5000 F5000
G1 X1188.3613 Y2088.2351 Z-1.5000 F5000
G1 X1189.0769 Y2088.2429 Z-1.5000 F5000
G1 X1189.7909 Y2088.3055 Z-1.5000 F5000
G1 X1190.4971 Y2088.4223 Z-1.5000 F5000
G1 X1191.7081 Y2088.8957 Z-1.5000 F5000
G1 X1192.8090 Y2089.8095 Z-1.5000 F5000
G1 X1193.5906 Y2091.3397 Z-1.5000 F5000
G1 X1193.8769 Y2093.5856 Z-1.5000 F5000
G1 X1193.3815 Y2096.8113 Z-1.5000 F5000
G1 X1192.1704 Y2098.6718 Z-1.5000 F5000
G1 X1190.5741 Y2099.5856 Z-1.5000 F5000
G1 X1188.9337 Y2099.9379 Z-1.5000 F5000
G1 X1190.5741 Y2099.5856 Z-1.5000 F5000
G1 X1192.1704 Y2098.6718 Z-1.5000 F5000
G1 X1193.3815 Y2096.8113 Z-1.5000 F5000
G1 X1193.8769 Y2093.5856 Z-1.5000 F5000
G1 X1193.5906 Y2091.3397 Z-1.5000 F5000
G1 X1192.8090 Y2089.8095 Z-1.5000 F5000
G1 X1191.7081 Y2088.8957 Z-1.5000 F5000
G1 X1190.4971 Y2088.4223 Z-1.5000 F5000
G1 X1189.7911 Y2088.3040 Z-1.5000 F5000
G1 X1189.0770 Y2088.2415 Z-1.5000 F5000
G1 X1188.3613 Y2088.2351 Z-1.5000 F5000
G1 X1185.8402 Y2088.7085 Z-1.5000 F5000
G1 X1183.8145 Y2089.9636 Z-1.5000 F5000
G1 X1182.4824 Y2091.7361 Z-1.5000 F5000
G1 X1182.0420 Y2093.8168 Z-1.5000 F5000
G1 X1181.6347 Y2091.6700 Z-1.5000 F5000
G1 X1180.4347 Y2089.7434 Z-1.5000 F5000
G1 X1178.4200 Y2088.3562 Z-1.5000 F5000
G1 X1175.5796 Y2087.8278 Z-1.5000 F5000
G1 X1170.7906 Y2089.6884 Z-1.5000 F5000
G1 X1169.2163 Y2094.7966 Z-1.5000 F5000
G1 X1169.6677 Y2097.5269 Z-1.5000 F5000
G1 X1170.8347 Y2099.2994 Z-1.5000 F5000
G1 X1172.3759 Y2100.3342 Z-1.5000 F5000
G1 X1172.3759 Y2100.3342 Z10.0000 F9999
(Tool Number:1) (7.998 mm dia. slot drill)
M3 S9000
G1 X1001.1451 Y233.8285 Z10.0000 F9999
G1 X1001.1451 Y233.8285 Z0.0000 F2500
G1 X1001.2149 Y193.8285 Z-20.0000 F5000
G1 X1001.2149 Y109.8297 Z-20.0000 F5000
G1 X1006.2149 Y109.8297 Z-20.0000 F5000
G1 X1006.2149 Y107.8277 Z-20.0000 F5000
G1 X986.2130 Y107.8277 Z-20.0000 F5000
G1 X986.2130 Y109.8297 Z-20.0000 F5000
G1 X991.2129 Y109.8297 Z-20.0000 F5000
G1 X991.2129 Y277.8274 Z-20.0000 F5000
G1 X986.2130 Y277.8274 Z-20.0000 F5000
G1 X986.2130 Y279.8294 Z-20.0000 F5000
G1 X1006.2149 Y279.8294 Z-20.0000 F5000
G1 X1006.2149 Y277.8274 Z-20.0000 F5000
G1 X1001.2149 Y277.8274 Z-20.0000 F5000
G1 X1001.2149 Y193.8285 Z-20.0000 F5000
G1 X1001.2149 Y169.8285 Z-20.0000 F5000
G1 X1001.1451 Y129.8286 Z0.0000 F5000
G1 X1001.1451 Y129.8286 Z10.0000 F9999
G1 X1133.1449 Y233.8285 Z10.0000 F9999
G1 X1133.1449 Y233.8285 Z0.0000 F2500
G1 X1133.2147 Y193.8285 Z-20.0000 F5000
G1 X1133.2147 Y109.8297 Z-20.0000 F5000
G1 X1138.2146 Y109.8297 Z-20.0000 F5000
G1 X1138.2146 Y107.8277 Z-20.0000 F5000
G1 X1118.2127 Y107.8277 Z-20.0000 F5000
G1 X1118.2127 Y109.8297 Z-20.0000 F5000
G1 X1123.2127 Y109.8297 Z-20.0000 F5000
G1 X1123.2127 Y277.8274 Z-20.0000 F5000
G1 X1118.2127 Y277.8274 Z-20.0000 F5000
G1 X1118.2127 Y279.8294 Z-20.0000 F5000
G1 X1138.2146 Y279.8294 Z-20.0000 F5000
G1 X1138.2146 Y277.8274 Z-20.0000 F5000
G1 X1133.2147 Y277.8274 Z-20.0000 F5000
G1 X1133.2147 Y193.8285 Z-20.0000 F5000
G1 X1133.2147 Y169.8285 Z-20.0000 F5000
G1 X1133.1449 Y129.8286 Z0.0000 F5000
G1 X1133.1449 Y129.8286 Z10.0000 F9999
G1 X1133.1449 Y533.8279 Z10.0000 F9999
G1 X1133.1449 Y533.8279 Z0.0000 F2500
G1 X1133.2147 Y493.8280 Z-20.0000 F5000
G1 X1133.2147 Y409.8291 Z-20.0000 F5000
G1 X1138.2146 Y409.8291 Z-20.0000 F5000
G1 X1138.2146 Y407.8271 Z-20.0000 F5000
G1 X1118.2127 Y407.8271 Z-20.0000 F5000
G1 X1118.2127 Y409.8291 Z-20.0000 F5000
G1 X1123.2127 Y409.8291 Z-20.0000 F5000
G1 X1123.2127 Y577.8268 Z-20.0000 F5000
G1 X1118.2127 Y577.8268 Z-20.0000 F5000
G1 X1118.2127 Y579.8288 Z-20.0000 F5000
G1 X1138.2146 Y579.8288 Z-20.0000 F5000
G1 X1138.2146 Y577.8268 Z-20.0000 F5000
G1 X1133.2147 Y577.8268 Z-20.0000 F5000
G1 X1133.2147 Y493.8280 Z-20.0000 F5000
G1 X1133.2147 Y469.8280 Z-20.0000 F5000
G1 X1133.1449 Y429.8280 Z0.0000 F5000
G1 X1133.1449 Y429.8280 Z10.0000 F9999
G1 X1001.1451 Y533.8279 Z10.0000 F9999
G1 X1001.1451 Y533.8279 Z0.0000 F2500
G1 X1001.2149 Y493.8280 Z-20.0000 F5000
G1 X1001.2149 Y409.8291 Z-20.0000 F5000
G1 X1006.2149 Y409.8291 Z-20.0000 F5000
G1 X1006.2149 Y407.8271 Z-20.0000 F5000
G1 X986.2130 Y407.8271 Z-20.0000 F5000
G1 X986.2130 Y409.8291 Z-20.0000 F5000
G1 X991.2129 Y409.8291 Z-20.0000 F5000
G1 X991.2129 Y577.8268 Z-20.0000 F5000
G1 X986.2130 Y577.8268 Z-20.0000 F5000
G1 X986.2130 Y579.8288 Z-20.0000 F5000
G1 X1006.2149 Y579.8288 Z-20.0000 F5000
G1 X1006.2149 Y577.8268 Z-20.0000 F5000
G1 X1001.2149 Y577.8268 Z-20.0000 F5000
G1 X1001.2149 Y493.8280 Z-20.0000 F5000
G1 X1001.2149 Y469.8280 Z-20.0000 F5000
G1 X1001.1451 Y429.8280 Z0.0000 F5000
G1 X1001.1451 Y429.8280 Z10.0000 F9999
G1 X991.2828 Y753.8274 Z10.0000 F9999
G1 X991.2828 Y753.8274 Z0.0000 F2500
G1 X991.2129 Y793.8273 Z-20.0000 F5000
G1 X991.2129 Y877.8261 Z-20.0000 F5000
G1 X986.2130 Y877.8261 Z-20.0000 F5000
G1 X986.2130 Y879.8282 Z-20.0000 F5000
G1 X1006.2149 Y879.8282 Z-20.0000 F5000
G1 X1006.2149 Y877.8261 Z-20.0000 F5000
G1 X1001.2149 Y877.8261 Z-20.0000 F5000
G1 X1001.2149 Y798.8283 Z-20.0000 F5000
G1 X1030.2129 Y798.8283 Z-20.0000 F5000
G1 X1030.2129 Y803.8283 Z-20.0000 F5000
G1 X1032.2149 Y803.8283 Z-20.0000 F5000
G1 X1032.2149 Y783.8263 Z-20.0000 F5000
G1 X1030.2129 Y783.8263 Z-20.0000 F5000
G1 X1030.2129 Y788.8264 Z-20.0000 F5000
G1 X1001.2149 Y788.8264 Z-20.0000 F5000
G1 X1001.2149 Y709.8285 Z-20.0000 F5000
G1 X1006.2149 Y709.8285 Z-20.0000 F5000
G1 X1006.2149 Y707.8265 Z-20.0000 F5000
G1 X986.2130 Y707.8265 Z-20.0000 F5000
G1 X986.2130 Y709.8285 Z-20.0000 F5000
G1 X991.2129 Y709.8285 Z-20.0000 F5000
G1 X991.2129 Y793.8273 Z-20.0000 F5000
G1 X991.2129 Y817.8273 Z-20.0000 F5000
G1 X991.2828 Y857.8272 Z0.0000 F5000
G1 X991.2828 Y857.8272 Z10.0000 F9999
G1 X1133.1449 Y833.8272 Z10.0000 F9999
G1 X1133.1449 Y833.8272 Z0.0000 F2500
G1 X1133.2147 Y793.8273 Z-20.0000 F5000
G1 X1133.2147 Y709.8285 Z-20.0000 F5000
G1 X1138.2146 Y709.8285 Z-20.0000 F5000
G1 X1138.2146 Y707.8265 Z-20.0000 F5000
G1 X1118.2127 Y707.8265 Z-20.0000 F5000
G1 X1118.2127 Y709.8285 Z-20.0000 F5000
G1 X1123.2127 Y709.8285 Z-20.0000 F5000
G1 X1123.2127 Y788.8264 Z-20.0000 F5000
G1 X1094.2148 Y788.8264 Z-20.0000 F5000
G1 X1094.2148 Y783.8263 Z-20.0000 F5000
G1 X1092.2128 Y783.8263 Z-20.0000 F5000
G1 X1092.2128 Y803.8283 Z-20.0000 F5000
G1 X1094.2148 Y803.8283 Z-20.0000 F5000
G1 X1094.2148 Y798.8283 Z-20.0000 F5000
G1 X1123.2127 Y798.8283 Z-20.0000 F5000
G1 X1123.2127 Y877.8261 Z-20.0000 F5000
G1 X1118.2127 Y877.8261 Z-20.0000 F5000
G1 X1118.2127 Y879.8282 Z-20.0000 F5000
G1 X1138.2146 Y879.8282 Z-20.0000 F5000
G1 X1138.2146 Y877.8261 Z-20.0000 F5000
G1 X1133.2147 Y877.8261 Z-20.0000 F5000
G1 X1133.2147 Y793.8273 Z-20.0000 F5000
G1 X1133.2147 Y769.8273 Z-20.0000 F5000
G1 X1133.1449 Y729.8274 Z0.0000 F5000
G1 X1133.1449 Y729.8274 Z10.0000 F9999
G1 X1123.2825 Y1053.8268 Z10.0000 F9999
G1 X1123.2825 Y1053.8268 Z0.0000 F2500
G1 X1123.2127 Y1093.8267 Z-20.0000 F5000
G1 X1123.2127 Y1177.8255 Z-20.0000 F5000
G1 X1118.2127 Y1177.8255 Z-20.0000 F5000
G1 X1118.2127 Y1179.8275 Z-20.0000 F5000
G1 X1138.2146 Y1179.8275 Z-20.0000 F5000
G1 X1138.2146 Y1177.8255 Z-20.0000 F5000
G1 X1133.2147 Y1177.8255 Z-20.0000 F5000
G1 X1133.2147 Y1009.8279 Z-20.0000 F5000
G1 X1138.2146 Y1009.8279 Z-20.0000 F5000
G1 X1138.2146 Y1007.8259 Z-20.0000 F5000
G1 X1118.2127 Y1007.8259 Z-20.0000 F5000
G1 X1118.2127 Y1009.8279 Z-20.0000 F5000
G1 X1123.2127 Y1009.8279 Z-20.0000 F5000
G1 X1123.2127 Y1093.8267 Z-20.0000 F5000
G1 X1123.2127 Y1117.8267 Z-20.0000 F5000
G1 X1123.2825 Y1157.8267 Z0.0000 F5000
G1 X1123.2825 Y1157.8267 Z10.0000 F9999
G1 X1001.1451 Y1133.8267 Z10.0000 F9999
G1 X1001.1451 Y1133.8267 Z0.0000 F2500
G1 X1001.2149 Y1093.8267 Z-20.0000 F5000
G1 X1001.2149 Y1009.8279 Z-20.0000 F5000
G1 X1006.2149 Y1009.8279 Z-20.0000 F5000
G1 X1006.2149 Y1007.8259 Z-20.0000 F5000
G1 X986.2130 Y1007.8259 Z-20.0000 F5000
G1 X986.2130 Y1009.8279 Z-20.0000 F5000
G1 X991.2129 Y1009.8279 Z-20.0000 F5000
G1 X991.2129 Y1177.8255 Z-20.0000 F5000
G1 X986.2130 Y1177.8255 Z-20.0000 F5000
G1 X986.2130 Y1179.8275 Z-20.0000 F5000
G1 X1006.2149 Y1179.8275 Z-20.0000 F5000
G1 X1006.2149 Y1177.8255 Z-20.0000 F5000
G1 X1001.2149 Y1177.8255 Z-20.0000 F5000
G1 X1001.2149 Y1093.8267 Z-20.0000 F5000
G1 X1001.2149 Y1069.8267 Z-20.0000 F5000
G1 X1001.1451 Y1029.8268 Z0.0000 F5000
G1 X1001.1451 Y1029.8268 Z10.0000 F9999
G1 X991.2828 Y1353.8262 Z10.0000 F9999
G1 X991.2828 Y1353.8262 Z0.0000 F2500
G1 X991.2129 Y1393.8261 Z-20.0000 F5000
G1 X991.2129 Y1477.8249 Z-20.0000 F5000
G1 X986.2130 Y1477.8249 Z-20.0000 F5000
G1 X986.2130 Y1479.8269 Z-20.0000 F5000
G1 X1024.2149 Y1479.8269 Z-20.0000 F5000
G1 X1024.2149 Y1477.8249 Z-20.0000 F5000
G1 X1019.2149 Y1477.8249 Z-20.0000 F5000
G1 X1019.2149 Y1309.8273 Z-20.0000 F5000
G1 X1024.2149 Y1309.8273 Z-20.0000 F5000
G1 X1024.2149 Y1307.8253 Z-20.0000 F5000
G1 X986.2130 Y1307.8253 Z-20.0000 F5000
G1 X986.2130 Y1309.8273 Z-20.0000 F5000
G1 X991.2129 Y1309.8273 Z-20.0000 F5000
G1 X991.2129 Y1393.8261 Z-20.0000 F5000
G1 X991.2129 Y1417.8261 Z-20.0000 F5000
G1 X991.2828 Y1457.8261 Z0.0000 F5000
G1 X991.2828 Y1457.8261 Z10.0000 F9999
G1 X1105.2826 Y1353.8262 Z10.0000 F9999
G1 X1105.2826 Y1353.8262 Z0.0000 F2500
G1 X1105.2128 Y1393.8261 Z-20.0000 F5000
G1 X1105.2128 Y1477.8249 Z-20.0000 F5000
G1 X1100.2128 Y1477.8249 Z-20.0000 F5000
G1 X1100.2128 Y1479.8269 Z-20.0000 F5000
G1 X1138.2146 Y1479.8269 Z-20.0000 F5000
G1 X1138.2146 Y1477.8249 Z-20.0000 F5000
G1 X1133.2147 Y1477.8249 Z-20.0000 F5000
G1 X1133.2147 Y1309.8273 Z-20.0000 F5000
G1 X1138.2146 Y1309.8273 Z-20.0000 F5000
G1 X1138.2146 Y1307.8253 Z-20.0000 F5000
G1 X1100.2128 Y1307.8253 Z-20.0000 F5000
G1 X1100.2128 Y1309.8273 Z-20.0000 F5000
G1 X1105.2128 Y1309.8273 Z-20.0000 F5000
G1 X1105.2128 Y1393.8261 Z-20.0000 F5000
G1 X1105.2128 Y1417.8261 Z-20.0000 F5000
G1 X1105.2826 Y1457.8261 Z0.0000 F5000
G1 X1105.2826 Y1457.8261 Z10.0000 F9999
G1 X1105.2826 Y1653.8256 Z10.0000 F9999
G1 X1105.2826 Y1653.8256 Z0.0000 F2500
G1 X1105.2128 Y1693.8255 Z-20.0000 F5000
G1 X1105.2128 Y1777.8243 Z-20.0000 F5000
G1 X1100.2128 Y1777.8243 Z-20.0000 F5000
G1 X1100.2128 Y1779.8263 Z-20.0000 F5000
G1 X1138.2146 Y1779.8263 Z-20.0000 F5000
G1 X1138.2146 Y1777.8243 Z-20.0000 F5000
G1 X1133.2147 Y1777.8243 Z-20.0000 F5000
G1 X1133.2147 Y1609.8267 Z-20.0000 F5000
G1 X1138.2146 Y1609.8267 Z-20.0000 F5000
G1 X1138.2146 Y1607.8247 Z-20.0000 F5000
G1 X1100.2128 Y1607.8247 Z-20.0000 F5000
G1 X1100.2128 Y1609.8267 Z-20.0000 F5000
G1 X1105.2128 Y1609.8267 Z-20.0000 F5000
G1 X1105.2128 Y1693.8255 Z-20.0000 F5000
G1 X1105.2128 Y1717.8255 Z-20.0000 F5000
G1 X1105.2826 Y1757.8254 Z0.0000 F5000
G1 X1105.2826 Y1757.8254 Z10.0000 F9999
G1 X991.2828 Y1653.8256 Z10.0000 F9999
G1 X991.2828 Y1653.8256 Z0.0000 F2500
G1 X991.2129 Y1693.8255 Z-20.0000 F5000
G1 X991.2129 Y1777.8243 Z-20.0000 F5000
G1 X986.2130 Y1777.8243 Z-20.0000 F5000
G1 X986.2130 Y1779.8263 Z-20.0000 F5000
G1 X1024.2149 Y1779.8263 Z-20.0000 F5000
G1 X1024.2149 Y1777.8243 Z-20.0000 F5000
G1 X1019.2149 Y1777.8243 Z-20.0000 F5000
G1 X1019.2149 Y1609.8267 Z-20.0000 F5000
G1 X1024.2149 Y1609.8267 Z-20.0000 F5000
G1 X1024.2149 Y1607.8247 Z-20.0000 F5000
G1 X986.2130 Y1607.8247 Z-20.0000 F5000
G1 X986.2130 Y1609.8267 Z-20.0000 F5000
G1 X991.2129 Y1609.8267 Z-20.0000 F5000
G1 X991.2129 Y1693.8255 Z-20.0000 F5000
G1 X991.2129 Y1717.8255 Z-20.0000 F5000
G1 X991.2828 Y1757.8254 Z0.0000 F5000
G1 X991.2828 Y1757.8254 Z10.0000 F9999
(Tool Number:1) (7.998 mm dia. slot drill)
M3 S9000
G1 X1209.1103 Y2091.8268 Z10.0000 F9999
G1 X1209.1103 Y2091.8268 Z0.0000 F2500
G1 X1208.7613 Y2131.8253 Z-20.0000 F5000
G1 X1208.7613 Y2201.4353 Z-20.0000 F5000
G1 X1208.7613 Y2201.4353 Z-10.0000 F9999
G1 X1208.7613 Y2214.4333 Z-10.0000 F5000
G1 X1208.7613 Y2214.4333 Z-20.0000 F2500
G1 X1208.7613 Y2233.3002 Z-20.0000 F5000
G1 X1165.7632 Y2233.3002 Z-20.0000 F5000
G1 X1165.7632 Y2174.8002 Z-20.0000 F5000
G1 X1080.3881 Y2174.8002 Z-20.0000 F5000
G1 X1080.3881 Y2158.9149 Z-20.0000 F5000
G1 X1080.3881 Y2158.9149 Z-10.0000 F9999
G1 X1080.3881 Y2145.9169 Z-10.0000 F5000
G1 X1080.3881 Y2145.9169 Z-20.0000 F2500
G1 X1080.3881 Y2133.0642 Z-20.0000 F5000
G1 X1152.7632 Y2126.2138 Z-20.0000 F5000
G1 X1152.7632 Y2102.3882 Z-20.0000 F5000
G1 X1080.3881 Y2095.5379 Z-20.0000 F5000
G1 X1080.3881 Y2053.8019 Z-20.0000 F5000
G1 X1165.7632 Y2053.8019 Z-20.0000 F5000
G1 X1165.7632 Y1995.3019 Z-20.0000 F5000
G1 X1208.7613 Y1995.3019 Z-20.0000 F5000
G1 X1208.7613 Y2049.2173 Z-20.0000 F5000
G1 X1208.7613 Y2049.2173 Z-10.0000 F9999
G1 X1208.7613 Y2062.2153 Z-10.0000 F5000
G1 X1208.7613 Y2062.2153 Z-20.0000 F2500
G1 X1208.7613 Y2131.8253 Z-20.0000 F5000
G1 X1208.7613 Y2155.8253 Z-20.0000 F5000
G1 X1209.1103 Y2195.8238 Z0.0000 F5000
G1 X1209.1103 Y2195.8238 Z10.0000 F9999
G1 X740.4173 Y857.5383 Z10.0000 F9999
G1 X740.4173 Y857.5383 Z0.0000 F2500
G1 X740.0683 Y897.5368 Z-20.0000 F5000
G1 X740.0683 Y967.1468 Z-20.0000 F5000
G1 X740.0683 Y967.1468 Z-10.0000 F9999
G1 X740.0683 Y980.1448 Z-10.0000 F5000
G1 X740.0683 Y980.1448 Z-20.0000 F2500
G1 X740.0683 Y999.0117 Z-20.0000 F5000
G1 X697.0702 Y999.0117 Z-20.0000 F5000
G1 X697.0702 Y940.5117 Z-20.0000 F5000
G1 X611.6951 Y940.5117 Z-20.0000 F5000
G1 X611.6951 Y924.6264 Z-20.0000 F5000
G1 X611.6951 Y924.6264 Z-10.0000 F9999
G1 X611.6951 Y911.6284 Z-10.0000 F5000
G1 X611.6951 Y911.6284 Z-20.0000 F2500
G1 X611.6951 Y898.7757 Z-20.0000 F5000
G1 X684.0702 Y891.9253 Z-20.0000 F5000
G1 X684.0702 Y868.0997 Z-20.0000 F5000
G1 X611.6951 Y861.2493 Z-20.0000 F5000
G1 X611.6951 Y819.5133 Z-20.0000 F5000
G1 X697.0702 Y819.5133 Z-20.0000 F5000
G1 X697.0702 Y761.0133 Z-20.0000 F5000
G1 X740.0683 Y761.0133 Z-20.0000 F5000
G1 X740.0683 Y814.9288 Z-20.0000 F5000
G1 X740.0683 Y814.9288 Z-10.0000 F9999
G1 X740.0683 Y827.9268 Z-10.0000 F5000
G1 X740.0683 Y827.9268 Z-20.0000 F2500
G1 X740.0683 Y897.5368 Z-20.0000 F5000
G1 X740.0683 Y921.5368 Z-20.0000 F5000
G1 X740.4173 Y961.5353 Z0.0000 F5000
G1 X740.4173 Y961.5353 Z10.0000 F9999
G1 X719.0396 Y573.3262 Z10.0000 F9999
G1 X719.0396 Y573.3262 Z0.0000 F2500
G1 X718.6905 Y613.3247 Z-20.0000 F5000
G1 X718.6905 Y682.9347 Z-20.0000 F5000
G1 X718.6905 Y682.9347 Z-10.0000 F9999
G1 X718.6905 Y695.9327 Z-10.0000 F5000
G1 X718.6905 Y695.9327 Z-20.0000 F2500
G1 X718.6905 Y714.7996 Z-20.0000 F5000
G1 X675.6925 Y714.7996 Z-20.0000 F5000
G1 X675.6925 Y656.2996 Z-20.0000 F5000
G1 X590.3174 Y656.2996 Z-20.0000 F5000
G1 X590.3174 Y640.4143 Z-20.0000 F5000
G1 X590.3174 Y640.4143 Z-10.0000 F9999
G1 X590.3174 Y627.4163 Z-10.0000 F5000
G1 X590.3174 Y627.4163 Z-20.0000 F2500
G1 X590.3174 Y614.5636 Z-20.0000 F5000
G1 X662.6925 Y607.7132 Z-20.0000 F5000
G1 X662.6925 Y583.8876 Z-20.0000 F5000
G1 X590.3174 Y577.0373 Z-20.0000 F5000
G1 X590.3174 Y535.3013 Z-20.0000 F5000
G1 X675.6925 Y535.3013 Z-20.0000 F5000
G1 X675.6925 Y476.8013 Z-20.0000 F5000
G1 X718.6905 Y476.8013 Z-20.0000 F5000
G1 X718.6905 Y530.7167 Z-20.0000 F5000
G1 X718.6905 Y530.7167 Z-10.0000 F9999
G1 X718.6905 Y543.7147 Z-10.0000 F5000
G1 X718.6905 Y543.7147 Z-20.0000 F2500
G1 X718.6905 Y613.3247 Z-20.0000 F5000
G1 X718.6905 Y637.3247 Z-20.0000 F5000
G1 X719.0396 Y677.3232 Z0.0000 F5000
G1 X719.0396 Y677.3232 Z10.0000 F9999
G1 X720.7652 Y266.1692 Z10.0000 F9999
G1 X720.7652 Y266.1692 Z0.0000 F2500
G1 X720.4161 Y306.1677 Z-20.0000 F5000
G1 X720.4161 Y375.7777 Z-20.0000 F5000
G1 X720.4161 Y375.7777 Z-10.0000 F9999
G1 X720.4161 Y388.7757 Z-10.0000 F5000
G1 X720.4161 Y388.7757 Z-20.0000 F2500
G1 X720.4161 Y407.6426 Z-20.0000 F5000
G1 X677.4181 Y407.6426 Z-20.0000 F5000
G1 X677.4181 Y349.1426 Z-20.0000 F5000
G1 X592.0430 Y349.1426 Z-20.0000 F5000
G1 X592.0430 Y333.2573 Z-20.0000 F5000
G1 X592.0430 Y333.2573 Z-10.0000 F9999
G1 X592.0430 Y320.2593 Z-10.0000 F5000
G1 X592.0430 Y320.2593 Z-20.0000 F2500
G1 X592.0430 Y307.4066 Z-20.0000 F5000
G1 X664.4181 Y300.5562 Z-20.0000 F5000
G1 X664.4181 Y276.7306 Z-20.0000 F5000
G1 X592.0430 Y269.8803 Z-20.0000 F5000
G1 X592.0430 Y228.1443 Z-20.0000 F5000
G1 X677.4181 Y228.1443 Z-20.0000 F5000
G1 X677.4181 Y169.6443 Z-20.0000 F5000
G1 X720.4161 Y169.6443 Z-20.0000 F5000
G1 X720.4161 Y223.5597 Z-20.0000 F5000
G1 X720.4161 Y223.5597 Z-10.0000 F9999
G1 X720.4161 Y236.5577 Z-10.0000 F5000
G1 X720.4161 Y236.5577 Z-20.0000 F2500
G1 X720.4161 Y306.1677 Z-20.0000 F5000
G1 X720.4161 Y330.1677 Z-20.0000 F5000
G1 X720.7652 Y370.1662 Z0.0000 F5000
G1 X720.7652 Y370.1662 Z10.0000 F9999
G1 X862.2780 Y2265.0609 Z10.0000 F9999
G1 X862.2780 Y2265.0609 Z0.0000 F2500
G1 X875.6735 Y2265.1778 Z-20.0000 F5000
G1 X913.1724 Y2265.1778 Z-20.0000 F5000
G1 X913.1724 Y2270.1778 Z-20.0000 F5000
G1 X915.1744 Y2270.1778 Z-20.0000 F5000
G1 X915.1744 Y2252.5203 Z-20.0000 F5000
G1 X920.5169 Y2247.1778 Z-20.0000 F5000
G1 X932.4217 Y2247.1778 Z-20.0000 F5000
G1 X932.4217 Y2247.1778 Z-10.0000 F9999
G1 X945.4197 Y2247.1778 Z-10.0000 F5000
G1 X945.4197 Y2247.1778 Z-20.0000 F2500
G1 X957.8297 Y2247.1778 Z-20.0000 F5000
G1 X963.1723 Y2252.5203 Z-20.0000 F5000
G1 X963.1723 Y2270.1778 Z-20.0000 F5000
G1 X965.1743 Y2270.1778 Z-20.0000 F5000
G1 X965.1743 Y2265.1778 Z-20.0000 F5000
G1 X1040.1721 Y2265.1778 Z-20.0000 F5000
G1 X1040.1721 Y2270.1778 Z-20.0000 F5000
G1 X1042.1741 Y2270.1778 Z-20.0000 F5000
G1 X1042.1741 Y2252.5203 Z-20.0000 F5000
G1 X1047.5167 Y2247.1778 Z-20.0000 F5000
G1 X1062.8295 Y2247.1778 Z-20.0000 F5000
G1 X1068.1721 Y2252.5203 Z-20.0000 F5000
G1 X1068.1721 Y2270.1778 Z-20.0000 F5000
G1 X1070.1741 Y2270.1778 Z-20.0000 F5000
G1 X1070.1741 Y2265.1778 Z-20.0000 F5000
G1 X1086.1720 Y2265.1778 Z-20.0000 F5000
G1 X1086.1720 Y2304.1757 Z-20.0000 F5000
G1 X1045.1721 Y2304.1757 Z-20.0000 F5000
G1 X1045.1721 Y2306.1777 Z-20.0000 F5000
G1 X1050.1721 Y2306.1777 Z-20.0000 F5000
G1 X1050.1721 Y2346.1756 Z-20.0000 F5000
G1 X1045.1721 Y2346.1756 Z-20.0000 F5000
G1 X1045.1721 Y2348.1776 Z-20.0000 F5000
G1 X1086.1720 Y2348.1776 Z-20.0000 F5000
G1 X1086.1720 Y2387.1755 Z-20.0000 F5000
G1 X1070.1741 Y2387.1755 Z-20.0000 F5000
G1 X1070.1741 Y2382.1755 Z-20.0000 F5000
G1 X1068.1721 Y2382.1755 Z-20.0000 F5000
G1 X1068.1721 Y2399.8330 Z-20.0000 F5000
G1 X1062.8295 Y2405.1755 Z-20.0000 F5000
G1 X1047.5167 Y2405.1755 Z-20.0000 F5000
G1 X1042.1741 Y2399.8330 Z-20.0000 F5000
G1 X1042.1741 Y2382.1755 Z-20.0000 F5000
G1 X1040.1721 Y2382.1755 Z-20.0000 F5000
G1 X1040.1721 Y2387.1755 Z-20.0000 F5000
G1 X965.1743 Y2387.1755 Z-20.0000 F5000
G1 X965.1743 Y2382.1755 Z-20.0000 F5000
G1 X963.1723 Y2382.1755 Z-20.0000 F5000
G1 X963.1723 Y2399.8330 Z-20.0000 F5000
G1 X957.8297 Y2405.1755 Z-20.0000 F5000
G1 X945.3712 Y2405.1755 Z-20.0000 F5000
G1 X945.3712 Y2405.1755 Z-10.0000 F9999
G1 X932.3732 Y2405.1755 Z-10.0000 F5000
G1 X932.3732 Y2405.1755 Z-20.0000 F2500
G1 X920.5169 Y2405.1755 Z-20.0000 F5000
G1 X915.1744 Y2399.8330 Z-20.0000 F5000
G1 X915.1744 Y2382.1755 Z-20.0000 F5000
G1 X913.1724 Y2382.1755 Z-20.0000 F5000
G1 X913.1724 Y2387.1755 Z-20.0000 F5000
G1 X838.1745 Y2387.1755 Z-20.0000 F5000
G1 X838.1745 Y2382.1755 Z-20.0000 F5000
G1 X836.1725 Y2382.1755 Z-20.0000 F5000
G1 X836.1725 Y2399.8330 Z-20.0000 F5000
G1 X830.8300 Y2405.1755 Z-20.0000 F5000
G1 X815.5172 Y2405.1755 Z-20.0000 F5000
G1 X810.1746 Y2399.8330 Z-20.0000 F5000
G1 X810.1746 Y2382.1755 Z-20.0000 F5000
G1 X808.1726 Y2382.1755 Z-20.0000 F5000
G1 X808.1726 Y2387.1755 Z-20.0000 F5000
G1 X792.1746 Y2387.1755 Z-20.0000 F5000
G1 X792.1746 Y2374.9345 Z-20.0000 F5000
G1 X792.1746 Y2374.9345 Z-10.0000 F9999
G1 X792.1746 Y2361.9365 Z-10.0000 F5000
G1 X792.1746 Y2361.9365 Z-20.0000 F2500
G1 X792.1746 Y2348.1776 Z-20.0000 F5000
G1 X833.1745 Y2348.1776 Z-20.0000 F5000
G1 X833.1745 Y2346.1756 Z-20.0000 F5000
G1 X828.1745 Y2346.1756 Z-20.0000 F5000
G1 X828.1745 Y2306.1777 Z-20.0000 F5000
G1 X833.1745 Y2306.1777 Z-20.0000 F5000
G1 X833.1745 Y2304.1757 Z-20.0000 F5000
G1 X792.1746 Y2304.1757 Z-20.0000 F5000
G1 X792.1746 Y2265.1778 Z-20.0000 F5000
G1 X808.1726 Y2265.1778 Z-20.0000 F5000
G1 X808.1726 Y2270.1778 Z-20.0000 F5000
G1 X810.1746 Y2270.1778 Z-20.0000 F5000
G1 X810.1746 Y2252.5203 Z-20.0000 F5000
G1 X815.5172 Y2247.1778 Z-20.0000 F5000
G1 X830.8300 Y2247.1778 Z-20.0000 F5000
G1 X836.1725 Y2252.5203 Z-20.0000 F5000
G1 X836.1725 Y2270.1778 Z-20.0000 F5000
G1 X838.1745 Y2270.1778 Z-20.0000 F5000
G1 X838.1745 Y2265.1778 Z-20.0000 F5000
G1 X875.6735 Y2265.1778 Z-20.0000 F5000
G1 X899.6735 Y2265.1778 Z-20.0000 F5000
G1 X913.0689 Y2265.0609 Z0.0000 F5000
G1 X913.0689 Y2265.0609 Z10.0000 F9999
G1 X839.1646 Y2038.3829 Z10.0000 F9999
G1 X839.1646 Y2038.3829 Z0.0000 F2500
G1 X852.5600 Y2038.4998 Z-20.0000 F5000
G1 X890.0590 Y2038.4998 Z-20.0000 F5000
G1 X890.0590 Y2043.4998 Z-20.0000 F5000
G1 X892.0610 Y2043.4998 Z-20.0000 F5000
G1 X892.0610 Y2025.8424 Z-20.0000 F5000
G1 X897.4035 Y2020.4999 Z-20.0000 F5000
G1 X911.4168 Y2020.4999 Z-20.0000 F5000
G1 X911.4168 Y2020.4999 Z-10.0000 F9999
G1 X924.4148 Y2020.4999 Z-10.0000 F5000
G1 X924.4148 Y2020.4999 Z-20.0000 F2500
G1 X934.7163 Y2020.4999 Z-20.0000 F5000
G1 X940.0589 Y2025.8424 Z-20.0000 F5000
G1 X940.0589 Y2043.4998 Z-20.0000 F5000
G1 X942.0609 Y2043.4998 Z-20.0000 F5000
G1 X942.0609 Y2038.4998 Z-20.0000 F5000
G1 X1017.0587 Y2038.4998 Z-20.0000 F5000
G1 X1017.0587 Y2043.4998 Z-20.0000 F5000
G1 X1019.0607 Y2043.4998 Z-20.0000 F5000
G1 X1019.0607 Y2025.8424 Z-20.0000 F5000
G1 X1024.4033 Y2020.4999 Z-20.0000 F5000
G1 X1039.7161 Y2020.4999 Z-20.0000 F5000
G1 X1045.0587 Y2025.8424 Z-20.0000 F5000
G1 X1045.0587 Y2043.4998 Z-20.0000 F5000
G1 X1047.0607 Y2043.4998 Z-20.0000 F5000
G1 X1047.0607 Y2038.4998 Z-20.0000 F5000
G1 X1063.0586 Y2038.4998 Z-20.0000 F5000
G1 X1063.0586 Y2077.4978 Z-20.0000 F5000
G1 X1022.0587 Y2077.4978 Z-20.0000 F5000
G1 X1022.0587 Y2079.4998 Z-20.0000 F5000
G1 X1027.0587 Y2079.4998 Z-20.0000 F5000
G1 X1027.0587 Y2119.4977 Z-20.0000 F5000
G1 X1022.0587 Y2119.4977 Z-20.0000 F5000
G1 X1022.0587 Y2121.4997 Z-20.0000 F5000
G1 X1063.0586 Y2121.4997 Z-20.0000 F5000
G1 X1063.0586 Y2160.4976 Z-20.0000 F5000
G1 X1047.0607 Y2160.4976 Z-20.0000 F5000
G1 X1047.0607 Y2155.4976 Z-20.0000 F5000
G1 X1045.0587 Y2155.4976 Z-20.0000 F5000
G1 X1045.0587 Y2173.1551 Z-20.0000 F5000
G1 X1039.7161 Y2178.4975 Z-20.0000 F5000
G1 X1024.4033 Y2178.4975 Z-20.0000 F5000
G1 X1019.0607 Y2173.1551 Z-20.0000 F5000
G1 X1019.0607 Y2155.4976 Z-20.0000 F5000
G1 X1017.0587 Y2155.4976 Z-20.0000 F5000
G1 X1017.0587 Y2160.4976 Z-20.0000 F5000
G1 X942.0609 Y2160.4976 Z-20.0000 F5000
G1 X942.0609 Y2155.4976 Z-20.0000 F5000
G1 X940.0589 Y2155.4976 Z-20.0000 F5000
G1 X940.0589 Y2173.1551 Z-20.0000 F5000
G1 X934.7163 Y2178.4975 Z-20.0000 F5000
G1 X922.2578 Y2178.4975 Z-20.0000 F5000
G1 X922.2578 Y2178.4975 Z-10.0000 F9999
G1 X909.2598 Y2178.4975 Z-10.0000 F5000
G1 X909.2598 Y2178.4975 Z-20.0000 F2500
G1 X897.4035 Y2178.4975 Z-20.0000 F5000
G1 X892.0610 Y2173.1551 Z-20.0000 F5000
G1 X892.0610 Y2155.4976 Z-20.0000 F5000
G1 X890.0590 Y2155.4976 Z-20.0000 F5000
G1 X890.0590 Y2160.4976 Z-20.0000 F5000
G1 X815.0611 Y2160.4976 Z-20.0000 F5000
G1 X815.0611 Y2155.4976 Z-20.0000 F5000
G1 X813.0591 Y2155.4976 Z-20.0000 F5000
G1 X813.0591 Y2173.1551 Z-20.0000 F5000
G1 X807.7165 Y2178.4975 Z-20.0000 F5000
G1 X792.4037 Y2178.4975 Z-20.0000 F5000
G1 X787.0612 Y2173.1551 Z-20.0000 F5000
G1 X787.0612 Y2155.4976 Z-20.0000 F5000
G1 X785.0592 Y2155.4976 Z-20.0000 F5000
G1 X785.0592 Y2160.4976 Z-20.0000 F5000
G1 X769.0612 Y2160.4976 Z-20.0000 F5000
G1 X769.0612 Y2121.4997 Z-20.0000 F5000
G1 X810.0611 Y2121.4997 Z-20.0000 F5000
G1 X810.0611 Y2119.4977 Z-20.0000 F5000
G1 X805.0611 Y2119.4977 Z-20.0000 F5000
G1 X805.0611 Y2079.4998 Z-20.0000 F5000
G1 X810.0611 Y2079.4998 Z-20.0000 F5000
G1 X810.0611 Y2077.4978 Z-20.0000 F5000
G1 X769.0612 Y2077.4978 Z-20.0000 F5000
G1 X769.0612 Y2067.1533 Z-20.0000 F5000
G1 X769.0612 Y2067.1533 Z-10.0000 F9999
G1 X769.0612 Y2054.1553 Z-10.0000 F5000
G1 X769.0612 Y2054.1553 Z-20.0000 F2500
G1 X769.0612 Y2038.4998 Z-20.0000 F5000
G1 X785.0592 Y2038.4998 Z-20.0000 F5000
G1 X785.0592 Y2043.4998 Z-20.0000 F5000
G1 X787.0612 Y2043.4998 Z-20.0000 F5000
G1 X787.0612 Y2025.8424 Z-20.0000 F5000
G1 X792.4037 Y2020.4999 Z-20.0000 F5000
G1 X807.7165 Y2020.4999 Z-20.0000 F5000
G1 X813.0591 Y2025.8424 Z-20.0000 F5000
G1 X813.0591 Y2043.4998 Z-20.0000 F5000
G1 X815.0611 Y2043.4998 Z-20.0000 F5000
G1 X815.0611 Y2038.4998 Z-20.0000 F5000
G1 X852.5600 Y2038.4998 Z-20.0000 F5000
G1 X876.5600 Y2038.4998 Z-20.0000 F5000
G1 X889.9555 Y2038.3829 Z0.0000 F5000
G1 X889.9555 Y2038.3829 Z10.0000 F9999
G1 X1191.5616 Y958.3284 Z10.0000 F9999
G1 X1191.5616 Y958.3284 Z0.0000 F2500
G1 X1191.2126 Y998.3269 Z-20.0000 F5000
G1 X1191.2126 Y1956.8240 Z-20.0000 F5000
G1 X1165.2402 Y1956.8240 Z-20.0000 F5000
G1 X1165.2402 Y1956.8240 Z-10.0000 F9999
G1 X1152.2422 Y1956.8240 Z-10.0000 F5000
G1 X1152.2422 Y1956.8240 Z-20.0000 F2500
G1 X933.2151 Y1956.8240 Z-20.0000 F5000
G1 X933.2151 Y1893.0124 Z-20.0000 F5000
G1 X933.2151 Y1893.0124 Z-10.0000 F9999
G1 X933.2151 Y1880.0144 Z-10.0000 F5000
G1 X933.2151 Y1880.0144 Z-20.0000 F2500
G1 X933.2151 Y234.7269 Z-20.0000 F5000
G1 X933.2151 Y234.7269 Z-10.0000 F9999
G1 X933.2151 Y221.7289 Z-10.0000 F5000
G1 X933.2151 Y221.7289 Z-20.0000 F2500
G1 X933.2151 Y39.8299 Z-20.0000 F5000
G1 X1145.8864 Y39.8299 Z-20.0000 F5000
G1 X1145.8864 Y39.8299 Z-10.0000 F9999
G1 X1158.8844 Y39.8299 Z-10.0000 F5000
G1 X1158.8844 Y39.8299 Z-20.0000 F2500
G1 X1191.2126 Y39.8299 Z-20.0000 F5000
G1 X1191.2126 Y998.3269 Z-20.0000 F5000
G1 X1191.2126 Y1022.3269 Z-20.0000 F5000
G1 X1191.5616 Y1062.3254 Z0.0000 F5000
G1 X1191.5616 Y1062.3254 Z10.0000 F9999
G1 X888.0737 Y1728.3814 Z10.0000 F9999
G1 X888.0737 Y1728.3814 Z0.0000 F2500
G1 X887.7247 Y1768.3798 Z-20.0000 F5000
G1 X887.7247 Y1958.1284 Z-20.0000 F5000
G1 X801.7268 Y1958.1284 Z-20.0000 F5000
G1 X801.7268 Y1578.6312 Z-20.0000 F5000
G1 X806.7268 Y1578.6312 Z-20.0000 F5000
G1 X806.7268 Y1576.6292 Z-20.0000 F5000
G1 X771.0694 Y1576.6292 Z-20.0000 F5000
G1 X765.7269 Y1571.2866 Z-20.0000 F5000
G1 X765.7269 Y1513.9739 Z-20.0000 F5000
G1 X771.0694 Y1508.6313 Z-20.0000 F5000
G1 X806.7268 Y1508.6313 Z-20.0000 F5000
G1 X806.7268 Y1506.6293 Z-20.0000 F5000
G1 X801.7268 Y1506.6293 Z-20.0000 F5000
G1 X801.7268 Y1278.6318 Z-20.0000 F5000
G1 X806.7268 Y1278.6318 Z-20.0000 F5000
G1 X806.7268 Y1276.6298 Z-20.0000 F5000
G1 X771.0694 Y1276.6298 Z-20.0000 F5000
G1 X765.7269 Y1271.2873 Z-20.0000 F5000
G1 X765.7269 Y1213.9745 Z-20.0000 F5000
G1 X771.0694 Y1208.6320 Z-20.0000 F5000
G1 X806.7268 Y1208.6320 Z-20.0000 F5000
G1 X806.7268 Y1206.6300 Z-20.0000 F5000
G1 X801.7268 Y1206.6300 Z-20.0000 F5000
G1 X801.7268 Y1098.6321 Z-20.0000 F5000
G1 X806.7268 Y1098.6321 Z-20.0000 F5000
G1 X806.7268 Y1096.6302 Z-20.0000 F5000
G1 X783.7268 Y1096.6302 Z-20.0000 F5000
G1 X783.7268 Y978.6324 Z-20.0000 F5000
G1 X788.7268 Y978.6324 Z-20.0000 F5000
G1 X788.7268 Y976.6304 Z-20.0000 F5000
G1 X771.0694 Y976.6304 Z-20.0000 F5000
G1 X765.7269 Y971.2879 Z-20.0000 F5000
G1 X765.7269 Y947.6324 Z-20.0000 F5000
G1 X812.7248 Y947.6324 Z-20.0000 F5000
G1 X812.7248 Y952.6324 Z-20.0000 F5000
G1 X814.7268 Y952.6324 Z-20.0000 F5000
G1 X814.7268 Y932.6304 Z-20.0000 F5000
G1 X812.7248 Y932.6304 Z-20.0000 F5000
G1 X812.7248 Y937.6304 Z-20.0000 F5000
G1 X765.7269 Y937.6304 Z-20.0000 F5000
G1 X765.7269 Y913.9750 Z-20.0000 F5000
G1 X771.0694 Y908.6326 Z-20.0000 F5000
G1 X788.7268 Y908.6326 Z-20.0000 F5000
G1 X788.7268 Y906.6306 Z-20.0000 F5000
G1 X783.7268 Y906.6306 Z-20.0000 F5000
G1 X783.7268 Y678.6331 Z-20.0000 F5000
G1 X788.7268 Y678.6331 Z-20.0000 F5000
G1 X788.7268 Y676.6309 Z-20.0000 F5000
G1 X771.0694 Y676.6309 Z-20.0000 F5000
G1 X765.7269 Y671.2885 Z-20.0000 F5000
G1 X765.7269 Y613.9758 Z-20.0000 F5000
G1 X771.0694 Y608.6332 Z-20.0000 F5000
G1 X788.7268 Y608.6332 Z-20.0000 F5000
G1 X788.7268 Y606.6312 Z-20.0000 F5000
G1 X783.7268 Y606.6312 Z-20.0000 F5000
G1 X783.7268 Y378.6337 Z-20.0000 F5000
G1 X788.7268 Y378.6337 Z-20.0000 F5000
G1 X788.7268 Y376.6317 Z-20.0000 F5000
G1 X771.0694 Y376.6317 Z-20.0000 F5000
G1 X765.7269 Y371.2891 Z-20.0000 F5000
G1 X765.7269 Y347.6337 Z-20.0000 F5000
G1 X812.7248 Y347.6337 Z-20.0000 F5000
G1 X812.7248 Y352.6337 Z-20.0000 F5000
G1 X814.7268 Y352.6337 Z-20.0000 F5000
G1 X814.7268 Y332.6317 Z-20.0000 F5000
G1 X812.7248 Y332.6317 Z-20.0000 F5000
G1 X812.7248 Y337.6317 Z-20.0000 F5000
G1 X765.7269 Y337.6317 Z-20.0000 F5000
G1 X765.7269 Y313.9764 Z-20.0000 F5000
G1 X771.0693 Y308.6337 Z-20.0000 F5000
G1 X788.7268 Y308.6337 Z-20.0000 F5000
G1 X788.7268 Y306.6318 Z-20.0000 F5000
G1 X783.7268 Y306.6318 Z-20.0000 F5000
G1 X783.7268 Y188.6340 Z-20.0000 F5000
G1 X806.7268 Y188.6340 Z-20.0000 F5000
G1 X806.7268 Y186.6322 Z-20.0000 F5000
G1 X801.7268 Y186.6322 Z-20.0000 F5000
G1 X801.7268 Y78.6342 Z-20.0000 F5000
G1 X806.7268 Y78.6342 Z-20.0000 F5000
G1 X806.7268 Y76.6323 Z-20.0000 F5000
G1 X771.0693 Y76.6323 Z-20.0000 F5000
G1 X765.7269 Y71.2895 Z-20.0000 F5000
G1 X765.7269 Y38.6342 Z-20.0000 F5000
G1 X827.3664 Y38.6342 Z-20.0000 F5000
G1 X827.9139 Y38.5548 Z-20.0000 F5000
G1 X828.1734 Y38.4372 Z-20.0000 F5000
G1 X828.3912 Y38.2434 Z-20.0000 F5000
G1 X828.5381 Y37.9992 Z-20.0000 F5000
G1 X828.6069 Y37.7227 Z-20.0000 F5000
G1 X828.5900 Y37.4317 Z-20.0000 F5000
G1 X828.4897 Y37.1650 Z-20.0000 F5000
G1 X828.1585 Y36.7215 Z-20.0000 F5000
G1 X825.2297 Y33.7925 Z-20.0000 F5000
G1 X823.8437 Y31.9366 Z-20.0000 F5000
G1 X822.9259 Y29.3982 Z-20.0000 F5000
G1 X822.8023 Y26.7011 Z-20.0000 F5000
G1 X823.4442 Y24.1737 Z-20.0000 F5000
G1 X824.7778 Y21.9319 Z-20.0000 F5000
G1 X826.7720 Y20.1131 Z-20.0000 F5000
G1 X829.2156 Y18.9669 Z-20.0000 F5000
G1 X831.5084 Y18.6344 Z-20.0000 F5000
G1 X857.9430 Y18.6344 Z-20.0000 F5000
G1 X860.2359 Y18.9669 Z-20.0000 F5000
G1 X862.6794 Y20.1131 Z-20.0000 F5000
G1 X864.6737 Y21.9319 Z-20.0000 F5000
G1 X866.0072 Y24.1737 Z-20.0000 F5000
G1 X866.6492 Y26.7011 Z-20.0000 F5000
G1 X866.5256 Y29.3982 Z-20.0000 F5000
G1 X865.6077 Y31.9366 Z-20.0000 F5000
G1 X864.2218 Y33.7925 Z-20.0000 F5000
G1 X861.2929 Y36.7215 Z-20.0000 F5000
G1 X860.9618 Y37.1650 Z-20.0000 F5000
G1 X860.8615 Y37.4317 Z-20.0000 F5000
G1 X860.8446 Y37.7227 Z-20.0000 F5000
G1 X860.9133 Y37.9992 Z-20.0000 F5000
G1 X861.0603 Y38.2434 Z-20.0000 F5000
G1 X861.2780 Y38.4372 Z-20.0000 F5000
G1 X861.5375 Y38.5548 Z-20.0000 F5000
G1 X862.0850 Y38.6342 Z-20.0000 F5000
G1 X923.7245 Y38.6342 Z-20.0000 F5000
G1 X923.7245 Y71.2895 Z-20.0000 F5000
G1 X918.3821 Y76.6323 Z-20.0000 F5000
G1 X882.7247 Y76.6323 Z-20.0000 F5000
G1 X882.7247 Y78.6342 Z-20.0000 F5000
G1 X887.7247 Y78.6342 Z-20.0000 F5000
G1 X887.7247 Y186.6322 Z-20.0000 F5000
G1 X882.7247 Y186.6322 Z-20.0000 F5000
G1 X882.7247 Y188.6340 Z-20.0000 F5000
G1 X905.7246 Y188.6340 Z-20.0000 F5000
G1 X905.7246 Y306.6318 Z-20.0000 F5000
G1 X900.7246 Y306.6318 Z-20.0000 F5000
G1 X900.7246 Y308.6337 Z-20.0000 F5000
G1 X918.3821 Y308.6337 Z-20.0000 F5000
G1 X923.7245 Y313.9764 Z-20.0000 F5000
G1 X923.7245 Y337.6317 Z-20.0000 F5000
G1 X876.7267 Y337.6317 Z-20.0000 F5000
G1 X876.7267 Y332.6317 Z-20.0000 F5000
G1 X874.7247 Y332.6317 Z-20.0000 F5000
G1 X874.7247 Y352.6337 Z-20.0000 F5000
G1 X876.7267 Y352.6337 Z-20.0000 F5000
G1 X876.7267 Y347.6337 Z-20.0000 F5000
G1 X923.7245 Y347.6337 Z-20.0000 F5000
G1 X923.7245 Y371.2891 Z-20.0000 F5000
G1 X918.3821 Y376.6317 Z-20.0000 F5000
G1 X900.7246 Y376.6317 Z-20.0000 F5000
G1 X900.7246 Y378.6337 Z-20.0000 F5000
G1 X905.7246 Y378.6337 Z-20.0000 F5000
G1 X905.7246 Y606.6312 Z-20.0000 F5000
G1 X900.7246 Y606.6312 Z-20.0000 F5000
G1 X900.7246 Y608.6332 Z-20.0000 F5000
G1 X918.3821 Y608.6332 Z-20.0000 F5000
G1 X923.7245 Y613.9758 Z-20.0000 F5000
G1 X923.7245 Y671.2885 Z-20.0000 F5000
G1 X918.3820 Y676.6309 Z-20.0000 F5000
G1 X900.7246 Y676.6309 Z-20.0000 F5000
G1 X900.7246 Y678.6331 Z-20.0000 F5000
G1 X905.7246 Y678.6331 Z-20.0000 F5000
G1 X905.7246 Y906.6306 Z-20.0000 F5000
G1 X900.7246 Y906.6306 Z-20.0000 F5000
G1 X900.7246 Y908.6326 Z-20.0000 F5000
G1 X918.3820 Y908.6326 Z-20.0000 F5000
G1 X923.7245 Y913.9750 Z-20.0000 F5000
G1 X923.7245 Y937.6304 Z-20.0000 F5000
G1 X876.7267 Y937.6304 Z-20.0000 F5000
G1 X876.7267 Y932.6304 Z-20.0000 F5000
G1 X874.7247 Y932.6304 Z-20.0000 F5000
G1 X874.7247 Y952.6324 Z-20.0000 F5000
G1 X876.7267 Y952.6324 Z-20.0000 F5000
G1 X876.7267 Y947.6324 Z-20.0000 F5000
G1 X923.7245 Y947.6324 Z-20.0000 F5000
G1 X923.7245 Y971.2879 Z-20.0000 F5000
G1 X918.3821 Y976.6304 Z-20.0000 F5000
G1 X900.7246 Y976.6304 Z-20.0000 F5000
G1 X900.7246 Y978.6324 Z-20.0000 F5000
G1 X905.7246 Y978.6324 Z-20.0000 F5000
G1 X905.7246 Y1096.6302 Z-20.0000 F5000
G1 X882.7247 Y1096.6302 Z-20.0000 F5000
G1 X882.7247 Y1098.6321 Z-20.0000 F5000
G1 X887.7247 Y1098.6321 Z-20.0000 F5000
G1 X887.7247 Y1206.6300 Z-20.0000 F5000
G1 X882.7247 Y1206.6300 Z-20.0000 F5000
G1 X882.7247 Y1208.6320 Z-20.0000 F5000
G1 X918.3821 Y1208.6320 Z-20.0000 F5000
G1 X923.7245 Y1213.9745 Z-20.0000 F5000
G1 X923.7245 Y1271.2873 Z-20.0000 F5000
G1 X918.3821 Y1276.6298 Z-20.0000 F5000
G1 X882.7247 Y1276.6298 Z-20.0000 F5000
G1 X882.7247 Y1278.6318 Z-20.0000 F5000
G1 X887.7247 Y1278.6318 Z-20.0000 F5000
G1 X887.7247 Y1506.6293 Z-20.0000 F5000
G1 X882.7247 Y1506.6293 Z-20.0000 F5000
G1 X882.7247 Y1508.6313 Z-20.0000 F5000
G1 X918.3821 Y1508.6313 Z-20.0000 F5000
G1 X923.7245 Y1513.9739 Z-20.0000 F5000
G1 X923.7245 Y1571.2866 Z-20.0000 F5000
G1 X918.3821 Y1576.6292 Z-20.0000 F5000
G1 X882.7247 Y1576.6292 Z-20.0000 F5000
G1 X882.7247 Y1578.6312 Z-20.0000 F5000
G1 X887.7247 Y1578.6312 Z-20.0000 F5000
G1 X887.7247 Y1768.3798 Z-20.0000 F5000
G1 X887.7247 Y1792.3798 Z-20.0000 F5000
G1 X888.0737 Y1832.3783 Z0.0000 F5000
G1 X888.0737 Y1832.3783 Z10.0000 F9999
G1 X690.4639 Y1762.2417 Z10.0000 F9999
G1 X690.4639 Y1762.2417 Z0.0000 F2500
G1 X690.8129 Y1722.2432 Z-20.0000 F5000
G1 X690.8129 Y1026.3706 Z-20.0000 F5000
G1 X773.8108 Y1026.3706 Z-20.0000 F5000
G1 X773.8108 Y1119.3684 Z-20.0000 F5000
G1 X732.8109 Y1119.3684 Z-20.0000 F5000
G1 X732.8109 Y1121.3704 Z-20.0000 F5000
G1 X737.8109 Y1121.3704 Z-20.0000 F5000
G1 X737.8109 Y1289.3681 Z-20.0000 F5000
G1 X732.8109 Y1289.3681 Z-20.0000 F5000
G1 X732.8109 Y1291.3701 Z-20.0000 F5000
G1 X773.8108 Y1291.3701 Z-20.0000 F5000
G1 X773.8108 Y1419.3678 Z-20.0000 F5000
G1 X732.8109 Y1419.3678 Z-20.0000 F5000
G1 X732.8109 Y1421.3698 Z-20.0000 F5000
G1 X737.8109 Y1421.3698 Z-20.0000 F5000
G1 X737.8109 Y1589.3676 Z-20.0000 F5000
G1 X732.8109 Y1589.3676 Z-20.0000 F5000
G1 X732.8109 Y1591.3695 Z-20.0000 F5000
G1 X773.8108 Y1591.3695 Z-20.0000 F5000
G1 X773.8108 Y1719.3672 Z-20.0000 F5000
G1 X750.8108 Y1719.3672 Z-20.0000 F5000
G1 X750.8108 Y1721.3692 Z-20.0000 F5000
G1 X755.8108 Y1721.3692 Z-20.0000 F5000
G1 X755.8108 Y1889.3668 Z-20.0000 F5000
G1 X750.8108 Y1889.3668 Z-20.0000 F5000
G1 X750.8108 Y1891.3688 Z-20.0000 F5000
G1 X773.8108 Y1891.3688 Z-20.0000 F5000
G1 X773.8108 Y2019.3665 Z-20.0000 F5000
G1 X750.8108 Y2019.3665 Z-20.0000 F5000
G1 X750.8108 Y2021.3687 Z-20.0000 F5000
G1 X755.8108 Y2021.3687 Z-20.0000 F5000
G1 X755.8108 Y2100.3665 Z-20.0000 F5000
G1 X726.8129 Y2100.3665 Z-20.0000 F5000
G1 X726.8129 Y2095.3664 Z-20.0000 F5000
G1 X724.8109 Y2095.3664 Z-20.0000 F5000
G1 X724.8109 Y2115.3684 Z-20.0000 F5000
G1 X726.8129 Y2115.3684 Z-20.0000 F5000
G1 X726.8129 Y2110.3684 Z-20.0000 F5000
G1 X755.8108 Y2110.3684 Z-20.0000 F5000
G1 X755.8108 Y2189.3662 Z-20.0000 F5000
G1 X750.8108 Y2189.3662 Z-20.0000 F5000
G1 X750.8108 Y2191.3682 Z-20.0000 F5000
G1 X773.8108 Y2191.3682 Z-20.0000 F5000
G1 X773.8108 Y2319.3660 Z-20.0000 F5000
G1 X750.8108 Y2319.3660 Z-20.0000 F5000
G1 X750.8108 Y2321.3679 Z-20.0000 F5000
G1 X755.8108 Y2321.3679 Z-20.0000 F5000
G1 X755.8108 Y2418.1159 Z-20.0000 F5000
G1 X690.8129 Y2418.1159 Z-20.0000 F5000
G1 X690.8129 Y1722.2432 Z-20.0000 F5000
G1 X690.8129 Y1698.2432 Z-20.0000 F5000
G1 X690.4639 Y1658.2447 Z0.0000 F5000
G1 X690.4639 Y1658.2447 Z10.0000 F9999
G1 X685.5291 Y1684.0892 Z10.0000 F9999
G1 X685.5291 Y1684.0892 Z0.0000 F2500
G1 X685.1800 Y1724.0877 Z-20.0000 F5000
G1 X685.1800 Y2419.9603 Z-20.0000 F5000
G1 X602.1822 Y2419.9603 Z-20.0000 F5000
G1 X602.1822 Y2326.9624 Z-20.0000 F5000
G1 X643.1821 Y2326.9624 Z-20.0000 F5000
G1 X643.1821 Y2324.9604 Z-20.0000 F5000
G1 X638.1821 Y2324.9604 Z-20.0000 F5000
G1 X638.1821 Y2156.9628 Z-20.0000 F5000
G1 X643.1821 Y2156.9628 Z-20.0000 F5000
G1 X643.1821 Y2154.9608 Z-20.0000 F5000
G1 X602.1822 Y2154.9608 Z-20.0000 F5000
G1 X602.1822 Y2026.9631 Z-20.0000 F5000
G1 X643.1821 Y2026.9631 Z-20.0000 F5000
G1 X643.1821 Y2024.9611 Z-20.0000 F5000
G1 X638.1821 Y2024.9611 Z-20.0000 F5000
G1 X638.1821 Y1856.9633 Z-20.0000 F5000
G1 X643.1821 Y1856.9633 Z-20.0000 F5000
G1 X643.1821 Y1854.9614 Z-20.0000 F5000
G1 X602.1822 Y1854.9614 Z-20.0000 F5000
G1 X602.1822 Y1726.9637 Z-20.0000 F5000
G1 X625.1822 Y1726.9637 Z-20.0000 F5000
G1 X625.1822 Y1724.9617 Z-20.0000 F5000
G1 X620.1822 Y1724.9617 Z-20.0000 F5000
G1 X620.1822 Y1556.9640 Z-20.0000 F5000
G1 X625.1822 Y1556.9640 Z-20.0000 F5000
G1 X625.1822 Y1554.9620 Z-20.0000 F5000
G1 X602.1822 Y1554.9620 Z-20.0000 F5000
G1 X602.1822 Y1426.9643 Z-20.0000 F5000
G1 X625.1822 Y1426.9643 Z-20.0000 F5000
G1 X625.1822 Y1424.9622 Z-20.0000 F5000
G1 X620.1822 Y1424.9622 Z-20.0000 F5000
G1 X620.1822 Y1345.9644 Z-20.0000 F5000
G1 X649.1801 Y1345.9644 Z-20.0000 F5000
G1 X649.1801 Y1350.9645 Z-20.0000 F5000
G1 X651.1821 Y1350.9645 Z-20.0000 F5000
G1 X651.1821 Y1330.9625 Z-20.0000 F5000
G1 X649.1801 Y1330.9625 Z-20.0000 F5000
G1 X649.1801 Y1335.9625 Z-20.0000 F5000
G1 X620.1822 Y1335.9625 Z-20.0000 F5000
G1 X620.1822 Y1256.9646 Z-20.0000 F5000
G1 X625.1822 Y1256.9646 Z-20.0000 F5000
G1 X625.1822 Y1254.9626 Z-20.0000 F5000
G1 X602.1822 Y1254.9626 Z-20.0000 F5000
G1 X602.1822 Y1126.9649 Z-20.0000 F5000
G1 X625.1822 Y1126.9649 Z-20.0000 F5000
G1 X625.1822 Y1124.9629 Z-20.0000 F5000
G1 X620.1822 Y1124.9629 Z-20.0000 F5000
G1 X620.1822 Y1028.2150 Z-20.0000 F5000
G1 X685.1800 Y1028.2150 Z-20.0000 F5000
G1 X685.1800 Y1724.0877 Z-20.0000 F5000
G1 X685.1800 Y1748.0877 Z-20.0000 F5000
G1 X685.5291 Y1788.0861 Z0.0000 F5000
G1 X685.5291 Y1788.0861 Z10.0000 F9999
G1 X518.8854 Y1202.4994 Z10.0000 F9999
G1 X518.8854 Y1202.4994 Z0.0000 F2500
G1 X519.2345 Y1162.5009 Z-20.0000 F5000
G1 X519.2345 Y65.2107 Z-20.0000 F5000
G1 X602.2324 Y65.2107 Z-20.0000 F5000
G1 X602.2324 Y212.7951 Z-20.0000 F5000
G1 X561.2324 Y212.7951 Z-20.0000 F5000
G1 X561.2324 Y214.7971 Z-20.0000 F5000
G1 X566.2324 Y214.7971 Z-20.0000 F5000
G1 X566.2324 Y382.7949 Z-20.0000 F5000
G1 X561.2324 Y382.7949 Z-20.0000 F5000
G1 X561.2324 Y384.7969 Z-20.0000 F5000
G1 X602.2324 Y384.7969 Z-20.0000 F5000
G1 X602.2324 Y512.7945 Z-20.0000 F5000
G1 X561.2324 Y512.7945 Z-20.0000 F5000
G1 X561.2324 Y514.7967 Z-20.0000 F5000
G1 X566.2324 Y514.7967 Z-20.0000 F5000
G1 X566.2324 Y682.7942 Z-20.0000 F5000
G1 X561.2324 Y682.7942 Z-20.0000 F5000
G1 X561.2324 Y684.7962 Z-20.0000 F5000
G1 X602.2324 Y684.7962 Z-20.0000 F5000
G1 X602.2324 Y812.7940 Z-20.0000 F5000
G1 X579.2324 Y812.7940 Z-20.0000 F5000
G1 X579.2324 Y814.7960 Z-20.0000 F5000
G1 X584.2324 Y814.7960 Z-20.0000 F5000
G1 X584.2324 Y893.7938 Z-20.0000 F5000
G1 X563.2324 Y893.7938 Z-20.0000 F5000
G1 X563.2324 Y903.7958 Z-20.0000 F5000
G1 X584.2324 Y903.7958 Z-20.0000 F5000
G1 X584.2324 Y982.7937 Z-20.0000 F5000
G1 X579.2323 Y982.7937 Z-20.0000 F5000
G1 X579.2323 Y984.7956 Z-20.0000 F5000
G1 X602.2324 Y984.7956 Z-20.0000 F5000
G1 X602.2324 Y1112.7933 Z-20.0000 F5000
G1 X579.2322 Y1112.7933 Z-20.0000 F5000
G1 X579.2323 Y1114.7953 Z-20.0000 F5000
G1 X584.2324 Y1114.7953 Z-20.0000 F5000
G1 X584.2324 Y1282.7931 Z-20.0000 F5000
G1 X579.2324 Y1282.7931 Z-20.0000 F5000
G1 X579.2324 Y1284.7951 Z-20.0000 F5000
G1 X602.2324 Y1284.7951 Z-20.0000 F5000
G1 X602.2324 Y1412.7928 Z-20.0000 F5000
G1 X579.2324 Y1412.7928 Z-20.0000 F5000
G1 X579.2324 Y1414.7948 Z-20.0000 F5000
G1 X584.2324 Y1414.7948 Z-20.0000 F5000
G1 X584.2324 Y1493.7926 Z-20.0000 F5000
G1 X555.2344 Y1493.7926 Z-20.0000 F5000
G1 X555.2344 Y1488.7926 Z-20.0000 F5000
G1 X553.2324 Y1488.7926 Z-20.0000 F5000
G1 X553.2324 Y1508.7946 Z-20.0000 F5000
G1 X555.2344 Y1508.7946 Z-20.0000 F5000
G1 X555.2344 Y1503.7946 Z-20.0000 F5000
G1 X584.2324 Y1503.7946 Z-20.0000 F5000
G1 X584.2324 Y1582.7925 Z-20.0000 F5000
G1 X579.2324 Y1582.7925 Z-20.0000 F5000
G1 X579.2324 Y1584.7945 Z-20.0000 F5000
G1 X602.2324 Y1584.7945 Z-20.0000 F5000
G1 X602.2324 Y1712.7922 Z-20.0000 F5000
G1 X561.2324 Y1712.7922 Z-20.0000 F5000
G1 X561.2324 Y1714.7942 Z-20.0000 F5000
G1 X566.2324 Y1714.7942 Z-20.0000 F5000
G1 X566.2324 Y1882.7919 Z-20.0000 F5000
G1 X561.2324 Y1882.7919 Z-20.0000 F5000
G1 X561.2324 Y1884.7939 Z-20.0000 F5000
G1 X602.2324 Y1884.7939 Z-20.0000 F5000
G1 X602.2324 Y2012.7916 Z-20.0000 F5000
G1 X561.2324 Y2012.7916 Z-20.0000 F5000
G1 X561.2324 Y2014.7935 Z-20.0000 F5000
G1 X566.2324 Y2014.7935 Z-20.0000 F5000
G1 X566.2324 Y2182.7912 Z-20.0000 F5000
G1 X561.2324 Y2182.7912 Z-20.0000 F5000
G1 X561.2324 Y2184.7932 Z-20.0000 F5000
G1 X602.2324 Y2184.7932 Z-20.0000 F5000
G1 X602.2324 Y2259.7911 Z-20.0000 F5000
G1 X519.2345 Y2259.7911 Z-20.0000 F5000
G1 X519.2345 Y1162.5009 Z-20.0000 F5000
G1 X519.2345 Y1138.5009 Z-20.0000 F5000
G1 X518.8854 Y1098.5024 Z0.0000 F5000
G1 X518.8854 Y1098.5024 Z10.0000 F9999
G1 X499.1642 Y1301.0207 Z10.0000 F9999
G1 X499.1642 Y1301.0207 Z0.0000 F2500
G1 X498.8151 Y1341.0192 Z-20.0000 F5000
G1 X498.8151 Y2438.3094 Z-20.0000 F5000
G1 X415.8172 Y2438.3094 Z-20.0000 F5000
G1 X415.8172 Y2290.7249 Z-20.0000 F5000
G1 X456.8172 Y2290.7249 Z-20.0000 F5000
G1 X456.8172 Y2288.7229 Z-20.0000 F5000
G1 X451.8172 Y2288.7229 Z-20.0000 F5000
G1 X451.8172 Y2120.7252 Z-20.0000 F5000
G1 X456.8172 Y2120.7252 Z-20.0000 F5000
G1 X456.8172 Y2118.7232 Z-20.0000 F5000
G1 X415.8172 Y2118.7232 Z-20.0000 F5000
G1 X415.8172 Y1990.7256 Z-20.0000 F5000
G1 X456.8172 Y1990.7256 Z-20.0000 F5000
G1 X456.8172 Y1988.7234 Z-20.0000 F5000
G1 X451.8172 Y1988.7234 Z-20.0000 F5000
G1 X451.8172 Y1820.7259 Z-20.0000 F5000
G1 X456.8172 Y1820.7259 Z-20.0000 F5000
G1 X456.8172 Y1818.7239 Z-20.0000 F5000
G1 X415.8172 Y1818.7239 Z-20.0000 F5000
G1 X415.8172 Y1690.7260 Z-20.0000 F5000
G1 X438.8172 Y1690.7260 Z-20.0000 F5000
G1 X438.8172 Y1688.7240 Z-20.0000 F5000
G1 X433.8172 Y1688.7240 Z-20.0000 F5000
G1 X433.8172 Y1609.7263 Z-20.0000 F5000
G1 X454.8172 Y1609.7263 Z-20.0000 F5000
G1 X454.8172 Y1599.7243 Z-20.0000 F5000
G1 X433.8172 Y1599.7243 Z-20.0000 F5000
G1 X433.8172 Y1520.7264 Z-20.0000 F5000
G1 X438.8173 Y1520.7264 Z-20.0000 F5000
G1 X438.8173 Y1518.7245 Z-20.0000 F5000
G1 X415.8172 Y1518.7245 Z-20.0000 F5000
G1 X415.8172 Y1390.7268 Z-20.0000 F5000
G1 X438.8174 Y1390.7268 Z-20.0000 F5000
G1 X438.8173 Y1388.7248 Z-20.0000 F5000
G1 X433.8172 Y1388.7248 Z-20.0000 F5000
G1 X433.8172 Y1220.7270 Z-20.0000 F5000
G1 X438.8172 Y1220.7270 Z-20.0000 F5000
G1 X438.8172 Y1218.7250 Z-20.0000 F5000
G1 X415.8172 Y1218.7250 Z-20.0000 F5000
G1 X415.8172 Y1090.7273 Z-20.0000 F5000
G1 X438.8172 Y1090.7273 Z-20.0000 F5000
G1 X438.8172 Y1088.7253 Z-20.0000 F5000
G1 X433.8172 Y1088.7253 Z-20.0000 F5000
G1 X433.8172 Y1009.7275 Z-20.0000 F5000
G1 X462.8152 Y1009.7275 Z-20.0000 F5000
G1 X462.8152 Y1014.7275 Z-20.0000 F5000
G1 X464.8172 Y1014.7275 Z-20.0000 F5000
G1 X464.8172 Y994.7255 Z-20.0000 F5000
G1 X462.8152 Y994.7255 Z-20.0000 F5000
G1 X462.8152 Y999.7255 Z-20.0000 F5000
G1 X433.8172 Y999.7255 Z-20.0000 F5000
G1 X433.8172 Y920.7276 Z-20.0000 F5000
G1 X438.8172 Y920.7276 Z-20.0000 F5000
G1 X438.8172 Y918.7256 Z-20.0000 F5000
G1 X415.8172 Y918.7256 Z-20.0000 F5000
G1 X415.8172 Y790.7279 Z-20.0000 F5000
G1 X456.8172 Y790.7279 Z-20.0000 F5000
G1 X456.8172 Y788.7259 Z-20.0000 F5000
G1 X451.8172 Y788.7259 Z-20.0000 F5000
G1 X451.8172 Y620.7282 Z-20.0000 F5000
G1 X456.8172 Y620.7282 Z-20.0000 F5000
G1 X456.8172 Y618.7262 Z-20.0000 F5000
G1 X415.8172 Y618.7262 Z-20.0000 F5000
G1 X415.8172 Y490.7285 Z-20.0000 F5000
G1 X456.8172 Y490.7285 Z-20.0000 F5000
G1 X456.8172 Y488.7265 Z-20.0000 F5000
G1 X451.8172 Y488.7265 Z-20.0000 F5000
G1 X451.8172 Y320.7288 Z-20.0000 F5000
G1 X456.8172 Y320.7288 Z-20.0000 F5000
G1 X456.8172 Y318.7269 Z-20.0000 F5000
G1 X415.8172 Y318.7269 Z-20.0000 F5000
G1 X415.8172 Y243.7290 Z-20.0000 F5000
G1 X498.8151 Y243.7290 Z-20.0000 F5000
G1 X498.8151 Y1341.0192 Z-20.0000 F5000
G1 X498.8151 Y1365.0192 Z-20.0000 F5000
G1 X499.1642 Y1405.0177 Z0.0000 F5000
G1 X499.1642 Y1405.0177 Z10.0000 F9999
G1 X332.5205 Y1153.7065 Z10.0000 F9999
G1 X332.5205 Y1153.7065 Z0.0000 F2500
G1 X332.8696 Y1113.7080 Z-20.0000 F5000
G1 X332.8696 Y16.4178 Z-20.0000 F5000
G1 X415.8675 Y16.4178 Z-20.0000 F5000
G1 X415.8675 Y164.0022 Z-20.0000 F5000
G1 X374.8675 Y164.0022 Z-20.0000 F5000
G1 X374.8675 Y166.0042 Z-20.0000 F5000
G1 X379.8675 Y166.0042 Z-20.0000 F5000
G1 X379.8675 Y334.0020 Z-20.0000 F5000
G1 X374.8675 Y334.0020 Z-20.0000 F5000
G1 X374.8675 Y336.0040 Z-20.0000 F5000
G1 X415.8675 Y336.0040 Z-20.0000 F5000
G1 X415.8675 Y464.0016 Z-20.0000 F5000
G1 X374.8675 Y464.0016 Z-20.0000 F5000
G1 X374.8675 Y466.0037 Z-20.0000 F5000
G1 X379.8675 Y466.0037 Z-20.0000 F5000
G1 X379.8675 Y634.0013 Z-20.0000 F5000
G1 X374.8675 Y634.0013 Z-20.0000 F5000
G1 X374.8675 Y636.0033 Z-20.0000 F5000
G1 X415.8675 Y636.0033 Z-20.0000 F5000
G1 X415.8675 Y764.0011 Z-20.0000 F5000
G1 X392.8675 Y764.0011 Z-20.0000 F5000
G1 X392.8675 Y766.0031 Z-20.0000 F5000
G1 X397.8675 Y766.0031 Z-20.0000 F5000
G1 X397.8675 Y845.0009 Z-20.0000 F5000
G1 X376.8675 Y845.0009 Z-20.0000 F5000
G1 X376.8675 Y855.0029 Z-20.0000 F5000
G1 X397.8675 Y855.0029 Z-20.0000 F5000
G1 X397.8675 Y934.0008 Z-20.0000 F5000
G1 X392.8674 Y934.0008 Z-20.0000 F5000
G1 X392.8674 Y936.0026 Z-20.0000 F5000
G1 X415.8675 Y936.0026 Z-20.0000 F5000
G1 X415.8675 Y1064.0004 Z-20.0000 F5000
G1 X392.8673 Y1064.0004 Z-20.0000 F5000
G1 X392.8674 Y1066.0024 Z-20.0000 F5000
G1 X397.8675 Y1066.0024 Z-20.0000 F5000
G1 X397.8675 Y1234.0002 Z-20.0000 F5000
G1 X392.8675 Y1234.0002 Z-20.0000 F5000
G1 X392.8675 Y1236.0022 Z-20.0000 F5000
G1 X415.8675 Y1236.0022 Z-20.0000 F5000
G1 X415.8675 Y1363.9999 Z-20.0000 F5000
G1 X392.8675 Y1363.9999 Z-20.0000 F5000
G1 X392.8675 Y1366.0019 Z-20.0000 F5000
G1 X397.8675 Y1366.0019 Z-20.0000 F5000
G1 X397.8675 Y1444.9997 Z-20.0000 F5000
G1 X368.8695 Y1444.9997 Z-20.0000 F5000
G1 X368.8695 Y1439.9997 Z-20.0000 F5000
G1 X366.8675 Y1439.9997 Z-20.0000 F5000
G1 X366.8675 Y1460.0017 Z-20.0000 F5000
G1 X368.8695 Y1460.0017 Z-20.0000 F5000
G1 X368.8695 Y1455.0017 Z-20.0000 F5000
G1 X397.8675 Y1455.0017 Z-20.0000 F5000
G1 X397.8675 Y1533.9996 Z-20.0000 F5000
G1 X392.8675 Y1533.9996 Z-20.0000 F5000
G1 X392.8675 Y1536.0015 Z-20.0000 F5000
G1 X415.8675 Y1536.0015 Z-20.0000 F5000
G1 X415.8675 Y1663.9993 Z-20.0000 F5000
G1 X374.8675 Y1663.9993 Z-20.0000 F5000
G1 X374.8675 Y1666.0013 Z-20.0000 F5000
G1 X379.8675 Y1666.0013 Z-20.0000 F5000
G1 X379.8675 Y1833.9990 Z-20.0000 F5000
G1 X374.8675 Y1833.9990 Z-20.0000 F5000
G1 X374.8675 Y1836.0009 Z-20.0000 F5000
G1 X415.8675 Y1836.0009 Z-20.0000 F5000
G1 X415.8675 Y1963.9987 Z-20.0000 F5000
G1 X374.8675 Y1963.9987 Z-20.0000 F5000
G1 X374.8675 Y1966.0006 Z-20.0000 F5000
G1 X379.8675 Y1966.0006 Z-20.0000 F5000
G1 X379.8675 Y2133.9983 Z-20.0000 F5000
G1 X374.8675 Y2133.9983 Z-20.0000 F5000
G1 X374.8675 Y2136.0003 Z-20.0000 F5000
G1 X415.8675 Y2136.0003 Z-20.0000 F5000
G1 X415.8675 Y2210.9982 Z-20.0000 F5000
G1 X332.8696 Y2210.9982 Z-20.0000 F5000
G1 X332.8696 Y1113.7080 Z-20.0000 F5000
G1 X332.8696 Y1089.7080 Z-20.0000 F5000
G1 X332.5205 Y1049.7095 Z0.0000 F5000
G1 X332.5205 Y1049.7095 Z10.0000 F9999
G1 X317.1133 Y1084.9135 Z10.0000 F9999
G1 X317.1133 Y1084.9135 Z0.0000 F2500
G1 X316.7642 Y1124.9120 Z-20.0000 F5000
G1 X316.7642 Y2222.2022 Z-20.0000 F5000
G1 X233.7663 Y2222.2022 Z-20.0000 F5000
G1 X233.7663 Y2074.6178 Z-20.0000 F5000
G1 X274.7663 Y2074.6178 Z-20.0000 F5000
G1 X274.7663 Y2072.6158 Z-20.0000 F5000
G1 X269.7663 Y2072.6158 Z-20.0000 F5000
G1 X269.7663 Y1904.6180 Z-20.0000 F5000
G1 X274.7663 Y1904.6180 Z-20.0000 F5000
G1 X274.7663 Y1902.6160 Z-20.0000 F5000
G1 X233.7663 Y1902.6160 Z-20.0000 F5000
G1 X233.7663 Y1774.6184 Z-20.0000 F5000
G1 X274.7663 Y1774.6184 Z-20.0000 F5000
G1 X274.7663 Y1772.6163 Z-20.0000 F5000
G1 X269.7663 Y1772.6163 Z-20.0000 F5000
G1 X269.7663 Y1604.6187 Z-20.0000 F5000
G1 X274.7663 Y1604.6187 Z-20.0000 F5000
G1 X274.7663 Y1602.6167 Z-20.0000 F5000
G1 X233.7663 Y1602.6167 Z-20.0000 F5000
G1 X233.7663 Y1474.6189 Z-20.0000 F5000
G1 X256.7663 Y1474.6189 Z-20.0000 F5000
G1 X256.7663 Y1472.6169 Z-20.0000 F5000
G1 X251.7663 Y1472.6169 Z-20.0000 F5000
G1 X251.7663 Y1393.6191 Z-20.0000 F5000
G1 X272.7663 Y1393.6191 Z-20.0000 F5000
G1 X272.7663 Y1383.6171 Z-20.0000 F5000
G1 X251.7663 Y1383.6171 Z-20.0000 F5000
G1 X251.7663 Y1304.6192 Z-20.0000 F5000
G1 X256.7664 Y1304.6192 Z-20.0000 F5000
G1 X256.7664 Y1302.6173 Z-20.0000 F5000
G1 X233.7663 Y1302.6173 Z-20.0000 F5000
G1 X233.7663 Y1174.6196 Z-20.0000 F5000
G1 X256.7665 Y1174.6196 Z-20.0000 F5000
G1 X256.7664 Y1172.6176 Z-20.0000 F5000
G1 X251.7663 Y1172.6176 Z-20.0000 F5000
G1 X251.7663 Y1004.6198 Z-20.0000 F5000
G1 X256.7663 Y1004.6198 Z-20.0000 F5000
G1 X256.7663 Y1002.6178 Z-20.0000 F5000
G1 X233.7663 Y1002.6178 Z-20.0000 F5000
G1 X233.7663 Y874.6201 Z-20.0000 F5000
G1 X256.7663 Y874.6201 Z-20.0000 F5000
G1 X256.7663 Y872.6181 Z-20.0000 F5000
G1 X251.7663 Y872.6181 Z-20.0000 F5000
G1 X251.7663 Y793.6203 Z-20.0000 F5000
G1 X280.7643 Y793.6203 Z-20.0000 F5000
G1 X280.7643 Y798.6203 Z-20.0000 F5000
G1 X282.7663 Y798.6203 Z-20.0000 F5000
G1 X282.7663 Y778.6183 Z-20.0000 F5000
G1 X280.7643 Y778.6183 Z-20.0000 F5000
G1 X280.7643 Y783.6183 Z-20.0000 F5000
G1 X251.7663 Y783.6183 Z-20.0000 F5000
G1 X251.7663 Y704.6204 Z-20.0000 F5000
G1 X256.7663 Y704.6204 Z-20.0000 F5000
G1 X256.7663 Y702.6184 Z-20.0000 F5000
G1 X233.7663 Y702.6184 Z-20.0000 F5000
G1 X233.7663 Y574.6207 Z-20.0000 F5000
G1 X274.7663 Y574.6207 Z-20.0000 F5000
G1 X274.7663 Y572.6187 Z-20.0000 F5000
G1 X269.7663 Y572.6187 Z-20.0000 F5000
G1 X269.7663 Y404.6210 Z-20.0000 F5000
G1 X274.7663 Y404.6210 Z-20.0000 F5000
G1 X274.7663 Y402.6191 Z-20.0000 F5000
G1 X233.7663 Y402.6191 Z-20.0000 F5000
G1 X233.7663 Y274.6213 Z-20.0000 F5000
G1 X274.7663 Y274.6213 Z-20.0000 F5000
G1 X274.7663 Y272.6194 Z-20.0000 F5000
G1 X269.7663 Y272.6194 Z-20.0000 F5000
G1 X269.7663 Y104.6217 Z-20.0000 F5000
G1 X274.7663 Y104.6217 Z-20.0000 F5000
G1 X274.7663 Y102.6197 Z-20.0000 F5000
G1 X233.7663 Y102.6197 Z-20.0000 F5000
G1 X233.7663 Y27.6218 Z-20.0000 F5000
G1 X316.7642 Y27.6218 Z-20.0000 F5000
G1 X316.7642 Y1124.9120 Z-20.0000 F5000
G1 X316.7642 Y1148.9120 Z-20.0000 F5000
G1 X317.1133 Y1188.9105 Z0.0000 F5000
G1 X317.1133 Y1188.9105 Z10.0000 F9999
G1 X154.0566 Y1223.2063 Z10.0000 F9999
G1 X154.0566 Y1223.2063 Z0.0000 F2500
G1 X154.4056 Y1183.2078 Z-20.0000 F5000
G1 X154.4056 Y46.3361 Z-20.0000 F5000
G1 X219.4035 Y46.3361 Z-20.0000 F5000
G1 X219.4035 Y125.0840 Z-20.0000 F5000
G1 X214.4035 Y125.0840 Z-20.0000 F5000
G1 X214.4035 Y127.0860 Z-20.0000 F5000
G1 X237.4035 Y127.0860 Z-20.0000 F5000
G1 X237.4035 Y255.0837 Z-20.0000 F5000
G1 X214.4035 Y255.0837 Z-20.0000 F5000
G1 X214.4035 Y257.0857 Z-20.0000 F5000
G1 X219.4035 Y257.0857 Z-20.0000 F5000
G1 X219.4035 Y425.0834 Z-20.0000 F5000
G1 X214.4035 Y425.0834 Z-20.0000 F5000
G1 X214.4035 Y427.0854 Z-20.0000 F5000
G1 X237.4035 Y427.0854 Z-20.0000 F5000
G1 X237.4035 Y555.0831 Z-20.0000 F5000
G1 X214.4035 Y555.0831 Z-20.0000 F5000
G1 X214.4035 Y557.0851 Z-20.0000 F5000
G1 X219.4035 Y557.0851 Z-20.0000 F5000
G1 X219.4035 Y725.0828 Z-20.0000 F5000
G1 X214.4035 Y725.0828 Z-20.0000 F5000
G1 X214.4035 Y727.0848 Z-20.0000 F5000
G1 X237.4035 Y727.0848 Z-20.0000 F5000
G1 X237.4035 Y855.0825 Z-20.0000 F5000
G1 X214.4035 Y855.0825 Z-20.0000 F5000
G1 X214.4035 Y857.0845 Z-20.0000 F5000
G1 X219.4035 Y857.0845 Z-20.0000 F5000
G1 X219.4035 Y1025.0822 Z-20.0000 F5000
G1 X214.4035 Y1025.0822 Z-20.0000 F5000
G1 X214.4035 Y1027.0841 Z-20.0000 F5000
G1 X237.4035 Y1027.0841 Z-20.0000 F5000
G1 X237.4035 Y1155.0819 Z-20.0000 F5000
G1 X214.4035 Y1155.0819 Z-20.0000 F5000
G1 X214.4035 Y1157.0839 Z-20.0000 F5000
G1 X219.4035 Y1157.0839 Z-20.0000 F5000
G1 X219.4035 Y1236.0818 Z-20.0000 F5000
G1 X190.4056 Y1236.0818 Z-20.0000 F5000
G1 X190.4056 Y1231.0817 Z-20.0000 F5000
G1 X188.4036 Y1231.0817 Z-20.0000 F5000
G1 X188.4036 Y1251.0837 Z-20.0000 F5000
G1 X190.4056 Y1251.0837 Z-20.0000 F5000
G1 X190.4056 Y1246.0837 Z-20.0000 F5000
G1 X219.4035 Y1246.0837 Z-20.0000 F5000
G1 X219.4035 Y1325.0815 Z-20.0000 F5000
G1 X214.4035 Y1325.0815 Z-20.0000 F5000
G1 X214.4035 Y1327.0836 Z-20.0000 F5000
G1 X237.4035 Y1327.0836 Z-20.0000 F5000
G1 X237.4035 Y1455.0813 Z-20.0000 F5000
G1 X214.4035 Y1455.0813 Z-20.0000 F5000
G1 X214.4035 Y1457.0833 Z-20.0000 F5000
G1 X219.4035 Y1457.0833 Z-20.0000 F5000
G1 X219.4035 Y1625.0809 Z-20.0000 F5000
G1 X214.4035 Y1625.0809 Z-20.0000 F5000
G1 X214.4035 Y1627.0829 Z-20.0000 F5000
G1 X237.4035 Y1627.0829 Z-20.0000 F5000
G1 X237.4035 Y1755.0807 Z-20.0000 F5000
G1 X196.4036 Y1755.0807 Z-20.0000 F5000
G1 X196.4036 Y1757.0826 Z-20.0000 F5000
G1 X201.4036 Y1757.0826 Z-20.0000 F5000
G1 X201.4036 Y1925.0803 Z-20.0000 F5000
G1 X196.4036 Y1925.0803 Z-20.0000 F5000
G1 X196.4036 Y1927.0823 Z-20.0000 F5000
G1 X237.4035 Y1927.0823 Z-20.0000 F5000
G1 X237.4035 Y2055.0801 Z-20.0000 F5000
G1 X196.4036 Y2055.0801 Z-20.0000 F5000
G1 X196.4036 Y2057.0821 Z-20.0000 F5000
G1 X201.4036 Y2057.0821 Z-20.0000 F5000
G1 X201.4036 Y2225.0797 Z-20.0000 F5000
G1 X196.4036 Y2225.0797 Z-20.0000 F5000
G1 X196.4036 Y2227.0817 Z-20.0000 F5000
G1 X237.4035 Y2227.0817 Z-20.0000 F5000
G1 X237.4035 Y2320.0796 Z-20.0000 F5000
G1 X154.4056 Y2320.0796 Z-20.0000 F5000
G1 X154.4056 Y1183.2078 Z-20.0000 F5000
G1 X154.4056 Y1159.2078 Z-20.0000 F5000
G1 X154.0566 Y1119.2094 Z0.0000 F5000
G1 X154.0566 Y1119.2094 Z10.0000 F9999
G1 X36.0567 Y1223.2063 Z10.0000 F9999
G1 X36.0567 Y1223.2063 Z0.0000 F2500
G1 X36.4058 Y1183.2078 Z-20.0000 F5000
G1 X36.4058 Y39.3267 Z-20.0000 F5000
G1 X119.4036 Y39.3267 Z-20.0000 F5000
G1 X119.4036 Y147.3239 Z-20.0000 F5000
G1 X78.4037 Y147.3239 Z-20.0000 F5000
G1 X78.4037 Y149.3253 Z-20.0000 F5000
G1 X83.4037 Y149.3253 Z-20.0000 F5000
G1 X83.4037 Y317.3231 Z-20.0000 F5000
G1 X78.4037 Y317.3231 Z-20.0000 F5000
G1 X78.4037 Y319.3259 Z-20.0000 F5000
G1 X119.4036 Y319.3259 Z-20.0000 F5000
G1 X119.4036 Y447.3235 Z-20.0000 F5000
G1 X78.4037 Y447.3235 Z-20.0000 F5000
G1 X78.4037 Y449.3247 Z-20.0000 F5000
G1 X83.4037 Y449.3247 Z-20.0000 F5000
G1 X83.4037 Y617.3229 Z-20.0000 F5000
G1 X78.4037 Y617.3229 Z-20.0000 F5000
G1 X78.4037 Y619.3255 Z-20.0000 F5000
G1 X119.4036 Y619.3255 Z-20.0000 F5000
G1 X119.4036 Y747.3231 Z-20.0000 F5000
G1 X96.4036 Y747.3231 Z-20.0000 F5000
G1 X96.4036 Y749.3244 Z-20.0000 F5000
G1 X101.4036 Y749.3244 Z-20.0000 F5000
G1 X101.4036 Y828.3221 Z-20.0000 F5000
G1 X72.4057 Y828.3221 Z-20.0000 F5000
G1 X72.4057 Y823.3223 Z-20.0000 F5000
G1 X70.4037 Y823.3223 Z-20.0000 F5000
G1 X70.4037 Y843.3241 Z-20.0000 F5000
G1 X72.4057 Y843.3241 Z-20.0000 F5000
G1 X72.4057 Y838.3244 Z-20.0000 F5000
G1 X101.4036 Y838.3244 Z-20.0000 F5000
G1 X101.4036 Y917.3222 Z-20.0000 F5000
G1 X96.4036 Y917.3222 Z-20.0000 F5000
G1 X96.4036 Y919.3249 Z-20.0000 F5000
G1 X119.4036 Y919.3249 Z-20.0000 F5000
G1 X119.4036 Y1077.4135 Z-20.0000 F5000
G1 X96.4036 Y1077.4135 Z-20.0000 F5000
G1 X96.4036 Y1079.4162 Z-20.0000 F5000
G1 X101.4036 Y1079.4162 Z-20.0000 F5000
G1 X101.4036 Y1247.4125 Z-20.0000 F5000
G1 X96.4036 Y1247.4125 Z-20.0000 F5000
G1 X96.4036 Y1249.4154 Z-20.0000 F5000
G1 X119.4036 Y1249.4154 Z-20.0000 F5000
G1 X119.4036 Y1407.5042 Z-20.0000 F5000
G1 X96.4036 Y1407.5042 Z-20.0000 F5000
G1 X96.4036 Y1409.5069 Z-20.0000 F5000
G1 X101.4036 Y1409.5069 Z-20.0000 F5000
G1 X101.4036 Y1488.5047 Z-20.0000 F5000
G1 X72.4057 Y1488.5047 Z-20.0000 F5000
G1 X72.4057 Y1483.5049 Z-20.0000 F5000
G1 X70.4037 Y1483.5049 Z-20.0000 F5000
G1 X70.4037 Y1503.5067 Z-20.0000 F5000
G1 X72.4057 Y1503.5067 Z-20.0000 F5000
G1 X72.4057 Y1498.5068 Z-20.0000 F5000
G1 X101.4036 Y1498.5068 Z-20.0000 F5000
G1 X101.4036 Y1577.5047 Z-20.0000 F5000
G1 X96.4036 Y1577.5047 Z-20.0000 F5000
G1 X96.4036 Y1579.5059 Z-20.0000 F5000
G1 X119.4036 Y1579.5059 Z-20.0000 F5000
G1 X119.4036 Y1707.5033 Z-20.0000 F5000
G1 X78.4037 Y1707.5033 Z-20.0000 F5000
G1 X78.4037 Y1709.5064 Z-20.0000 F5000
G1 X83.4037 Y1709.5064 Z-20.0000 F5000
G1 X83.4037 Y1877.5042 Z-20.0000 F5000
G1 X78.4037 Y1877.5042 Z-20.0000 F5000
G1 X78.4037 Y1879.5054 Z-20.0000 F5000
G1 X119.4036 Y1879.5054 Z-20.0000 F5000
G1 X119.4036 Y2007.5034 Z-20.0000 F5000
G1 X78.4037 Y2007.5034 Z-20.0000 F5000
G1 X78.4037 Y2009.5051 Z-20.0000 F5000
G1 X83.4037 Y2009.5051 Z-20.0000 F5000
G1 X83.4037 Y2177.5031 Z-20.0000 F5000
G1 X78.4037 Y2177.5031 Z-20.0000 F5000
G1 X78.4037 Y2179.5049 Z-20.0000 F5000
G1 X119.4036 Y2179.5049 Z-20.0000 F5000
G1 X119.4036 Y2327.0890 Z-20.0000 F5000
G1 X36.4058 Y2327.0890 Z-20.0000 F5000
G1 X36.4058 Y1183.2078 Z-20.0000 F5000
G1 X36.4058 Y1159.2078 Z-20.0000 F5000
G1 X36.0567 Y1119.2094 Z0.0000 F5000
G1 X36.0567 Y1119.2094 Z10.0000 F9999
G1 X1900.0000 Y2800.0000 Z80.0000 F9999
G1 Z80.0000 F9999
G1 X1900.0000 Y2800.0000 F9999
M5
M30
