(plotsheet 2n3_nested_153 sheets_final v1_0_sheet 153b_S153.0_46 screws_CC8 - stepover 1mm)
(Material Size) (X=1220.000, Y=2440.000, Z=20.000)
(LinuxCNC_NoArcs_MM_TC_medium_50um_G1_verbose.con)
G90 G80 G21 G49
G64 P0.050
M6 T1
(Tool Number:1) (7.998 mm dia. slot drill)
G43 H1 G0Z80.0000
M3 S9000
G04 P10
G1 X51.8249 Y64.8658 Z10.0000 F9999
G1 X51.8249 Y64.8658 Z2.0000 F9999
G1 X51.8249 Y64.8658 Z-1.5000 F2500
G1 X51.8249 Y64.8658 Z10.0000 F9999
G1 X1173.4656 Y68.3170 Z10.0000 F9999
G1 X1173.4656 Y68.3170 Z2.0000 F9999
G1 X1173.4656 Y68.3170 Z-1.5000 F2500
G1 X1173.4656 Y68.3170 Z10.0000 F9999
G1 X1056.2996 Y186.0427 Z10.0000 F9999
G1 X1056.2996 Y186.0427 Z2.0000 F9999
G1 X1056.2996 Y186.0427 Z-1.5000 F2500
G1 X1056.2996 Y186.0427 Z10.0000 F9999
G1 X841.2305 Y192.9915 Z10.0000 F9999
G1 X841.2305 Y192.9915 Z2.0000 F9999
G1 X841.2305 Y192.9915 Z-1.5000 F2500
G1 X841.2305 Y192.9915 Z10.0000 F9999
G1 X728.7906 Y192.9915 Z10.0000 F9999
G1 X728.7906 Y192.9915 Z2.0000 F9999
G1 X728.7906 Y192.9915 Z-1.5000 F2500
G1 X728.7906 Y192.9915 Z10.0000 F9999
G1 X944.7666 Y277.9774 Z10.0000 F9999
G1 X944.7666 Y277.9774 Z2.0000 F9999
G1 X944.7666 Y277.9774 Z-1.5000 F2500
G1 X944.7666 Y277.9774 Z10.0000 F9999
G1 X212.3121 Y383.1095 Z10.0000 F9999
G1 X212.3121 Y383.1095 Z2.0000 F9999
G1 X212.3121 Y383.1095 Z-1.5000 F2500
G1 X212.3121 Y383.1095 Z10.0000 F9999
G1 X391.8503 Y383.1095 Z10.0000 F9999
G1 X391.8503 Y383.1095 Z2.0000 F9999
G1 X391.8503 Y383.1095 Z-1.5000 F2500
G1 X391.8503 Y383.1095 Z10.0000 F9999
G1 X577.7468 Y383.1095 Z10.0000 F9999
G1 X577.7468 Y383.1095 Z2.0000 F9999
G1 X577.7468 Y383.1095 Z-1.5000 F2500
G1 X577.7468 Y383.1095 Z10.0000 F9999
G1 X46.6481 Y711.9662 Z10.0000 F9999
G1 X46.6481 Y711.9662 Z2.0000 F9999
G1 X46.6481 Y711.9662 Z-1.5000 F2500
G1 X46.6481 Y711.9662 Z10.0000 F9999
G1 X1176.9167 Y706.7894 Z10.0000 F9999
G1 X1176.9167 Y706.7894 Z2.0000 F9999
G1 X1176.9167 Y706.7894 Z-1.5000 F2500
G1 X1176.9167 Y706.7894 Z10.0000 F9999
G1 X1056.2996 Y781.8529 Z10.0000 F9999
G1 X1056.2996 Y781.8529 Z2.0000 F9999
G1 X1056.2996 Y781.8529 Z-1.5000 F2500
G1 X1056.2996 Y781.8529 Z10.0000 F9999
G1 X844.6818 Y776.2447 Z10.0000 F9999
G1 X844.6818 Y776.2447 Z2.0000 F9999
G1 X844.6818 Y776.2447 Z-1.5000 F2500
G1 X844.6818 Y776.2447 Z10.0000 F9999
G1 X732.2419 Y776.2447 Z10.0000 F9999
G1 X732.2419 Y776.2447 Z2.0000 F9999
G1 X732.2419 Y776.2447 Z-1.5000 F2500
G1 X732.2419 Y776.2447 Z10.0000 F9999
G1 X1175.1912 Y1001.8672 Z10.0000 F9999
G1 X1175.1912 Y1001.8672 Z2.0000 F9999
G1 X1175.1912 Y1001.8672 Z-1.5000 F2500
G1 X1175.1912 Y1001.8672 Z10.0000 F9999
G1 X577.7468 Y964.9736 Z10.0000 F9999
G1 X577.7468 Y964.9736 Z2.0000 F9999
G1 X577.7468 Y964.9736 Z-1.5000 F2500
G1 X577.7468 Y964.9736 Z10.0000 F9999
G1 X391.8503 Y964.9736 Z10.0000 F9999
G1 X391.8503 Y964.9736 Z2.0000 F9999
G1 X391.8503 Y964.9736 Z-1.5000 F2500
G1 X391.8503 Y964.9736 Z10.0000 F9999
G1 X212.3121 Y964.9736 Z10.0000 F9999
G1 X212.3121 Y964.9736 Z2.0000 F9999
G1 X212.3121 Y964.9736 Z-1.5000 F2500
G1 X212.3121 Y964.9736 Z10.0000 F9999
G1 X50.0993 Y1000.1416 Z10.0000 F9999
G1 X50.0993 Y1000.1416 Z2.0000 F9999
G1 X50.0993 Y1000.1416 Z-1.5000 F2500
G1 X50.0993 Y1000.1416 Z10.0000 F9999
G1 X1056.2996 Y1097.6379 Z10.0000 F9999
G1 X1056.2996 Y1097.6379 Z2.0000 F9999
G1 X1056.2996 Y1097.6379 Z-1.5000 F2500
G1 X1056.2996 Y1097.6379 Z10.0000 F9999
G1 X842.9562 Y1084.8162 Z10.0000 F9999
G1 X842.9562 Y1084.8162 Z2.0000 F9999
G1 X842.9562 Y1084.8162 Z-1.5000 F2500
G1 X842.9562 Y1084.8162 Z10.0000 F9999
G1 X730.5163 Y1084.8162 Z10.0000 F9999
G1 X730.5163 Y1084.8162 Z2.0000 F9999
G1 X730.5163 Y1084.8162 Z-1.5000 F2500
G1 X730.5163 Y1084.8162 Z10.0000 F9999
G1 X944.7666 Y1178.7412 Z10.0000 F9999
G1 X944.7666 Y1178.7412 Z2.0000 F9999
G1 X944.7666 Y1178.7412 Z-1.5000 F2500
G1 X944.7666 Y1178.7412 Z10.0000 F9999
G1 X1174.1729 Y1309.0242 Z10.0000 F9999
G1 X1174.1729 Y1309.0242 Z2.0000 F9999
G1 X1174.1729 Y1309.0242 Z-1.5000 F2500
G1 X1174.1729 Y1309.0242 Z10.0000 F9999
G1 X46.6481 Y1317.6522 Z10.0000 F9999
G1 X46.6481 Y1317.6522 Z2.0000 F9999
G1 X46.6481 Y1317.6522 Z-1.5000 F2500
G1 X46.6481 Y1317.6522 Z10.0000 F9999
G1 X212.3121 Y1363.4496 Z10.0000 F9999
G1 X212.3121 Y1363.4496 Z2.0000 F9999
G1 X212.3121 Y1363.4496 Z-1.5000 F2500
G1 X212.3121 Y1363.4496 Z10.0000 F9999
G1 X577.7468 Y1363.4496 Z10.0000 F9999
G1 X577.7468 Y1363.4496 Z2.0000 F9999
G1 X577.7468 Y1363.4496 Z-1.5000 F2500
G1 X577.7468 Y1363.4496 Z10.0000 F9999
G1 X1056.2996 Y1419.6674 Z10.0000 F9999
G1 X1056.2996 Y1419.6674 Z2.0000 F9999
G1 X1056.2996 Y1419.6674 Z-1.5000 F2500
G1 X1056.2996 Y1419.6674 Z10.0000 F9999
G1 X944.7666 Y1478.3882 Z10.0000 F9999
G1 X944.7666 Y1478.3882 Z2.0000 F9999
G1 X944.7666 Y1478.3882 Z-1.5000 F2500
G1 X944.7666 Y1478.3882 Z10.0000 F9999
G1 X841.9377 Y1428.5220 Z10.0000 F9999
G1 X841.9377 Y1428.5220 Z2.0000 F9999
G1 X841.9377 Y1428.5220 Z-1.5000 F2500
G1 X841.9377 Y1428.5220 Z10.0000 F9999
G1 X729.4979 Y1428.5220 Z10.0000 F9999
G1 X729.4979 Y1428.5220 Z2.0000 F9999
G1 X729.4979 Y1428.5220 Z-1.5000 F2500
G1 X729.4979 Y1428.5220 Z10.0000 F9999
G1 X1175.1912 Y1593.7484 Z10.0000 F9999
G1 X1175.1912 Y1593.7484 Z2.0000 F9999
G1 X1175.1912 Y1593.7484 Z-1.5000 F2500
G1 X1175.1912 Y1593.7484 Z10.0000 F9999
G1 X48.3737 Y1593.7484 Z10.0000 F9999
G1 X48.3737 Y1593.7484 Z2.0000 F9999
G1 X48.3737 Y1593.7484 Z-1.5000 F2500
G1 X48.3737 Y1593.7484 Z10.0000 F9999
G1 X1056.2996 Y1737.1807 Z10.0000 F9999
G1 X1056.2996 Y1737.1807 Z2.0000 F9999
G1 X1056.2996 Y1737.1807 Z-1.5000 F2500
G1 X1056.2996 Y1737.1807 Z10.0000 F9999
G1 X842.9562 Y1742.5813 Z10.0000 F9999
G1 X842.9562 Y1742.5813 Z2.0000 F9999
G1 X842.9562 Y1742.5813 Z-1.5000 F2500
G1 X842.9562 Y1742.5813 Z10.0000 F9999
G1 X730.5163 Y1742.5813 Z10.0000 F9999
G1 X730.5163 Y1742.5813 Z2.0000 F9999
G1 X730.5163 Y1742.5813 Z-1.5000 F2500
G1 X730.5163 Y1742.5813 Z10.0000 F9999
G1 X358.0622 Y1894.4342 Z10.0000 F9999
G1 X358.0622 Y1894.4342 Z2.0000 F9999
G1 X358.0622 Y1894.4342 Z-1.5000 F2500
G1 X358.0622 Y1894.4342 Z10.0000 F9999
G1 X358.0622 Y2074.7595 Z10.0000 F9999
G1 X358.0622 Y2074.7595 Z2.0000 F9999
G1 X358.0622 Y2074.7595 Z-1.5000 F2500
G1 X358.0622 Y2074.7595 Z10.0000 F9999
G1 X41.4712 Y2180.4529 Z10.0000 F9999
G1 X41.4712 Y2180.4529 Z2.0000 F9999
G1 X41.4712 Y2180.4529 Z-1.5000 F2500
G1 X41.4712 Y2180.4529 Z10.0000 F9999
G1 X1175.9302 Y2177.3210 Z10.0000 F9999
G1 X1175.9302 Y2177.3210 Z2.0000 F9999
G1 X1175.9302 Y2177.3210 Z-1.5000 F2500
G1 X1175.9302 Y2177.3210 Z10.0000 F9999
G1 X731.2552 Y2350.7437 Z10.0000 F9999
G1 X731.2552 Y2350.7437 Z2.0000 F9999
G1 X731.2552 Y2350.7437 Z-1.5000 F2500
G1 X731.2552 Y2350.7437 Z10.0000 F9999
G1 X843.6951 Y2350.7437 Z10.0000 F9999
G1 X843.6951 Y2350.7437 Z2.0000 F9999
G1 X843.6951 Y2350.7437 Z-1.5000 F2500
G1 X843.6951 Y2350.7437 Z10.0000 F9999
G1 X1056.2996 Y2362.1924 Z10.0000 F9999
G1 X1056.2996 Y2362.1924 Z2.0000 F9999
G1 X1056.2996 Y2362.1924 Z-1.5000 F2500
G1 X1056.2996 Y2362.1924 Z10.0000 F9999
G1 X944.7666 Y2364.0527 Z10.0000 F9999
G1 X944.7666 Y2364.0527 Z2.0000 F9999
G1 X944.7666 Y2364.0527 Z-1.5000 F2500
G1 X944.7666 Y2364.0527 Z10.0000 F9999
G1 X598.7836 Y2384.5049 Z10.0000 F9999
G1 X598.7836 Y2384.5049 Z2.0000 F9999
G1 X598.7836 Y2384.5049 Z-1.5000 F2500
G1 X598.7836 Y2384.5049 Z10.0000 F9999
G1 X22.1057 Y2420.5281 Z10.0000 F9999
G1 X22.1057 Y2420.5281 Z2.0000 F9999
G1 X22.1057 Y2420.5281 Z-1.5000 F2500
G1 X22.1057 Y2420.5281 Z10.0000 F9999
G1 X1900.0000 Y2800.0000 Z80.0000 F9999
G1 Z80.0000 F9999
G1 X1900.0000 Y2800.0000 F9999
M5
M30
