(plotsheet 2n3_nested_153 sheets_final v1_0_sheet 100_S100.1_text_CC9.53 - PCD - stepover 1mm)
(Material Size) (X=1220.000, Y=2440.000, Z=21.000)
(LinuxCNC_NoArcs_MM_TC_medium_50um_G1_verbose.con)
G90 G80 G21 G49
G64 P0.050
M6 T1
(Tool Number:1) (9.530 mm dia. slot drill)
G43 H1 G0Z80.0000
M3 S17444
G04 P10
G1 X576.9906 Y261.2492 Z10.0000 F9999
G1 X576.9906 Y261.2492 Z-1.0000 F2500
G1 X564.3667 Y261.2492 Z-1.0000 F4000
G1 X564.3667 Y302.3501 Z-1.0000 F4000
G1 X564.3667 Y261.2492 Z-1.0000 F4000
G1 X564.3667 Y261.2492 Z10.0000 F9999
G1 X609.9631 Y302.3501 Z10.0000 F9999
G1 X609.9631 Y302.3501 Z-1.0000 F2500
G1 X587.7612 Y268.9556 Z-1.0000 F4000
G1 X616.5686 Y268.9556 Z-1.0000 F4000
G1 X587.7612 Y268.9556 Z-1.0000 F4000
G1 X609.9631 Y302.3501 Z-1.0000 F4000
G1 X609.9631 Y261.2492 Z-1.0000 F4000
G1 X609.9631 Y261.2492 Z10.0000 F9999
G1 X643.6328 Y302.3501 Z10.0000 F9999
G1 X643.6328 Y302.3501 Z-1.0000 F2500
G1 X632.3300 Y286.3868 Z-1.0000 F4000
G1 X630.9434 Y284.4249 Z-1.0000 F4000
G1 X629.6144 Y282.4235 Z-1.0000 F4000
G1 X627.6878 Y275.2125 Z-1.0000 F4000
G1 X628.7887 Y269.7813 Z-1.0000 F4000
G1 X631.7429 Y265.3593 Z-1.0000 F4000
G1 X636.1098 Y262.3501 Z-1.0000 F4000
G1 X641.5043 Y261.2492 Z-1.0000 F4000
G1 X646.8988 Y262.3501 Z-1.0000 F4000
G1 X651.3392 Y265.3593 Z-1.0000 F4000
G1 X654.3300 Y269.7813 Z-1.0000 F4000
G1 X655.4310 Y275.2125 Z-1.0000 F4000
G1 X654.3300 Y280.6253 Z-1.0000 F4000
G1 X651.3392 Y285.0474 Z-1.0000 F4000
G1 X646.8988 Y288.0198 Z-1.0000 F4000
G1 X641.5043 Y289.1208 Z-1.0000 F4000
G1 X634.5869 Y287.2675 Z-1.0000 F4000
G1 X629.6144 Y282.4235 Z-1.0000 F4000
G1 X634.5869 Y287.2675 Z-1.0000 F4000
G1 X641.5043 Y289.1208 Z-1.0000 F4000
G1 X646.8988 Y288.0198 Z-1.0000 F4000
G1 X651.3392 Y285.0474 Z-1.0000 F4000
G1 X654.3300 Y280.6253 Z-1.0000 F4000
G1 X655.4310 Y275.2125 Z-1.0000 F4000
G1 X654.3300 Y269.7813 Z-1.0000 F4000
G1 X651.3392 Y265.3593 Z-1.0000 F4000
G1 X646.8988 Y262.3501 Z-1.0000 F4000
G1 X641.5043 Y261.2492 Z-1.0000 F4000
G1 X636.1098 Y262.3501 Z-1.0000 F4000
G1 X631.7429 Y265.3593 Z-1.0000 F4000
G1 X628.7887 Y269.7813 Z-1.0000 F4000
G1 X627.6878 Y275.2125 Z-1.0000 F4000
G1 X629.6144 Y282.4235 Z-1.0000 F4000
G1 X630.5686 Y283.8731 Z-1.0000 F4000
G1 X637.1007 Y293.1575 Z-1.0000 F4000
G1 X637.1007 Y293.1575 Z10.0000 F9999
G1 X576.9906 Y827.0602 Z10.0000 F9999
G1 X576.9906 Y827.0602 Z-1.0000 F2500
G1 X564.3667 Y827.0602 Z-1.0000 F4000
G1 X564.3667 Y868.1611 Z-1.0000 F4000
G1 X564.3667 Y827.0602 Z-1.0000 F4000
G1 X564.3667 Y827.0602 Z10.0000 F9999
G1 X609.9631 Y868.1611 Z10.0000 F9999
G1 X609.9631 Y868.1611 Z-1.0000 F2500
G1 X587.7612 Y834.7666 Z-1.0000 F4000
G1 X616.5686 Y834.7666 Z-1.0000 F4000
G1 X587.7612 Y834.7666 Z-1.0000 F4000
G1 X609.9631 Y868.1611 Z-1.0000 F4000
G1 X609.9631 Y827.0602 Z-1.0000 F4000
G1 X609.9631 Y827.0602 Z10.0000 F9999
G1 X643.6328 Y868.1611 Z10.0000 F9999
G1 X643.6328 Y868.1611 Z-1.0000 F2500
G1 X632.3300 Y852.1978 Z-1.0000 F4000
G1 X630.9434 Y850.2359 Z-1.0000 F4000
G1 X629.6144 Y848.2345 Z-1.0000 F4000
G1 X627.6878 Y841.0235 Z-1.0000 F4000
G1 X628.7887 Y835.5923 Z-1.0000 F4000
G1 X631.7429 Y831.1703 Z-1.0000 F4000
G1 X636.1098 Y828.1611 Z-1.0000 F4000
G1 X641.5043 Y827.0602 Z-1.0000 F4000
G1 X646.8988 Y828.1611 Z-1.0000 F4000
G1 X651.3392 Y831.1703 Z-1.0000 F4000
G1 X654.3300 Y835.5923 Z-1.0000 F4000
G1 X655.4310 Y841.0235 Z-1.0000 F4000
G1 X654.3300 Y846.4364 Z-1.0000 F4000
G1 X651.3392 Y850.8584 Z-1.0000 F4000
G1 X646.8988 Y853.8309 Z-1.0000 F4000
G1 X641.5043 Y854.9318 Z-1.0000 F4000
G1 X634.5869 Y853.0786 Z-1.0000 F4000
G1 X629.6144 Y848.2345 Z-1.0000 F4000
G1 X634.5869 Y853.0786 Z-1.0000 F4000
G1 X641.5043 Y854.9318 Z-1.0000 F4000
G1 X646.8988 Y853.8309 Z-1.0000 F4000
G1 X651.3392 Y850.8584 Z-1.0000 F4000
G1 X654.3300 Y846.4364 Z-1.0000 F4000
G1 X655.4310 Y841.0235 Z-1.0000 F4000
G1 X654.3300 Y835.5923 Z-1.0000 F4000
G1 X651.3392 Y831.1703 Z-1.0000 F4000
G1 X646.8988 Y828.1611 Z-1.0000 F4000
G1 X641.5043 Y827.0602 Z-1.0000 F4000
G1 X636.1098 Y828.1611 Z-1.0000 F4000
G1 X631.7429 Y831.1703 Z-1.0000 F4000
G1 X628.7887 Y835.5923 Z-1.0000 F4000
G1 X627.6878 Y841.0235 Z-1.0000 F4000
G1 X629.6144 Y848.2345 Z-1.0000 F4000
G1 X630.5686 Y849.6841 Z-1.0000 F4000
G1 X637.1007 Y858.9685 Z-1.0000 F4000
G1 X637.1007 Y858.9685 Z10.0000 F9999
G1 X578.0916 Y1408.4489 Z10.0000 F9999
G1 X578.0916 Y1408.4489 Z-1.0000 F2500
G1 X564.8623 Y1428.5957 Z-1.0000 F4000
G1 X578.0916 Y1408.4489 Z-1.0000 F4000
G1 X578.0916 Y1408.4489 Z10.0000 F9999
G1 X560.6788 Y1408.4489 Z10.0000 F9999
G1 X560.6788 Y1408.4489 Z-1.0000 F2500
G1 X560.6788 Y1449.5498 Z-1.0000 F4000
G1 X567.8347 Y1449.5498 Z-1.0000 F4000
G1 X571.7063 Y1448.9443 Z-1.0000 F4000
G1 X574.9173 Y1447.1278 Z-1.0000 F4000
G1 X577.1375 Y1443.9718 Z-1.0000 F4000
G1 X577.9815 Y1439.3296 Z-1.0000 F4000
G1 X576.8256 Y1434.6507 Z-1.0000 F4000
G1 X574.0549 Y1431.3296 Z-1.0000 F4000
G1 X570.7338 Y1429.3663 Z-1.0000 F4000
G1 X567.8347 Y1428.7058 Z-1.0000 F4000
G1 X560.6788 Y1428.7058 Z-1.0000 F4000
G1 X567.8347 Y1428.7058 Z-1.0000 F4000
G1 X570.7338 Y1429.3663 Z-1.0000 F4000
G1 X574.0549 Y1431.3296 Z-1.0000 F4000
G1 X576.8256 Y1434.6507 Z-1.0000 F4000
G1 X577.9815 Y1439.3296 Z-1.0000 F4000
G1 X577.1375 Y1443.9718 Z-1.0000 F4000
G1 X574.9173 Y1447.1278 Z-1.0000 F4000
G1 X571.7063 Y1448.9443 Z-1.0000 F4000
G1 X567.8347 Y1449.5498 Z-1.0000 F4000
G1 X560.6788 Y1449.5498 Z-1.0000 F4000
G1 X560.6788 Y1449.5498 Z10.0000 F9999
G1 X523.0641 Y1408.4489 Z10.0000 F9999
G1 X523.0641 Y1408.4489 Z-1.0000 F2500
G1 X514.8623 Y1410.0452 Z-1.0000 F4000
G1 X508.1283 Y1414.4489 Z-1.0000 F4000
G1 X503.5595 Y1420.9810 Z-1.0000 F4000
G1 X501.8714 Y1428.9627 Z-1.0000 F4000
G1 X503.5595 Y1436.9443 Z-1.0000 F4000
G1 X508.1283 Y1443.4948 Z-1.0000 F4000
G1 X514.8623 Y1447.9168 Z-1.0000 F4000
G1 X523.0641 Y1449.5498 Z-1.0000 F4000
G1 X531.3210 Y1447.9168 Z-1.0000 F4000
G1 X538.0549 Y1443.4948 Z-1.0000 F4000
G1 X542.5870 Y1436.9443 Z-1.0000 F4000
G1 X544.2568 Y1428.9627 Z-1.0000 F4000
G1 X542.5870 Y1420.9810 Z-1.0000 F4000
G1 X538.0549 Y1414.4489 Z-1.0000 F4000
G1 X531.3210 Y1410.0452 Z-1.0000 F4000
G1 X523.0641 Y1408.4489 Z-1.0000 F4000
G1 X514.8623 Y1410.0452 Z-1.0000 F4000
G1 X508.1283 Y1414.4489 Z-1.0000 F4000
G1 X503.5595 Y1420.9810 Z-1.0000 F4000
G1 X501.8714 Y1428.9627 Z-1.0000 F4000
G1 X503.5595 Y1436.9443 Z-1.0000 F4000
G1 X508.1283 Y1443.4948 Z-1.0000 F4000
G1 X514.8623 Y1447.9168 Z-1.0000 F4000
G1 X523.0641 Y1449.5498 Z-1.0000 F4000
G1 X531.3210 Y1447.9168 Z-1.0000 F4000
G1 X538.0549 Y1443.4948 Z-1.0000 F4000
G1 X542.5870 Y1436.9443 Z-1.0000 F4000
G1 X544.2568 Y1428.9627 Z-1.0000 F4000
G1 X542.5870 Y1420.9810 Z-1.0000 F4000
G1 X538.0549 Y1414.4489 Z-1.0000 F4000
G1 X531.3210 Y1410.0452 Z-1.0000 F4000
G1 X523.0641 Y1408.4489 Z-1.0000 F4000
G1 X523.0641 Y1408.4489 Z10.0000 F9999
G1 X469.0458 Y1408.4489 Z10.0000 F9999
G1 X469.0458 Y1408.4489 Z-1.0000 F2500
G1 X460.8439 Y1410.0452 Z-1.0000 F4000
G1 X454.1100 Y1414.4489 Z-1.0000 F4000
G1 X449.5412 Y1420.9810 Z-1.0000 F4000
G1 X447.8531 Y1428.9627 Z-1.0000 F4000
G1 X449.5412 Y1436.9443 Z-1.0000 F4000
G1 X454.1100 Y1443.4948 Z-1.0000 F4000
G1 X460.8439 Y1447.9168 Z-1.0000 F4000
G1 X469.0458 Y1449.5498 Z-1.0000 F4000
G1 X477.3026 Y1447.9168 Z-1.0000 F4000
G1 X484.0366 Y1443.4948 Z-1.0000 F4000
G1 X488.5687 Y1436.9443 Z-1.0000 F4000
G1 X490.2384 Y1428.9627 Z-1.0000 F4000
G1 X488.5687 Y1420.9810 Z-1.0000 F4000
G1 X484.0366 Y1414.4489 Z-1.0000 F4000
G1 X477.3026 Y1410.0452 Z-1.0000 F4000
G1 X469.0458 Y1408.4489 Z-1.0000 F4000
G1 X460.8439 Y1410.0452 Z-1.0000 F4000
G1 X454.1100 Y1414.4489 Z-1.0000 F4000
G1 X449.5412 Y1420.9810 Z-1.0000 F4000
G1 X447.8531 Y1428.9627 Z-1.0000 F4000
G1 X449.5412 Y1436.9443 Z-1.0000 F4000
G1 X454.1100 Y1443.4948 Z-1.0000 F4000
G1 X460.8439 Y1447.9168 Z-1.0000 F4000
G1 X469.0458 Y1449.5498 Z-1.0000 F4000
G1 X477.3026 Y1447.9168 Z-1.0000 F4000
G1 X484.0366 Y1443.4948 Z-1.0000 F4000
G1 X488.5687 Y1436.9443 Z-1.0000 F4000
G1 X490.2384 Y1428.9627 Z-1.0000 F4000
G1 X488.5687 Y1420.9810 Z-1.0000 F4000
G1 X484.0366 Y1414.4489 Z-1.0000 F4000
G1 X477.3026 Y1410.0452 Z-1.0000 F4000
G1 X469.0458 Y1408.4489 Z-1.0000 F4000
G1 X469.0458 Y1408.4489 Z10.0000 F9999
G1 X437.0824 Y1408.4489 Z10.0000 F9999
G1 X437.0824 Y1408.4489 Z-1.0000 F2500
G1 X424.4586 Y1408.4489 Z-1.0000 F4000
G1 X424.4586 Y1449.5498 Z-1.0000 F4000
G1 X424.4586 Y1408.4489 Z-1.0000 F4000
G1 X424.4586 Y1408.4489 Z10.0000 F9999
G1 X393.9265 Y1431.2562 Z10.0000 F9999
G1 X393.9265 Y1431.2562 Z-1.0000 F2500
G1 X408.3669 Y1431.2562 Z-1.0000 F4000
G1 X393.9265 Y1431.2562 Z-1.0000 F4000
G1 X393.9265 Y1449.5498 Z-1.0000 F4000
G1 X409.0458 Y1449.5498 Z-1.0000 F4000
G1 X393.9265 Y1449.5498 Z-1.0000 F4000
G1 X393.9265 Y1408.4489 Z-1.0000 F4000
G1 X393.9265 Y1408.4489 Z10.0000 F9999
G1 X619.1558 Y1458.9443 Z10.0000 F9999
G1 X619.1558 Y1458.9443 Z-1.0000 F2500
G1 X588.7705 Y1406.1003 Z-1.0000 F4000
G1 X619.1558 Y1458.9443 Z-1.0000 F4000
G1 X619.1558 Y1458.9443 Z10.0000 F9999
G1 X635.7980 Y1449.5498 Z10.0000 F9999
G1 X635.7980 Y1449.5498 Z-1.0000 F2500
G1 X654.0549 Y1408.4489 Z-1.0000 F4000
G1 X672.3118 Y1449.5498 Z-1.0000 F4000
G1 X675.8714 Y1408.4489 Z-1.0000 F4000
G1 X672.3118 Y1449.5498 Z-1.0000 F4000
G1 X654.0549 Y1408.4489 Z-1.0000 F4000
G1 X635.7980 Y1449.5498 Z-1.0000 F4000
G1 X632.2935 Y1408.4489 Z-1.0000 F4000
G1 X632.2935 Y1408.4489 Z10.0000 F9999
G1 X578.0916 Y2012.4930 Z10.0000 F9999
G1 X578.0916 Y2012.4930 Z-1.0000 F2500
G1 X564.8623 Y2032.6398 Z-1.0000 F4000
G1 X578.0916 Y2012.4930 Z-1.0000 F4000
G1 X578.0916 Y2012.4930 Z10.0000 F9999
G1 X560.6788 Y2012.4930 Z10.0000 F9999
G1 X560.6788 Y2012.4930 Z-1.0000 F2500
G1 X560.6788 Y2053.5939 Z-1.0000 F4000
G1 X567.8347 Y2053.5939 Z-1.0000 F4000
G1 X571.7063 Y2052.9884 Z-1.0000 F4000
G1 X574.9173 Y2051.1719 Z-1.0000 F4000
G1 X577.1375 Y2048.0159 Z-1.0000 F4000
G1 X577.9815 Y2043.3737 Z-1.0000 F4000
G1 X576.8256 Y2038.6948 Z-1.0000 F4000
G1 X574.0549 Y2035.3737 Z-1.0000 F4000
G1 X570.7338 Y2033.4104 Z-1.0000 F4000
G1 X567.8347 Y2032.7499 Z-1.0000 F4000
G1 X560.6788 Y2032.7499 Z-1.0000 F4000
G1 X567.8347 Y2032.7499 Z-1.0000 F4000
G1 X570.7338 Y2033.4104 Z-1.0000 F4000
G1 X574.0549 Y2035.3737 Z-1.0000 F4000
G1 X576.8256 Y2038.6948 Z-1.0000 F4000
G1 X577.9815 Y2043.3737 Z-1.0000 F4000
G1 X577.1375 Y2048.0159 Z-1.0000 F4000
G1 X574.9173 Y2051.1719 Z-1.0000 F4000
G1 X571.7063 Y2052.9884 Z-1.0000 F4000
G1 X567.8347 Y2053.5939 Z-1.0000 F4000
G1 X560.6788 Y2053.5939 Z-1.0000 F4000
G1 X560.6788 Y2053.5939 Z10.0000 F9999
G1 X523.0641 Y2012.4930 Z10.0000 F9999
G1 X523.0641 Y2012.4930 Z-1.0000 F2500
G1 X514.8623 Y2014.0893 Z-1.0000 F4000
G1 X508.1283 Y2018.4930 Z-1.0000 F4000
G1 X503.5595 Y2025.0251 Z-1.0000 F4000
G1 X501.8714 Y2033.0068 Z-1.0000 F4000
G1 X503.5595 Y2040.9884 Z-1.0000 F4000
G1 X508.1283 Y2047.5389 Z-1.0000 F4000
G1 X514.8623 Y2051.9609 Z-1.0000 F4000
G1 X523.0641 Y2053.5939 Z-1.0000 F4000
G1 X531.3210 Y2051.9609 Z-1.0000 F4000
G1 X538.0549 Y2047.5389 Z-1.0000 F4000
G1 X542.5870 Y2040.9884 Z-1.0000 F4000
G1 X544.2568 Y2033.0068 Z-1.0000 F4000
G1 X542.5870 Y2025.0251 Z-1.0000 F4000
G1 X538.0549 Y2018.4930 Z-1.0000 F4000
G1 X531.3210 Y2014.0893 Z-1.0000 F4000
G1 X523.0641 Y2012.4930 Z-1.0000 F4000
G1 X514.8623 Y2014.0893 Z-1.0000 F4000
G1 X508.1283 Y2018.4930 Z-1.0000 F4000
G1 X503.5595 Y2025.0251 Z-1.0000 F4000
G1 X501.8714 Y2033.0068 Z-1.0000 F4000
G1 X503.5595 Y2040.9884 Z-1.0000 F4000
G1 X508.1283 Y2047.5389 Z-1.0000 F4000
G1 X514.8623 Y2051.9609 Z-1.0000 F4000
G1 X523.0641 Y2053.5939 Z-1.0000 F4000
G1 X531.3210 Y2051.9609 Z-1.0000 F4000
G1 X538.0549 Y2047.5389 Z-1.0000 F4000
G1 X542.5870 Y2040.9884 Z-1.0000 F4000
G1 X544.2568 Y2033.0068 Z-1.0000 F4000
G1 X542.5870 Y2025.0251 Z-1.0000 F4000
G1 X538.0549 Y2018.4930 Z-1.0000 F4000
G1 X531.3210 Y2014.0893 Z-1.0000 F4000
G1 X523.0641 Y2012.4930 Z-1.0000 F4000
G1 X523.0641 Y2012.4930 Z10.0000 F9999
G1 X469.0458 Y2012.4930 Z10.0000 F9999
G1 X469.0458 Y2012.4930 Z-1.0000 F2500
G1 X460.8439 Y2014.0893 Z-1.0000 F4000
G1 X454.1100 Y2018.4930 Z-1.0000 F4000
G1 X449.5412 Y2025.0251 Z-1.0000 F4000
G1 X447.8531 Y2033.0068 Z-1.0000 F4000
G1 X449.5412 Y2040.9884 Z-1.0000 F4000
G1 X454.1100 Y2047.5389 Z-1.0000 F4000
G1 X460.8439 Y2051.9609 Z-1.0000 F4000
G1 X469.0458 Y2053.5939 Z-1.0000 F4000
G1 X477.3026 Y2051.9609 Z-1.0000 F4000
G1 X484.0366 Y2047.5389 Z-1.0000 F4000
G1 X488.5687 Y2040.9884 Z-1.0000 F4000
G1 X490.2384 Y2033.0068 Z-1.0000 F4000
G1 X488.5687 Y2025.0251 Z-1.0000 F4000
G1 X484.0366 Y2018.4930 Z-1.0000 F4000
G1 X477.3026 Y2014.0893 Z-1.0000 F4000
G1 X469.0458 Y2012.4930 Z-1.0000 F4000
G1 X460.8439 Y2014.0893 Z-1.0000 F4000
G1 X454.1100 Y2018.4930 Z-1.0000 F4000
G1 X449.5412 Y2025.0251 Z-1.0000 F4000
G1 X447.8531 Y2033.0068 Z-1.0000 F4000
G1 X449.5412 Y2040.9884 Z-1.0000 F4000
G1 X454.1100 Y2047.5389 Z-1.0000 F4000
G1 X460.8439 Y2051.9609 Z-1.0000 F4000
G1 X469.0458 Y2053.5939 Z-1.0000 F4000
G1 X477.3026 Y2051.9609 Z-1.0000 F4000
G1 X484.0366 Y2047.5389 Z-1.0000 F4000
G1 X488.5687 Y2040.9884 Z-1.0000 F4000
G1 X490.2384 Y2033.0068 Z-1.0000 F4000
G1 X488.5687 Y2025.0251 Z-1.0000 F4000
G1 X484.0366 Y2018.4930 Z-1.0000 F4000
G1 X477.3026 Y2014.0893 Z-1.0000 F4000
G1 X469.0458 Y2012.4930 Z-1.0000 F4000
G1 X469.0458 Y2012.4930 Z10.0000 F9999
G1 X437.0824 Y2012.4930 Z10.0000 F9999
G1 X437.0824 Y2012.4930 Z-1.0000 F2500
G1 X424.4586 Y2012.4930 Z-1.0000 F4000
G1 X424.4586 Y2053.5939 Z-1.0000 F4000
G1 X424.4586 Y2012.4930 Z-1.0000 F4000
G1 X424.4586 Y2012.4930 Z10.0000 F9999
G1 X393.9265 Y2035.3003 Z10.0000 F9999
G1 X393.9265 Y2035.3003 Z-1.0000 F2500
G1 X408.3669 Y2035.3003 Z-1.0000 F4000
G1 X393.9265 Y2035.3003 Z-1.0000 F4000
G1 X393.9265 Y2053.5939 Z-1.0000 F4000
G1 X409.0458 Y2053.5939 Z-1.0000 F4000
G1 X393.9265 Y2053.5939 Z-1.0000 F4000
G1 X393.9265 Y2012.4930 Z-1.0000 F4000
G1 X393.9265 Y2012.4930 Z10.0000 F9999
G1 X619.1558 Y2062.9884 Z10.0000 F9999
G1 X619.1558 Y2062.9884 Z-1.0000 F2500
G1 X588.7705 Y2010.1444 Z-1.0000 F4000
G1 X619.1558 Y2062.9884 Z-1.0000 F4000
G1 X619.1558 Y2062.9884 Z10.0000 F9999
G1 X635.7980 Y2053.5939 Z10.0000 F9999
G1 X635.7980 Y2053.5939 Z-1.0000 F2500
G1 X654.0549 Y2012.4930 Z-1.0000 F4000
G1 X672.3118 Y2053.5939 Z-1.0000 F4000
G1 X675.8714 Y2012.4930 Z-1.0000 F4000
G1 X672.3118 Y2053.5939 Z-1.0000 F4000
G1 X654.0549 Y2012.4930 Z-1.0000 F4000
G1 X635.7980 Y2053.5939 Z-1.0000 F4000
G1 X632.2935 Y2012.4930 Z-1.0000 F4000
G1 X632.2935 Y2012.4930 Z10.0000 F9999
(Tool Number:1) (9.530 mm dia. slot drill)
M3 S17444
G1 X80.1349 Y371.4497 Z10.0000 F9999
G1 X80.1349 Y371.4497 Z1.0000 F2500
G1 X80.1349 Y341.1388 Z-9.0000 F2500
G1 X80.1349 Y371.4497 Z-19.0000 F2500
G1 X80.1349 Y286.6848 Z-19.0000 F4000
G1 X85.1348 Y286.6848 Z-19.0000 F4000
G1 X85.1348 Y286.2148 Z-19.0000 F4000
G1 X48.6649 Y286.2148 Z-19.0000 F4000
G1 X48.6649 Y286.6848 Z-19.0000 F4000
G1 X53.6649 Y286.6848 Z-19.0000 F4000
G1 X53.6649 Y456.2146 Z-19.0000 F4000
G1 X48.6649 Y456.2146 Z-19.0000 F4000
G1 X48.6649 Y456.6846 Z-19.0000 F4000
G1 X85.1348 Y456.6846 Z-19.0000 F4000
G1 X85.1348 Y456.2146 Z-19.0000 F4000
G1 X80.1349 Y456.2146 Z-19.0000 F4000
G1 X80.1349 Y371.4497 Z-19.0000 F4000
G1 X80.1349 Y371.4497 Z10.0000 F9999
G1 X80.1349 Y937.2607 Z10.0000 F9999
G1 X80.1349 Y937.2607 Z1.0000 F2500
G1 X80.1349 Y906.9498 Z-9.0000 F2500
G1 X80.1349 Y937.2607 Z-19.0000 F2500
G1 X80.1349 Y852.4958 Z-19.0000 F4000
G1 X85.1348 Y852.4958 Z-19.0000 F4000
G1 X85.1348 Y852.0258 Z-19.0000 F4000
G1 X48.6649 Y852.0258 Z-19.0000 F4000
G1 X48.6649 Y852.4958 Z-19.0000 F4000
G1 X53.6649 Y852.4958 Z-19.0000 F4000
G1 X53.6649 Y1022.0256 Z-19.0000 F4000
G1 X48.6649 Y1022.0256 Z-19.0000 F4000
G1 X48.6649 Y1022.4956 Z-19.0000 F4000
G1 X85.1348 Y1022.4956 Z-19.0000 F4000
G1 X85.1348 Y1022.0256 Z-19.0000 F4000
G1 X80.1349 Y1022.0256 Z-19.0000 F4000
G1 X80.1349 Y937.2607 Z-19.0000 F4000
G1 X80.1349 Y937.2607 Z10.0000 F9999
G1 X609.8988 Y703.5764 Z10.0000 F9999
G1 X609.8988 Y703.5764 Z1.0000 F2500
G1 X579.5879 Y703.5764 Z-9.0000 F2500
G1 X609.8988 Y703.5764 Z-19.0000 F2500
G1 X569.6638 Y703.5764 Z-19.0000 F4000
G1 X569.6638 Y704.0464 Z-19.0000 F4000
G1 X574.6638 Y704.0464 Z-19.0000 F4000
G1 X574.6638 Y717.0464 Z-19.0000 F4000
G1 X575.1338 Y717.0464 Z-19.0000 F4000
G1 X575.1338 Y712.0464 Z-19.0000 F4000
G1 X644.6637 Y712.0464 Z-19.0000 F4000
G1 X644.6637 Y717.0464 Z-19.0000 F4000
G1 X645.1337 Y717.0464 Z-19.0000 F4000
G1 X645.1337 Y704.0464 Z-19.0000 F4000
G1 X650.1337 Y704.0464 Z-19.0000 F4000
G1 X650.1337 Y703.5764 Z-19.0000 F4000
G1 X609.8988 Y703.5764 Z-19.0000 F4000
G1 X609.8988 Y703.5764 Z10.0000 F9999
G1 X609.8988 Y137.7653 Z10.0000 F9999
G1 X609.8988 Y137.7653 Z1.0000 F2500
G1 X579.5879 Y137.7653 Z-9.0000 F2500
G1 X609.8988 Y137.7653 Z-19.0000 F2500
G1 X569.6638 Y137.7653 Z-19.0000 F4000
G1 X569.6638 Y138.2353 Z-19.0000 F4000
G1 X574.6638 Y138.2353 Z-19.0000 F4000
G1 X574.6638 Y151.2353 Z-19.0000 F4000
G1 X575.1338 Y151.2353 Z-19.0000 F4000
G1 X575.1338 Y146.2353 Z-19.0000 F4000
G1 X644.6637 Y146.2353 Z-19.0000 F4000
G1 X644.6637 Y151.2353 Z-19.0000 F4000
G1 X645.1337 Y151.2353 Z-19.0000 F4000
G1 X645.1337 Y138.2353 Z-19.0000 F4000
G1 X650.1337 Y138.2353 Z-19.0000 F4000
G1 X650.1337 Y137.7653 Z-19.0000 F4000
G1 X609.8988 Y137.7653 Z-19.0000 F4000
G1 X609.8988 Y137.7653 Z10.0000 F9999
G1 X1166.1327 Y371.4497 Z10.0000 F9999
G1 X1166.1327 Y371.4497 Z1.0000 F2500
G1 X1166.1327 Y341.1388 Z-9.0000 F2500
G1 X1166.1327 Y371.4497 Z-19.0000 F2500
G1 X1166.1327 Y286.6848 Z-19.0000 F4000
G1 X1171.1326 Y286.6848 Z-19.0000 F4000
G1 X1171.1326 Y286.2148 Z-19.0000 F4000
G1 X1134.6627 Y286.2148 Z-19.0000 F4000
G1 X1134.6627 Y286.6848 Z-19.0000 F4000
G1 X1139.6627 Y286.6848 Z-19.0000 F4000
G1 X1139.6627 Y456.2146 Z-19.0000 F4000
G1 X1134.6627 Y456.2146 Z-19.0000 F4000
G1 X1134.6627 Y456.6846 Z-19.0000 F4000
G1 X1171.1326 Y456.6846 Z-19.0000 F4000
G1 X1171.1326 Y456.2146 Z-19.0000 F4000
G1 X1166.1327 Y456.2146 Z-19.0000 F4000
G1 X1166.1327 Y371.4497 Z-19.0000 F4000
G1 X1166.1327 Y371.4497 Z10.0000 F9999
G1 X1166.1327 Y937.2607 Z10.0000 F9999
G1 X1166.1327 Y937.2607 Z1.0000 F2500
G1 X1166.1327 Y906.9498 Z-9.0000 F2500
G1 X1166.1327 Y937.2607 Z-19.0000 F2500
G1 X1166.1327 Y852.4958 Z-19.0000 F4000
G1 X1171.1326 Y852.4958 Z-19.0000 F4000
G1 X1171.1326 Y852.0258 Z-19.0000 F4000
G1 X1134.6627 Y852.0258 Z-19.0000 F4000
G1 X1134.6627 Y852.4958 Z-19.0000 F4000
G1 X1139.6627 Y852.4958 Z-19.0000 F4000
G1 X1139.6627 Y1022.0256 Z-19.0000 F4000
G1 X1134.6627 Y1022.0256 Z-19.0000 F4000
G1 X1134.6627 Y1022.4956 Z-19.0000 F4000
G1 X1171.1326 Y1022.4956 Z-19.0000 F4000
G1 X1171.1326 Y1022.0256 Z-19.0000 F4000
G1 X1166.1327 Y1022.0256 Z-19.0000 F4000
G1 X1166.1327 Y937.2607 Z-19.0000 F4000
G1 X1166.1327 Y937.2607 Z10.0000 F9999
(Tool Number:1) (9.530 mm dia. slot drill)
M3 S17444
G1 X534.8989 Y2332.3314 Z10.0000 F9999
G1 X534.8989 Y2332.3314 Z1.0000 F2500
G1 X504.5880 Y2332.3314 Z-9.0000 F2500
G1 X534.8989 Y2332.3314 Z-19.0000 F2500
G1 X9.9000 Y2332.3311 Z-19.0000 F4000
G1 X9.2734 Y2332.2898 Z-19.0000 F4000
G1 X8.6293 Y2332.1586 Z-19.0000 F4000
G1 X7.9867 Y2331.9301 Z-19.0000 F4000
G1 X7.3672 Y2331.6023 Z-19.0000 F4000
G1 X6.7936 Y2331.1794 Z-19.0000 F4000
G1 X6.2868 Y2330.6726 Z-19.0000 F4000
G1 X5.8639 Y2330.0989 Z-19.0000 F4000
G1 X5.5360 Y2329.4795 Z-19.0000 F4000
G1 X5.3076 Y2328.8369 Z-19.0000 F4000
G1 X5.1764 Y2328.1928 Z-19.0000 F4000
G1 X5.1350 Y2327.5661 Z-19.0000 F4000
G1 X5.1351 Y1745.5661 Z-19.0000 F4000
G1 X5.1823 Y1744.8971 Z-19.0000 F4000
G1 X5.3264 Y1744.2296 Z-19.0000 F4000
G1 X5.5666 Y1743.5847 Z-19.0000 F4000
G1 X5.8963 Y1742.9826 Z-19.0000 F4000
G1 X6.3032 Y1742.4408 Z-19.0000 F4000
G1 X6.7748 Y1741.9693 Z-19.0000 F4000
G1 X7.3166 Y1741.5623 Z-19.0000 F4000
G1 X7.9187 Y1741.2327 Z-19.0000 F4000
G1 X8.5636 Y1740.9924 Z-19.0000 F4000
G1 X9.2311 Y1740.8483 Z-19.0000 F4000
G1 X9.9001 Y1740.8011 Z-19.0000 F4000
G1 X79.2803 Y1740.8012 Z-19.0000 F4000
G1 X79.2803 Y1740.8012 Z-13.0000 F9999
G1 X108.8103 Y1740.8012 Z-13.0000 F4000
G1 X108.8103 Y1740.8012 Z-19.0000 F2500
G1 X995.5745 Y1740.8015 Z-19.0000 F4000
G1 X995.5745 Y1740.8015 Z-13.0000 F9999
G1 X1025.1045 Y1740.8015 Z-13.0000 F4000
G1 X1025.1045 Y1740.8015 Z-19.0000 F2500
G1 X1059.8979 Y1740.8015 Z-19.0000 F4000
G1 X1060.5246 Y1740.8429 Z-19.0000 F4000
G1 X1061.1686 Y1740.9741 Z-19.0000 F4000
G1 X1061.8113 Y1741.2025 Z-19.0000 F4000
G1 X1062.4307 Y1741.5304 Z-19.0000 F4000
G1 X1063.0044 Y1741.9533 Z-19.0000 F4000
G1 X1063.5111 Y1742.4601 Z-19.0000 F4000
G1 X1063.9340 Y1743.0337 Z-19.0000 F4000
G1 X1064.2619 Y1743.6532 Z-19.0000 F4000
G1 X1064.4904 Y1744.2958 Z-19.0000 F4000
G1 X1064.6215 Y1744.9399 Z-19.0000 F4000
G1 X1064.6629 Y1745.5665 Z-19.0000 F4000
G1 X1064.6627 Y2327.5666 Z-19.0000 F4000
G1 X1064.6155 Y2328.2357 Z-19.0000 F4000
G1 X1064.4715 Y2328.9032 Z-19.0000 F4000
G1 X1064.2312 Y2329.5481 Z-19.0000 F4000
G1 X1063.9016 Y2330.1502 Z-19.0000 F4000
G1 X1063.4946 Y2330.6920 Z-19.0000 F4000
G1 X1063.0231 Y2331.1635 Z-19.0000 F4000
G1 X1062.4813 Y2331.5705 Z-19.0000 F4000
G1 X1061.8792 Y2331.9001 Z-19.0000 F4000
G1 X1061.2343 Y2332.1403 Z-19.0000 F4000
G1 X1060.5668 Y2332.2844 Z-19.0000 F4000
G1 X1059.8977 Y2332.3316 Z-19.0000 F4000
G1 X534.8989 Y2332.3314 Z-19.0000 F4000
G1 X534.8989 Y2332.3314 Z10.0000 F9999
G1 X534.8989 Y1728.2873 Z10.0000 F9999
G1 X534.8989 Y1728.2873 Z1.0000 F2500
G1 X504.5880 Y1728.2873 Z-9.0000 F2500
G1 X534.8989 Y1728.2873 Z-19.0000 F2500
G1 X9.9000 Y1728.2870 Z-19.0000 F4000
G1 X9.2734 Y1728.2457 Z-19.0000 F4000
G1 X8.6293 Y1728.1145 Z-19.0000 F4000
G1 X7.9867 Y1727.8860 Z-19.0000 F4000
G1 X7.3672 Y1727.5582 Z-19.0000 F4000
G1 X6.7936 Y1727.1353 Z-19.0000 F4000
G1 X6.2868 Y1726.6285 Z-19.0000 F4000
G1 X5.8639 Y1726.0548 Z-19.0000 F4000
G1 X5.5360 Y1725.4354 Z-19.0000 F4000
G1 X5.3076 Y1724.7928 Z-19.0000 F4000
G1 X5.1764 Y1724.1487 Z-19.0000 F4000
G1 X5.1350 Y1723.5220 Z-19.0000 F4000
G1 X5.1351 Y1141.5220 Z-19.0000 F4000
G1 X5.1823 Y1140.8530 Z-19.0000 F4000
G1 X5.3264 Y1140.1855 Z-19.0000 F4000
G1 X5.5666 Y1139.5406 Z-19.0000 F4000
G1 X5.8963 Y1138.9385 Z-19.0000 F4000
G1 X6.3032 Y1138.3967 Z-19.0000 F4000
G1 X6.7748 Y1137.9252 Z-19.0000 F4000
G1 X7.3166 Y1137.5182 Z-19.0000 F4000
G1 X7.9187 Y1137.1886 Z-19.0000 F4000
G1 X8.5636 Y1136.9483 Z-19.0000 F4000
G1 X9.2311 Y1136.8043 Z-19.0000 F4000
G1 X9.9001 Y1136.7570 Z-19.0000 F4000
G1 X87.0455 Y1136.7571 Z-19.0000 F4000
G1 X87.0455 Y1136.7571 Z-13.0000 F9999
G1 X116.5755 Y1136.7571 Z-13.0000 F4000
G1 X116.5755 Y1136.7571 Z-19.0000 F2500
G1 X996.4373 Y1136.7574 Z-19.0000 F4000
G1 X996.4373 Y1136.7574 Z-13.0000 F9999
G1 X1025.9673 Y1136.7574 Z-13.0000 F4000
G1 X1025.9673 Y1136.7574 Z-19.0000 F2500
G1 X1059.8979 Y1136.7574 Z-19.0000 F4000
G1 X1060.5246 Y1136.7988 Z-19.0000 F4000
G1 X1061.1686 Y1136.9300 Z-19.0000 F4000
G1 X1061.8113 Y1137.1584 Z-19.0000 F4000
G1 X1062.4307 Y1137.4863 Z-19.0000 F4000
G1 X1063.0044 Y1137.9092 Z-19.0000 F4000
G1 X1063.5111 Y1138.4160 Z-19.0000 F4000
G1 X1063.9340 Y1138.9896 Z-19.0000 F4000
G1 X1064.2619 Y1139.6091 Z-19.0000 F4000
G1 X1064.4904 Y1140.2517 Z-19.0000 F4000
G1 X1064.6215 Y1140.8958 Z-19.0000 F4000
G1 X1064.6629 Y1141.5224 Z-19.0000 F4000
G1 X1064.6627 Y1723.5225 Z-19.0000 F4000
G1 X1064.6155 Y1724.1916 Z-19.0000 F4000
G1 X1064.4715 Y1724.8591 Z-19.0000 F4000
G1 X1064.2312 Y1725.5040 Z-19.0000 F4000
G1 X1063.9016 Y1726.1061 Z-19.0000 F4000
G1 X1063.4946 Y1726.6479 Z-19.0000 F4000
G1 X1063.0231 Y1727.1194 Z-19.0000 F4000
G1 X1062.4813 Y1727.5264 Z-19.0000 F4000
G1 X1061.8792 Y1727.8560 Z-19.0000 F4000
G1 X1061.2343 Y1728.0963 Z-19.0000 F4000
G1 X1060.5668 Y1728.2403 Z-19.0000 F4000
G1 X1059.8977 Y1728.2875 Z-19.0000 F4000
G1 X534.8989 Y1728.2873 Z-19.0000 F4000
G1 X534.8989 Y1728.2873 Z10.0000 F9999
G1 X603.9604 Y570.9460 Z10.0000 F9999
G1 X603.9604 Y570.9460 Z1.0000 F2500
G1 X634.2713 Y570.9460 Z-9.0000 F2500
G1 X603.9604 Y570.9460 Z-19.0000 F2500
G1 X1092.2081 Y570.9460 Z-19.0000 F4000
G1 X1092.2081 Y570.9460 Z-13.0000 F9999
G1 X1121.7381 Y570.9460 Z-13.0000 F4000
G1 X1121.7381 Y570.9460 Z-19.0000 F2500
G1 X1209.8977 Y570.9460 Z-19.0000 F4000
G1 X1210.5243 Y570.9874 Z-19.0000 F4000
G1 X1211.1684 Y571.1186 Z-19.0000 F4000
G1 X1211.8110 Y571.3470 Z-19.0000 F4000
G1 X1212.4305 Y571.6749 Z-19.0000 F4000
G1 X1213.0041 Y572.0978 Z-19.0000 F4000
G1 X1213.5109 Y572.6046 Z-19.0000 F4000
G1 X1213.9338 Y573.1782 Z-19.0000 F4000
G1 X1214.2617 Y573.7977 Z-19.0000 F4000
G1 X1214.4901 Y574.4403 Z-19.0000 F4000
G1 X1214.6213 Y575.0844 Z-19.0000 F4000
G1 X1214.6627 Y575.7110 Z-19.0000 F4000
G1 X1214.6627 Y1054.5106 Z-19.0000 F4000
G1 X1214.6155 Y1055.1796 Z-19.0000 F4000
G1 X1214.4714 Y1055.8471 Z-19.0000 F4000
G1 X1214.2312 Y1056.4920 Z-19.0000 F4000
G1 X1213.9015 Y1057.0941 Z-19.0000 F4000
G1 X1213.4946 Y1057.6359 Z-19.0000 F4000
G1 X1213.0230 Y1058.1075 Z-19.0000 F4000
G1 X1212.4812 Y1058.5144 Z-19.0000 F4000
G1 X1211.8791 Y1058.8441 Z-19.0000 F4000
G1 X1211.2342 Y1059.0843 Z-19.0000 F4000
G1 X1210.5667 Y1059.2284 Z-19.0000 F4000
G1 X1209.8977 Y1059.2756 Z-19.0000 F4000
G1 X1157.2266 Y1059.2756 Z-19.0000 F4000
G1 X1156.5090 Y1059.4463 Z-19.0000 F4000
G1 X1156.3845 Y1059.5515 Z-19.0000 F4000
G1 X1156.3207 Y1059.7014 Z-19.0000 F4000
G1 X1156.3685 Y1060.4378 Z-19.0000 F4000
G1 X1172.2221 Y1111.9623 Z-19.0000 F4000
G1 X1172.3544 Y1112.5029 Z-19.0000 F4000
G1 X1172.4228 Y1113.0553 Z-19.0000 F4000
G1 X1172.5652 Y1115.2504 Z-19.0000 F4000
G1 X1172.5688 Y1115.8047 Z-19.0000 F4000
G1 X1172.5074 Y1116.3594 Z-19.0000 F4000
G1 X1172.3815 Y1116.9032 Z-19.0000 F4000
G1 X1172.1945 Y1117.4250 Z-19.0000 F4000
G1 X1171.3330 Y1119.4487 Z-19.0000 F4000
G1 X1171.0865 Y1119.9454 Z-19.0000 F4000
G1 X1170.7817 Y1120.4132 Z-19.0000 F4000
G1 X1170.4242 Y1120.8421 Z-19.0000 F4000
G1 X1170.0219 Y1121.2239 Z-19.0000 F4000
G1 X1168.3409 Y1122.6426 Z-19.0000 F4000
G1 X1167.8971 Y1122.9749 Z-19.0000 F4000
G1 X1167.4143 Y1123.2552 Z-19.0000 F4000
G1 X1166.9020 Y1123.4770 Z-19.0000 F4000
G1 X1166.3710 Y1123.6366 Z-19.0000 F4000
G1 X1164.2314 Y1124.1458 Z-19.0000 F4000
G1 X1163.6835 Y1124.2429 Z-19.0000 F4000
G1 X1163.1280 Y1124.2753 Z-19.0000 F4000
G1 X1056.6678 Y1124.2753 Z-19.0000 F4000
G1 X1056.1125 Y1124.2429 Z-19.0000 F4000
G1 X1055.5647 Y1124.1459 Z-19.0000 F4000
G1 X1053.4246 Y1123.6366 Z-19.0000 F4000
G1 X1052.8936 Y1123.4771 Z-19.0000 F4000
G1 X1052.3813 Y1123.2552 Z-19.0000 F4000
G1 X1051.8984 Y1122.9749 Z-19.0000 F4000
G1 X1051.4546 Y1122.6426 Z-19.0000 F4000
G1 X1049.7735 Y1121.2239 Z-19.0000 F4000
G1 X1049.3713 Y1120.8422 Z-19.0000 F4000
G1 X1049.0139 Y1120.4133 Z-19.0000 F4000
G1 X1048.7091 Y1119.9456 Z-19.0000 F4000
G1 X1048.4626 Y1119.4489 Z-19.0000 F4000
G1 X1047.6010 Y1117.4252 Z-19.0000 F4000
G1 X1047.4138 Y1116.9032 Z-19.0000 F4000
G1 X1047.2879 Y1116.3593 Z-19.0000 F4000
G1 X1047.2265 Y1115.8043 Z-19.0000 F4000
G1 X1047.2302 Y1115.2498 Z-19.0000 F4000
G1 X1047.3728 Y1113.0548 Z-19.0000 F4000
G1 X1047.4412 Y1112.5027 Z-19.0000 F4000
G1 X1047.5735 Y1111.9623 Z-19.0000 F4000
G1 X1063.4272 Y1060.4378 Z-19.0000 F4000
G1 X1063.4750 Y1059.7014 Z-19.0000 F4000
G1 X1063.4112 Y1059.5514 Z-19.0000 F4000
G1 X1063.2866 Y1059.4463 Z-19.0000 F4000
G1 X1062.5692 Y1059.2756 Z-19.0000 F4000
G1 X957.2270 Y1059.2756 Z-19.0000 F4000
G1 X956.5095 Y1059.4463 Z-19.0000 F4000
G1 X956.3848 Y1059.5516 Z-19.0000 F4000
G1 X956.3209 Y1059.7018 Z-19.0000 F4000
G1 X956.3687 Y1060.4377 Z-19.0000 F4000
G1 X972.2225 Y1111.9623 Z-19.0000 F4000
G1 X972.3548 Y1112.5027 Z-19.0000 F4000
G1 X972.4232 Y1113.0549 Z-19.0000 F4000
G1 X972.5657 Y1115.2500 Z-19.0000 F4000
G1 X972.5694 Y1115.8044 Z-19.0000 F4000
G1 X972.5080 Y1116.3594 Z-19.0000 F4000
G1 X972.3821 Y1116.9033 Z-19.0000 F4000
G1 X972.1949 Y1117.4252 Z-19.0000 F4000
G1 X971.3333 Y1119.4489 Z-19.0000 F4000
G1 X971.0868 Y1119.9456 Z-19.0000 F4000
G1 X970.7820 Y1120.4133 Z-19.0000 F4000
G1 X970.4246 Y1120.8422 Z-19.0000 F4000
G1 X970.0224 Y1121.2239 Z-19.0000 F4000
G1 X968.3413 Y1122.6426 Z-19.0000 F4000
G1 X967.8975 Y1122.9749 Z-19.0000 F4000
G1 X967.4147 Y1123.2552 Z-19.0000 F4000
G1 X966.9024 Y1123.4770 Z-19.0000 F4000
G1 X966.3714 Y1123.6366 Z-19.0000 F4000
G1 X964.2318 Y1124.1458 Z-19.0000 F4000
G1 X963.6839 Y1124.2429 Z-19.0000 F4000
G1 X963.1285 Y1124.2753 Z-19.0000 F4000
G1 X856.6682 Y1124.2753 Z-19.0000 F4000
G1 X856.1128 Y1124.2429 Z-19.0000 F4000
G1 X855.5650 Y1124.1459 Z-19.0000 F4000
G1 X853.4250 Y1123.6366 Z-19.0000 F4000
G1 X852.8939 Y1123.4771 Z-19.0000 F4000
G1 X852.3816 Y1123.2552 Z-19.0000 F4000
G1 X851.8987 Y1122.9749 Z-19.0000 F4000
G1 X851.4549 Y1122.6425 Z-19.0000 F4000
G1 X849.7739 Y1121.2238 Z-19.0000 F4000
G1 X849.3717 Y1120.8421 Z-19.0000 F4000
G1 X849.0143 Y1120.4132 Z-19.0000 F4000
G1 X848.7095 Y1119.9455 Z-19.0000 F4000
G1 X848.4630 Y1119.4488 Z-19.0000 F4000
G1 X847.6014 Y1117.4251 Z-19.0000 F4000
G1 X847.4143 Y1116.9032 Z-19.0000 F4000
G1 X847.2884 Y1116.3594 Z-19.0000 F4000
G1 X847.2270 Y1115.8045 Z-19.0000 F4000
G1 X847.2307 Y1115.2501 Z-19.0000 F4000
G1 X847.3732 Y1113.0550 Z-19.0000 F4000
G1 X847.4416 Y1112.5028 Z-19.0000 F4000
G1 X847.5739 Y1111.9623 Z-19.0000 F4000
G1 X863.4277 Y1060.4378 Z-19.0000 F4000
G1 X863.4754 Y1059.7018 Z-19.0000 F4000
G1 X863.4115 Y1059.5516 Z-19.0000 F4000
G1 X863.2868 Y1059.4463 Z-19.0000 F4000
G1 X862.5694 Y1059.2756 Z-19.0000 F4000
G1 X757.2274 Y1059.2756 Z-19.0000 F4000
G1 X756.5099 Y1059.4463 Z-19.0000 F4000
G1 X756.3852 Y1059.5516 Z-19.0000 F4000
G1 X756.3213 Y1059.7018 Z-19.0000 F4000
G1 X756.3691 Y1060.4378 Z-19.0000 F4000
G1 X772.2228 Y1111.9623 Z-19.0000 F4000
G1 X772.3551 Y1112.5027 Z-19.0000 F4000
G1 X772.4235 Y1113.0549 Z-19.0000 F4000
G1 X772.5661 Y1115.2500 Z-19.0000 F4000
G1 X772.5697 Y1115.8044 Z-19.0000 F4000
G1 X772.5083 Y1116.3594 Z-19.0000 F4000
G1 X772.3824 Y1116.9033 Z-19.0000 F4000
G1 X772.1953 Y1117.4252 Z-19.0000 F4000
G1 X771.3337 Y1119.4489 Z-19.0000 F4000
G1 X771.0872 Y1119.9456 Z-19.0000 F4000
G1 X770.7824 Y1120.4133 Z-19.0000 F4000
G1 X770.4250 Y1120.8421 Z-19.0000 F4000
G1 X770.0228 Y1121.2238 Z-19.0000 F4000
G1 X768.3418 Y1122.6425 Z-19.0000 F4000
G1 X767.8980 Y1122.9749 Z-19.0000 F4000
G1 X767.4151 Y1123.2552 Z-19.0000 F4000
G1 X766.9028 Y1123.4770 Z-19.0000 F4000
G1 X766.3717 Y1123.6366 Z-19.0000 F4000
G1 X764.2318 Y1124.1459 Z-19.0000 F4000
G1 X763.6840 Y1124.2429 Z-19.0000 F4000
G1 X763.1286 Y1124.2753 Z-19.0000 F4000
G1 X656.6686 Y1124.2753 Z-19.0000 F4000
G1 X656.1132 Y1124.2429 Z-19.0000 F4000
G1 X655.5654 Y1124.1459 Z-19.0000 F4000
G1 X653.4254 Y1123.6366 Z-19.0000 F4000
G1 X652.8944 Y1123.4770 Z-19.0000 F4000
G1 X652.3820 Y1123.2552 Z-19.0000 F4000
G1 X651.8992 Y1122.9749 Z-19.0000 F4000
G1 X651.4553 Y1122.6425 Z-19.0000 F4000
G1 X649.7743 Y1121.2238 Z-19.0000 F4000
G1 X649.3721 Y1120.8421 Z-19.0000 F4000
G1 X649.0147 Y1120.4133 Z-19.0000 F4000
G1 X648.7099 Y1119.9456 Z-19.0000 F4000
G1 X648.4634 Y1119.4489 Z-19.0000 F4000
G1 X647.6019 Y1117.4252 Z-19.0000 F4000
G1 X647.4147 Y1116.9033 Z-19.0000 F4000
G1 X647.2888 Y1116.3594 Z-19.0000 F4000
G1 X647.2274 Y1115.8044 Z-19.0000 F4000
G1 X647.2311 Y1115.2500 Z-19.0000 F4000
G1 X647.3736 Y1113.0549 Z-19.0000 F4000
G1 X647.4420 Y1112.5027 Z-19.0000 F4000
G1 X647.5743 Y1111.9623 Z-19.0000 F4000
G1 X663.4281 Y1060.4378 Z-19.0000 F4000
G1 X663.4758 Y1059.7017 Z-19.0000 F4000
G1 X663.4119 Y1059.5516 Z-19.0000 F4000
G1 X663.2873 Y1059.4463 Z-19.0000 F4000
G1 X662.5697 Y1059.2756 Z-19.0000 F4000
G1 X557.2278 Y1059.2756 Z-19.0000 F4000
G1 X556.5103 Y1059.4463 Z-19.0000 F4000
G1 X556.3857 Y1059.5515 Z-19.0000 F4000
G1 X556.3218 Y1059.7015 Z-19.0000 F4000
G1 X556.3697 Y1060.4375 Z-19.0000 F4000
G1 X572.2233 Y1111.9623 Z-19.0000 F4000
G1 X572.3556 Y1112.5027 Z-19.0000 F4000
G1 X572.4240 Y1113.0549 Z-19.0000 F4000
G1 X572.5665 Y1115.2500 Z-19.0000 F4000
G1 X572.5702 Y1115.8044 Z-19.0000 F4000
G1 X572.5087 Y1116.3594 Z-19.0000 F4000
G1 X572.3829 Y1116.9033 Z-19.0000 F4000
G1 X572.1957 Y1117.4252 Z-19.0000 F4000
G1 X571.3341 Y1119.4489 Z-19.0000 F4000
G1 X571.0876 Y1119.9456 Z-19.0000 F4000
G1 X570.7828 Y1120.4133 Z-19.0000 F4000
G1 X570.4254 Y1120.8421 Z-19.0000 F4000
G1 X570.0232 Y1121.2238 Z-19.0000 F4000
G1 X568.3423 Y1122.6425 Z-19.0000 F4000
G1 X567.8984 Y1122.9749 Z-19.0000 F4000
G1 X567.4155 Y1123.2552 Z-19.0000 F4000
G1 X566.9032 Y1123.4770 Z-19.0000 F4000
G1 X566.3721 Y1123.6366 Z-19.0000 F4000
G1 X564.2322 Y1124.1459 Z-19.0000 F4000
G1 X563.6844 Y1124.2429 Z-19.0000 F4000
G1 X563.1290 Y1124.2753 Z-19.0000 F4000
G1 X456.6690 Y1124.2753 Z-19.0000 F4000
G1 X456.1136 Y1124.2429 Z-19.0000 F4000
G1 X455.5658 Y1124.1459 Z-19.0000 F4000
G1 X453.4258 Y1123.6366 Z-19.0000 F4000
G1 X452.8947 Y1123.4770 Z-19.0000 F4000
G1 X452.3824 Y1123.2552 Z-19.0000 F4000
G1 X451.8995 Y1122.9749 Z-19.0000 F4000
G1 X451.4557 Y1122.6425 Z-19.0000 F4000
G1 X449.7747 Y1121.2238 Z-19.0000 F4000
G1 X449.3725 Y1120.8421 Z-19.0000 F4000
G1 X449.0151 Y1120.4133 Z-19.0000 F4000
G1 X448.7104 Y1119.9456 Z-19.0000 F4000
G1 X448.4639 Y1119.4489 Z-19.0000 F4000
G1 X447.6023 Y1117.4252 Z-19.0000 F4000
G1 X447.4151 Y1116.9033 Z-19.0000 F4000
G1 X447.2892 Y1116.3594 Z-19.0000 F4000
G1 X447.2278 Y1115.8045 Z-19.0000 F4000
G1 X447.2315 Y1115.2500 Z-19.0000 F4000
G1 X447.3740 Y1113.0550 Z-19.0000 F4000
G1 X447.4424 Y1112.5028 Z-19.0000 F4000
G1 X447.5747 Y1111.9623 Z-19.0000 F4000
G1 X463.4285 Y1060.4377 Z-19.0000 F4000
G1 X463.4763 Y1059.7015 Z-19.0000 F4000
G1 X463.4124 Y1059.5515 Z-19.0000 F4000
G1 X463.2878 Y1059.4463 Z-19.0000 F4000
G1 X462.5702 Y1059.2756 Z-19.0000 F4000
G1 X357.2282 Y1059.2756 Z-19.0000 F4000
G1 X356.5107 Y1059.4463 Z-19.0000 F4000
G1 X356.3860 Y1059.5516 Z-19.0000 F4000
G1 X356.3221 Y1059.7017 Z-19.0000 F4000
G1 X356.3699 Y1060.4377 Z-19.0000 F4000
G1 X372.2237 Y1111.9623 Z-19.0000 F4000
G1 X372.3560 Y1112.5028 Z-19.0000 F4000
G1 X372.4244 Y1113.0550 Z-19.0000 F4000
G1 X372.5669 Y1115.2500 Z-19.0000 F4000
G1 X372.5706 Y1115.8045 Z-19.0000 F4000
G1 X372.5091 Y1116.3594 Z-19.0000 F4000
G1 X372.3832 Y1116.9033 Z-19.0000 F4000
G1 X372.1961 Y1117.4252 Z-19.0000 F4000
G1 X371.3345 Y1119.4489 Z-19.0000 F4000
G1 X371.0880 Y1119.9456 Z-19.0000 F4000
G1 X370.7832 Y1120.4133 Z-19.0000 F4000
G1 X370.4258 Y1120.8421 Z-19.0000 F4000
G1 X370.0236 Y1121.2238 Z-19.0000 F4000
G1 X368.3426 Y1122.6425 Z-19.0000 F4000
G1 X367.8988 Y1122.9749 Z-19.0000 F4000
G1 X367.4159 Y1123.2552 Z-19.0000 F4000
G1 X366.9036 Y1123.4770 Z-19.0000 F4000
G1 X366.3725 Y1123.6366 Z-19.0000 F4000
G1 X364.2326 Y1124.1459 Z-19.0000 F4000
G1 X363.6848 Y1124.2429 Z-19.0000 F4000
G1 X363.1294 Y1124.2753 Z-19.0000 F4000
G1 X256.6693 Y1124.2753 Z-19.0000 F4000
G1 X256.1139 Y1124.2429 Z-19.0000 F4000
G1 X255.5660 Y1124.1459 Z-19.0000 F4000
G1 X253.4262 Y1123.6366 Z-19.0000 F4000
G1 X252.8952 Y1123.4770 Z-19.0000 F4000
G1 X252.3829 Y1123.2552 Z-19.0000 F4000
G1 X251.9001 Y1122.9749 Z-19.0000 F4000
G1 X251.4562 Y1122.6426 Z-19.0000 F4000
G1 X249.7752 Y1121.2239 Z-19.0000 F4000
G1 X249.3730 Y1120.8422 Z-19.0000 F4000
G1 X249.0156 Y1120.4133 Z-19.0000 F4000
G1 X248.7107 Y1119.9456 Z-19.0000 F4000
G1 X248.4642 Y1119.4489 Z-19.0000 F4000
G1 X247.6027 Y1117.4252 Z-19.0000 F4000
G1 X247.4155 Y1116.9033 Z-19.0000 F4000
G1 X247.2896 Y1116.3594 Z-19.0000 F4000
G1 X247.2282 Y1115.8044 Z-19.0000 F4000
G1 X247.2319 Y1115.2500 Z-19.0000 F4000
G1 X247.3744 Y1113.0549 Z-19.0000 F4000
G1 X247.4428 Y1112.5027 Z-19.0000 F4000
G1 X247.5751 Y1111.9623 Z-19.0000 F4000
G1 X263.4289 Y1060.4378 Z-19.0000 F4000
G1 X263.4766 Y1059.7017 Z-19.0000 F4000
G1 X263.4127 Y1059.5516 Z-19.0000 F4000
G1 X263.2881 Y1059.4463 Z-19.0000 F4000
G1 X262.5706 Y1059.2756 Z-19.0000 F4000
G1 X157.2286 Y1059.2756 Z-19.0000 F4000
G1 X156.5111 Y1059.4463 Z-19.0000 F4000
G1 X156.3865 Y1059.5515 Z-19.0000 F4000
G1 X156.3226 Y1059.7015 Z-19.0000 F4000
G1 X156.3704 Y1060.4377 Z-19.0000 F4000
G1 X172.2241 Y1111.9623 Z-19.0000 F4000
G1 X172.3564 Y1112.5027 Z-19.0000 F4000
G1 X172.4248 Y1113.0549 Z-19.0000 F4000
G1 X172.5673 Y1115.2500 Z-19.0000 F4000
G1 X172.5710 Y1115.8045 Z-19.0000 F4000
G1 X172.5096 Y1116.3594 Z-19.0000 F4000
G1 X172.3837 Y1116.9034 Z-19.0000 F4000
G1 X172.1965 Y1117.4253 Z-19.0000 F4000
G1 X171.3349 Y1119.4490 Z-19.0000 F4000
G1 X171.0884 Y1119.9456 Z-19.0000 F4000
G1 X170.7836 Y1120.4133 Z-19.0000 F4000
G1 X170.4262 Y1120.8422 Z-19.0000 F4000
G1 X170.0240 Y1121.2238 Z-19.0000 F4000
G1 X168.3430 Y1122.6425 Z-19.0000 F4000
G1 X167.8992 Y1122.9749 Z-19.0000 F4000
G1 X167.4164 Y1123.2552 Z-19.0000 F4000
G1 X166.9040 Y1123.4770 Z-19.0000 F4000
G1 X166.3730 Y1123.6366 Z-19.0000 F4000
G1 X164.2331 Y1124.1459 Z-19.0000 F4000
G1 X163.6853 Y1124.2429 Z-19.0000 F4000
G1 X163.1299 Y1124.2753 Z-19.0000 F4000
G1 X56.6697 Y1124.2753 Z-19.0000 F4000
G1 X56.1143 Y1124.2429 Z-19.0000 F4000
G1 X55.5665 Y1124.1459 Z-19.0000 F4000
G1 X53.4266 Y1123.6366 Z-19.0000 F4000
G1 X52.8956 Y1123.4770 Z-19.0000 F4000
G1 X52.3832 Y1123.2552 Z-19.0000 F4000
G1 X51.9004 Y1122.9749 Z-19.0000 F4000
G1 X51.4565 Y1122.6425 Z-19.0000 F4000
G1 X49.7756 Y1121.2238 Z-19.0000 F4000
G1 X49.3734 Y1120.8422 Z-19.0000 F4000
G1 X49.0160 Y1120.4133 Z-19.0000 F4000
G1 X48.7112 Y1119.9456 Z-19.0000 F4000
G1 X48.4647 Y1119.4490 Z-19.0000 F4000
G1 X47.6031 Y1117.4253 Z-19.0000 F4000
G1 X47.4159 Y1116.9034 Z-19.0000 F4000
G1 X47.2900 Y1116.3594 Z-19.0000 F4000
G1 X47.2286 Y1115.8045 Z-19.0000 F4000
G1 X47.2322 Y1115.2500 Z-19.0000 F4000
G1 X47.3747 Y1113.0549 Z-19.0000 F4000
G1 X47.4431 Y1112.5027 Z-19.0000 F4000
G1 X47.5754 Y1111.9623 Z-19.0000 F4000
G1 X63.4292 Y1060.4377 Z-19.0000 F4000
G1 X63.4770 Y1059.7015 Z-19.0000 F4000
G1 X63.4131 Y1059.5515 Z-19.0000 F4000
G1 X63.2885 Y1059.4463 Z-19.0000 F4000
G1 X62.5710 Y1059.2756 Z-19.0000 F4000
G1 X9.9000 Y1059.2756 Z-19.0000 F4000
G1 X9.2309 Y1059.2284 Z-19.0000 F4000
G1 X8.5635 Y1059.0843 Z-19.0000 F4000
G1 X7.9185 Y1058.8441 Z-19.0000 F4000
G1 X7.3165 Y1058.5144 Z-19.0000 F4000
G1 X6.7747 Y1058.1075 Z-19.0000 F4000
G1 X6.3031 Y1057.6359 Z-19.0000 F4000
G1 X5.8962 Y1057.0941 Z-19.0000 F4000
G1 X5.5665 Y1056.4920 Z-19.0000 F4000
G1 X5.3263 Y1055.8471 Z-19.0000 F4000
G1 X5.1822 Y1055.1796 Z-19.0000 F4000
G1 X5.1350 Y1054.5106 Z-19.0000 F4000
G1 X5.1350 Y575.7110 Z-19.0000 F4000
G1 X5.1764 Y575.0844 Z-19.0000 F4000
G1 X5.3076 Y574.4403 Z-19.0000 F4000
G1 X5.5360 Y573.7977 Z-19.0000 F4000
G1 X5.8639 Y573.1782 Z-19.0000 F4000
G1 X6.2868 Y572.6046 Z-19.0000 F4000
G1 X6.7936 Y572.0978 Z-19.0000 F4000
G1 X7.3672 Y571.6749 Z-19.0000 F4000
G1 X7.9867 Y571.3470 Z-19.0000 F4000
G1 X8.6293 Y571.1186 Z-19.0000 F4000
G1 X9.2734 Y570.9874 Z-19.0000 F4000
G1 X9.9000 Y570.9460 Z-19.0000 F4000
G1 X86.1827 Y570.9460 Z-19.0000 F4000
G1 X86.1827 Y570.9460 Z-13.0000 F9999
G1 X115.7127 Y570.9460 Z-13.0000 F4000
G1 X115.7127 Y570.9460 Z-19.0000 F2500
G1 X603.9604 Y570.9460 Z-19.0000 F4000
G1 X603.9604 Y570.9460 Z10.0000 F9999
G1 X609.8988 Y5.1350 Z10.0000 F9999
G1 X609.8988 Y5.1350 Z1.0000 F2500
G1 X640.2097 Y5.1350 Z-9.0000 F2500
G1 X609.8988 Y5.1350 Z-19.0000 F2500
G1 X1209.8977 Y5.1350 Z-19.0000 F4000
G1 X1210.5243 Y5.1764 Z-19.0000 F4000
G1 X1211.1684 Y5.3076 Z-19.0000 F4000
G1 X1211.8110 Y5.5360 Z-19.0000 F4000
G1 X1212.4305 Y5.8639 Z-19.0000 F4000
G1 X1213.0041 Y6.2868 Z-19.0000 F4000
G1 X1213.5109 Y6.7936 Z-19.0000 F4000
G1 X1213.9338 Y7.3672 Z-19.0000 F4000
G1 X1214.2617 Y7.9867 Z-19.0000 F4000
G1 X1214.4901 Y8.6293 Z-19.0000 F4000
G1 X1214.6213 Y9.2734 Z-19.0000 F4000
G1 X1214.6627 Y9.9000 Z-19.0000 F4000
G1 X1214.6627 Y488.6996 Z-19.0000 F4000
G1 X1214.6155 Y489.3686 Z-19.0000 F4000
G1 X1214.4714 Y490.0361 Z-19.0000 F4000
G1 X1214.2312 Y490.6810 Z-19.0000 F4000
G1 X1213.9015 Y491.2831 Z-19.0000 F4000
G1 X1213.4946 Y491.8249 Z-19.0000 F4000
G1 X1213.0230 Y492.2964 Z-19.0000 F4000
G1 X1212.4812 Y492.7034 Z-19.0000 F4000
G1 X1211.8791 Y493.0330 Z-19.0000 F4000
G1 X1211.2342 Y493.2733 Z-19.0000 F4000
G1 X1210.5667 Y493.4174 Z-19.0000 F4000
G1 X1209.8977 Y493.4646 Z-19.0000 F4000
G1 X1157.2266 Y493.4646 Z-19.0000 F4000
G1 X1156.5090 Y493.6353 Z-19.0000 F4000
G1 X1156.3845 Y493.7404 Z-19.0000 F4000
G1 X1156.3207 Y493.8904 Z-19.0000 F4000
G1 X1156.3685 Y494.6268 Z-19.0000 F4000
G1 X1172.2221 Y546.1513 Z-19.0000 F4000
G1 X1172.3544 Y546.6919 Z-19.0000 F4000
G1 X1172.4228 Y547.2443 Z-19.0000 F4000
G1 X1172.5652 Y549.4393 Z-19.0000 F4000
G1 X1172.5688 Y549.9937 Z-19.0000 F4000
G1 X1172.5074 Y550.5484 Z-19.0000 F4000
G1 X1172.3815 Y551.0922 Z-19.0000 F4000
G1 X1172.1945 Y551.6140 Z-19.0000 F4000
G1 X1171.3330 Y553.6377 Z-19.0000 F4000
G1 X1171.0865 Y554.1344 Z-19.0000 F4000
G1 X1170.7817 Y554.6022 Z-19.0000 F4000
G1 X1170.4242 Y555.0311 Z-19.0000 F4000
G1 X1170.0219 Y555.4128 Z-19.0000 F4000
G1 X1168.3409 Y556.8315 Z-19.0000 F4000
G1 X1167.8971 Y557.1639 Z-19.0000 F4000
G1 X1167.4143 Y557.4441 Z-19.0000 F4000
G1 X1166.9020 Y557.6660 Z-19.0000 F4000
G1 X1166.3710 Y557.8255 Z-19.0000 F4000
G1 X1164.2314 Y558.3348 Z-19.0000 F4000
G1 X1163.6835 Y558.4318 Z-19.0000 F4000
G1 X1163.1280 Y558.4643 Z-19.0000 F4000
G1 X1056.6678 Y558.4643 Z-19.0000 F4000
G1 X1056.1125 Y558.4318 Z-19.0000 F4000
G1 X1055.5647 Y558.3349 Z-19.0000 F4000
G1 X1053.4246 Y557.8256 Z-19.0000 F4000
G1 X1052.8936 Y557.6660 Z-19.0000 F4000
G1 X1052.3813 Y557.4442 Z-19.0000 F4000
G1 X1051.8984 Y557.1639 Z-19.0000 F4000
G1 X1051.4546 Y556.8315 Z-19.0000 F4000
G1 X1049.7735 Y555.4128 Z-19.0000 F4000
G1 X1049.3713 Y555.0312 Z-19.0000 F4000
G1 X1049.0139 Y554.6023 Z-19.0000 F4000
G1 X1048.7091 Y554.1346 Z-19.0000 F4000
G1 X1048.4626 Y553.6379 Z-19.0000 F4000
G1 X1047.6010 Y551.6142 Z-19.0000 F4000
G1 X1047.4138 Y551.0922 Z-19.0000 F4000
G1 X1047.2879 Y550.5483 Z-19.0000 F4000
G1 X1047.2265 Y549.9933 Z-19.0000 F4000
G1 X1047.2302 Y549.4388 Z-19.0000 F4000
G1 X1047.3728 Y547.2437 Z-19.0000 F4000
G1 X1047.4412 Y546.6916 Z-19.0000 F4000
G1 X1047.5735 Y546.1513 Z-19.0000 F4000
G1 X1063.4272 Y494.6267 Z-19.0000 F4000
G1 X1063.4750 Y493.8904 Z-19.0000 F4000
G1 X1063.4112 Y493.7404 Z-19.0000 F4000
G1 X1063.2866 Y493.6353 Z-19.0000 F4000
G1 X1062.5692 Y493.4646 Z-19.0000 F4000
G1 X957.2270 Y493.4646 Z-19.0000 F4000
G1 X956.5095 Y493.6353 Z-19.0000 F4000
G1 X956.3848 Y493.7406 Z-19.0000 F4000
G1 X956.3209 Y493.8908 Z-19.0000 F4000
G1 X956.3687 Y494.6267 Z-19.0000 F4000
G1 X972.2225 Y546.1513 Z-19.0000 F4000
G1 X972.3548 Y546.6917 Z-19.0000 F4000
G1 X972.4232 Y547.2439 Z-19.0000 F4000
G1 X972.5657 Y549.4389 Z-19.0000 F4000
G1 X972.5694 Y549.9934 Z-19.0000 F4000
G1 X972.5080 Y550.5483 Z-19.0000 F4000
G1 X972.3821 Y551.0923 Z-19.0000 F4000
G1 X972.1949 Y551.6142 Z-19.0000 F4000
G1 X971.3333 Y553.6379 Z-19.0000 F4000
G1 X971.0868 Y554.1346 Z-19.0000 F4000
G1 X970.7820 Y554.6023 Z-19.0000 F4000
G1 X970.4246 Y555.0312 Z-19.0000 F4000
G1 X970.0224 Y555.4128 Z-19.0000 F4000
G1 X968.3413 Y556.8315 Z-19.0000 F4000
G1 X967.8975 Y557.1639 Z-19.0000 F4000
G1 X967.4147 Y557.4441 Z-19.0000 F4000
G1 X966.9024 Y557.6660 Z-19.0000 F4000
G1 X966.3714 Y557.8255 Z-19.0000 F4000
G1 X964.2318 Y558.3348 Z-19.0000 F4000
G1 X963.6839 Y558.4318 Z-19.0000 F4000
G1 X963.1285 Y558.4643 Z-19.0000 F4000
G1 X856.6682 Y558.4643 Z-19.0000 F4000
G1 X856.1128 Y558.4318 Z-19.0000 F4000
G1 X855.5650 Y558.3349 Z-19.0000 F4000
G1 X853.4250 Y557.8256 Z-19.0000 F4000
G1 X852.8939 Y557.6660 Z-19.0000 F4000
G1 X852.3816 Y557.4442 Z-19.0000 F4000
G1 X851.8987 Y557.1639 Z-19.0000 F4000
G1 X851.4549 Y556.8315 Z-19.0000 F4000
G1 X849.7739 Y555.4128 Z-19.0000 F4000
G1 X849.3717 Y555.0311 Z-19.0000 F4000
G1 X849.0143 Y554.6022 Z-19.0000 F4000
G1 X848.7095 Y554.1345 Z-19.0000 F4000
G1 X848.4630 Y553.6378 Z-19.0000 F4000
G1 X847.6014 Y551.6141 Z-19.0000 F4000
G1 X847.4143 Y551.0922 Z-19.0000 F4000
G1 X847.2884 Y550.5483 Z-19.0000 F4000
G1 X847.2270 Y549.9935 Z-19.0000 F4000
G1 X847.2307 Y549.4391 Z-19.0000 F4000
G1 X847.3732 Y547.2440 Z-19.0000 F4000
G1 X847.4416 Y546.6918 Z-19.0000 F4000
G1 X847.5739 Y546.1513 Z-19.0000 F4000
G1 X863.4277 Y494.6268 Z-19.0000 F4000
G1 X863.4754 Y493.8908 Z-19.0000 F4000
G1 X863.4115 Y493.7406 Z-19.0000 F4000
G1 X863.2868 Y493.6353 Z-19.0000 F4000
G1 X862.5694 Y493.4646 Z-19.0000 F4000
G1 X757.2274 Y493.4646 Z-19.0000 F4000
G1 X756.5099 Y493.6353 Z-19.0000 F4000
G1 X756.3852 Y493.7406 Z-19.0000 F4000
G1 X756.3213 Y493.8908 Z-19.0000 F4000
G1 X756.3691 Y494.6267 Z-19.0000 F4000
G1 X772.2228 Y546.1513 Z-19.0000 F4000
G1 X772.3551 Y546.6917 Z-19.0000 F4000
G1 X772.4235 Y547.2439 Z-19.0000 F4000
G1 X772.5661 Y549.4389 Z-19.0000 F4000
G1 X772.5697 Y549.9934 Z-19.0000 F4000
G1 X772.5083 Y550.5483 Z-19.0000 F4000
G1 X772.3824 Y551.0923 Z-19.0000 F4000
G1 X772.1953 Y551.6142 Z-19.0000 F4000
G1 X771.3337 Y553.6379 Z-19.0000 F4000
G1 X771.0872 Y554.1345 Z-19.0000 F4000
G1 X770.7824 Y554.6023 Z-19.0000 F4000
G1 X770.4250 Y555.0311 Z-19.0000 F4000
G1 X770.0228 Y555.4128 Z-19.0000 F4000
G1 X768.3418 Y556.8315 Z-19.0000 F4000
G1 X767.8980 Y557.1639 Z-19.0000 F4000
G1 X767.4151 Y557.4441 Z-19.0000 F4000
G1 X766.9028 Y557.6660 Z-19.0000 F4000
G1 X766.3717 Y557.8256 Z-19.0000 F4000
G1 X764.2318 Y558.3349 Z-19.0000 F4000
G1 X763.6840 Y558.4318 Z-19.0000 F4000
G1 X763.1286 Y558.4643 Z-19.0000 F4000
G1 X656.6686 Y558.4643 Z-19.0000 F4000
G1 X656.1132 Y558.4318 Z-19.0000 F4000
G1 X655.5654 Y558.3349 Z-19.0000 F4000
G1 X653.4254 Y557.8256 Z-19.0000 F4000
G1 X652.8944 Y557.6660 Z-19.0000 F4000
G1 X652.3820 Y557.4441 Z-19.0000 F4000
G1 X651.8992 Y557.1639 Z-19.0000 F4000
G1 X651.4553 Y556.8315 Z-19.0000 F4000
G1 X649.7743 Y555.4128 Z-19.0000 F4000
G1 X649.3721 Y555.0311 Z-19.0000 F4000
G1 X649.0147 Y554.6023 Z-19.0000 F4000
G1 X648.7099 Y554.1345 Z-19.0000 F4000
G1 X648.4634 Y553.6379 Z-19.0000 F4000
G1 X647.6019 Y551.6142 Z-19.0000 F4000
G1 X647.4147 Y551.0923 Z-19.0000 F4000
G1 X647.2888 Y550.5483 Z-19.0000 F4000
G1 X647.2274 Y549.9934 Z-19.0000 F4000
G1 X647.2311 Y549.4389 Z-19.0000 F4000
G1 X647.3736 Y547.2439 Z-19.0000 F4000
G1 X647.4420 Y546.6917 Z-19.0000 F4000
G1 X647.5743 Y546.1513 Z-19.0000 F4000
G1 X663.4281 Y494.6267 Z-19.0000 F4000
G1 X663.4758 Y493.8907 Z-19.0000 F4000
G1 X663.4119 Y493.7406 Z-19.0000 F4000
G1 X663.2873 Y493.6353 Z-19.0000 F4000
G1 X662.5697 Y493.4646 Z-19.0000 F4000
G1 X557.2278 Y493.4646 Z-19.0000 F4000
G1 X556.5103 Y493.6353 Z-19.0000 F4000
G1 X556.3857 Y493.7405 Z-19.0000 F4000
G1 X556.3218 Y493.8905 Z-19.0000 F4000
G1 X556.3697 Y494.6265 Z-19.0000 F4000
G1 X572.2233 Y546.1513 Z-19.0000 F4000
G1 X572.3556 Y546.6917 Z-19.0000 F4000
G1 X572.4240 Y547.2439 Z-19.0000 F4000
G1 X572.5665 Y549.4389 Z-19.0000 F4000
G1 X572.5702 Y549.9934 Z-19.0000 F4000
G1 X572.5087 Y550.5483 Z-19.0000 F4000
G1 X572.3829 Y551.0923 Z-19.0000 F4000
G1 X572.1957 Y551.6142 Z-19.0000 F4000
G1 X571.3341 Y553.6379 Z-19.0000 F4000
G1 X571.0876 Y554.1345 Z-19.0000 F4000
G1 X570.7828 Y554.6023 Z-19.0000 F4000
G1 X570.4254 Y555.0311 Z-19.0000 F4000
G1 X570.0232 Y555.4128 Z-19.0000 F4000
G1 X568.3423 Y556.8315 Z-19.0000 F4000
G1 X567.8984 Y557.1639 Z-19.0000 F4000
G1 X567.4155 Y557.4441 Z-19.0000 F4000
G1 X566.9032 Y557.6660 Z-19.0000 F4000
G1 X566.3721 Y557.8256 Z-19.0000 F4000
G1 X564.2322 Y558.3349 Z-19.0000 F4000
G1 X563.6844 Y558.4318 Z-19.0000 F4000
G1 X563.1290 Y558.4643 Z-19.0000 F4000
G1 X456.6690 Y558.4643 Z-19.0000 F4000
G1 X456.1136 Y558.4318 Z-19.0000 F4000
G1 X455.5658 Y558.3349 Z-19.0000 F4000
G1 X453.4258 Y557.8256 Z-19.0000 F4000
G1 X452.8947 Y557.6660 Z-19.0000 F4000
G1 X452.3824 Y557.4441 Z-19.0000 F4000
G1 X451.8995 Y557.1638 Z-19.0000 F4000
G1 X451.4557 Y556.8315 Z-19.0000 F4000
G1 X449.7747 Y555.4127 Z-19.0000 F4000
G1 X449.3725 Y555.0311 Z-19.0000 F4000
G1 X449.0151 Y554.6022 Z-19.0000 F4000
G1 X448.7104 Y554.1345 Z-19.0000 F4000
G1 X448.4639 Y553.6379 Z-19.0000 F4000
G1 X447.6023 Y551.6142 Z-19.0000 F4000
G1 X447.4151 Y551.0923 Z-19.0000 F4000
G1 X447.2892 Y550.5484 Z-19.0000 F4000
G1 X447.2278 Y549.9935 Z-19.0000 F4000
G1 X447.2315 Y549.4390 Z-19.0000 F4000
G1 X447.3740 Y547.2439 Z-19.0000 F4000
G1 X447.4424 Y546.6917 Z-19.0000 F4000
G1 X447.5747 Y546.1513 Z-19.0000 F4000
G1 X463.4285 Y494.6267 Z-19.0000 F4000
G1 X463.4763 Y493.8905 Z-19.0000 F4000
G1 X463.4124 Y493.7405 Z-19.0000 F4000
G1 X463.2878 Y493.6353 Z-19.0000 F4000
G1 X462.5702 Y493.4646 Z-19.0000 F4000
G1 X357.2282 Y493.4646 Z-19.0000 F4000
G1 X356.5107 Y493.6353 Z-19.0000 F4000
G1 X356.3860 Y493.7406 Z-19.0000 F4000
G1 X356.3221 Y493.8907 Z-19.0000 F4000
G1 X356.3699 Y494.6267 Z-19.0000 F4000
G1 X372.2237 Y546.1513 Z-19.0000 F4000
G1 X372.3560 Y546.6917 Z-19.0000 F4000
G1 X372.4244 Y547.2439 Z-19.0000 F4000
G1 X372.5669 Y549.4390 Z-19.0000 F4000
G1 X372.5706 Y549.9935 Z-19.0000 F4000
G1 X372.5091 Y550.5484 Z-19.0000 F4000
G1 X372.3832 Y551.0923 Z-19.0000 F4000
G1 X372.1961 Y551.6142 Z-19.0000 F4000
G1 X371.3345 Y553.6379 Z-19.0000 F4000
G1 X371.0880 Y554.1345 Z-19.0000 F4000
G1 X370.7832 Y554.6023 Z-19.0000 F4000
G1 X370.4258 Y555.0311 Z-19.0000 F4000
G1 X370.0236 Y555.4128 Z-19.0000 F4000
G1 X368.3426 Y556.8315 Z-19.0000 F4000
G1 X367.8988 Y557.1639 Z-19.0000 F4000
G1 X367.4159 Y557.4441 Z-19.0000 F4000
G1 X366.9036 Y557.6660 Z-19.0000 F4000
G1 X366.3725 Y557.8256 Z-19.0000 F4000
G1 X364.2326 Y558.3349 Z-19.0000 F4000
G1 X363.6848 Y558.4318 Z-19.0000 F4000
G1 X363.1294 Y558.4643 Z-19.0000 F4000
G1 X256.6693 Y558.4643 Z-19.0000 F4000
G1 X256.1139 Y558.4318 Z-19.0000 F4000
G1 X255.5660 Y558.3348 Z-19.0000 F4000
G1 X253.4262 Y557.8256 Z-19.0000 F4000
G1 X252.8952 Y557.6660 Z-19.0000 F4000
G1 X252.3829 Y557.4441 Z-19.0000 F4000
G1 X251.9001 Y557.1639 Z-19.0000 F4000
G1 X251.4562 Y556.8315 Z-19.0000 F4000
G1 X249.7752 Y555.4128 Z-19.0000 F4000
G1 X249.3730 Y555.0312 Z-19.0000 F4000
G1 X249.0156 Y554.6023 Z-19.0000 F4000
G1 X248.7107 Y554.1346 Z-19.0000 F4000
G1 X248.4642 Y553.6379 Z-19.0000 F4000
G1 X247.6027 Y551.6142 Z-19.0000 F4000
G1 X247.4155 Y551.0923 Z-19.0000 F4000
G1 X247.2896 Y550.5483 Z-19.0000 F4000
G1 X247.2282 Y549.9934 Z-19.0000 F4000
G1 X247.2319 Y549.4389 Z-19.0000 F4000
G1 X247.3744 Y547.2439 Z-19.0000 F4000
G1 X247.4428 Y546.6917 Z-19.0000 F4000
G1 X247.5751 Y546.1513 Z-19.0000 F4000
G1 X263.4289 Y494.6267 Z-19.0000 F4000
G1 X263.4766 Y493.8907 Z-19.0000 F4000
G1 X263.4127 Y493.7406 Z-19.0000 F4000
G1 X263.2881 Y493.6353 Z-19.0000 F4000
G1 X262.5706 Y493.4646 Z-19.0000 F4000
G1 X157.2286 Y493.4646 Z-19.0000 F4000
G1 X156.5111 Y493.6353 Z-19.0000 F4000
G1 X156.3865 Y493.7405 Z-19.0000 F4000
G1 X156.3226 Y493.8905 Z-19.0000 F4000
G1 X156.3704 Y494.6267 Z-19.0000 F4000
G1 X172.2241 Y546.1513 Z-19.0000 F4000
G1 X172.3564 Y546.6917 Z-19.0000 F4000
G1 X172.4248 Y547.2439 Z-19.0000 F4000
G1 X172.5673 Y549.4389 Z-19.0000 F4000
G1 X172.5710 Y549.9934 Z-19.0000 F4000
G1 X172.5096 Y550.5484 Z-19.0000 F4000
G1 X172.3837 Y551.0923 Z-19.0000 F4000
G1 X172.1965 Y551.6143 Z-19.0000 F4000
G1 X171.3349 Y553.6380 Z-19.0000 F4000
G1 X171.0884 Y554.1346 Z-19.0000 F4000
G1 X170.7836 Y554.6023 Z-19.0000 F4000
G1 X170.4262 Y555.0311 Z-19.0000 F4000
G1 X170.0240 Y555.4128 Z-19.0000 F4000
G1 X168.3430 Y556.8315 Z-19.0000 F4000
G1 X167.8992 Y557.1639 Z-19.0000 F4000
G1 X167.4164 Y557.4441 Z-19.0000 F4000
G1 X166.9040 Y557.6660 Z-19.0000 F4000
G1 X166.3730 Y557.8256 Z-19.0000 F4000
G1 X164.2331 Y558.3348 Z-19.0000 F4000
G1 X163.6853 Y558.4318 Z-19.0000 F4000
G1 X163.1299 Y558.4643 Z-19.0000 F4000
G1 X56.6697 Y558.4643 Z-19.0000 F4000
G1 X56.1143 Y558.4318 Z-19.0000 F4000
G1 X55.5665 Y558.3348 Z-19.0000 F4000
G1 X53.4266 Y557.8256 Z-19.0000 F4000
G1 X52.8956 Y557.6660 Z-19.0000 F4000
G1 X52.3832 Y557.4441 Z-19.0000 F4000
G1 X51.9004 Y557.1639 Z-19.0000 F4000
G1 X51.4565 Y556.8315 Z-19.0000 F4000
G1 X49.7756 Y555.4128 Z-19.0000 F4000
G1 X49.3734 Y555.0311 Z-19.0000 F4000
G1 X49.0160 Y554.6023 Z-19.0000 F4000
G1 X48.7112 Y554.1346 Z-19.0000 F4000
G1 X48.4647 Y553.6380 Z-19.0000 F4000
G1 X47.6031 Y551.6143 Z-19.0000 F4000
G1 X47.4159 Y551.0923 Z-19.0000 F4000
G1 X47.2900 Y550.5484 Z-19.0000 F4000
G1 X47.2286 Y549.9934 Z-19.0000 F4000
G1 X47.2322 Y549.4389 Z-19.0000 F4000
G1 X47.3747 Y547.2439 Z-19.0000 F4000
G1 X47.4431 Y546.6917 Z-19.0000 F4000
G1 X47.5754 Y546.1513 Z-19.0000 F4000
G1 X63.4292 Y494.6267 Z-19.0000 F4000
G1 X63.4770 Y493.8905 Z-19.0000 F4000
G1 X63.4131 Y493.7405 Z-19.0000 F4000
G1 X63.2885 Y493.6353 Z-19.0000 F4000
G1 X62.5710 Y493.4646 Z-19.0000 F4000
G1 X9.9000 Y493.4646 Z-19.0000 F4000
G1 X9.2734 Y493.4232 Z-19.0000 F4000
G1 X8.6293 Y493.2920 Z-19.0000 F4000
G1 X7.9867 Y493.0635 Z-19.0000 F4000
G1 X7.3672 Y492.7357 Z-19.0000 F4000
G1 X6.7936 Y492.3128 Z-19.0000 F4000
G1 X6.2868 Y491.8060 Z-19.0000 F4000
G1 X5.8639 Y491.2323 Z-19.0000 F4000
G1 X5.5360 Y490.6129 Z-19.0000 F4000
G1 X5.3076 Y489.9703 Z-19.0000 F4000
G1 X5.1764 Y489.3262 Z-19.0000 F4000
G1 X5.1350 Y488.6996 Z-19.0000 F4000
G1 X5.1350 Y9.9000 Z-19.0000 F4000
G1 X5.1764 Y9.2734 Z-19.0000 F4000
G1 X5.3076 Y8.6293 Z-19.0000 F4000
G1 X5.5360 Y7.9867 Z-19.0000 F4000
G1 X5.8639 Y7.3672 Z-19.0000 F4000
G1 X6.2868 Y6.7936 Z-19.0000 F4000
G1 X6.7936 Y6.2868 Z-19.0000 F4000
G1 X7.3672 Y5.8639 Z-19.0000 F4000
G1 X7.9867 Y5.5360 Z-19.0000 F4000
G1 X8.6293 Y5.3076 Z-19.0000 F4000
G1 X9.2734 Y5.1764 Z-19.0000 F4000
G1 X9.9000 Y5.1350 Z-19.0000 F4000
G1 X609.8988 Y5.1350 Z-19.0000 F4000
G1 X609.8988 Y5.1350 Z10.0000 F9999
G1 X1900.0000 Y2800.0000 Z80.0000 F9999
G1 Z80.0000 F9999
G1 X1900.0000 Y2800.0000 F9999
M5
M30
