(plotsheet 2n3_nested_153 sheets_final v1_0_sheet 142a_S142.0_15 screws_CC8 - stepover 1mm)
(Material Size) (X=1220.000, Y=2440.000, Z=20.000)
(LinuxCNC_NoArcs_MM_TC_medium_50um_G1_verbose.con)
G90 G80 G21 G49
G64 P0.050
M6 T1
(Tool Number:1) (7.998 mm dia. slot drill)
G43 H1 G0Z80.0000
M3 S9000
G04 P10
G1 X81.5347 Y104.5545 Z10.0000 F9999
G1 X81.5347 Y104.5545 Z2.0000 F9999
G1 X81.5347 Y104.5545 Z-1.0000 F2500
G1 X81.5347 Y104.5545 Z10.0000 F9999
G1 X428.3805 Y101.1033 Z10.0000 F9999
G1 X428.3805 Y101.1033 Z2.0000 F9999
G1 X428.3805 Y101.1033 Z-1.0000 F2500
G1 X428.3805 Y101.1033 Z10.0000 F9999
G1 X764.8727 Y196.0113 Z10.0000 F9999
G1 X764.8727 Y196.0113 Z2.0000 F9999
G1 X764.8727 Y196.0113 Z-1.0000 F2500
G1 X764.8727 Y196.0113 Z10.0000 F9999
G1 X1109.6709 Y196.0113 Z10.0000 F9999
G1 X1109.6709 Y196.0113 Z2.0000 F9999
G1 X1109.6709 Y196.0113 Z-1.0000 F2500
G1 X1109.6709 Y196.0113 Z10.0000 F9999
G1 X1111.3965 Y867.2701 Z10.0000 F9999
G1 X1111.3965 Y867.2701 Z2.0000 F9999
G1 X1111.3965 Y867.2701 Z-1.0000 F2500
G1 X1111.3965 Y867.2701 Z10.0000 F9999
G1 X939.1584 Y867.2701 Z10.0000 F9999
G1 X939.1584 Y867.2701 Z2.0000 F9999
G1 X939.1584 Y867.2701 Z-1.0000 F2500
G1 X939.1584 Y867.2701 Z10.0000 F9999
G1 X766.5983 Y867.2701 Z10.0000 F9999
G1 X766.5983 Y867.2701 Z2.0000 F9999
G1 X766.5983 Y867.2701 Z-1.0000 F2500
G1 X766.5983 Y867.2701 Z10.0000 F9999
G1 X594.0382 Y867.2701 Z10.0000 F9999
G1 X594.0382 Y867.2701 Z2.0000 F9999
G1 X594.0382 Y867.2701 Z-1.0000 F2500
G1 X594.0382 Y867.2701 Z10.0000 F9999
G1 X426.6549 Y1096.7751 Z10.0000 F9999
G1 X426.6549 Y1096.7751 Z2.0000 F9999
G1 X426.6549 Y1096.7751 Z-1.0000 F2500
G1 X426.6549 Y1096.7751 Z10.0000 F9999
G1 X257.5460 Y1096.7751 Z10.0000 F9999
G1 X257.5460 Y1096.7751 Z2.0000 F9999
G1 X257.5460 Y1096.7751 Z-1.0000 F2500
G1 X257.5460 Y1096.7751 Z10.0000 F9999
G1 X84.9859 Y1096.7751 Z10.0000 F9999
G1 X84.9859 Y1096.7751 Z2.0000 F9999
G1 X84.9859 Y1096.7751 Z-1.0000 F2500
G1 X84.9859 Y1096.7751 Z10.0000 F9999
G1 X86.7115 Y2132.1357 Z10.0000 F9999
G1 X86.7115 Y2132.1357 Z2.0000 F9999
G1 X86.7115 Y2132.1357 Z-1.0000 F2500
G1 X86.7115 Y2132.1357 Z10.0000 F9999
G1 X426.6549 Y2132.1357 Z10.0000 F9999
G1 X426.6549 Y2132.1357 Z2.0000 F9999
G1 X426.6549 Y2132.1357 Z-1.0000 F2500
G1 X426.6549 Y2132.1357 Z10.0000 F9999
G1 X768.3239 Y2059.3494 Z10.0000 F9999
G1 X768.3239 Y2059.3494 Z2.0000 F9999
G1 X768.3239 Y2059.3494 Z-1.0000 F2500
G1 X768.3239 Y2059.3494 Z10.0000 F9999
G1 X1113.1221 Y2059.3494 Z10.0000 F9999
G1 X1113.1221 Y2059.3494 Z2.0000 F9999
G1 X1113.1221 Y2059.3494 Z-1.0000 F2500
G1 X1113.1221 Y2059.3494 Z10.0000 F9999
G1 X1900.0000 Y2800.0000 Z80.0000 F9999
G1 Z80.0000 F9999
G1 X1900.0000 Y2800.0000 F9999
M5
M30
