(plotsheet 2n3_nested_153 sheets_final v1_0_sheet 123 to 131a_S123.1_text_CC8 - stepover 1mm)
(Material Size) (X=1220.000, Y=2440.000, Z=21.000)
(LinuxCNC_NoArcs_MM_TC_medium_50um_G1_verbose.con)
G90 G80 G21 G49
G64 P0.050
M6 T1
(Tool Number:1) (7.998 mm dia. slot drill)
G43 H1 G0Z80.0000
M3 S18000
G04 P10
G1 X151.8749 Y792.4742 Z10.0000 F9999
G1 X151.8749 Y792.4742 Z-1.0000 F2500
G1 X151.8749 Y806.9145 Z-1.0000 F4000
G1 X151.8749 Y792.4742 Z-1.0000 F4000
G1 X133.5813 Y792.4742 Z-1.0000 F4000
G1 X133.5813 Y807.5934 Z-1.0000 F4000
G1 X133.5813 Y792.4742 Z-1.0000 F4000
G1 X174.6822 Y792.4742 Z-1.0000 F4000
G1 X174.6822 Y792.4742 Z10.0000 F9999
G1 X174.6822 Y823.0063 Z10.0000 F9999
G1 X174.6822 Y823.0063 Z-1.0000 F2500
G1 X133.5813 Y823.0063 Z-1.0000 F4000
G1 X133.5813 Y830.1623 Z-1.0000 F4000
G1 X134.1868 Y834.0338 Z-1.0000 F4000
G1 X136.0033 Y837.2448 Z-1.0000 F4000
G1 X139.1593 Y839.4650 Z-1.0000 F4000
G1 X143.8015 Y840.3090 Z-1.0000 F4000
G1 X148.4804 Y839.1531 Z-1.0000 F4000
G1 X151.8015 Y836.3824 Z-1.0000 F4000
G1 X153.7648 Y833.0613 Z-1.0000 F4000
G1 X154.4253 Y830.1623 Z-1.0000 F4000
G1 X154.4253 Y823.0063 Z-1.0000 F4000
G1 X154.4253 Y830.1623 Z-1.0000 F4000
G1 X153.7648 Y833.0613 Z-1.0000 F4000
G1 X151.8015 Y836.3824 Z-1.0000 F4000
G1 X148.4804 Y839.1531 Z-1.0000 F4000
G1 X143.8015 Y840.3090 Z-1.0000 F4000
G1 X139.1593 Y839.4650 Z-1.0000 F4000
G1 X136.0033 Y837.2448 Z-1.0000 F4000
G1 X134.1868 Y834.0338 Z-1.0000 F4000
G1 X133.5813 Y830.1623 Z-1.0000 F4000
G1 X133.5813 Y823.0063 Z-1.0000 F4000
G1 X133.5813 Y823.0063 Z10.0000 F9999
G1 X133.5813 Y867.1164 Z10.0000 F9999
G1 X133.5813 Y867.1164 Z-1.0000 F2500
G1 X174.6822 Y883.1714 Z-1.0000 F4000
G1 X133.5813 Y867.1164 Z-1.0000 F4000
G1 X174.6822 Y851.0980 Z-1.0000 F4000
G1 X174.6822 Y851.0980 Z10.0000 F9999
G1 X174.6822 Y840.4191 Z10.0000 F9999
G1 X174.6822 Y840.4191 Z-1.0000 F2500
G1 X154.5354 Y827.1898 Z-1.0000 F4000
G1 X174.6822 Y840.4191 Z-1.0000 F4000
G1 X174.6822 Y840.4191 Z10.0000 F9999
G1 X159.9850 Y877.4283 Z10.0000 F9999
G1 X159.9850 Y877.4283 Z-1.0000 F2500
G1 X159.9850 Y856.7311 Z-1.0000 F4000
G1 X159.9850 Y877.4283 Z-1.0000 F4000
G1 X159.9850 Y877.4283 Z10.0000 F9999
G1 X150.0217 Y923.7953 Z10.0000 F9999
G1 X150.0217 Y923.7953 Z-1.0000 F2500
G1 X150.0217 Y894.5476 Z-1.0000 F4000
G1 X150.0217 Y923.7953 Z-1.0000 F4000
G1 X150.0217 Y923.7953 Z10.0000 F9999
G1 X133.5813 Y950.4925 Z10.0000 F9999
G1 X133.5813 Y950.4925 Z-1.0000 F2500
G1 X174.6822 Y966.5476 Z-1.0000 F4000
G1 X133.5813 Y950.4925 Z-1.0000 F4000
G1 X174.6822 Y934.4742 Z-1.0000 F4000
G1 X174.6822 Y934.4742 Z10.0000 F9999
G1 X159.9850 Y960.8045 Z10.0000 F9999
G1 X159.9850 Y960.8045 Z-1.0000 F2500
G1 X159.9850 Y940.1072 Z-1.0000 F4000
G1 X159.9850 Y960.8045 Z-1.0000 F4000
G1 X159.9850 Y960.8045 Z10.0000 F9999
G1 X124.1868 Y1008.3090 Z10.0000 F9999
G1 X124.1868 Y1008.3090 Z-1.0000 F2500
G1 X177.0309 Y977.9237 Z-1.0000 F4000
G1 X124.1868 Y1008.3090 Z-1.0000 F4000
G1 X124.1868 Y1008.3090 Z10.0000 F9999
G1 X174.6822 Y1023.8136 Z10.0000 F9999
G1 X174.6822 Y1023.8136 Z-1.0000 F2500
G1 X133.5813 Y1023.8136 Z-1.0000 F4000
G1 X133.5813 Y1030.9696 Z-1.0000 F4000
G1 X134.1868 Y1034.8411 Z-1.0000 F4000
G1 X136.0033 Y1038.0522 Z-1.0000 F4000
G1 X139.1593 Y1040.2723 Z-1.0000 F4000
G1 X143.8015 Y1041.1164 Z-1.0000 F4000
G1 X148.4804 Y1039.9604 Z-1.0000 F4000
G1 X151.8015 Y1037.1898 Z-1.0000 F4000
G1 X153.7648 Y1033.8687 Z-1.0000 F4000
G1 X154.4253 Y1030.9696 Z-1.0000 F4000
G1 X154.4253 Y1023.8136 Z-1.0000 F4000
G1 X154.4253 Y1030.9696 Z-1.0000 F4000
G1 X153.7648 Y1033.8687 Z-1.0000 F4000
G1 X151.8015 Y1037.1898 Z-1.0000 F4000
G1 X148.4804 Y1039.9604 Z-1.0000 F4000
G1 X143.8015 Y1041.1164 Z-1.0000 F4000
G1 X139.1593 Y1040.2723 Z-1.0000 F4000
G1 X136.0033 Y1038.0522 Z-1.0000 F4000
G1 X134.1868 Y1034.8411 Z-1.0000 F4000
G1 X133.5813 Y1030.9696 Z-1.0000 F4000
G1 X133.5813 Y1023.8136 Z-1.0000 F4000
G1 X133.5813 Y1023.8136 Z10.0000 F9999
G1 X166.7373 Y1051.9054 Z10.0000 F9999
G1 X166.7373 Y1051.9054 Z-1.0000 F2500
G1 X169.4162 Y1052.6577 Z-1.0000 F4000
G1 X171.9850 Y1054.3824 Z-1.0000 F4000
G1 X173.9299 Y1057.3366 Z-1.0000 F4000
G1 X174.6822 Y1061.8870 Z-1.0000 F4000
G1 X172.0584 Y1070.4008 Z-1.0000 F4000
G1 X164.0767 Y1073.5017 Z-1.0000 F4000
G1 X159.3428 Y1072.6210 Z-1.0000 F4000
G1 X155.9850 Y1070.3090 Z-1.0000 F4000
G1 X153.9850 Y1067.0980 Z-1.0000 F4000
G1 X153.3061 Y1063.5200 Z-1.0000 F4000
G1 X152.5721 Y1066.9879 Z-1.0000 F4000
G1 X150.3520 Y1069.9421 Z-1.0000 F4000
G1 X146.9758 Y1072.0338 Z-1.0000 F4000
G1 X142.7740 Y1072.8228 Z-1.0000 F4000
G1 X141.1960 Y1072.7861 Z-1.0000 F4000
G1 X139.2143 Y1072.5109 Z-1.0000 F4000
G1 X137.1960 Y1071.7219 Z-1.0000 F4000
G1 X135.3611 Y1070.1989 Z-1.0000 F4000
G1 X134.0584 Y1067.6485 Z-1.0000 F4000
G1 X133.5813 Y1063.9054 Z-1.0000 F4000
G1 X134.4070 Y1058.5292 Z-1.0000 F4000
G1 X136.4253 Y1055.4283 Z-1.0000 F4000
G1 X139.0859 Y1053.9054 Z-1.0000 F4000
G1 X141.8198 Y1053.3182 Z-1.0000 F4000
G1 X139.0859 Y1053.9054 Z-1.0000 F4000
G1 X136.4253 Y1055.4283 Z-1.0000 F4000
G1 X134.4070 Y1058.5292 Z-1.0000 F4000
G1 X133.5813 Y1063.9054 Z-1.0000 F4000
G1 X134.0584 Y1067.6485 Z-1.0000 F4000
G1 X135.3611 Y1070.1989 Z-1.0000 F4000
G1 X137.1960 Y1071.7219 Z-1.0000 F4000
G1 X139.2143 Y1072.5109 Z-1.0000 F4000
G1 X141.1593 Y1072.7861 Z-1.0000 F4000
G1 X142.7740 Y1072.8228 Z-1.0000 F4000
G1 X146.9758 Y1072.0338 Z-1.0000 F4000
G1 X150.3520 Y1069.9421 Z-1.0000 F4000
G1 X152.5721 Y1066.9879 Z-1.0000 F4000
G1 X153.3061 Y1063.5200 Z-1.0000 F4000
G1 X153.9850 Y1067.0980 Z-1.0000 F4000
G1 X155.9850 Y1070.3090 Z-1.0000 F4000
G1 X159.3428 Y1072.6210 Z-1.0000 F4000
G1 X164.0767 Y1073.5017 Z-1.0000 F4000
G1 X172.0584 Y1070.4008 Z-1.0000 F4000
G1 X174.6822 Y1061.8870 Z-1.0000 F4000
G1 X173.9299 Y1057.3366 Z-1.0000 F4000
G1 X171.9850 Y1054.3824 Z-1.0000 F4000
G1 X169.4162 Y1052.6577 Z-1.0000 F4000
G1 X169.4162 Y1052.6577 Z10.0000 F9999
G1 X174.6822 Y1041.2265 Z10.0000 F9999
G1 X174.6822 Y1041.2265 Z-1.0000 F2500
G1 X154.5354 Y1027.9971 Z-1.0000 F4000
G1 X174.6822 Y1041.2265 Z-1.0000 F4000
G1 X174.6822 Y1041.2265 Z10.0000 F9999
G1 X717.5037 Y1031.4102 Z10.0000 F9999
G1 X717.5037 Y1031.4102 Z-1.0000 F2500
G1 X758.6046 Y1031.4102 Z-1.0000 F4000
G1 X758.6046 Y1024.2543 Z-1.0000 F4000
G1 X757.9991 Y1020.3827 Z-1.0000 F4000
G1 X756.1826 Y1017.1717 Z-1.0000 F4000
G1 X753.0266 Y1014.9515 Z-1.0000 F4000
G1 X748.3844 Y1014.1075 Z-1.0000 F4000
G1 X743.7055 Y1015.2635 Z-1.0000 F4000
G1 X740.3844 Y1018.0341 Z-1.0000 F4000
G1 X738.4211 Y1021.3552 Z-1.0000 F4000
G1 X737.7606 Y1024.2543 Z-1.0000 F4000
G1 X737.7606 Y1031.4102 Z-1.0000 F4000
G1 X737.7606 Y1024.2543 Z-1.0000 F4000
G1 X738.4211 Y1021.3552 Z-1.0000 F4000
G1 X740.3844 Y1018.0341 Z-1.0000 F4000
G1 X743.7055 Y1015.2635 Z-1.0000 F4000
G1 X748.3844 Y1014.1075 Z-1.0000 F4000
G1 X753.0266 Y1014.9515 Z-1.0000 F4000
G1 X756.1826 Y1017.1717 Z-1.0000 F4000
G1 X757.9991 Y1020.3827 Z-1.0000 F4000
G1 X758.6046 Y1024.2543 Z-1.0000 F4000
G1 X758.6046 Y1031.4102 Z-1.0000 F4000
G1 X758.6046 Y1031.4102 Z10.0000 F9999
G1 X767.9991 Y1046.9148 Z10.0000 F9999
G1 X767.9991 Y1046.9148 Z-1.0000 F2500
G1 X715.1551 Y1077.3002 Z-1.0000 F4000
G1 X767.9991 Y1046.9148 Z-1.0000 F4000
G1 X767.9991 Y1046.9148 Z10.0000 F9999
G1 X758.6046 Y1104.7313 Z10.0000 F9999
G1 X758.6046 Y1104.7313 Z-1.0000 F2500
G1 X717.5037 Y1088.6763 Z-1.0000 F4000
G1 X758.6046 Y1104.7313 Z-1.0000 F4000
G1 X717.5037 Y1120.7497 Z-1.0000 F4000
G1 X717.5037 Y1120.7497 Z10.0000 F9999
G1 X742.1642 Y1131.4286 Z10.0000 F9999
G1 X742.1642 Y1131.4286 Z-1.0000 F2500
G1 X742.1642 Y1160.6763 Z-1.0000 F4000
G1 X742.1642 Y1131.4286 Z-1.0000 F4000
G1 X742.1642 Y1131.4286 Z10.0000 F9999
G1 X732.2009 Y1094.4194 Z10.0000 F9999
G1 X732.2009 Y1094.4194 Z-1.0000 F2500
G1 X732.2009 Y1115.1167 Z-1.0000 F4000
G1 X732.2009 Y1094.4194 Z-1.0000 F4000
G1 X732.2009 Y1094.4194 Z10.0000 F9999
G1 X717.5037 Y1013.9974 Z10.0000 F9999
G1 X717.5037 Y1013.9974 Z-1.0000 F2500
G1 X737.6505 Y1027.2268 Z-1.0000 F4000
G1 X717.5037 Y1013.9974 Z-1.0000 F4000
G1 X717.5037 Y1013.9974 Z10.0000 F9999
G1 X725.4486 Y1003.3185 Z10.0000 F9999
G1 X725.4486 Y1003.3185 Z-1.0000 F2500
G1 X722.7697 Y1002.5662 Z-1.0000 F4000
G1 X720.2009 Y1000.8414 Z-1.0000 F4000
G1 X718.2560 Y997.8873 Z-1.0000 F4000
G1 X717.5037 Y993.3369 Z-1.0000 F4000
G1 X720.1275 Y984.8231 Z-1.0000 F4000
G1 X728.1092 Y981.7222 Z-1.0000 F4000
G1 X732.8431 Y982.6029 Z-1.0000 F4000
G1 X736.2009 Y984.9148 Z-1.0000 F4000
G1 X738.2009 Y988.1258 Z-1.0000 F4000
G1 X738.8798 Y991.7038 Z-1.0000 F4000
G1 X739.6138 Y988.2359 Z-1.0000 F4000
G1 X741.8340 Y985.2818 Z-1.0000 F4000
G1 X745.2101 Y983.1901 Z-1.0000 F4000
G1 X749.4119 Y982.4011 Z-1.0000 F4000
G1 X750.9899 Y982.4378 Z-1.0000 F4000
G1 X752.9716 Y982.7130 Z-1.0000 F4000
G1 X754.9899 Y983.5020 Z-1.0000 F4000
G1 X756.8248 Y985.0249 Z-1.0000 F4000
G1 X758.1275 Y987.5754 Z-1.0000 F4000
G1 X758.6046 Y991.3185 Z-1.0000 F4000
G1 X757.7789 Y996.6947 Z-1.0000 F4000
G1 X755.7606 Y999.7956 Z-1.0000 F4000
G1 X753.1000 Y1001.3185 Z-1.0000 F4000
G1 X750.3661 Y1001.9057 Z-1.0000 F4000
G1 X753.1000 Y1001.3185 Z-1.0000 F4000
G1 X755.7606 Y999.7956 Z-1.0000 F4000
G1 X757.7789 Y996.6947 Z-1.0000 F4000
G1 X758.6046 Y991.3185 Z-1.0000 F4000
G1 X758.1275 Y987.5754 Z-1.0000 F4000
G1 X756.8248 Y985.0249 Z-1.0000 F4000
G1 X754.9899 Y983.5020 Z-1.0000 F4000
G1 X752.9716 Y982.7130 Z-1.0000 F4000
G1 X751.0266 Y982.4378 Z-1.0000 F4000
G1 X749.4119 Y982.4011 Z-1.0000 F4000
G1 X745.2101 Y983.1901 Z-1.0000 F4000
G1 X741.8340 Y985.2818 Z-1.0000 F4000
G1 X739.6138 Y988.2359 Z-1.0000 F4000
G1 X738.8798 Y991.7038 Z-1.0000 F4000
G1 X738.2009 Y988.1258 Z-1.0000 F4000
G1 X736.2009 Y984.9148 Z-1.0000 F4000
G1 X732.8431 Y982.6029 Z-1.0000 F4000
G1 X728.1092 Y981.7222 Z-1.0000 F4000
G1 X720.1275 Y984.8231 Z-1.0000 F4000
G1 X717.5037 Y993.3369 Z-1.0000 F4000
G1 X718.2560 Y997.8873 Z-1.0000 F4000
G1 X720.2009 Y1000.8414 Z-1.0000 F4000
G1 X722.7697 Y1002.5662 Z-1.0000 F4000
G1 X722.7697 Y1002.5662 Z10.0000 F9999
G1 X732.2009 Y1177.7956 Z10.0000 F9999
G1 X732.2009 Y1177.7956 Z-1.0000 F2500
G1 X732.2009 Y1198.4928 Z-1.0000 F4000
G1 X732.2009 Y1177.7956 Z-1.0000 F4000
G1 X732.2009 Y1177.7956 Z10.0000 F9999
G1 X758.6046 Y1188.1075 Z10.0000 F9999
G1 X758.6046 Y1188.1075 Z-1.0000 F2500
G1 X717.5037 Y1172.0525 Z-1.0000 F4000
G1 X758.6046 Y1188.1075 Z-1.0000 F4000
G1 X717.5037 Y1204.1258 Z-1.0000 F4000
G1 X717.5037 Y1204.1258 Z10.0000 F9999
G1 X717.5037 Y1214.8047 Z10.0000 F9999
G1 X717.5037 Y1214.8047 Z-1.0000 F2500
G1 X737.6505 Y1228.0341 Z-1.0000 F4000
G1 X717.5037 Y1214.8047 Z-1.0000 F4000
G1 X717.5037 Y1214.8047 Z10.0000 F9999
G1 X717.5037 Y1232.2176 Z10.0000 F9999
G1 X717.5037 Y1232.2176 Z-1.0000 F2500
G1 X758.6046 Y1232.2176 Z-1.0000 F4000
G1 X758.6046 Y1225.0616 Z-1.0000 F4000
G1 X757.9991 Y1221.1901 Z-1.0000 F4000
G1 X756.1826 Y1217.9791 Z-1.0000 F4000
G1 X753.0266 Y1215.7589 Z-1.0000 F4000
G1 X748.3844 Y1214.9148 Z-1.0000 F4000
G1 X743.7055 Y1216.0708 Z-1.0000 F4000
G1 X740.3844 Y1218.8414 Z-1.0000 F4000
G1 X738.4211 Y1222.1625 Z-1.0000 F4000
G1 X737.7606 Y1225.0616 Z-1.0000 F4000
G1 X737.7606 Y1232.2176 Z-1.0000 F4000
G1 X737.7606 Y1225.0616 Z-1.0000 F4000
G1 X738.4211 Y1222.1625 Z-1.0000 F4000
G1 X740.3844 Y1218.8414 Z-1.0000 F4000
G1 X743.7055 Y1216.0708 Z-1.0000 F4000
G1 X748.3844 Y1214.9148 Z-1.0000 F4000
G1 X753.0266 Y1215.7589 Z-1.0000 F4000
G1 X756.1826 Y1217.9791 Z-1.0000 F4000
G1 X757.9991 Y1221.1901 Z-1.0000 F4000
G1 X758.6046 Y1225.0616 Z-1.0000 F4000
G1 X758.6046 Y1232.2176 Z-1.0000 F4000
G1 X758.6046 Y1232.2176 Z10.0000 F9999
G1 X740.3110 Y1262.7497 Z10.0000 F9999
G1 X740.3110 Y1262.7497 Z-1.0000 F2500
G1 X740.3110 Y1248.3093 Z-1.0000 F4000
G1 X740.3110 Y1262.7497 Z-1.0000 F4000
G1 X758.6046 Y1262.7497 Z-1.0000 F4000
G1 X758.6046 Y1247.6304 Z-1.0000 F4000
G1 X758.6046 Y1262.7497 Z-1.0000 F4000
G1 X717.5037 Y1262.7497 Z-1.0000 F4000
G1 X717.5037 Y1262.7497 Z10.0000 F9999
G1 X1040.2628 Y1069.9268 Z10.0000 F9999
G1 X1040.2628 Y1069.9268 Z-1.0000 F2500
G1 X1081.3638 Y1069.9268 Z-1.0000 F4000
G1 X1081.3638 Y1062.7708 Z-1.0000 F4000
G1 X1080.7582 Y1058.8993 Z-1.0000 F4000
G1 X1078.9417 Y1055.6882 Z-1.0000 F4000
G1 X1075.7858 Y1053.4681 Z-1.0000 F4000
G1 X1071.1436 Y1052.6240 Z-1.0000 F4000
G1 X1066.4647 Y1053.7800 Z-1.0000 F4000
G1 X1063.1436 Y1056.5506 Z-1.0000 F4000
G1 X1061.1803 Y1059.8717 Z-1.0000 F4000
G1 X1060.5197 Y1062.7708 Z-1.0000 F4000
G1 X1060.5197 Y1069.9268 Z-1.0000 F4000
G1 X1060.5197 Y1062.7708 Z-1.0000 F4000
G1 X1061.1803 Y1059.8717 Z-1.0000 F4000
G1 X1063.1436 Y1056.5506 Z-1.0000 F4000
G1 X1066.4647 Y1053.7800 Z-1.0000 F4000
G1 X1071.1436 Y1052.6240 Z-1.0000 F4000
G1 X1075.7858 Y1053.4681 Z-1.0000 F4000
G1 X1078.9417 Y1055.6882 Z-1.0000 F4000
G1 X1080.7582 Y1058.8993 Z-1.0000 F4000
G1 X1081.3638 Y1062.7708 Z-1.0000 F4000
G1 X1081.3638 Y1069.9268 Z-1.0000 F4000
G1 X1081.3638 Y1069.9268 Z10.0000 F9999
G1 X1063.0702 Y1100.4589 Z10.0000 F9999
G1 X1063.0702 Y1100.4589 Z-1.0000 F2500
G1 X1063.0702 Y1086.0185 Z-1.0000 F4000
G1 X1063.0702 Y1100.4589 Z-1.0000 F4000
G1 X1081.3638 Y1100.4589 Z-1.0000 F4000
G1 X1081.3638 Y1085.3396 Z-1.0000 F4000
G1 X1081.3638 Y1100.4589 Z-1.0000 F4000
G1 X1040.2628 Y1100.4589 Z-1.0000 F4000
G1 X1040.2628 Y1100.4589 Z10.0000 F9999
G1 X1040.2628 Y1052.5139 Z10.0000 F9999
G1 X1040.2628 Y1052.5139 Z-1.0000 F2500
G1 X1060.4096 Y1065.7433 Z-1.0000 F4000
G1 X1040.2628 Y1052.5139 Z-1.0000 F4000
G1 X1040.2628 Y1052.5139 Z10.0000 F9999
G1 X1054.9601 Y1015.5048 Z10.0000 F9999
G1 X1054.9601 Y1015.5048 Z-1.0000 F2500
G1 X1054.9601 Y1036.2020 Z-1.0000 F4000
G1 X1054.9601 Y1015.5048 Z-1.0000 F4000
G1 X1054.9601 Y1015.5048 Z10.0000 F9999
G1 X1081.3638 Y1025.8167 Z10.0000 F9999
G1 X1081.3638 Y1025.8167 Z-1.0000 F2500
G1 X1040.2628 Y1009.7616 Z-1.0000 F4000
G1 X1081.3638 Y1025.8167 Z-1.0000 F4000
G1 X1040.2628 Y1041.8350 Z-1.0000 F4000
G1 X1040.2628 Y1041.8350 Z10.0000 F9999
G1 X1064.9234 Y969.1378 Z10.0000 F9999
G1 X1064.9234 Y969.1378 Z-1.0000 F2500
G1 X1064.9234 Y998.3855 Z-1.0000 F4000
G1 X1064.9234 Y969.1378 Z-1.0000 F4000
G1 X1064.9234 Y969.1378 Z10.0000 F9999
G1 X1081.3638 Y942.4405 Z10.0000 F9999
G1 X1081.3638 Y942.4405 Z-1.0000 F2500
G1 X1040.2628 Y926.3855 Z-1.0000 F4000
G1 X1081.3638 Y942.4405 Z-1.0000 F4000
G1 X1040.2628 Y958.4589 Z-1.0000 F4000
G1 X1040.2628 Y958.4589 Z10.0000 F9999
G1 X1054.9601 Y932.1286 Z10.0000 F9999
G1 X1054.9601 Y932.1286 Z-1.0000 F2500
G1 X1054.9601 Y952.8259 Z-1.0000 F4000
G1 X1054.9601 Y932.1286 Z-1.0000 F4000
G1 X1054.9601 Y932.1286 Z10.0000 F9999
G1 X1090.7582 Y884.6240 Z10.0000 F9999
G1 X1090.7582 Y884.6240 Z-1.0000 F2500
G1 X1037.9142 Y915.0093 Z-1.0000 F4000
G1 X1090.7582 Y884.6240 Z-1.0000 F4000
G1 X1090.7582 Y884.6240 Z10.0000 F9999
G1 X1040.2628 Y869.1194 Z10.0000 F9999
G1 X1040.2628 Y869.1194 Z-1.0000 F2500
G1 X1081.3638 Y869.1194 Z-1.0000 F4000
G1 X1081.3638 Y861.9635 Z-1.0000 F4000
G1 X1080.7582 Y858.0919 Z-1.0000 F4000
G1 X1078.9417 Y854.8809 Z-1.0000 F4000
G1 X1075.7858 Y852.6607 Z-1.0000 F4000
G1 X1071.1436 Y851.8167 Z-1.0000 F4000
G1 X1066.4647 Y852.9726 Z-1.0000 F4000
G1 X1063.1436 Y855.7433 Z-1.0000 F4000
G1 X1061.1803 Y859.0644 Z-1.0000 F4000
G1 X1060.5197 Y861.9635 Z-1.0000 F4000
G1 X1060.5197 Y869.1194 Z-1.0000 F4000
G1 X1060.5197 Y861.9635 Z-1.0000 F4000
G1 X1061.1803 Y859.0644 Z-1.0000 F4000
G1 X1063.1436 Y855.7433 Z-1.0000 F4000
G1 X1066.4647 Y852.9726 Z-1.0000 F4000
G1 X1071.1436 Y851.8167 Z-1.0000 F4000
G1 X1075.7858 Y852.6607 Z-1.0000 F4000
G1 X1078.9417 Y854.8809 Z-1.0000 F4000
G1 X1080.7582 Y858.0919 Z-1.0000 F4000
G1 X1081.3638 Y861.9635 Z-1.0000 F4000
G1 X1081.3638 Y869.1194 Z-1.0000 F4000
G1 X1081.3638 Y869.1194 Z10.0000 F9999
G1 X1048.2078 Y841.0277 Z10.0000 F9999
G1 X1048.2078 Y841.0277 Z-1.0000 F2500
G1 X1045.5289 Y840.2754 Z-1.0000 F4000
G1 X1042.9601 Y838.5506 Z-1.0000 F4000
G1 X1041.0151 Y835.5965 Z-1.0000 F4000
G1 X1040.2628 Y831.0460 Z-1.0000 F4000
G1 X1042.8867 Y822.5323 Z-1.0000 F4000
G1 X1050.8683 Y819.4314 Z-1.0000 F4000
G1 X1055.6023 Y820.3121 Z-1.0000 F4000
G1 X1058.9601 Y822.6240 Z-1.0000 F4000
G1 X1060.9601 Y825.8350 Z-1.0000 F4000
G1 X1061.6390 Y829.4130 Z-1.0000 F4000
G1 X1062.3729 Y825.9451 Z-1.0000 F4000
G1 X1064.5931 Y822.9910 Z-1.0000 F4000
G1 X1067.9693 Y820.8993 Z-1.0000 F4000
G1 X1072.1711 Y820.1103 Z-1.0000 F4000
G1 X1073.7491 Y820.1470 Z-1.0000 F4000
G1 X1075.7307 Y820.4222 Z-1.0000 F4000
G1 X1077.7491 Y821.2112 Z-1.0000 F4000
G1 X1079.5839 Y822.7341 Z-1.0000 F4000
G1 X1080.8867 Y825.2846 Z-1.0000 F4000
G1 X1081.3638 Y829.0277 Z-1.0000 F4000
G1 X1080.5381 Y834.4038 Z-1.0000 F4000
G1 X1078.5197 Y837.5048 Z-1.0000 F4000
G1 X1075.8592 Y839.0277 Z-1.0000 F4000
G1 X1073.1252 Y839.6148 Z-1.0000 F4000
G1 X1075.8592 Y839.0277 Z-1.0000 F4000
G1 X1078.5197 Y837.5048 Z-1.0000 F4000
G1 X1080.5381 Y834.4038 Z-1.0000 F4000
G1 X1081.3638 Y829.0277 Z-1.0000 F4000
G1 X1080.8867 Y825.2846 Z-1.0000 F4000
G1 X1079.5839 Y822.7341 Z-1.0000 F4000
G1 X1077.7491 Y821.2112 Z-1.0000 F4000
G1 X1075.7307 Y820.4222 Z-1.0000 F4000
G1 X1073.7858 Y820.1470 Z-1.0000 F4000
G1 X1072.1711 Y820.1103 Z-1.0000 F4000
G1 X1067.9693 Y820.8993 Z-1.0000 F4000
G1 X1064.5931 Y822.9910 Z-1.0000 F4000
G1 X1062.3729 Y825.9451 Z-1.0000 F4000
G1 X1061.6390 Y829.4130 Z-1.0000 F4000
G1 X1060.9601 Y825.8350 Z-1.0000 F4000
G1 X1058.9601 Y822.6240 Z-1.0000 F4000
G1 X1055.6023 Y820.3121 Z-1.0000 F4000
G1 X1050.8683 Y819.4314 Z-1.0000 F4000
G1 X1042.8867 Y822.5323 Z-1.0000 F4000
G1 X1040.2628 Y831.0460 Z-1.0000 F4000
G1 X1041.0151 Y835.5965 Z-1.0000 F4000
G1 X1042.9601 Y838.5506 Z-1.0000 F4000
G1 X1045.5289 Y840.2754 Z-1.0000 F4000
G1 X1045.5289 Y840.2754 Z10.0000 F9999
G1 X1040.2628 Y851.7066 Z10.0000 F9999
G1 X1040.2628 Y851.7066 Z-1.0000 F2500
G1 X1060.4096 Y864.9359 Z-1.0000 F4000
G1 X1040.2628 Y851.7066 Z-1.0000 F4000
G1 X1040.2628 Y851.7066 Z10.0000 F9999
(Tool Number:1) (7.998 mm dia. slot drill)
M3 S9000
G1 X0.0000 Y1900.0000 Z10.0000 F9999
G1 X0.0000 Y1900.0000 Z1.0000 F2500
G1 X38.9711 Y1900.0000 Z-9.5000 F2500
G1 X0.0000 Y1900.0000 Z-20.0000 F2500
G1 X1220.0000 Y1900.0000 Z-20.0000 F4000
G1 X1220.0000 Y1900.0000 Z10.0000 F9999
(Tool Number:1) (7.998 mm dia. slot drill)
M3 S9000
G1 X335.7784 Y267.4573 Z10.0000 F9999
G1 X335.7784 Y267.4573 Z1.0000 F2500
G1 X311.2067 Y248.5561 Z-7.3524 F2500
G1 X315.9612 Y252.2159 Z-8.9690 F2500
G1 X314.7596 Y253.7780 Z-9.5000 F2500
G1 X315.9612 Y252.2159 Z-10.0310 F2500
G1 X311.2067 Y248.5561 Z-11.6476 F2500
G1 X335.7784 Y267.4573 Z-20.0000 F2500
G1 X311.2067 Y248.5561 Z-20.0000 F4000
G1 X315.9612 Y252.2159 Z-20.0000 F4000
G1 X306.2059 Y264.8979 Z-20.0000 F4000
G1 X309.8657 Y260.1434 Z-20.0000 F4000
G1 X351.0805 Y291.8469 Z-20.0000 F4000
G1 X347.4222 Y296.6026 Z-20.0000 F4000
G1 X357.1791 Y283.9219 Z-20.0000 F4000
G1 X361.9349 Y287.5801 Z-20.0000 F4000
G1 X348.8617 Y277.5122 Z-20.0000 F4000
G1 X335.7784 Y267.4573 Z-20.0000 F4000
G1 X335.7784 Y267.4573 Z10.0000 F9999
G1 X512.5731 Y298.2031 Z10.0000 F9999
G1 X512.5731 Y298.2031 Z1.0000 F2500
G1 X537.1448 Y317.1043 Z-7.3524 F2500
G1 X532.3902 Y313.4444 Z-8.9690 F2500
G1 X533.5918 Y311.8823 Z-9.5000 F2500
G1 X532.3902 Y313.4444 Z-10.0310 F2500
G1 X537.1448 Y317.1043 Z-11.6476 F2500
G1 X512.5731 Y298.2031 Z-20.0000 F2500
G1 X537.1448 Y317.1043 Z-20.0000 F4000
G1 X532.3902 Y313.4444 Z-20.0000 F4000
G1 X542.1455 Y300.7624 Z-20.0000 F4000
G1 X538.4857 Y305.5170 Z-20.0000 F4000
G1 X497.2710 Y273.8135 Z-20.0000 F4000
G1 X500.9292 Y269.0577 Z-20.0000 F4000
G1 X491.1723 Y281.7385 Z-20.0000 F4000
G1 X486.4166 Y278.0802 Z-20.0000 F4000
G1 X499.4898 Y288.1482 Z-20.0000 F4000
G1 X512.5731 Y298.2031 Z-20.0000 F4000
G1 X512.5731 Y298.2031 Z10.0000 F9999
G1 X573.5652 Y450.3704 Z10.0000 F9999
G1 X573.5652 Y450.3704 Z1.0000 F2500
G1 X548.9936 Y431.4692 Z-7.3524 F2500
G1 X553.7481 Y435.1290 Z-8.9690 F2500
G1 X552.5465 Y436.6911 Z-9.5000 F2500
G1 X553.7481 Y435.1290 Z-10.0310 F2500
G1 X548.9936 Y431.4692 Z-11.6476 F2500
G1 X573.5652 Y450.3704 Z-20.0000 F2500
G1 X548.9936 Y431.4692 Z-20.0000 F4000
G1 X553.7481 Y435.1290 Z-20.0000 F4000
G1 X543.9928 Y447.8110 Z-20.0000 F4000
G1 X547.6526 Y443.0565 Z-20.0000 F4000
G1 X588.8673 Y474.7600 Z-20.0000 F4000
G1 X585.2091 Y479.5157 Z-20.0000 F4000
G1 X594.9660 Y466.8350 Z-20.0000 F4000
G1 X599.7218 Y470.4932 Z-20.0000 F4000
G1 X586.6485 Y460.4253 Z-20.0000 F4000
G1 X573.5652 Y450.3704 Z-20.0000 F4000
G1 X573.5652 Y450.3704 Z10.0000 F9999
G1 X750.3599 Y481.1161 Z10.0000 F9999
G1 X750.3599 Y481.1161 Z1.0000 F2500
G1 X774.9316 Y500.0174 Z-7.3524 F2500
G1 X770.1771 Y496.3575 Z-8.9690 F2500
G1 X771.3787 Y494.7954 Z-9.5000 F2500
G1 X770.1771 Y496.3575 Z-10.0310 F2500
G1 X774.9316 Y500.0174 Z-11.6476 F2500
G1 X750.3599 Y481.1161 Z-20.0000 F2500
G1 X774.9316 Y500.0174 Z-20.0000 F4000
G1 X770.1771 Y496.3575 Z-20.0000 F4000
G1 X779.9324 Y483.6755 Z-20.0000 F4000
G1 X776.2726 Y488.4301 Z-20.0000 F4000
G1 X735.0578 Y456.7266 Z-20.0000 F4000
G1 X738.7161 Y451.9708 Z-20.0000 F4000
G1 X728.9592 Y464.6516 Z-20.0000 F4000
G1 X724.2034 Y460.9933 Z-20.0000 F4000
G1 X737.2766 Y471.0613 Z-20.0000 F4000
G1 X750.3599 Y481.1161 Z-20.0000 F4000
G1 X750.3599 Y481.1161 Z10.0000 F9999
G1 X896.3244 Y288.0796 Z10.0000 F9999
G1 X896.3244 Y288.0796 Z1.0000 F2500
G1 X871.7527 Y269.1784 Z-7.3524 F2500
G1 X876.5072 Y272.8382 Z-8.9690 F2500
G1 X875.3056 Y274.4003 Z-9.5000 F2500
G1 X876.5072 Y272.8382 Z-10.0310 F2500
G1 X871.7527 Y269.1784 Z-11.6476 F2500
G1 X896.3244 Y288.0796 Z-20.0000 F2500
G1 X871.7527 Y269.1784 Z-20.0000 F4000
G1 X876.5072 Y272.8382 Z-20.0000 F4000
G1 X866.7519 Y285.5202 Z-20.0000 F4000
G1 X870.4117 Y280.7657 Z-20.0000 F4000
G1 X911.6265 Y312.4692 Z-20.0000 F4000
G1 X907.9682 Y317.2249 Z-20.0000 F4000
G1 X917.7251 Y304.5442 Z-20.0000 F4000
G1 X922.4809 Y308.2024 Z-20.0000 F4000
G1 X909.4077 Y298.1345 Z-20.0000 F4000
G1 X896.3244 Y288.0796 Z-20.0000 F4000
G1 X896.3244 Y288.0796 Z10.0000 F9999
G1 X658.5375 Y105.1665 Z10.0000 F9999
G1 X658.5375 Y105.1665 Z1.0000 F2500
G1 X633.9658 Y86.2653 Z-7.3524 F2500
G1 X638.7204 Y89.9251 Z-8.9690 F2500
G1 X637.5188 Y91.4872 Z-9.5000 F2500
G1 X638.7204 Y89.9251 Z-10.0310 F2500
G1 X633.9658 Y86.2653 Z-11.6476 F2500
G1 X658.5375 Y105.1665 Z-20.0000 F2500
G1 X633.9658 Y86.2653 Z-20.0000 F4000
G1 X638.7204 Y89.9251 Z-20.0000 F4000
G1 X628.9650 Y102.6071 Z-20.0000 F4000
G1 X632.6249 Y97.8526 Z-20.0000 F4000
G1 X673.8396 Y129.5561 Z-20.0000 F4000
G1 X670.1814 Y134.3118 Z-20.0000 F4000
G1 X679.9383 Y121.6311 Z-20.0000 F4000
G1 X684.6940 Y125.2893 Z-20.0000 F4000
G1 X671.6208 Y115.2214 Z-20.0000 F4000
G1 X658.5375 Y105.1665 Z-20.0000 F4000
G1 X658.5375 Y105.1665 Z10.0000 F9999
G1 X427.6008 Y643.4070 Z10.0000 F9999
G1 X427.6008 Y643.4070 Z1.0000 F2500
G1 X452.1725 Y662.3082 Z-7.3524 F2500
G1 X447.4179 Y658.6483 Z-8.9690 F2500
G1 X448.6195 Y657.0862 Z-9.5000 F2500
G1 X447.4179 Y658.6483 Z-10.0310 F2500
G1 X452.1725 Y662.3082 Z-11.6476 F2500
G1 X427.6008 Y643.4070 Z-20.0000 F2500
G1 X452.1725 Y662.3082 Z-20.0000 F4000
G1 X447.4179 Y658.6483 Z-20.0000 F4000
G1 X457.1733 Y645.9663 Z-20.0000 F4000
G1 X453.5134 Y650.7209 Z-20.0000 F4000
G1 X412.2987 Y619.0174 Z-20.0000 F4000
G1 X415.9569 Y614.2616 Z-20.0000 F4000
G1 X406.2000 Y626.9424 Z-20.0000 F4000
G1 X401.4443 Y623.2841 Z-20.0000 F4000
G1 X414.5175 Y633.3521 Z-20.0000 F4000
G1 X427.6008 Y643.4070 Z-20.0000 F4000
G1 X427.6008 Y643.4070 Z10.0000 F9999
G1 X274.8167 Y724.4227 Z10.0000 F9999
G1 X274.8167 Y724.4227 Z1.0000 F2500
G1 X274.8167 Y693.4223 Z-7.3524 F2500
G1 X274.8147 Y699.4223 Z-8.9690 F2500
G1 X272.8439 Y699.4223 Z-9.5000 F2500
G1 X274.8147 Y699.4223 Z-10.0310 F2500
G1 X274.8167 Y693.4223 Z-11.6476 F2500
G1 X274.8167 Y724.4227 Z-20.0000 F2500
G1 X274.8167 Y693.4223 Z-20.0000 F4000
G1 X274.8147 Y699.4223 Z-20.0000 F4000
G1 X258.8147 Y699.4223 Z-20.0000 F4000
G1 X264.8147 Y699.4243 Z-20.0000 F4000
G1 X264.8147 Y751.4221 Z-20.0000 F4000
G1 X258.8147 Y751.4221 Z-20.0000 F4000
G1 X274.8147 Y751.4241 Z-20.0000 F4000
G1 X274.8147 Y757.4241 Z-20.0000 F4000
G1 X274.8240 Y740.9234 Z-20.0000 F4000
G1 X274.8167 Y724.4227 Z-20.0000 F4000
G1 X274.8167 Y724.4227 Z10.0000 F9999
G1 X32.8152 Y726.4237 Z10.0000 F9999
G1 X32.8152 Y726.4237 Z1.0000 F2500
G1 X32.8152 Y757.4241 Z-7.3524 F2500
G1 X32.8172 Y751.4241 Z-8.9690 F2500
G1 X34.7880 Y751.4241 Z-9.5000 F2500
G1 X32.8172 Y751.4241 Z-10.0310 F2500
G1 X32.8152 Y757.4241 Z-11.6476 F2500
G1 X32.8152 Y726.4237 Z-20.0000 F2500
G1 X32.8152 Y757.4241 Z-20.0000 F4000
G1 X32.8172 Y751.4241 Z-20.0000 F4000
G1 X48.8172 Y751.4241 Z-20.0000 F4000
G1 X42.8172 Y751.4221 Z-20.0000 F4000
G1 X42.8172 Y699.4243 Z-20.0000 F4000
G1 X48.8172 Y699.4243 Z-20.0000 F4000
G1 X32.8172 Y699.4223 Z-20.0000 F4000
G1 X32.8172 Y693.4223 Z-20.0000 F4000
G1 X32.8080 Y709.9230 Z-20.0000 F4000
G1 X32.8152 Y726.4237 Z-20.0000 F4000
G1 X32.8152 Y726.4237 Z10.0000 F9999
G1 X32.8152 Y1026.4231 Z10.0000 F9999
G1 X32.8152 Y1026.4231 Z1.0000 F2500
G1 X32.8152 Y1057.4235 Z-7.3524 F2500
G1 X32.8172 Y1051.4235 Z-8.9690 F2500
G1 X34.7880 Y1051.4235 Z-9.5000 F2500
G1 X32.8172 Y1051.4235 Z-10.0310 F2500
G1 X32.8152 Y1057.4235 Z-11.6476 F2500
G1 X32.8152 Y1026.4231 Z-20.0000 F2500
G1 X32.8152 Y1057.4235 Z-20.0000 F4000
G1 X32.8172 Y1051.4235 Z-20.0000 F4000
G1 X48.8172 Y1051.4235 Z-20.0000 F4000
G1 X42.8172 Y1051.4215 Z-20.0000 F4000
G1 X42.8172 Y999.4238 Z-20.0000 F4000
G1 X48.8172 Y999.4238 Z-20.0000 F4000
G1 X32.8172 Y999.4218 Z-20.0000 F4000
G1 X32.8172 Y993.4218 Z-20.0000 F4000
G1 X32.8080 Y1009.9224 Z-20.0000 F4000
G1 X32.8152 Y1026.4231 Z-20.0000 F4000
G1 X32.8152 Y1026.4231 Z10.0000 F9999
G1 X274.8167 Y1024.4221 Z10.0000 F9999
G1 X274.8167 Y1024.4221 Z1.0000 F2500
G1 X274.8167 Y993.4218 Z-7.3524 F2500
G1 X274.8147 Y999.4218 Z-8.9690 F2500
G1 X272.8439 Y999.4218 Z-9.5000 F2500
G1 X274.8147 Y999.4218 Z-10.0310 F2500
G1 X274.8167 Y993.4218 Z-11.6476 F2500
G1 X274.8167 Y1024.4221 Z-20.0000 F2500
G1 X274.8167 Y993.4218 Z-20.0000 F4000
G1 X274.8147 Y999.4218 Z-20.0000 F4000
G1 X258.8147 Y999.4218 Z-20.0000 F4000
G1 X264.8147 Y999.4238 Z-20.0000 F4000
G1 X264.8147 Y1051.4215 Z-20.0000 F4000
G1 X258.8147 Y1051.4215 Z-20.0000 F4000
G1 X274.8147 Y1051.4235 Z-20.0000 F4000
G1 X274.8147 Y1057.4235 Z-20.0000 F4000
G1 X274.8240 Y1040.9228 Z-20.0000 F4000
G1 X274.8167 Y1024.4221 Z-20.0000 F4000
G1 X274.8167 Y1024.4221 Z10.0000 F9999
G1 X617.3692 Y1030.8017 Z10.0000 F9999
G1 X617.3692 Y1030.8017 Z1.0000 F2500
G1 X617.3692 Y1061.8021 Z-7.3524 F2500
G1 X617.3712 Y1055.8021 Z-8.9690 F2500
G1 X619.3420 Y1055.8021 Z-9.5000 F2500
G1 X617.3712 Y1055.8021 Z-10.0310 F2500
G1 X617.3692 Y1061.8021 Z-11.6476 F2500
G1 X617.3692 Y1030.8017 Z-20.0000 F2500
G1 X617.3692 Y1061.8021 Z-20.0000 F4000
G1 X617.3712 Y1055.8021 Z-20.0000 F4000
G1 X633.3712 Y1055.8021 Z-20.0000 F4000
G1 X627.3712 Y1055.8001 Z-20.0000 F4000
G1 X627.3712 Y1003.8024 Z-20.0000 F4000
G1 X633.3712 Y1003.8024 Z-20.0000 F4000
G1 X617.3712 Y1003.8004 Z-20.0000 F4000
G1 X617.3712 Y997.8004 Z-20.0000 F4000
G1 X617.3620 Y1014.3011 Z-20.0000 F4000
G1 X617.3692 Y1030.8017 Z-20.0000 F4000
G1 X617.3692 Y1030.8017 Z10.0000 F9999
G1 X859.3707 Y1028.8007 Z10.0000 F9999
G1 X859.3707 Y1028.8007 Z1.0000 F2500
G1 X859.3707 Y997.8004 Z-7.3524 F2500
G1 X859.3687 Y1003.8004 Z-8.9690 F2500
G1 X857.3980 Y1003.8004 Z-9.5000 F2500
G1 X859.3687 Y1003.8004 Z-10.0310 F2500
G1 X859.3707 Y997.8004 Z-11.6476 F2500
G1 X859.3707 Y1028.8007 Z-20.0000 F2500
G1 X859.3707 Y997.8004 Z-20.0000 F4000
G1 X859.3687 Y1003.8004 Z-20.0000 F4000
G1 X843.3688 Y1003.8004 Z-20.0000 F4000
G1 X849.3688 Y1003.8024 Z-20.0000 F4000
G1 X849.3688 Y1055.8001 Z-20.0000 F4000
G1 X843.3688 Y1055.8001 Z-20.0000 F4000
G1 X859.3687 Y1055.8021 Z-20.0000 F4000
G1 X859.3687 Y1061.8021 Z-20.0000 F4000
G1 X859.3780 Y1045.3014 Z-20.0000 F4000
G1 X859.3707 Y1028.8007 Z-20.0000 F4000
G1 X859.3707 Y1028.8007 Z10.0000 F9999
G1 X940.1284 Y1168.5104 Z10.0000 F9999
G1 X940.1284 Y1168.5104 Z1.0000 F2500
G1 X940.1284 Y1199.5108 Z-7.3524 F2500
G1 X940.1304 Y1193.5108 Z-8.9690 F2500
G1 X942.1011 Y1193.5108 Z-9.5000 F2500
G1 X940.1304 Y1193.5108 Z-10.0310 F2500
G1 X940.1284 Y1199.5108 Z-11.6476 F2500
G1 X940.1284 Y1168.5104 Z-20.0000 F2500
G1 X940.1284 Y1199.5108 Z-20.0000 F4000
G1 X940.1304 Y1193.5108 Z-20.0000 F4000
G1 X956.1303 Y1193.5108 Z-20.0000 F4000
G1 X950.1303 Y1193.5088 Z-20.0000 F4000
G1 X950.1303 Y1141.5110 Z-20.0000 F4000
G1 X956.1303 Y1141.5110 Z-20.0000 F4000
G1 X940.1304 Y1141.5090 Z-20.0000 F4000
G1 X940.1304 Y1135.5090 Z-20.0000 F4000
G1 X940.1211 Y1152.0097 Z-20.0000 F4000
G1 X940.1284 Y1168.5104 Z-20.0000 F4000
G1 X940.1284 Y1168.5104 Z10.0000 F9999
G1 X859.3707 Y1328.8002 Z10.0000 F9999
G1 X859.3707 Y1328.8002 Z1.0000 F2500
G1 X859.3707 Y1297.7998 Z-7.3524 F2500
G1 X859.3687 Y1303.7998 Z-8.9690 F2500
G1 X857.3980 Y1303.7998 Z-9.5000 F2500
G1 X859.3687 Y1303.7998 Z-10.0310 F2500
G1 X859.3707 Y1297.7998 Z-11.6476 F2500
G1 X859.3707 Y1328.8002 Z-20.0000 F2500
G1 X859.3707 Y1297.7998 Z-20.0000 F4000
G1 X859.3687 Y1303.7998 Z-20.0000 F4000
G1 X843.3688 Y1303.7998 Z-20.0000 F4000
G1 X849.3688 Y1303.8018 Z-20.0000 F4000
G1 X849.3688 Y1355.7996 Z-20.0000 F4000
G1 X843.3688 Y1355.7996 Z-20.0000 F4000
G1 X859.3687 Y1355.8016 Z-20.0000 F4000
G1 X859.3687 Y1361.8016 Z-20.0000 F4000
G1 X859.3780 Y1345.3009 Z-20.0000 F4000
G1 X859.3707 Y1328.8002 Z-20.0000 F4000
G1 X859.3707 Y1328.8002 Z10.0000 F9999
G1 X617.3692 Y1330.8012 Z10.0000 F9999
G1 X617.3692 Y1330.8012 Z1.0000 F2500
G1 X617.3692 Y1361.8016 Z-7.3524 F2500
G1 X617.3712 Y1355.8016 Z-8.9690 F2500
G1 X619.3420 Y1355.8016 Z-9.5000 F2500
G1 X617.3712 Y1355.8016 Z-10.0310 F2500
G1 X617.3692 Y1361.8016 Z-11.6476 F2500
G1 X617.3692 Y1330.8012 Z-20.0000 F2500
G1 X617.3692 Y1361.8016 Z-20.0000 F4000
G1 X617.3712 Y1355.8016 Z-20.0000 F4000
G1 X633.3712 Y1355.8016 Z-20.0000 F4000
G1 X627.3712 Y1355.7996 Z-20.0000 F4000
G1 X627.3712 Y1303.8018 Z-20.0000 F4000
G1 X633.3712 Y1303.8018 Z-20.0000 F4000
G1 X617.3712 Y1303.7998 Z-20.0000 F4000
G1 X617.3712 Y1297.7998 Z-20.0000 F4000
G1 X617.3620 Y1314.3005 Z-20.0000 F4000
G1 X617.3692 Y1330.8012 Z-20.0000 F4000
G1 X617.3692 Y1330.8012 Z10.0000 F9999
G1 X464.5851 Y1411.8169 Z10.0000 F9999
G1 X464.5851 Y1411.8169 Z1.0000 F2500
G1 X440.0134 Y1392.9157 Z-7.3524 F2500
G1 X444.7680 Y1396.5755 Z-8.9690 F2500
G1 X443.5664 Y1398.1376 Z-9.5000 F2500
G1 X444.7680 Y1396.5755 Z-10.0310 F2500
G1 X440.0134 Y1392.9157 Z-11.6476 F2500
G1 X464.5851 Y1411.8169 Z-20.0000 F2500
G1 X440.0134 Y1392.9157 Z-20.0000 F4000
G1 X444.7680 Y1396.5755 Z-20.0000 F4000
G1 X435.0127 Y1409.2575 Z-20.0000 F4000
G1 X438.6725 Y1404.5030 Z-20.0000 F4000
G1 X479.8872 Y1436.2065 Z-20.0000 F4000
G1 X476.2290 Y1440.9622 Z-20.0000 F4000
G1 X485.9859 Y1428.2815 Z-20.0000 F4000
G1 X490.7416 Y1431.9397 Z-20.0000 F4000
G1 X477.6684 Y1421.8718 Z-20.0000 F4000
G1 X464.5851 Y1411.8169 Z-20.0000 F4000
G1 X464.5851 Y1411.8169 Z10.0000 F9999
G1 X318.6207 Y1604.8535 Z10.0000 F9999
G1 X318.6207 Y1604.8535 Z1.0000 F2500
G1 X343.1924 Y1623.7547 Z-7.3524 F2500
G1 X338.4378 Y1620.0948 Z-8.9690 F2500
G1 X339.6394 Y1618.5328 Z-9.5000 F2500
G1 X338.4378 Y1620.0948 Z-10.0310 F2500
G1 X343.1924 Y1623.7547 Z-11.6476 F2500
G1 X318.6207 Y1604.8535 Z-20.0000 F2500
G1 X343.1924 Y1623.7547 Z-20.0000 F4000
G1 X338.4378 Y1620.0948 Z-20.0000 F4000
G1 X348.1932 Y1607.4129 Z-20.0000 F4000
G1 X344.5333 Y1612.1674 Z-20.0000 F4000
G1 X303.3186 Y1580.4639 Z-20.0000 F4000
G1 X306.9768 Y1575.7081 Z-20.0000 F4000
G1 X297.2199 Y1588.3889 Z-20.0000 F4000
G1 X292.4642 Y1584.7307 Z-20.0000 F4000
G1 X305.5374 Y1594.7986 Z-20.0000 F4000
G1 X318.6207 Y1604.8535 Z-20.0000 F4000
G1 X318.6207 Y1604.8535 Z10.0000 F9999
G1 X556.4075 Y1787.7666 Z10.0000 F9999
G1 X556.4075 Y1787.7666 Z1.0000 F2500
G1 X580.9792 Y1806.6678 Z-7.3524 F2500
G1 X576.2247 Y1803.0079 Z-8.9690 F2500
G1 X577.4263 Y1801.4459 Z-9.5000 F2500
G1 X576.2247 Y1803.0079 Z-10.0310 F2500
G1 X580.9792 Y1806.6678 Z-11.6476 F2500
G1 X556.4075 Y1787.7666 Z-20.0000 F2500
G1 X580.9792 Y1806.6678 Z-20.0000 F4000
G1 X576.2247 Y1803.0079 Z-20.0000 F4000
G1 X585.9800 Y1790.3260 Z-20.0000 F4000
G1 X582.3202 Y1795.0805 Z-20.0000 F4000
G1 X541.1054 Y1763.3770 Z-20.0000 F4000
G1 X544.7637 Y1758.6212 Z-20.0000 F4000
G1 X535.0068 Y1771.3020 Z-20.0000 F4000
G1 X530.2510 Y1767.6437 Z-20.0000 F4000
G1 X543.3243 Y1777.7117 Z-20.0000 F4000
G1 X556.4075 Y1787.7666 Z-20.0000 F4000
G1 X556.4075 Y1787.7666 Z10.0000 F9999
G1 X702.3720 Y1594.7300 Z10.0000 F9999
G1 X702.3720 Y1594.7300 Z1.0000 F2500
G1 X677.8003 Y1575.8288 Z-7.3524 F2500
G1 X682.5548 Y1579.4886 Z-8.9690 F2500
G1 X681.3533 Y1581.0507 Z-9.5000 F2500
G1 X682.5548 Y1579.4886 Z-10.0310 F2500
G1 X677.8003 Y1575.8288 Z-11.6476 F2500
G1 X702.3720 Y1594.7300 Z-20.0000 F2500
G1 X677.8003 Y1575.8288 Z-20.0000 F4000
G1 X682.5548 Y1579.4886 Z-20.0000 F4000
G1 X672.7995 Y1592.1706 Z-20.0000 F4000
G1 X676.4594 Y1587.4161 Z-20.0000 F4000
G1 X717.6741 Y1619.1196 Z-20.0000 F4000
G1 X714.0158 Y1623.8753 Z-20.0000 F4000
G1 X723.7728 Y1611.1946 Z-20.0000 F4000
G1 X728.5285 Y1614.8528 Z-20.0000 F4000
G1 X715.4553 Y1604.7849 Z-20.0000 F4000
G1 X702.3720 Y1594.7300 Z-20.0000 F4000
G1 X702.3720 Y1594.7300 Z10.0000 F9999
G1 X1182.1299 Y1166.5094 Z10.0000 F9999
G1 X1182.1299 Y1166.5094 Z1.0000 F2500
G1 X1182.1299 Y1135.5090 Z-7.3524 F2500
G1 X1182.1279 Y1141.5090 Z-8.9690 F2500
G1 X1180.1571 Y1141.5090 Z-9.5000 F2500
G1 X1182.1279 Y1141.5090 Z-10.0310 F2500
G1 X1182.1299 Y1135.5090 Z-11.6476 F2500
G1 X1182.1299 Y1166.5094 Z-20.0000 F2500
G1 X1182.1299 Y1135.5090 Z-20.0000 F4000
G1 X1182.1279 Y1141.5090 Z-20.0000 F4000
G1 X1166.1279 Y1141.5090 Z-20.0000 F4000
G1 X1172.1279 Y1141.5110 Z-20.0000 F4000
G1 X1172.1279 Y1193.5088 Z-20.0000 F4000
G1 X1166.1279 Y1193.5088 Z-20.0000 F4000
G1 X1182.1279 Y1193.5108 Z-20.0000 F4000
G1 X1182.1279 Y1199.5108 Z-20.0000 F4000
G1 X1182.1371 Y1183.0101 Z-20.0000 F4000
G1 X1182.1299 Y1166.5094 Z-20.0000 F4000
G1 X1182.1299 Y1166.5094 Z10.0000 F9999
G1 X1182.1299 Y866.5099 Z10.0000 F9999
G1 X1182.1299 Y866.5099 Z1.0000 F2500
G1 X1182.1299 Y835.5096 Z-7.3524 F2500
G1 X1182.1279 Y841.5096 Z-8.9690 F2500
G1 X1180.1571 Y841.5096 Z-9.5000 F2500
G1 X1182.1279 Y841.5096 Z-10.0310 F2500
G1 X1182.1299 Y835.5096 Z-11.6476 F2500
G1 X1182.1299 Y866.5099 Z-20.0000 F2500
G1 X1182.1299 Y835.5096 Z-20.0000 F4000
G1 X1182.1279 Y841.5096 Z-20.0000 F4000
G1 X1166.1279 Y841.5096 Z-20.0000 F4000
G1 X1172.1279 Y841.5116 Z-20.0000 F4000
G1 X1172.1279 Y893.5093 Z-20.0000 F4000
G1 X1166.1279 Y893.5093 Z-20.0000 F4000
G1 X1182.1279 Y893.5113 Z-20.0000 F4000
G1 X1182.1279 Y899.5113 Z-20.0000 F4000
G1 X1182.1371 Y883.0106 Z-20.0000 F4000
G1 X1182.1299 Y866.5099 Z-20.0000 F4000
G1 X1182.1299 Y866.5099 Z10.0000 F9999
G1 X940.1284 Y868.5109 Z10.0000 F9999
G1 X940.1284 Y868.5109 Z1.0000 F2500
G1 X940.1284 Y899.5113 Z-7.3524 F2500
G1 X940.1304 Y893.5113 Z-8.9690 F2500
G1 X942.1011 Y893.5113 Z-9.5000 F2500
G1 X940.1304 Y893.5113 Z-10.0310 F2500
G1 X940.1284 Y899.5113 Z-11.6476 F2500
G1 X940.1284 Y868.5109 Z-20.0000 F2500
G1 X940.1284 Y899.5113 Z-20.0000 F4000
G1 X940.1304 Y893.5113 Z-20.0000 F4000
G1 X956.1303 Y893.5113 Z-20.0000 F4000
G1 X950.1303 Y893.5093 Z-20.0000 F4000
G1 X950.1303 Y841.5116 Z-20.0000 F4000
G1 X956.1303 Y841.5116 Z-20.0000 F4000
G1 X940.1304 Y841.5096 Z-20.0000 F4000
G1 X940.1304 Y835.5096 Z-20.0000 F4000
G1 X940.1211 Y852.0102 Z-20.0000 F4000
G1 X940.1284 Y868.5109 Z-20.0000 F4000
G1 X940.1284 Y868.5109 Z10.0000 F9999
G1 X189.8139 Y460.4939 Z10.0000 F9999
G1 X189.8139 Y460.4939 Z1.0000 F2500
G1 X214.3856 Y479.3951 Z-7.3524 F2500
G1 X209.6311 Y475.7352 Z-8.9690 F2500
G1 X210.8327 Y474.1732 Z-9.5000 F2500
G1 X209.6311 Y475.7352 Z-10.0310 F2500
G1 X214.3856 Y479.3951 Z-11.6476 F2500
G1 X189.8139 Y460.4939 Z-20.0000 F2500
G1 X214.3856 Y479.3951 Z-20.0000 F4000
G1 X209.6311 Y475.7352 Z-20.0000 F4000
G1 X219.3864 Y463.0533 Z-20.0000 F4000
G1 X215.7266 Y467.8078 Z-20.0000 F4000
G1 X174.5118 Y436.1043 Z-20.0000 F4000
G1 X178.1701 Y431.3485 Z-20.0000 F4000
G1 X168.4132 Y444.0293 Z-20.0000 F4000
G1 X163.6574 Y440.3710 Z-20.0000 F4000
G1 X176.7306 Y450.4390 Z-20.0000 F4000
G1 X189.8139 Y460.4939 Z-20.0000 F4000
G1 X189.8139 Y460.4939 Z10.0000 F9999
(Tool Number:1) (7.998 mm dia. slot drill)
M3 S9000
G1 X761.3479 Y584.7275 Z10.0000 F9999
G1 X761.3479 Y584.7275 Z1.0000 F2500
G1 X792.2373 Y608.4888 Z-9.5000 F2500
G1 X761.3479 Y584.7275 Z-20.0000 F2500
G1 X867.3687 Y666.2825 Z-20.0000 F4000
G1 X867.3687 Y933.8004 Z-20.0000 F4000
G1 X862.3685 Y933.8004 Z-20.0000 F4000
G1 X862.3685 Y935.8024 Z-20.0000 F4000
G1 X885.3685 Y935.8024 Z-20.0000 F4000
G1 X885.3685 Y1123.8001 Z-20.0000 F4000
G1 X862.3685 Y1123.8001 Z-20.0000 F4000
G1 X862.3685 Y1125.8021 Z-20.0000 F4000
G1 X867.3687 Y1125.8021 Z-20.0000 F4000
G1 X867.3687 Y1233.7998 Z-20.0000 F4000
G1 X862.3685 Y1233.7998 Z-20.0000 F4000
G1 X862.3685 Y1235.8018 Z-20.0000 F4000
G1 X885.3685 Y1235.8018 Z-20.0000 F4000
G1 X885.3685 Y1423.7994 Z-20.0000 F4000
G1 X862.3685 Y1423.7994 Z-20.0000 F4000
G1 X862.3685 Y1425.8014 Z-20.0000 F4000
G1 X867.3687 Y1425.8014 Z-20.0000 F4000
G1 X867.3687 Y1483.7994 Z-20.0000 F4000
G1 X609.3712 Y1483.7994 Z-20.0000 F4000
G1 X609.3712 Y1425.8014 Z-20.0000 F4000
G1 X614.3711 Y1425.8014 Z-20.0000 F4000
G1 X614.3711 Y1423.7994 Z-20.0000 F4000
G1 X591.3711 Y1423.7994 Z-20.0000 F4000
G1 X591.3711 Y1235.8018 Z-20.0000 F4000
G1 X614.3711 Y1235.8018 Z-20.0000 F4000
G1 X614.3711 Y1233.7998 Z-20.0000 F4000
G1 X609.3712 Y1233.7998 Z-20.0000 F4000
G1 X609.3712 Y1125.8021 Z-20.0000 F4000
G1 X614.3711 Y1125.8021 Z-20.0000 F4000
G1 X614.3711 Y1123.8001 Z-20.0000 F4000
G1 X591.3711 Y1123.8001 Z-20.0000 F4000
G1 X591.3711 Y935.8024 Z-20.0000 F4000
G1 X614.3711 Y935.8024 Z-20.0000 F4000
G1 X614.3711 Y933.8004 Z-20.0000 F4000
G1 X609.3712 Y933.8004 Z-20.0000 F4000
G1 X609.3712 Y805.3529 Z-20.0000 F4000
G1 X652.3690 Y805.3529 Z-20.0000 F4000
G1 X652.3690 Y810.3529 Z-20.0000 F4000
G1 X654.3710 Y810.3529 Z-20.0000 F4000
G1 X654.3710 Y790.3509 Z-20.0000 F4000
G1 X652.3690 Y790.3509 Z-20.0000 F4000
G1 X652.3690 Y795.3509 Z-20.0000 F4000
G1 X612.0101 Y795.3509 Z-20.0000 F4000
G1 X498.0240 Y707.6692 Z-20.0000 F4000
G1 X501.0723 Y703.7061 Z-20.0000 F4000
G1 X499.4856 Y702.4856 Z-20.0000 F4000
G1 X485.4623 Y720.7157 Z-20.0000 F4000
G1 X336.4509 Y606.0917 Z-20.0000 F4000
G1 X350.4743 Y587.8611 Z-20.0000 F4000
G1 X348.8877 Y586.6403 Z-20.0000 F4000
G1 X345.8395 Y590.6050 Z-20.0000 F4000
G1 X260.2369 Y524.7550 Z-20.0000 F4000
G1 X263.2851 Y520.7930 Z-20.0000 F4000
G1 X261.6989 Y519.5730 Z-20.0000 F4000
G1 X247.6753 Y537.8028 Z-20.0000 F4000
G1 X98.6638 Y423.1780 Z-20.0000 F4000
G1 X112.6872 Y404.9488 Z-20.0000 F4000
G1 X111.1005 Y403.7286 Z-20.0000 F4000
G1 X108.0518 Y407.6910 Z-20.0000 F4000
G1 X62.0816 Y372.3297 Z-20.0000 F4000
G1 X219.3856 Y167.8348 Z-20.0000 F4000
G1 X265.3565 Y203.1967 Z-20.0000 F4000
G1 X262.3074 Y207.1595 Z-20.0000 F4000
G1 X263.8943 Y208.3804 Z-20.0000 F4000
G1 X277.9174 Y190.1486 Z-20.0000 F4000
G1 X426.9290 Y304.7736 Z-20.0000 F4000
G1 X412.9054 Y323.0035 Z-20.0000 F4000
G1 X414.4920 Y324.2244 Z-20.0000 F4000
G1 X417.5402 Y320.2597 Z-20.0000 F4000
G1 X503.1428 Y386.1097 Z-20.0000 F4000
G1 X500.0945 Y390.0718 Z-20.0000 F4000
G1 X501.6806 Y391.2917 Z-20.0000 F4000
G1 X515.7044 Y373.0619 Z-20.0000 F4000
G1 X664.7158 Y487.6867 Z-20.0000 F4000
G1 X650.6921 Y505.9165 Z-20.0000 F4000
G1 X652.2787 Y507.1374 Z-20.0000 F4000
G1 X655.3272 Y503.1726 Z-20.0000 F4000
G1 X761.3479 Y584.7275 Z-20.0000 F4000
G1 X761.3479 Y584.7275 Z10.0000 F9999
G1 X1084.1071 Y422.4367 Z10.0000 F9999
G1 X1084.1071 Y422.4367 Z1.0000 F2500
G1 X1114.9965 Y446.1979 Z-9.5000 F2500
G1 X1084.1071 Y422.4367 Z-20.0000 F2500
G1 X1190.1279 Y503.9916 Z-20.0000 F4000
G1 X1190.1279 Y771.5096 Z-20.0000 F4000
G1 X1185.1276 Y771.5096 Z-20.0000 F4000
G1 X1185.1276 Y773.5116 Z-20.0000 F4000
G1 X1208.1276 Y773.5116 Z-20.0000 F4000
G1 X1208.1276 Y961.5093 Z-20.0000 F4000
G1 X1185.1276 Y961.5093 Z-20.0000 F4000
G1 X1185.1276 Y963.5113 Z-20.0000 F4000
G1 X1190.1279 Y963.5113 Z-20.0000 F4000
G1 X1190.1279 Y1071.5089 Z-20.0000 F4000
G1 X1185.1276 Y1071.5089 Z-20.0000 F4000
G1 X1185.1276 Y1073.5109 Z-20.0000 F4000
G1 X1208.1276 Y1073.5109 Z-20.0000 F4000
G1 X1208.1276 Y1261.5086 Z-20.0000 F4000
G1 X1185.1276 Y1261.5086 Z-20.0000 F4000
G1 X1185.1276 Y1263.5106 Z-20.0000 F4000
G1 X1190.1279 Y1263.5106 Z-20.0000 F4000
G1 X1190.1279 Y1321.5086 Z-20.0000 F4000
G1 X932.1304 Y1321.5086 Z-20.0000 F4000
G1 X932.1304 Y1263.5106 Z-20.0000 F4000
G1 X937.1302 Y1263.5106 Z-20.0000 F4000
G1 X937.1302 Y1261.5086 Z-20.0000 F4000
G1 X914.1302 Y1261.5086 Z-20.0000 F4000
G1 X914.1302 Y1073.5109 Z-20.0000 F4000
G1 X937.1302 Y1073.5109 Z-20.0000 F4000
G1 X937.1302 Y1071.5089 Z-20.0000 F4000
G1 X932.1304 Y1071.5089 Z-20.0000 F4000
G1 X932.1304 Y963.5113 Z-20.0000 F4000
G1 X937.1302 Y963.5113 Z-20.0000 F4000
G1 X937.1302 Y961.5093 Z-20.0000 F4000
G1 X914.1302 Y961.5093 Z-20.0000 F4000
G1 X914.1302 Y773.5116 Z-20.0000 F4000
G1 X937.1302 Y773.5116 Z-20.0000 F4000
G1 X937.1302 Y771.5096 Z-20.0000 F4000
G1 X932.1304 Y771.5096 Z-20.0000 F4000
G1 X932.1304 Y643.0621 Z-20.0000 F4000
G1 X975.1281 Y643.0621 Z-20.0000 F4000
G1 X975.1281 Y648.0621 Z-20.0000 F4000
G1 X977.1301 Y648.0621 Z-20.0000 F4000
G1 X977.1301 Y628.0601 Z-20.0000 F4000
G1 X975.1281 Y628.0601 Z-20.0000 F4000
G1 X975.1281 Y633.0601 Z-20.0000 F4000
G1 X934.7692 Y633.0601 Z-20.0000 F4000
G1 X820.7831 Y545.3783 Z-20.0000 F4000
G1 X823.8314 Y541.4153 Z-20.0000 F4000
G1 X822.2448 Y540.1948 Z-20.0000 F4000
G1 X808.2214 Y558.4249 Z-20.0000 F4000
G1 X659.2100 Y443.8009 Z-20.0000 F4000
G1 X673.2334 Y425.5703 Z-20.0000 F4000
G1 X671.6468 Y424.3495 Z-20.0000 F4000
G1 X668.5987 Y428.3142 Z-20.0000 F4000
G1 X582.9961 Y362.4642 Z-20.0000 F4000
G1 X586.0443 Y358.5022 Z-20.0000 F4000
G1 X584.4580 Y357.2822 Z-20.0000 F4000
G1 X570.4345 Y375.5120 Z-20.0000 F4000
G1 X421.4229 Y260.8872 Z-20.0000 F4000
G1 X435.4464 Y242.6580 Z-20.0000 F4000
G1 X433.8596 Y241.4377 Z-20.0000 F4000
G1 X430.8110 Y245.4002 Z-20.0000 F4000
G1 X384.8407 Y210.0389 Z-20.0000 F4000
G1 X542.1447 Y5.5440 Z-20.0000 F4000
G1 X588.1157 Y40.9059 Z-20.0000 F4000
G1 X585.0665 Y44.8686 Z-20.0000 F4000
G1 X586.6534 Y46.0896 Z-20.0000 F4000
G1 X600.6766 Y27.8578 Z-20.0000 F4000
G1 X749.6882 Y142.4828 Z-20.0000 F4000
G1 X735.6645 Y160.7127 Z-20.0000 F4000
G1 X737.2512 Y161.9335 Z-20.0000 F4000
G1 X740.2993 Y157.9688 Z-20.0000 F4000
G1 X825.9019 Y223.8189 Z-20.0000 F4000
G1 X822.8537 Y227.7810 Z-20.0000 F4000
G1 X824.4398 Y229.0008 Z-20.0000 F4000
G1 X838.4635 Y210.7711 Z-20.0000 F4000
G1 X987.4749 Y325.3959 Z-20.0000 F4000
G1 X973.4512 Y343.6257 Z-20.0000 F4000
G1 X975.0379 Y344.8465 Z-20.0000 F4000
G1 X978.0863 Y340.8818 Z-20.0000 F4000
G1 X1084.1071 Y422.4367 Z-20.0000 F4000
G1 X1084.1071 Y422.4367 Z10.0000 F9999
G1 X130.8380 Y1470.4963 Z10.0000 F9999
G1 X130.8380 Y1470.4963 Z1.0000 F2500
G1 X99.9486 Y1446.7351 Z-9.5000 F2500
G1 X130.8380 Y1470.4963 Z-20.0000 F2500
G1 X24.8172 Y1388.9414 Z-20.0000 F4000
G1 X24.8172 Y1121.4235 Z-20.0000 F4000
G1 X29.8174 Y1121.4235 Z-20.0000 F4000
G1 X29.8174 Y1119.4215 Z-20.0000 F4000
G1 X6.8174 Y1119.4215 Z-20.0000 F4000
G1 X6.8174 Y931.4238 Z-20.0000 F4000
G1 X29.8174 Y931.4238 Z-20.0000 F4000
G1 X29.8174 Y929.4218 Z-20.0000 F4000
G1 X24.8172 Y929.4218 Z-20.0000 F4000
G1 X24.8172 Y821.4241 Z-20.0000 F4000
G1 X29.8174 Y821.4241 Z-20.0000 F4000
G1 X29.8174 Y819.4221 Z-20.0000 F4000
G1 X6.8174 Y819.4221 Z-20.0000 F4000
G1 X6.8174 Y631.4245 Z-20.0000 F4000
G1 X29.8174 Y631.4245 Z-20.0000 F4000
G1 X29.8174 Y629.4225 Z-20.0000 F4000
G1 X24.8172 Y629.4225 Z-20.0000 F4000
G1 X24.8172 Y571.4245 Z-20.0000 F4000
G1 X282.8147 Y571.4245 Z-20.0000 F4000
G1 X282.8147 Y629.4225 Z-20.0000 F4000
G1 X277.8148 Y629.4225 Z-20.0000 F4000
G1 X277.8148 Y631.4245 Z-20.0000 F4000
G1 X300.8148 Y631.4245 Z-20.0000 F4000
G1 X300.8148 Y819.4221 Z-20.0000 F4000
G1 X277.8148 Y819.4221 Z-20.0000 F4000
G1 X277.8148 Y821.4241 Z-20.0000 F4000
G1 X282.8147 Y821.4241 Z-20.0000 F4000
G1 X282.8147 Y929.4218 Z-20.0000 F4000
G1 X277.8148 Y929.4218 Z-20.0000 F4000
G1 X277.8148 Y931.4238 Z-20.0000 F4000
G1 X300.8148 Y931.4238 Z-20.0000 F4000
G1 X300.8148 Y1119.4215 Z-20.0000 F4000
G1 X277.8148 Y1119.4215 Z-20.0000 F4000
G1 X277.8148 Y1121.4235 Z-20.0000 F4000
G1 X282.8147 Y1121.4235 Z-20.0000 F4000
G1 X282.8147 Y1249.8710 Z-20.0000 F4000
G1 X239.8170 Y1249.8710 Z-20.0000 F4000
G1 X239.8170 Y1244.8710 Z-20.0000 F4000
G1 X237.8150 Y1244.8710 Z-20.0000 F4000
G1 X237.8150 Y1264.8730 Z-20.0000 F4000
G1 X239.8170 Y1264.8730 Z-20.0000 F4000
G1 X239.8170 Y1259.8730 Z-20.0000 F4000
G1 X280.1759 Y1259.8730 Z-20.0000 F4000
G1 X394.1619 Y1347.5547 Z-20.0000 F4000
G1 X391.1136 Y1351.5178 Z-20.0000 F4000
G1 X392.7003 Y1352.7382 Z-20.0000 F4000
G1 X406.7237 Y1334.5082 Z-20.0000 F4000
G1 X555.7350 Y1449.1322 Z-20.0000 F4000
G1 X541.7116 Y1467.3628 Z-20.0000 F4000
G1 X543.2982 Y1468.5836 Z-20.0000 F4000
G1 X546.3464 Y1464.6188 Z-20.0000 F4000
G1 X631.9490 Y1530.4688 Z-20.0000 F4000
G1 X628.9008 Y1534.4309 Z-20.0000 F4000
G1 X630.4870 Y1535.6509 Z-20.0000 F4000
G1 X644.5106 Y1517.4211 Z-20.0000 F4000
G1 X793.5221 Y1632.0459 Z-20.0000 F4000
G1 X779.4987 Y1650.2750 Z-20.0000 F4000
G1 X781.0854 Y1651.4953 Z-20.0000 F4000
G1 X784.1341 Y1647.5329 Z-20.0000 F4000
G1 X830.1043 Y1682.8941 Z-20.0000 F4000
G1 X672.8004 Y1887.3891 Z-20.0000 F4000
G1 X626.8294 Y1852.0272 Z-20.0000 F4000
G1 X629.8785 Y1848.0644 Z-20.0000 F4000
G1 X628.2917 Y1846.8434 Z-20.0000 F4000
G1 X614.2685 Y1865.0752 Z-20.0000 F4000
G1 X465.2569 Y1750.4503 Z-20.0000 F4000
G1 X479.2806 Y1732.2204 Z-20.0000 F4000
G1 X477.6939 Y1730.9995 Z-20.0000 F4000
G1 X474.6457 Y1734.9642 Z-20.0000 F4000
G1 X389.0431 Y1669.1142 Z-20.0000 F4000
G1 X392.0914 Y1665.1521 Z-20.0000 F4000
G1 X390.5053 Y1663.9322 Z-20.0000 F4000
G1 X376.4815 Y1682.1620 Z-20.0000 F4000
G1 X227.4701 Y1567.5372 Z-20.0000 F4000
G1 X241.4939 Y1549.3073 Z-20.0000 F4000
G1 X239.9072 Y1548.0865 Z-20.0000 F4000
G1 X236.8588 Y1552.0512 Z-20.0000 F4000
G1 X130.8380 Y1470.4963 Z-20.0000 F4000
G1 X130.8380 Y1470.4963 Z10.0000 F9999
G1 X1900.0000 Y2800.0000 Z80.0000 F9999
G1 Z80.0000 F9999
G1 X1900.0000 Y2800.0000 F9999
M5
M30
