(plotsheet 2n3_nested_153 sheets_final v1_0_sheet 86 to 87_S86.1_text_CC9.53 - PCD - stepover 1mm)
(Material Size) (X=1220.000, Y=2440.000, Z=21.000)
(LinuxCNC_NoArcs_MM_TC_medium_50um_G1_verbose.con)
G90 G80 G21 G49
G64 P0.050
M6 T1
(Tool Number:1) (9.530 mm dia. slot drill)
G43 H1 G0Z80.0000
M3 S17444
G04 P10
G1 X577.0548 Y397.1266 Z10.0000 F9999
G1 X577.0548 Y397.1266 Z-0.9000 F2500
G1 X581.0181 Y396.3743 Z-0.9000 F4000
G1 X584.2475 Y394.2825 Z-0.9000 F4000
G1 X586.4493 Y391.2183 Z-0.9000 F4000
G1 X587.2566 Y387.4385 Z-0.9000 F4000
G1 X586.4493 Y383.6403 Z-0.9000 F4000
G1 X584.2475 Y380.5394 Z-0.9000 F4000
G1 X581.0181 Y378.4477 Z-0.9000 F4000
G1 X577.0548 Y377.6954 Z-0.9000 F4000
G1 X573.1098 Y378.4477 Z-0.9000 F4000
G1 X569.8805 Y380.5394 Z-0.9000 F4000
G1 X567.6787 Y383.6403 Z-0.9000 F4000
G1 X566.8530 Y387.4385 Z-0.9000 F4000
G1 X567.6787 Y391.2183 Z-0.9000 F4000
G1 X569.8805 Y394.2825 Z-0.9000 F4000
G1 X573.1098 Y396.3743 Z-0.9000 F4000
G1 X577.0548 Y397.1266 Z-0.9000 F4000
G1 X581.0181 Y396.3743 Z-0.9000 F4000
G1 X584.2475 Y394.2825 Z-0.9000 F4000
G1 X586.4493 Y391.2183 Z-0.9000 F4000
G1 X587.2566 Y387.4385 Z-0.9000 F4000
G1 X586.4493 Y383.6403 Z-0.9000 F4000
G1 X584.2475 Y380.5394 Z-0.9000 F4000
G1 X581.0181 Y378.4477 Z-0.9000 F4000
G1 X577.0548 Y377.6954 Z-0.9000 F4000
G1 X573.1098 Y378.4477 Z-0.9000 F4000
G1 X569.8805 Y380.5394 Z-0.9000 F4000
G1 X567.6787 Y383.6403 Z-0.9000 F4000
G1 X566.8530 Y387.4385 Z-0.9000 F4000
G1 X567.6787 Y391.2183 Z-0.9000 F4000
G1 X569.8805 Y394.2825 Z-0.9000 F4000
G1 X573.1098 Y396.3743 Z-0.9000 F4000
G1 X577.0548 Y397.1266 Z-0.9000 F4000
G1 X577.0548 Y397.1266 Z10.0000 F9999
G1 X577.0548 Y418.7963 Z10.0000 F9999
G1 X577.0548 Y418.7963 Z-0.9000 F2500
G1 X581.5135 Y417.9523 Z-0.9000 F4000
G1 X585.1649 Y415.6220 Z-0.9000 F4000
G1 X587.6603 Y412.1541 Z-0.9000 F4000
G1 X588.5594 Y407.9706 Z-0.9000 F4000
G1 X587.6603 Y403.8055 Z-0.9000 F4000
G1 X585.1649 Y400.3743 Z-0.9000 F4000
G1 X581.5135 Y398.0257 Z-0.9000 F4000
G1 X577.0548 Y397.1449 Z-0.9000 F4000
G1 X572.5777 Y398.0257 Z-0.9000 F4000
G1 X568.8897 Y400.3743 Z-0.9000 F4000
G1 X566.4126 Y403.8055 Z-0.9000 F4000
G1 X565.4952 Y407.9706 Z-0.9000 F4000
G1 X566.4126 Y412.1541 Z-0.9000 F4000
G1 X568.8897 Y415.6220 Z-0.9000 F4000
G1 X572.5777 Y417.9523 Z-0.9000 F4000
G1 X577.0548 Y418.7963 Z-0.9000 F4000
G1 X581.5135 Y417.9523 Z-0.9000 F4000
G1 X585.1649 Y415.6220 Z-0.9000 F4000
G1 X587.6603 Y412.1541 Z-0.9000 F4000
G1 X588.5594 Y407.9706 Z-0.9000 F4000
G1 X587.6603 Y403.8055 Z-0.9000 F4000
G1 X585.1649 Y400.3743 Z-0.9000 F4000
G1 X581.5135 Y398.0257 Z-0.9000 F4000
G1 X577.0548 Y397.1449 Z-0.9000 F4000
G1 X572.5777 Y398.0257 Z-0.9000 F4000
G1 X568.8897 Y400.3743 Z-0.9000 F4000
G1 X566.4126 Y403.8055 Z-0.9000 F4000
G1 X565.4952 Y407.9706 Z-0.9000 F4000
G1 X566.4126 Y412.1541 Z-0.9000 F4000
G1 X568.8897 Y415.6220 Z-0.9000 F4000
G1 X572.5777 Y417.9523 Z-0.9000 F4000
G1 X577.0548 Y418.7963 Z-0.9000 F4000
G1 X577.0548 Y418.7963 Z10.0000 F9999
G1 X608.7062 Y377.6954 Z10.0000 F9999
G1 X608.7062 Y377.6954 Z-0.9000 F2500
G1 X630.9080 Y411.0899 Z-0.9000 F4000
G1 X602.1007 Y411.0899 Z-0.9000 F4000
G1 X630.9080 Y411.0899 Z-0.9000 F4000
G1 X608.7062 Y377.6954 Z-0.9000 F4000
G1 X608.7062 Y418.7963 Z-0.9000 F4000
G1 X608.7062 Y418.7963 Z10.0000 F9999
G1 X641.6787 Y418.7963 Z10.0000 F9999
G1 X641.6787 Y418.7963 Z-0.9000 F2500
G1 X654.3025 Y418.7963 Z-0.9000 F4000
G1 X654.3025 Y377.6954 Z-0.9000 F4000
G1 X654.3025 Y418.7963 Z-0.9000 F4000
G1 X654.3025 Y418.7963 Z10.0000 F9999
G1 X608.7062 Y978.1444 Z10.0000 F9999
G1 X608.7062 Y978.1444 Z-0.9000 F2500
G1 X630.9080 Y1011.5389 Z-0.9000 F4000
G1 X602.1007 Y1011.5389 Z-0.9000 F4000
G1 X630.9080 Y1011.5389 Z-0.9000 F4000
G1 X608.7062 Y978.1444 Z-0.9000 F4000
G1 X608.7062 Y1019.2453 Z-0.9000 F4000
G1 X608.7062 Y1019.2453 Z10.0000 F9999
G1 X577.0548 Y1019.2453 Z10.0000 F9999
G1 X577.0548 Y1019.2453 Z-0.9000 F2500
G1 X581.5135 Y1018.4013 Z-0.9000 F4000
G1 X585.1649 Y1016.0710 Z-0.9000 F4000
G1 X587.6603 Y1012.6031 Z-0.9000 F4000
G1 X588.5594 Y1008.4196 Z-0.9000 F4000
G1 X587.6603 Y1004.2545 Z-0.9000 F4000
G1 X585.1649 Y1000.8233 Z-0.9000 F4000
G1 X581.5135 Y998.4747 Z-0.9000 F4000
G1 X577.0548 Y997.5939 Z-0.9000 F4000
G1 X572.5777 Y998.4747 Z-0.9000 F4000
G1 X568.8897 Y1000.8233 Z-0.9000 F4000
G1 X566.4126 Y1004.2545 Z-0.9000 F4000
G1 X565.4952 Y1008.4196 Z-0.9000 F4000
G1 X566.4126 Y1012.6031 Z-0.9000 F4000
G1 X568.8897 Y1016.0710 Z-0.9000 F4000
G1 X572.5777 Y1018.4013 Z-0.9000 F4000
G1 X577.0548 Y1019.2453 Z-0.9000 F4000
G1 X581.5135 Y1018.4013 Z-0.9000 F4000
G1 X585.1649 Y1016.0710 Z-0.9000 F4000
G1 X587.6603 Y1012.6031 Z-0.9000 F4000
G1 X588.5594 Y1008.4196 Z-0.9000 F4000
G1 X587.6603 Y1004.2545 Z-0.9000 F4000
G1 X585.1649 Y1000.8233 Z-0.9000 F4000
G1 X581.5135 Y998.4747 Z-0.9000 F4000
G1 X577.0548 Y997.5939 Z-0.9000 F4000
G1 X572.5777 Y998.4747 Z-0.9000 F4000
G1 X568.8897 Y1000.8233 Z-0.9000 F4000
G1 X566.4126 Y1004.2545 Z-0.9000 F4000
G1 X565.4952 Y1008.4196 Z-0.9000 F4000
G1 X566.4126 Y1012.6031 Z-0.9000 F4000
G1 X568.8897 Y1016.0710 Z-0.9000 F4000
G1 X572.5777 Y1018.4013 Z-0.9000 F4000
G1 X577.0548 Y1019.2453 Z-0.9000 F4000
G1 X577.0548 Y1019.2453 Z10.0000 F9999
G1 X577.0548 Y997.5756 Z10.0000 F9999
G1 X577.0548 Y997.5756 Z-0.9000 F2500
G1 X581.0181 Y996.8233 Z-0.9000 F4000
G1 X584.2475 Y994.7316 Z-0.9000 F4000
G1 X586.4493 Y991.6673 Z-0.9000 F4000
G1 X587.2566 Y987.8875 Z-0.9000 F4000
G1 X586.4493 Y984.0894 Z-0.9000 F4000
G1 X584.2475 Y980.9884 Z-0.9000 F4000
G1 X581.0181 Y978.8967 Z-0.9000 F4000
G1 X577.0548 Y978.1444 Z-0.9000 F4000
G1 X573.1098 Y978.8967 Z-0.9000 F4000
G1 X569.8805 Y980.9884 Z-0.9000 F4000
G1 X567.6787 Y984.0894 Z-0.9000 F4000
G1 X566.8530 Y987.8875 Z-0.9000 F4000
G1 X567.6787 Y991.6673 Z-0.9000 F4000
G1 X569.8805 Y994.7316 Z-0.9000 F4000
G1 X573.1098 Y996.8233 Z-0.9000 F4000
G1 X577.0548 Y997.5756 Z-0.9000 F4000
G1 X581.0181 Y996.8233 Z-0.9000 F4000
G1 X584.2475 Y994.7316 Z-0.9000 F4000
G1 X586.4493 Y991.6673 Z-0.9000 F4000
G1 X587.2566 Y987.8875 Z-0.9000 F4000
G1 X586.4493 Y984.0894 Z-0.9000 F4000
G1 X584.2475 Y980.9884 Z-0.9000 F4000
G1 X581.0181 Y978.8967 Z-0.9000 F4000
G1 X577.0548 Y978.1444 Z-0.9000 F4000
G1 X573.1098 Y978.8967 Z-0.9000 F4000
G1 X569.8805 Y980.9884 Z-0.9000 F4000
G1 X567.6787 Y984.0894 Z-0.9000 F4000
G1 X566.8530 Y987.8875 Z-0.9000 F4000
G1 X567.6787 Y991.6673 Z-0.9000 F4000
G1 X569.8805 Y994.7316 Z-0.9000 F4000
G1 X573.1098 Y996.8233 Z-0.9000 F4000
G1 X577.0548 Y997.5756 Z-0.9000 F4000
G1 X577.0548 Y997.5756 Z10.0000 F9999
G1 X641.6787 Y1019.2453 Z10.0000 F9999
G1 X641.6787 Y1019.2453 Z-0.9000 F2500
G1 X654.3025 Y1019.2453 Z-0.9000 F4000
G1 X654.3025 Y978.1444 Z-0.9000 F4000
G1 X654.3025 Y1019.2453 Z-0.9000 F4000
G1 X654.3025 Y1019.2453 Z10.0000 F9999
G1 X608.7062 Y1578.6342 Z10.0000 F9999
G1 X608.7062 Y1578.6342 Z-0.9000 F2500
G1 X630.9080 Y1612.0287 Z-0.9000 F4000
G1 X602.1007 Y1612.0287 Z-0.9000 F4000
G1 X630.9080 Y1612.0287 Z-0.9000 F4000
G1 X608.7062 Y1578.6342 Z-0.9000 F4000
G1 X608.7062 Y1619.7351 Z-0.9000 F4000
G1 X608.7062 Y1619.7351 Z10.0000 F9999
G1 X577.0548 Y1619.7351 Z10.0000 F9999
G1 X577.0548 Y1619.7351 Z-0.9000 F2500
G1 X581.5135 Y1618.8911 Z-0.9000 F4000
G1 X585.1649 Y1616.5608 Z-0.9000 F4000
G1 X587.6603 Y1613.0929 Z-0.9000 F4000
G1 X588.5594 Y1608.9094 Z-0.9000 F4000
G1 X587.6603 Y1604.7443 Z-0.9000 F4000
G1 X585.1649 Y1601.3131 Z-0.9000 F4000
G1 X581.5135 Y1598.9644 Z-0.9000 F4000
G1 X577.0548 Y1598.0837 Z-0.9000 F4000
G1 X572.5777 Y1598.9644 Z-0.9000 F4000
G1 X568.8897 Y1601.3131 Z-0.9000 F4000
G1 X566.4126 Y1604.7443 Z-0.9000 F4000
G1 X565.4952 Y1608.9094 Z-0.9000 F4000
G1 X566.4126 Y1613.0929 Z-0.9000 F4000
G1 X568.8897 Y1616.5608 Z-0.9000 F4000
G1 X572.5777 Y1618.8911 Z-0.9000 F4000
G1 X577.0548 Y1619.7351 Z-0.9000 F4000
G1 X581.5135 Y1618.8911 Z-0.9000 F4000
G1 X585.1649 Y1616.5608 Z-0.9000 F4000
G1 X587.6603 Y1613.0929 Z-0.9000 F4000
G1 X588.5594 Y1608.9094 Z-0.9000 F4000
G1 X587.6603 Y1604.7443 Z-0.9000 F4000
G1 X585.1649 Y1601.3131 Z-0.9000 F4000
G1 X581.5135 Y1598.9644 Z-0.9000 F4000
G1 X577.0548 Y1598.0837 Z-0.9000 F4000
G1 X572.5777 Y1598.9644 Z-0.9000 F4000
G1 X568.8897 Y1601.3131 Z-0.9000 F4000
G1 X566.4126 Y1604.7443 Z-0.9000 F4000
G1 X565.4952 Y1608.9094 Z-0.9000 F4000
G1 X566.4126 Y1613.0929 Z-0.9000 F4000
G1 X568.8897 Y1616.5608 Z-0.9000 F4000
G1 X572.5777 Y1618.8911 Z-0.9000 F4000
G1 X577.0548 Y1619.7351 Z-0.9000 F4000
G1 X577.0548 Y1619.7351 Z10.0000 F9999
G1 X577.0548 Y1598.0654 Z10.0000 F9999
G1 X577.0548 Y1598.0654 Z-0.9000 F2500
G1 X581.0181 Y1597.3131 Z-0.9000 F4000
G1 X584.2475 Y1595.2213 Z-0.9000 F4000
G1 X586.4493 Y1592.1571 Z-0.9000 F4000
G1 X587.2566 Y1588.3773 Z-0.9000 F4000
G1 X586.4493 Y1584.5791 Z-0.9000 F4000
G1 X584.2475 Y1581.4782 Z-0.9000 F4000
G1 X581.0181 Y1579.3865 Z-0.9000 F4000
G1 X577.0548 Y1578.6342 Z-0.9000 F4000
G1 X573.1098 Y1579.3865 Z-0.9000 F4000
G1 X569.8805 Y1581.4782 Z-0.9000 F4000
G1 X567.6787 Y1584.5791 Z-0.9000 F4000
G1 X566.8530 Y1588.3773 Z-0.9000 F4000
G1 X567.6787 Y1592.1571 Z-0.9000 F4000
G1 X569.8805 Y1595.2213 Z-0.9000 F4000
G1 X573.1098 Y1597.3131 Z-0.9000 F4000
G1 X577.0548 Y1598.0654 Z-0.9000 F4000
G1 X581.0181 Y1597.3131 Z-0.9000 F4000
G1 X584.2475 Y1595.2213 Z-0.9000 F4000
G1 X586.4493 Y1592.1571 Z-0.9000 F4000
G1 X587.2566 Y1588.3773 Z-0.9000 F4000
G1 X586.4493 Y1584.5791 Z-0.9000 F4000
G1 X584.2475 Y1581.4782 Z-0.9000 F4000
G1 X581.0181 Y1579.3865 Z-0.9000 F4000
G1 X577.0548 Y1578.6342 Z-0.9000 F4000
G1 X573.1098 Y1579.3865 Z-0.9000 F4000
G1 X569.8805 Y1581.4782 Z-0.9000 F4000
G1 X567.6787 Y1584.5791 Z-0.9000 F4000
G1 X566.8530 Y1588.3773 Z-0.9000 F4000
G1 X567.6787 Y1592.1571 Z-0.9000 F4000
G1 X569.8805 Y1595.2213 Z-0.9000 F4000
G1 X573.1098 Y1597.3131 Z-0.9000 F4000
G1 X577.0548 Y1598.0654 Z-0.9000 F4000
G1 X577.0548 Y1598.0654 Z10.0000 F9999
G1 X641.6787 Y1619.7351 Z10.0000 F9999
G1 X641.6787 Y1619.7351 Z-0.9000 F2500
G1 X654.3025 Y1619.7351 Z-0.9000 F4000
G1 X654.3025 Y1578.6342 Z-0.9000 F4000
G1 X654.3025 Y1619.7351 Z-0.9000 F4000
G1 X654.3025 Y1619.7351 Z10.0000 F9999
G1 X608.7062 Y2179.1239 Z10.0000 F9999
G1 X608.7062 Y2179.1239 Z-0.9000 F2500
G1 X630.9080 Y2212.5184 Z-0.9000 F4000
G1 X602.1007 Y2212.5184 Z-0.9000 F4000
G1 X630.9080 Y2212.5184 Z-0.9000 F4000
G1 X608.7062 Y2179.1239 Z-0.9000 F4000
G1 X608.7062 Y2220.2249 Z-0.9000 F4000
G1 X608.7062 Y2220.2249 Z10.0000 F9999
G1 X577.0548 Y2220.2249 Z10.0000 F9999
G1 X577.0548 Y2220.2249 Z-0.9000 F2500
G1 X581.5135 Y2219.3808 Z-0.9000 F4000
G1 X585.1649 Y2217.0505 Z-0.9000 F4000
G1 X587.6603 Y2213.5826 Z-0.9000 F4000
G1 X588.5594 Y2209.3992 Z-0.9000 F4000
G1 X587.6603 Y2205.2340 Z-0.9000 F4000
G1 X585.1649 Y2201.8028 Z-0.9000 F4000
G1 X581.5135 Y2199.4542 Z-0.9000 F4000
G1 X577.0548 Y2198.5735 Z-0.9000 F4000
G1 X572.5777 Y2199.4542 Z-0.9000 F4000
G1 X568.8897 Y2201.8028 Z-0.9000 F4000
G1 X566.4126 Y2205.2340 Z-0.9000 F4000
G1 X565.4952 Y2209.3992 Z-0.9000 F4000
G1 X566.4126 Y2213.5826 Z-0.9000 F4000
G1 X568.8897 Y2217.0505 Z-0.9000 F4000
G1 X572.5777 Y2219.3808 Z-0.9000 F4000
G1 X577.0548 Y2220.2249 Z-0.9000 F4000
G1 X581.5135 Y2219.3808 Z-0.9000 F4000
G1 X585.1649 Y2217.0505 Z-0.9000 F4000
G1 X587.6603 Y2213.5826 Z-0.9000 F4000
G1 X588.5594 Y2209.3992 Z-0.9000 F4000
G1 X587.6603 Y2205.2340 Z-0.9000 F4000
G1 X585.1649 Y2201.8028 Z-0.9000 F4000
G1 X581.5135 Y2199.4542 Z-0.9000 F4000
G1 X577.0548 Y2198.5735 Z-0.9000 F4000
G1 X572.5777 Y2199.4542 Z-0.9000 F4000
G1 X568.8897 Y2201.8028 Z-0.9000 F4000
G1 X566.4126 Y2205.2340 Z-0.9000 F4000
G1 X565.4952 Y2209.3992 Z-0.9000 F4000
G1 X566.4126 Y2213.5826 Z-0.9000 F4000
G1 X568.8897 Y2217.0505 Z-0.9000 F4000
G1 X572.5777 Y2219.3808 Z-0.9000 F4000
G1 X577.0548 Y2220.2249 Z-0.9000 F4000
G1 X577.0548 Y2220.2249 Z10.0000 F9999
G1 X577.0548 Y2198.5551 Z10.0000 F9999
G1 X577.0548 Y2198.5551 Z-0.9000 F2500
G1 X581.0181 Y2197.8028 Z-0.9000 F4000
G1 X584.2475 Y2195.7111 Z-0.9000 F4000
G1 X586.4493 Y2192.6469 Z-0.9000 F4000
G1 X587.2566 Y2188.8671 Z-0.9000 F4000
G1 X586.4493 Y2185.0689 Z-0.9000 F4000
G1 X584.2475 Y2181.9680 Z-0.9000 F4000
G1 X581.0181 Y2179.8762 Z-0.9000 F4000
G1 X577.0548 Y2179.1239 Z-0.9000 F4000
G1 X573.1098 Y2179.8762 Z-0.9000 F4000
G1 X569.8805 Y2181.9680 Z-0.9000 F4000
G1 X567.6787 Y2185.0689 Z-0.9000 F4000
G1 X566.8530 Y2188.8671 Z-0.9000 F4000
G1 X567.6787 Y2192.6469 Z-0.9000 F4000
G1 X569.8805 Y2195.7111 Z-0.9000 F4000
G1 X573.1098 Y2197.8028 Z-0.9000 F4000
G1 X577.0548 Y2198.5551 Z-0.9000 F4000
G1 X581.0181 Y2197.8028 Z-0.9000 F4000
G1 X584.2475 Y2195.7111 Z-0.9000 F4000
G1 X586.4493 Y2192.6469 Z-0.9000 F4000
G1 X587.2566 Y2188.8671 Z-0.9000 F4000
G1 X586.4493 Y2185.0689 Z-0.9000 F4000
G1 X584.2475 Y2181.9680 Z-0.9000 F4000
G1 X581.0181 Y2179.8762 Z-0.9000 F4000
G1 X577.0548 Y2179.1239 Z-0.9000 F4000
G1 X573.1098 Y2179.8762 Z-0.9000 F4000
G1 X569.8805 Y2181.9680 Z-0.9000 F4000
G1 X567.6787 Y2185.0689 Z-0.9000 F4000
G1 X566.8530 Y2188.8671 Z-0.9000 F4000
G1 X567.6787 Y2192.6469 Z-0.9000 F4000
G1 X569.8805 Y2195.7111 Z-0.9000 F4000
G1 X573.1098 Y2197.8028 Z-0.9000 F4000
G1 X577.0548 Y2198.5551 Z-0.9000 F4000
G1 X577.0548 Y2198.5551 Z10.0000 F9999
G1 X641.6787 Y2220.2249 Z10.0000 F9999
G1 X641.6787 Y2220.2249 Z-0.9000 F2500
G1 X654.3025 Y2220.2249 Z-0.9000 F4000
G1 X654.3025 Y2179.1239 Z-0.9000 F4000
G1 X654.3025 Y2220.2249 Z-0.9000 F4000
G1 X654.3025 Y2220.2249 Z10.0000 F9999
(Tool Number:1) (9.530 mm dia. slot drill)
M3 S17444
G1 X53.6650 Y406.0522 Z10.0000 F9999
G1 X53.6650 Y406.0522 Z1.0000 F2500
G1 X53.6650 Y436.3631 Z-9.0000 F2500
G1 X53.6650 Y406.0522 Z-19.0000 F2500
G1 X53.6650 Y490.8173 Z-19.0000 F4000
G1 X48.6651 Y490.8173 Z-19.0000 F4000
G1 X48.6651 Y491.2879 Z-19.0000 F4000
G1 X85.1350 Y491.2879 Z-19.0000 F4000
G1 X85.1350 Y490.8173 Z-19.0000 F4000
G1 X80.1350 Y490.8173 Z-19.0000 F4000
G1 X80.1350 Y321.2871 Z-19.0000 F4000
G1 X85.1350 Y321.2871 Z-19.0000 F4000
G1 X85.1350 Y320.8180 Z-19.0000 F4000
G1 X48.6651 Y320.8180 Z-19.0000 F4000
G1 X48.6651 Y321.2871 Z-19.0000 F4000
G1 X53.6650 Y321.2871 Z-19.0000 F4000
G1 X53.6650 Y406.0522 Z-19.0000 F4000
G1 X53.6650 Y406.0522 Z10.0000 F9999
G1 X377.9130 Y298.0390 Z10.0000 F9999
G1 X377.9130 Y298.0390 Z1.0000 F2500
G1 X379.2825 Y299.3522 Z0.3740 F2500
G1 X380.7300 Y300.6273 Z-0.2624 F2500
G1 X382.2548 Y301.8581 Z-0.9089 F2500
G1 X383.8554 Y303.0387 Z-1.5651 F2500
G1 X385.5301 Y304.1629 Z-2.2305 F2500
G1 X387.2762 Y305.2246 Z-2.9047 F2500
G1 X389.0908 Y306.2180 Z-3.5872 F2500
G1 X390.9701 Y307.1371 Z-4.2774 F2500
G1 X392.9097 Y307.9764 Z-4.9746 F2500
G1 X394.9047 Y308.7306 Z-5.6783 F2500
G1 X396.9496 Y309.3949 Z-6.3876 F2500
G1 X399.0384 Y309.9649 Z-7.1019 F2500
G1 X401.1645 Y310.4367 Z-7.8204 F2500
G1 X403.3210 Y310.8072 Z-8.5423 F2500
G1 X404.6980 Y310.9755 Z-9.0000 F2500
G1 X403.3210 Y310.8072 Z-9.4577 F2500
G1 X401.1645 Y310.4367 Z-10.1796 F2500
G1 X399.0384 Y309.9649 Z-10.8981 F2500
G1 X396.9496 Y309.3949 Z-11.6124 F2500
G1 X394.9047 Y308.7306 Z-12.3217 F2500
G1 X392.9097 Y307.9764 Z-13.0254 F2500
G1 X390.9701 Y307.1371 Z-13.7226 F2500
G1 X389.0908 Y306.2180 Z-14.4128 F2500
G1 X387.2762 Y305.2246 Z-15.0953 F2500
G1 X385.5301 Y304.1629 Z-15.7695 F2500
G1 X383.8554 Y303.0387 Z-16.4349 F2500
G1 X382.2548 Y301.8581 Z-17.0911 F2500
G1 X380.7300 Y300.6273 Z-17.7376 F2500
G1 X379.2825 Y299.3522 Z-18.3740 F2500
G1 X377.9130 Y298.0390 Z-19.0000 F2500
G1 X379.2825 Y299.3522 Z-19.0000 F4000
G1 X380.7300 Y300.6273 Z-19.0000 F4000
G1 X382.2548 Y301.8581 Z-19.0000 F4000
G1 X383.8554 Y303.0387 Z-19.0000 F4000
G1 X385.5301 Y304.1629 Z-19.0000 F4000
G1 X387.2762 Y305.2246 Z-19.0000 F4000
G1 X389.0908 Y306.2180 Z-19.0000 F4000
G1 X390.9701 Y307.1371 Z-19.0000 F4000
G1 X392.9097 Y307.9764 Z-19.0000 F4000
G1 X394.9047 Y308.7306 Z-19.0000 F4000
G1 X396.9496 Y309.3949 Z-19.0000 F4000
G1 X399.0384 Y309.9649 Z-19.0000 F4000
G1 X401.1645 Y310.4367 Z-19.0000 F4000
G1 X403.3210 Y310.8072 Z-19.0000 F4000
G1 X405.5007 Y311.0737 Z-19.0000 F4000
G1 X407.6959 Y311.2343 Z-19.0000 F4000
G1 X409.8989 Y311.2880 Z-19.0000 F4000
G1 X412.1020 Y311.2343 Z-19.0000 F4000
G1 X414.2972 Y311.0737 Z-19.0000 F4000
G1 X416.4768 Y310.8072 Z-19.0000 F4000
G1 X418.6334 Y310.4367 Z-19.0000 F4000
G1 X420.7595 Y309.9649 Z-19.0000 F4000
G1 X422.8483 Y309.3949 Z-19.0000 F4000
G1 X424.8932 Y308.7306 Z-19.0000 F4000
G1 X426.8882 Y307.9764 Z-19.0000 F4000
G1 X428.8278 Y307.1371 Z-19.0000 F4000
G1 X430.7071 Y306.2180 Z-19.0000 F4000
G1 X432.5216 Y305.2246 Z-19.0000 F4000
G1 X434.2678 Y304.1629 Z-19.0000 F4000
G1 X435.9425 Y303.0387 Z-19.0000 F4000
G1 X437.5431 Y301.8581 Z-19.0000 F4000
G1 X439.0678 Y300.6273 Z-19.0000 F4000
G1 X440.5154 Y299.3522 Z-19.0000 F4000
G1 X441.8849 Y298.0390 Z-19.0000 F4000
G1 X443.1982 Y296.6694 Z-19.0000 F4000
G1 X444.4732 Y295.2219 Z-19.0000 F4000
G1 X445.7040 Y293.6972 Z-19.0000 F4000
G1 X446.8846 Y292.0965 Z-19.0000 F4000
G1 X448.0088 Y290.4219 Z-19.0000 F4000
G1 X449.0706 Y288.6757 Z-19.0000 F4000
G1 X450.0639 Y286.8611 Z-19.0000 F4000
G1 X450.9830 Y284.9819 Z-19.0000 F4000
G1 X451.8223 Y283.0423 Z-19.0000 F4000
G1 X452.5765 Y281.0472 Z-19.0000 F4000
G1 X453.2408 Y279.0023 Z-19.0000 F4000
G1 X453.8108 Y276.9135 Z-19.0000 F4000
G1 X454.2827 Y274.7874 Z-19.0000 F4000
G1 X454.6531 Y272.6309 Z-19.0000 F4000
G1 X454.9196 Y270.4513 Z-19.0000 F4000
G1 X455.0803 Y268.2560 Z-19.0000 F4000
G1 X455.1339 Y266.0530 Z-19.0000 F4000
G1 X455.0803 Y263.8500 Z-19.0000 F4000
G1 X454.9196 Y261.6548 Z-19.0000 F4000
G1 X454.6531 Y259.4751 Z-19.0000 F4000
G1 X454.2827 Y257.3186 Z-19.0000 F4000
G1 X453.8108 Y255.1925 Z-19.0000 F4000
G1 X453.2408 Y253.1037 Z-19.0000 F4000
G1 X452.5765 Y251.0588 Z-19.0000 F4000
G1 X451.8223 Y249.0637 Z-19.0000 F4000
G1 X450.9830 Y247.1241 Z-19.0000 F4000
G1 X450.0639 Y245.2449 Z-19.0000 F4000
G1 X449.0706 Y243.4303 Z-19.0000 F4000
G1 X448.0088 Y241.6841 Z-19.0000 F4000
G1 X446.8846 Y240.0095 Z-19.0000 F4000
G1 X445.7040 Y238.4088 Z-19.0000 F4000
G1 X444.4732 Y236.8841 Z-19.0000 F4000
G1 X443.1982 Y235.4366 Z-19.0000 F4000
G1 X441.8849 Y234.0670 Z-19.0000 F4000
G1 X440.5154 Y232.7538 Z-19.0000 F4000
G1 X439.0678 Y231.4787 Z-19.0000 F4000
G1 X437.5431 Y230.2479 Z-19.0000 F4000
G1 X435.9425 Y229.0673 Z-19.0000 F4000
G1 X434.2678 Y227.9431 Z-19.0000 F4000
G1 X432.5216 Y226.8814 Z-19.0000 F4000
G1 X430.7071 Y225.8880 Z-19.0000 F4000
G1 X428.8278 Y224.9689 Z-19.0000 F4000
G1 X426.8882 Y224.1296 Z-19.0000 F4000
G1 X424.8932 Y223.3754 Z-19.0000 F4000
G1 X422.8483 Y222.7111 Z-19.0000 F4000
G1 X420.7595 Y222.1411 Z-19.0000 F4000
G1 X418.6334 Y221.6693 Z-19.0000 F4000
G1 X416.4768 Y221.2988 Z-19.0000 F4000
G1 X414.2972 Y221.0323 Z-19.0000 F4000
G1 X412.1020 Y220.8717 Z-19.0000 F4000
G1 X409.8989 Y220.8180 Z-19.0000 F4000
G1 X407.6959 Y220.8717 Z-19.0000 F4000
G1 X405.5007 Y221.0323 Z-19.0000 F4000
G1 X403.3210 Y221.2988 Z-19.0000 F4000
G1 X401.1645 Y221.6693 Z-19.0000 F4000
G1 X399.0384 Y222.1411 Z-19.0000 F4000
G1 X396.9496 Y222.7111 Z-19.0000 F4000
G1 X394.9047 Y223.3754 Z-19.0000 F4000
G1 X392.9097 Y224.1296 Z-19.0000 F4000
G1 X390.9701 Y224.9689 Z-19.0000 F4000
G1 X389.0908 Y225.8880 Z-19.0000 F4000
G1 X387.2762 Y226.8814 Z-19.0000 F4000
G1 X385.5301 Y227.9431 Z-19.0000 F4000
G1 X383.8554 Y229.0673 Z-19.0000 F4000
G1 X382.2548 Y230.2479 Z-19.0000 F4000
G1 X380.7300 Y231.4787 Z-19.0000 F4000
G1 X379.2825 Y232.7538 Z-19.0000 F4000
G1 X377.9130 Y234.0670 Z-19.0000 F4000
G1 X376.5997 Y235.4366 Z-19.0000 F4000
G1 X375.3247 Y236.8841 Z-19.0000 F4000
G1 X374.0938 Y238.4088 Z-19.0000 F4000
G1 X372.9133 Y240.0095 Z-19.0000 F4000
G1 X371.7891 Y241.6841 Z-19.0000 F4000
G1 X370.7273 Y243.4303 Z-19.0000 F4000
G1 X369.7339 Y245.2449 Z-19.0000 F4000
G1 X368.8148 Y247.1241 Z-19.0000 F4000
G1 X367.9755 Y249.0637 Z-19.0000 F4000
G1 X367.2213 Y251.0588 Z-19.0000 F4000
G1 X366.5570 Y253.1037 Z-19.0000 F4000
G1 X365.9870 Y255.1925 Z-19.0000 F4000
G1 X365.5152 Y257.3186 Z-19.0000 F4000
G1 X365.1448 Y259.4751 Z-19.0000 F4000
G1 X364.8783 Y261.6548 Z-19.0000 F4000
G1 X364.7176 Y263.8500 Z-19.0000 F4000
G1 X364.6639 Y266.0530 Z-19.0000 F4000
G1 X364.7176 Y268.2560 Z-19.0000 F4000
G1 X364.8783 Y270.4513 Z-19.0000 F4000
G1 X365.1448 Y272.6309 Z-19.0000 F4000
G1 X365.5152 Y274.7874 Z-19.0000 F4000
G1 X365.9870 Y276.9135 Z-19.0000 F4000
G1 X366.5570 Y279.0023 Z-19.0000 F4000
G1 X367.2213 Y281.0472 Z-19.0000 F4000
G1 X367.9755 Y283.0423 Z-19.0000 F4000
G1 X368.8148 Y284.9819 Z-19.0000 F4000
G1 X369.7339 Y286.8611 Z-19.0000 F4000
G1 X370.7273 Y288.6757 Z-19.0000 F4000
G1 X371.7891 Y290.4219 Z-19.0000 F4000
G1 X372.9133 Y292.0965 Z-19.0000 F4000
G1 X374.0938 Y293.6972 Z-19.0000 F4000
G1 X375.3247 Y295.2219 Z-19.0000 F4000
G1 X376.5997 Y296.6694 Z-19.0000 F4000
G1 X377.9130 Y298.0390 Z-19.0000 F4000
G1 X377.9130 Y298.0390 Z10.0000 F9999
G1 X577.9130 Y298.0390 Z10.0000 F9999
G1 X577.9130 Y298.0390 Z1.0000 F2500
G1 X579.2825 Y299.3522 Z0.3740 F2500
G1 X580.7300 Y300.6273 Z-0.2624 F2500
G1 X582.2548 Y301.8581 Z-0.9089 F2500
G1 X583.8554 Y303.0387 Z-1.5651 F2500
G1 X585.5301 Y304.1629 Z-2.2305 F2500
G1 X587.2762 Y305.2246 Z-2.9047 F2500
G1 X589.0908 Y306.2180 Z-3.5872 F2500
G1 X590.9701 Y307.1371 Z-4.2774 F2500
G1 X592.9097 Y307.9764 Z-4.9746 F2500
G1 X594.9047 Y308.7306 Z-5.6783 F2500
G1 X596.9496 Y309.3949 Z-6.3876 F2500
G1 X599.0384 Y309.9649 Z-7.1019 F2500
G1 X601.1645 Y310.4367 Z-7.8204 F2500
G1 X603.3210 Y310.8072 Z-8.5423 F2500
G1 X604.6980 Y310.9755 Z-9.0000 F2500
G1 X603.3210 Y310.8072 Z-9.4577 F2500
G1 X601.1645 Y310.4367 Z-10.1796 F2500
G1 X599.0384 Y309.9649 Z-10.8981 F2500
G1 X596.9496 Y309.3949 Z-11.6124 F2500
G1 X594.9047 Y308.7306 Z-12.3217 F2500
G1 X592.9097 Y307.9764 Z-13.0254 F2500
G1 X590.9701 Y307.1371 Z-13.7226 F2500
G1 X589.0908 Y306.2180 Z-14.4128 F2500
G1 X587.2762 Y305.2246 Z-15.0953 F2500
G1 X585.5301 Y304.1629 Z-15.7695 F2500
G1 X583.8554 Y303.0387 Z-16.4349 F2500
G1 X582.2548 Y301.8581 Z-17.0911 F2500
G1 X580.7300 Y300.6273 Z-17.7376 F2500
G1 X579.2825 Y299.3522 Z-18.3740 F2500
G1 X577.9130 Y298.0390 Z-19.0000 F2500
G1 X579.2825 Y299.3522 Z-19.0000 F4000
G1 X580.7300 Y300.6273 Z-19.0000 F4000
G1 X582.2548 Y301.8581 Z-19.0000 F4000
G1 X583.8554 Y303.0387 Z-19.0000 F4000
G1 X585.5301 Y304.1629 Z-19.0000 F4000
G1 X587.2762 Y305.2246 Z-19.0000 F4000
G1 X589.0908 Y306.2180 Z-19.0000 F4000
G1 X590.9701 Y307.1371 Z-19.0000 F4000
G1 X592.9097 Y307.9764 Z-19.0000 F4000
G1 X594.9047 Y308.7306 Z-19.0000 F4000
G1 X596.9496 Y309.3949 Z-19.0000 F4000
G1 X599.0384 Y309.9649 Z-19.0000 F4000
G1 X601.1645 Y310.4367 Z-19.0000 F4000
G1 X603.3210 Y310.8072 Z-19.0000 F4000
G1 X605.5007 Y311.0737 Z-19.0000 F4000
G1 X607.6959 Y311.2343 Z-19.0000 F4000
G1 X609.8989 Y311.2880 Z-19.0000 F4000
G1 X612.1020 Y311.2343 Z-19.0000 F4000
G1 X614.2972 Y311.0737 Z-19.0000 F4000
G1 X616.4768 Y310.8072 Z-19.0000 F4000
G1 X618.6334 Y310.4367 Z-19.0000 F4000
G1 X620.7595 Y309.9649 Z-19.0000 F4000
G1 X622.8483 Y309.3949 Z-19.0000 F4000
G1 X624.8932 Y308.7306 Z-19.0000 F4000
G1 X626.8882 Y307.9764 Z-19.0000 F4000
G1 X628.8278 Y307.1371 Z-19.0000 F4000
G1 X630.7071 Y306.2180 Z-19.0000 F4000
G1 X632.5216 Y305.2246 Z-19.0000 F4000
G1 X634.2678 Y304.1629 Z-19.0000 F4000
G1 X635.9425 Y303.0387 Z-19.0000 F4000
G1 X637.5431 Y301.8581 Z-19.0000 F4000
G1 X639.0678 Y300.6273 Z-19.0000 F4000
G1 X640.5154 Y299.3522 Z-19.0000 F4000
G1 X641.8849 Y298.0390 Z-19.0000 F4000
G1 X643.1982 Y296.6694 Z-19.0000 F4000
G1 X644.4732 Y295.2219 Z-19.0000 F4000
G1 X645.7040 Y293.6972 Z-19.0000 F4000
G1 X646.8846 Y292.0965 Z-19.0000 F4000
G1 X648.0088 Y290.4219 Z-19.0000 F4000
G1 X649.0706 Y288.6757 Z-19.0000 F4000
G1 X650.0639 Y286.8611 Z-19.0000 F4000
G1 X650.9830 Y284.9819 Z-19.0000 F4000
G1 X651.8223 Y283.0423 Z-19.0000 F4000
G1 X652.5765 Y281.0472 Z-19.0000 F4000
G1 X653.2408 Y279.0023 Z-19.0000 F4000
G1 X653.8108 Y276.9135 Z-19.0000 F4000
G1 X654.2827 Y274.7874 Z-19.0000 F4000
G1 X654.6531 Y272.6309 Z-19.0000 F4000
G1 X654.9196 Y270.4513 Z-19.0000 F4000
G1 X655.0803 Y268.2560 Z-19.0000 F4000
G1 X655.1339 Y266.0530 Z-19.0000 F4000
G1 X655.0803 Y263.8500 Z-19.0000 F4000
G1 X654.9196 Y261.6548 Z-19.0000 F4000
G1 X654.6531 Y259.4751 Z-19.0000 F4000
G1 X654.2827 Y257.3186 Z-19.0000 F4000
G1 X653.8108 Y255.1925 Z-19.0000 F4000
G1 X653.2408 Y253.1037 Z-19.0000 F4000
G1 X652.5765 Y251.0588 Z-19.0000 F4000
G1 X651.8223 Y249.0637 Z-19.0000 F4000
G1 X650.9830 Y247.1241 Z-19.0000 F4000
G1 X650.0639 Y245.2449 Z-19.0000 F4000
G1 X649.0706 Y243.4303 Z-19.0000 F4000
G1 X648.0088 Y241.6841 Z-19.0000 F4000
G1 X646.8846 Y240.0095 Z-19.0000 F4000
G1 X645.7040 Y238.4088 Z-19.0000 F4000
G1 X644.4732 Y236.8841 Z-19.0000 F4000
G1 X643.1982 Y235.4366 Z-19.0000 F4000
G1 X641.8849 Y234.0670 Z-19.0000 F4000
G1 X640.5154 Y232.7538 Z-19.0000 F4000
G1 X639.0678 Y231.4787 Z-19.0000 F4000
G1 X637.5431 Y230.2479 Z-19.0000 F4000
G1 X635.9425 Y229.0673 Z-19.0000 F4000
G1 X634.2678 Y227.9431 Z-19.0000 F4000
G1 X632.5216 Y226.8814 Z-19.0000 F4000
G1 X630.7071 Y225.8880 Z-19.0000 F4000
G1 X628.8278 Y224.9689 Z-19.0000 F4000
G1 X626.8882 Y224.1296 Z-19.0000 F4000
G1 X624.8932 Y223.3754 Z-19.0000 F4000
G1 X622.8483 Y222.7111 Z-19.0000 F4000
G1 X620.7595 Y222.1411 Z-19.0000 F4000
G1 X618.6334 Y221.6693 Z-19.0000 F4000
G1 X616.4768 Y221.2988 Z-19.0000 F4000
G1 X614.2972 Y221.0323 Z-19.0000 F4000
G1 X612.1020 Y220.8717 Z-19.0000 F4000
G1 X609.8989 Y220.8180 Z-19.0000 F4000
G1 X607.6959 Y220.8717 Z-19.0000 F4000
G1 X605.5007 Y221.0323 Z-19.0000 F4000
G1 X603.3210 Y221.2988 Z-19.0000 F4000
G1 X601.1645 Y221.6693 Z-19.0000 F4000
G1 X599.0384 Y222.1411 Z-19.0000 F4000
G1 X596.9496 Y222.7111 Z-19.0000 F4000
G1 X594.9047 Y223.3754 Z-19.0000 F4000
G1 X592.9097 Y224.1296 Z-19.0000 F4000
G1 X590.9701 Y224.9689 Z-19.0000 F4000
G1 X589.0908 Y225.8880 Z-19.0000 F4000
G1 X587.2762 Y226.8814 Z-19.0000 F4000
G1 X585.5301 Y227.9431 Z-19.0000 F4000
G1 X583.8554 Y229.0673 Z-19.0000 F4000
G1 X582.2548 Y230.2479 Z-19.0000 F4000
G1 X580.7300 Y231.4787 Z-19.0000 F4000
G1 X579.2825 Y232.7538 Z-19.0000 F4000
G1 X577.9130 Y234.0670 Z-19.0000 F4000
G1 X576.5997 Y235.4366 Z-19.0000 F4000
G1 X575.3247 Y236.8841 Z-19.0000 F4000
G1 X574.0938 Y238.4088 Z-19.0000 F4000
G1 X572.9133 Y240.0095 Z-19.0000 F4000
G1 X571.7891 Y241.6841 Z-19.0000 F4000
G1 X570.7273 Y243.4303 Z-19.0000 F4000
G1 X569.7339 Y245.2449 Z-19.0000 F4000
G1 X568.8148 Y247.1241 Z-19.0000 F4000
G1 X567.9755 Y249.0637 Z-19.0000 F4000
G1 X567.2213 Y251.0588 Z-19.0000 F4000
G1 X566.5570 Y253.1037 Z-19.0000 F4000
G1 X565.9870 Y255.1925 Z-19.0000 F4000
G1 X565.5152 Y257.3186 Z-19.0000 F4000
G1 X565.1448 Y259.4751 Z-19.0000 F4000
G1 X564.8783 Y261.6548 Z-19.0000 F4000
G1 X564.7176 Y263.8500 Z-19.0000 F4000
G1 X564.6639 Y266.0530 Z-19.0000 F4000
G1 X564.7176 Y268.2560 Z-19.0000 F4000
G1 X564.8783 Y270.4513 Z-19.0000 F4000
G1 X565.1448 Y272.6309 Z-19.0000 F4000
G1 X565.5152 Y274.7874 Z-19.0000 F4000
G1 X565.9870 Y276.9135 Z-19.0000 F4000
G1 X566.5570 Y279.0023 Z-19.0000 F4000
G1 X567.2213 Y281.0472 Z-19.0000 F4000
G1 X567.9755 Y283.0423 Z-19.0000 F4000
G1 X568.8148 Y284.9819 Z-19.0000 F4000
G1 X569.7339 Y286.8611 Z-19.0000 F4000
G1 X570.7273 Y288.6757 Z-19.0000 F4000
G1 X571.7891 Y290.4219 Z-19.0000 F4000
G1 X572.9133 Y292.0965 Z-19.0000 F4000
G1 X574.0938 Y293.6972 Z-19.0000 F4000
G1 X575.3247 Y295.2219 Z-19.0000 F4000
G1 X576.5997 Y296.6694 Z-19.0000 F4000
G1 X577.9130 Y298.0390 Z-19.0000 F4000
G1 X577.9130 Y298.0390 Z10.0000 F9999
G1 X777.9130 Y234.0670 Z10.0000 F9999
G1 X777.9130 Y234.0670 Z1.0000 F2500
G1 X776.5997 Y235.4366 Z0.3740 F2500
G1 X775.3247 Y236.8841 Z-0.2624 F2500
G1 X774.0938 Y238.4088 Z-0.9089 F2500
G1 X772.9133 Y240.0095 Z-1.5651 F2500
G1 X771.7891 Y241.6841 Z-2.2305 F2500
G1 X770.7273 Y243.4303 Z-2.9047 F2500
G1 X769.7339 Y245.2449 Z-3.5872 F2500
G1 X768.8148 Y247.1241 Z-4.2774 F2500
G1 X767.9755 Y249.0637 Z-4.9746 F2500
G1 X767.2213 Y251.0588 Z-5.6783 F2500
G1 X766.5570 Y253.1037 Z-6.3876 F2500
G1 X765.9870 Y255.1925 Z-7.1019 F2500
G1 X765.5152 Y257.3186 Z-7.8204 F2500
G1 X765.1448 Y259.4751 Z-8.5423 F2500
G1 X764.9764 Y260.8521 Z-9.0000 F2500
G1 X765.1448 Y259.4751 Z-9.4577 F2500
G1 X765.5152 Y257.3186 Z-10.1796 F2500
G1 X765.9870 Y255.1925 Z-10.8981 F2500
G1 X766.5570 Y253.1037 Z-11.6124 F2500
G1 X767.2213 Y251.0588 Z-12.3217 F2500
G1 X767.9755 Y249.0637 Z-13.0254 F2500
G1 X768.8148 Y247.1241 Z-13.7226 F2500
G1 X769.7339 Y245.2449 Z-14.4128 F2500
G1 X770.7273 Y243.4303 Z-15.0953 F2500
G1 X771.7891 Y241.6841 Z-15.7695 F2500
G1 X772.9133 Y240.0095 Z-16.4349 F2500
G1 X774.0938 Y238.4088 Z-17.0911 F2500
G1 X775.3247 Y236.8841 Z-17.7376 F2500
G1 X776.5997 Y235.4366 Z-18.3740 F2500
G1 X777.9130 Y234.0670 Z-19.0000 F2500
G1 X776.5997 Y235.4366 Z-19.0000 F4000
G1 X775.3247 Y236.8841 Z-19.0000 F4000
G1 X774.0938 Y238.4088 Z-19.0000 F4000
G1 X772.9133 Y240.0095 Z-19.0000 F4000
G1 X771.7891 Y241.6841 Z-19.0000 F4000
G1 X770.7273 Y243.4303 Z-19.0000 F4000
G1 X769.7339 Y245.2449 Z-19.0000 F4000
G1 X768.8148 Y247.1241 Z-19.0000 F4000
G1 X767.9755 Y249.0637 Z-19.0000 F4000
G1 X767.2213 Y251.0588 Z-19.0000 F4000
G1 X766.5570 Y253.1037 Z-19.0000 F4000
G1 X765.9870 Y255.1925 Z-19.0000 F4000
G1 X765.5152 Y257.3186 Z-19.0000 F4000
G1 X765.1448 Y259.4751 Z-19.0000 F4000
G1 X764.8783 Y261.6548 Z-19.0000 F4000
G1 X764.7176 Y263.8500 Z-19.0000 F4000
G1 X764.6639 Y266.0530 Z-19.0000 F4000
G1 X764.7176 Y268.2560 Z-19.0000 F4000
G1 X764.8783 Y270.4513 Z-19.0000 F4000
G1 X765.1448 Y272.6309 Z-19.0000 F4000
G1 X765.5152 Y274.7874 Z-19.0000 F4000
G1 X765.9870 Y276.9135 Z-19.0000 F4000
G1 X766.5570 Y279.0023 Z-19.0000 F4000
G1 X767.2213 Y281.0472 Z-19.0000 F4000
G1 X767.9755 Y283.0423 Z-19.0000 F4000
G1 X768.8148 Y284.9819 Z-19.0000 F4000
G1 X769.7339 Y286.8611 Z-19.0000 F4000
G1 X770.7273 Y288.6757 Z-19.0000 F4000
G1 X771.7891 Y290.4219 Z-19.0000 F4000
G1 X772.9133 Y292.0965 Z-19.0000 F4000
G1 X774.0938 Y293.6972 Z-19.0000 F4000
G1 X775.3247 Y295.2219 Z-19.0000 F4000
G1 X776.5997 Y296.6694 Z-19.0000 F4000
G1 X777.9130 Y298.0390 Z-19.0000 F4000
G1 X779.2825 Y299.3522 Z-19.0000 F4000
G1 X780.7300 Y300.6273 Z-19.0000 F4000
G1 X782.2548 Y301.8581 Z-19.0000 F4000
G1 X783.8554 Y303.0387 Z-19.0000 F4000
G1 X785.5301 Y304.1629 Z-19.0000 F4000
G1 X787.2762 Y305.2246 Z-19.0000 F4000
G1 X789.0908 Y306.2180 Z-19.0000 F4000
G1 X790.9701 Y307.1371 Z-19.0000 F4000
G1 X792.9097 Y307.9764 Z-19.0000 F4000
G1 X794.9047 Y308.7306 Z-19.0000 F4000
G1 X796.9496 Y309.3949 Z-19.0000 F4000
G1 X799.0384 Y309.9649 Z-19.0000 F4000
G1 X801.1645 Y310.4367 Z-19.0000 F4000
G1 X803.3210 Y310.8072 Z-19.0000 F4000
G1 X805.5007 Y311.0737 Z-19.0000 F4000
G1 X807.6959 Y311.2343 Z-19.0000 F4000
G1 X809.8989 Y311.2880 Z-19.0000 F4000
G1 X812.1020 Y311.2343 Z-19.0000 F4000
G1 X814.2972 Y311.0737 Z-19.0000 F4000
G1 X816.4768 Y310.8072 Z-19.0000 F4000
G1 X818.6334 Y310.4367 Z-19.0000 F4000
G1 X820.7595 Y309.9649 Z-19.0000 F4000
G1 X822.8483 Y309.3949 Z-19.0000 F4000
G1 X824.8932 Y308.7306 Z-19.0000 F4000
G1 X826.8882 Y307.9764 Z-19.0000 F4000
G1 X828.8278 Y307.1371 Z-19.0000 F4000
G1 X830.7071 Y306.2180 Z-19.0000 F4000
G1 X832.5216 Y305.2246 Z-19.0000 F4000
G1 X834.2678 Y304.1629 Z-19.0000 F4000
G1 X835.9425 Y303.0387 Z-19.0000 F4000
G1 X837.5431 Y301.8581 Z-19.0000 F4000
G1 X839.0678 Y300.6273 Z-19.0000 F4000
G1 X840.5154 Y299.3522 Z-19.0000 F4000
G1 X841.8849 Y298.0390 Z-19.0000 F4000
G1 X843.1982 Y296.6694 Z-19.0000 F4000
G1 X844.4732 Y295.2219 Z-19.0000 F4000
G1 X845.7040 Y293.6972 Z-19.0000 F4000
G1 X846.8846 Y292.0965 Z-19.0000 F4000
G1 X848.0088 Y290.4219 Z-19.0000 F4000
G1 X849.0706 Y288.6757 Z-19.0000 F4000
G1 X850.0639 Y286.8611 Z-19.0000 F4000
G1 X850.9830 Y284.9819 Z-19.0000 F4000
G1 X851.8223 Y283.0423 Z-19.0000 F4000
G1 X852.5765 Y281.0472 Z-19.0000 F4000
G1 X853.2408 Y279.0023 Z-19.0000 F4000
G1 X853.8108 Y276.9135 Z-19.0000 F4000
G1 X854.2827 Y274.7874 Z-19.0000 F4000
G1 X854.6531 Y272.6309 Z-19.0000 F4000
G1 X854.9196 Y270.4513 Z-19.0000 F4000
G1 X855.0803 Y268.2560 Z-19.0000 F4000
G1 X855.1339 Y266.0530 Z-19.0000 F4000
G1 X855.0803 Y263.8500 Z-19.0000 F4000
G1 X854.9196 Y261.6548 Z-19.0000 F4000
G1 X854.6531 Y259.4751 Z-19.0000 F4000
G1 X854.2827 Y257.3186 Z-19.0000 F4000
G1 X853.8108 Y255.1925 Z-19.0000 F4000
G1 X853.2408 Y253.1037 Z-19.0000 F4000
G1 X852.5765 Y251.0588 Z-19.0000 F4000
G1 X851.8223 Y249.0637 Z-19.0000 F4000
G1 X850.9830 Y247.1241 Z-19.0000 F4000
G1 X850.0639 Y245.2449 Z-19.0000 F4000
G1 X849.0706 Y243.4303 Z-19.0000 F4000
G1 X848.0088 Y241.6841 Z-19.0000 F4000
G1 X846.8846 Y240.0095 Z-19.0000 F4000
G1 X845.7040 Y238.4088 Z-19.0000 F4000
G1 X844.4732 Y236.8841 Z-19.0000 F4000
G1 X843.1982 Y235.4366 Z-19.0000 F4000
G1 X841.8849 Y234.0670 Z-19.0000 F4000
G1 X840.5154 Y232.7538 Z-19.0000 F4000
G1 X839.0678 Y231.4787 Z-19.0000 F4000
G1 X837.5431 Y230.2479 Z-19.0000 F4000
G1 X835.9425 Y229.0673 Z-19.0000 F4000
G1 X834.2678 Y227.9431 Z-19.0000 F4000
G1 X832.5216 Y226.8814 Z-19.0000 F4000
G1 X830.7071 Y225.8880 Z-19.0000 F4000
G1 X828.8278 Y224.9689 Z-19.0000 F4000
G1 X826.8882 Y224.1296 Z-19.0000 F4000
G1 X824.8932 Y223.3754 Z-19.0000 F4000
G1 X822.8483 Y222.7111 Z-19.0000 F4000
G1 X820.7595 Y222.1411 Z-19.0000 F4000
G1 X818.6334 Y221.6693 Z-19.0000 F4000
G1 X816.4768 Y221.2988 Z-19.0000 F4000
G1 X814.2972 Y221.0323 Z-19.0000 F4000
G1 X812.1020 Y220.8717 Z-19.0000 F4000
G1 X809.8989 Y220.8180 Z-19.0000 F4000
G1 X807.6959 Y220.8717 Z-19.0000 F4000
G1 X805.5007 Y221.0323 Z-19.0000 F4000
G1 X803.3210 Y221.2988 Z-19.0000 F4000
G1 X801.1645 Y221.6693 Z-19.0000 F4000
G1 X799.0384 Y222.1411 Z-19.0000 F4000
G1 X796.9496 Y222.7111 Z-19.0000 F4000
G1 X794.9047 Y223.3754 Z-19.0000 F4000
G1 X792.9097 Y224.1296 Z-19.0000 F4000
G1 X790.9701 Y224.9689 Z-19.0000 F4000
G1 X789.0908 Y225.8880 Z-19.0000 F4000
G1 X787.2762 Y226.8814 Z-19.0000 F4000
G1 X785.5301 Y227.9431 Z-19.0000 F4000
G1 X783.8554 Y229.0673 Z-19.0000 F4000
G1 X782.2548 Y230.2479 Z-19.0000 F4000
G1 X780.7300 Y231.4787 Z-19.0000 F4000
G1 X779.2825 Y232.7538 Z-19.0000 F4000
G1 X777.9130 Y234.0670 Z-19.0000 F4000
G1 X777.9130 Y234.0670 Z10.0000 F9999
G1 X1139.6628 Y406.0522 Z10.0000 F9999
G1 X1139.6628 Y406.0522 Z1.0000 F2500
G1 X1139.6628 Y436.3631 Z-9.0000 F2500
G1 X1139.6628 Y406.0522 Z-19.0000 F2500
G1 X1139.6628 Y490.8173 Z-19.0000 F4000
G1 X1134.6629 Y490.8173 Z-19.0000 F4000
G1 X1134.6629 Y491.2879 Z-19.0000 F4000
G1 X1171.1327 Y491.2879 Z-19.0000 F4000
G1 X1171.1327 Y490.8173 Z-19.0000 F4000
G1 X1166.1327 Y490.8173 Z-19.0000 F4000
G1 X1166.1327 Y321.2871 Z-19.0000 F4000
G1 X1171.1327 Y321.2871 Z-19.0000 F4000
G1 X1171.1327 Y320.8180 Z-19.0000 F4000
G1 X1134.6629 Y320.8180 Z-19.0000 F4000
G1 X1134.6629 Y321.2871 Z-19.0000 F4000
G1 X1139.6628 Y321.2871 Z-19.0000 F4000
G1 X1139.6628 Y406.0522 Z-19.0000 F4000
G1 X1139.6628 Y406.0522 Z10.0000 F9999
G1 X1139.6628 Y1006.5420 Z10.0000 F9999
G1 X1139.6628 Y1006.5420 Z1.0000 F2500
G1 X1139.6628 Y1036.8529 Z-9.0000 F2500
G1 X1139.6628 Y1006.5420 Z-19.0000 F2500
G1 X1139.6628 Y1091.3070 Z-19.0000 F4000
G1 X1134.6629 Y1091.3070 Z-19.0000 F4000
G1 X1134.6629 Y1091.7777 Z-19.0000 F4000
G1 X1171.1327 Y1091.7777 Z-19.0000 F4000
G1 X1171.1327 Y1091.3070 Z-19.0000 F4000
G1 X1166.1327 Y1091.3070 Z-19.0000 F4000
G1 X1166.1327 Y921.7769 Z-19.0000 F4000
G1 X1171.1327 Y921.7769 Z-19.0000 F4000
G1 X1171.1327 Y921.3078 Z-19.0000 F4000
G1 X1134.6629 Y921.3078 Z-19.0000 F4000
G1 X1134.6629 Y921.7769 Z-19.0000 F4000
G1 X1139.6628 Y921.7769 Z-19.0000 F4000
G1 X1139.6628 Y1006.5420 Z-19.0000 F4000
G1 X1139.6628 Y1006.5420 Z10.0000 F9999
G1 X777.9130 Y898.5287 Z10.0000 F9999
G1 X777.9130 Y898.5287 Z1.0000 F2500
G1 X779.2825 Y899.8420 Z0.3740 F2500
G1 X780.7300 Y901.1170 Z-0.2624 F2500
G1 X782.2548 Y902.3479 Z-0.9089 F2500
G1 X783.8554 Y903.5284 Z-1.5651 F2500
G1 X785.5301 Y904.6526 Z-2.2305 F2500
G1 X787.2762 Y905.7144 Z-2.9047 F2500
G1 X789.0908 Y906.7078 Z-3.5872 F2500
G1 X790.9701 Y907.6269 Z-4.2774 F2500
G1 X792.9097 Y908.4661 Z-4.9746 F2500
G1 X794.9047 Y909.2204 Z-5.6783 F2500
G1 X796.9496 Y909.8847 Z-6.3876 F2500
G1 X799.0384 Y910.4547 Z-7.1019 F2500
G1 X801.1645 Y910.9265 Z-7.8204 F2500
G1 X803.3210 Y911.2969 Z-8.5423 F2500
G1 X804.6980 Y911.4653 Z-9.0000 F2500
G1 X803.3210 Y911.2969 Z-9.4577 F2500
G1 X801.1645 Y910.9265 Z-10.1796 F2500
G1 X799.0384 Y910.4547 Z-10.8981 F2500
G1 X796.9496 Y909.8847 Z-11.6124 F2500
G1 X794.9047 Y909.2204 Z-12.3217 F2500
G1 X792.9097 Y908.4661 Z-13.0254 F2500
G1 X790.9701 Y907.6269 Z-13.7226 F2500
G1 X789.0908 Y906.7078 Z-14.4128 F2500
G1 X787.2762 Y905.7144 Z-15.0953 F2500
G1 X785.5301 Y904.6526 Z-15.7695 F2500
G1 X783.8554 Y903.5284 Z-16.4349 F2500
G1 X782.2548 Y902.3479 Z-17.0911 F2500
G1 X780.7300 Y901.1170 Z-17.7376 F2500
G1 X779.2825 Y899.8420 Z-18.3740 F2500
G1 X777.9130 Y898.5287 Z-19.0000 F2500
G1 X779.2825 Y899.8420 Z-19.0000 F4000
G1 X780.7300 Y901.1170 Z-19.0000 F4000
G1 X782.2548 Y902.3479 Z-19.0000 F4000
G1 X783.8554 Y903.5284 Z-19.0000 F4000
G1 X785.5301 Y904.6526 Z-19.0000 F4000
G1 X787.2762 Y905.7144 Z-19.0000 F4000
G1 X789.0908 Y906.7078 Z-19.0000 F4000
G1 X790.9701 Y907.6269 Z-19.0000 F4000
G1 X792.9097 Y908.4661 Z-19.0000 F4000
G1 X794.9047 Y909.2204 Z-19.0000 F4000
G1 X796.9496 Y909.8847 Z-19.0000 F4000
G1 X799.0384 Y910.4547 Z-19.0000 F4000
G1 X801.1645 Y910.9265 Z-19.0000 F4000
G1 X803.3210 Y911.2969 Z-19.0000 F4000
G1 X805.5007 Y911.5634 Z-19.0000 F4000
G1 X807.6959 Y911.7241 Z-19.0000 F4000
G1 X809.8989 Y911.7778 Z-19.0000 F4000
G1 X812.1020 Y911.7241 Z-19.0000 F4000
G1 X814.2972 Y911.5634 Z-19.0000 F4000
G1 X816.4768 Y911.2969 Z-19.0000 F4000
G1 X818.6334 Y910.9265 Z-19.0000 F4000
G1 X820.7595 Y910.4547 Z-19.0000 F4000
G1 X822.8483 Y909.8847 Z-19.0000 F4000
G1 X824.8932 Y909.2204 Z-19.0000 F4000
G1 X826.8882 Y908.4661 Z-19.0000 F4000
G1 X828.8278 Y907.6269 Z-19.0000 F4000
G1 X830.7071 Y906.7078 Z-19.0000 F4000
G1 X832.5216 Y905.7144 Z-19.0000 F4000
G1 X834.2678 Y904.6526 Z-19.0000 F4000
G1 X835.9425 Y903.5284 Z-19.0000 F4000
G1 X837.5431 Y902.3479 Z-19.0000 F4000
G1 X839.0678 Y901.1170 Z-19.0000 F4000
G1 X840.5154 Y899.8420 Z-19.0000 F4000
G1 X841.8849 Y898.5287 Z-19.0000 F4000
G1 X843.1982 Y897.1592 Z-19.0000 F4000
G1 X844.4732 Y895.7117 Z-19.0000 F4000
G1 X845.7040 Y894.1869 Z-19.0000 F4000
G1 X846.8846 Y892.5863 Z-19.0000 F4000
G1 X848.0088 Y890.9116 Z-19.0000 F4000
G1 X849.0706 Y889.1655 Z-19.0000 F4000
G1 X850.0639 Y887.3509 Z-19.0000 F4000
G1 X850.9830 Y885.4716 Z-19.0000 F4000
G1 X851.8223 Y883.5320 Z-19.0000 F4000
G1 X852.5765 Y881.5370 Z-19.0000 F4000
G1 X853.2408 Y879.4921 Z-19.0000 F4000
G1 X853.8108 Y877.4033 Z-19.0000 F4000
G1 X854.2827 Y875.2772 Z-19.0000 F4000
G1 X854.6531 Y873.1207 Z-19.0000 F4000
G1 X854.9196 Y870.9410 Z-19.0000 F4000
G1 X855.0803 Y868.7458 Z-19.0000 F4000
G1 X855.1339 Y866.5428 Z-19.0000 F4000
G1 X855.0803 Y864.3397 Z-19.0000 F4000
G1 X854.9196 Y862.1445 Z-19.0000 F4000
G1 X854.6531 Y859.9649 Z-19.0000 F4000
G1 X854.2827 Y857.8083 Z-19.0000 F4000
G1 X853.8108 Y855.6822 Z-19.0000 F4000
G1 X853.2408 Y853.5934 Z-19.0000 F4000
G1 X852.5765 Y851.5485 Z-19.0000 F4000
G1 X851.8223 Y849.5535 Z-19.0000 F4000
G1 X850.9830 Y847.6139 Z-19.0000 F4000
G1 X850.0639 Y845.7346 Z-19.0000 F4000
G1 X849.0706 Y843.9201 Z-19.0000 F4000
G1 X848.0088 Y842.1739 Z-19.0000 F4000
G1 X846.8846 Y840.4992 Z-19.0000 F4000
G1 X845.7040 Y838.8986 Z-19.0000 F4000
G1 X844.4732 Y837.3739 Z-19.0000 F4000
G1 X843.1982 Y835.9263 Z-19.0000 F4000
G1 X841.8849 Y834.5568 Z-19.0000 F4000
G1 X840.5154 Y833.2435 Z-19.0000 F4000
G1 X839.0678 Y831.9685 Z-19.0000 F4000
G1 X837.5431 Y830.7377 Z-19.0000 F4000
G1 X835.9425 Y829.5571 Z-19.0000 F4000
G1 X834.2678 Y828.4329 Z-19.0000 F4000
G1 X832.5216 Y827.3711 Z-19.0000 F4000
G1 X830.7071 Y826.3778 Z-19.0000 F4000
G1 X828.8278 Y825.4587 Z-19.0000 F4000
G1 X826.8882 Y824.6194 Z-19.0000 F4000
G1 X824.8932 Y823.8652 Z-19.0000 F4000
G1 X822.8483 Y823.2009 Z-19.0000 F4000
G1 X820.7595 Y822.6309 Z-19.0000 F4000
G1 X818.6334 Y822.1590 Z-19.0000 F4000
G1 X816.4768 Y821.7886 Z-19.0000 F4000
G1 X814.2972 Y821.5221 Z-19.0000 F4000
G1 X812.1020 Y821.3614 Z-19.0000 F4000
G1 X809.8989 Y821.3078 Z-19.0000 F4000
G1 X807.6959 Y821.3614 Z-19.0000 F4000
G1 X805.5007 Y821.5221 Z-19.0000 F4000
G1 X803.3210 Y821.7886 Z-19.0000 F4000
G1 X801.1645 Y822.1590 Z-19.0000 F4000
G1 X799.0384 Y822.6309 Z-19.0000 F4000
G1 X796.9496 Y823.2009 Z-19.0000 F4000
G1 X794.9047 Y823.8652 Z-19.0000 F4000
G1 X792.9097 Y824.6194 Z-19.0000 F4000
G1 X790.9701 Y825.4587 Z-19.0000 F4000
G1 X789.0908 Y826.3778 Z-19.0000 F4000
G1 X787.2762 Y827.3711 Z-19.0000 F4000
G1 X785.5301 Y828.4329 Z-19.0000 F4000
G1 X783.8554 Y829.5571 Z-19.0000 F4000
G1 X782.2548 Y830.7377 Z-19.0000 F4000
G1 X780.7300 Y831.9685 Z-19.0000 F4000
G1 X779.2825 Y833.2435 Z-19.0000 F4000
G1 X777.9130 Y834.5568 Z-19.0000 F4000
G1 X776.5997 Y835.9263 Z-19.0000 F4000
G1 X775.3247 Y837.3739 Z-19.0000 F4000
G1 X774.0938 Y838.8986 Z-19.0000 F4000
G1 X772.9133 Y840.4992 Z-19.0000 F4000
G1 X771.7891 Y842.1739 Z-19.0000 F4000
G1 X770.7273 Y843.9201 Z-19.0000 F4000
G1 X769.7339 Y845.7346 Z-19.0000 F4000
G1 X768.8148 Y847.6139 Z-19.0000 F4000
G1 X767.9755 Y849.5535 Z-19.0000 F4000
G1 X767.2213 Y851.5485 Z-19.0000 F4000
G1 X766.5570 Y853.5934 Z-19.0000 F4000
G1 X765.9870 Y855.6822 Z-19.0000 F4000
G1 X765.5152 Y857.8083 Z-19.0000 F4000
G1 X765.1448 Y859.9649 Z-19.0000 F4000
G1 X764.8783 Y862.1445 Z-19.0000 F4000
G1 X764.7176 Y864.3397 Z-19.0000 F4000
G1 X764.6639 Y866.5428 Z-19.0000 F4000
G1 X764.7176 Y868.7458 Z-19.0000 F4000
G1 X764.8783 Y870.9410 Z-19.0000 F4000
G1 X765.1448 Y873.1207 Z-19.0000 F4000
G1 X765.5152 Y875.2772 Z-19.0000 F4000
G1 X765.9870 Y877.4033 Z-19.0000 F4000
G1 X766.5570 Y879.4921 Z-19.0000 F4000
G1 X767.2213 Y881.5370 Z-19.0000 F4000
G1 X767.9755 Y883.5320 Z-19.0000 F4000
G1 X768.8148 Y885.4716 Z-19.0000 F4000
G1 X769.7339 Y887.3509 Z-19.0000 F4000
G1 X770.7273 Y889.1655 Z-19.0000 F4000
G1 X771.7891 Y890.9116 Z-19.0000 F4000
G1 X772.9133 Y892.5863 Z-19.0000 F4000
G1 X774.0938 Y894.1869 Z-19.0000 F4000
G1 X775.3247 Y895.7117 Z-19.0000 F4000
G1 X776.5997 Y897.1592 Z-19.0000 F4000
G1 X777.9130 Y898.5287 Z-19.0000 F4000
G1 X777.9130 Y898.5287 Z10.0000 F9999
G1 X577.9130 Y834.5568 Z10.0000 F9999
G1 X577.9130 Y834.5568 Z1.0000 F2500
G1 X576.5997 Y835.9263 Z0.3740 F2500
G1 X575.3247 Y837.3739 Z-0.2624 F2500
G1 X574.0938 Y838.8986 Z-0.9089 F2500
G1 X572.9133 Y840.4992 Z-1.5651 F2500
G1 X571.7891 Y842.1739 Z-2.2305 F2500
G1 X570.7273 Y843.9201 Z-2.9047 F2500
G1 X569.7339 Y845.7346 Z-3.5872 F2500
G1 X568.8148 Y847.6139 Z-4.2774 F2500
G1 X567.9755 Y849.5535 Z-4.9746 F2500
G1 X567.2213 Y851.5485 Z-5.6783 F2500
G1 X566.5570 Y853.5934 Z-6.3876 F2500
G1 X565.9870 Y855.6822 Z-7.1019 F2500
G1 X565.5152 Y857.8083 Z-7.8204 F2500
G1 X565.1448 Y859.9649 Z-8.5423 F2500
G1 X564.9764 Y861.3419 Z-9.0000 F2500
G1 X565.1448 Y859.9649 Z-9.4577 F2500
G1 X565.5152 Y857.8083 Z-10.1796 F2500
G1 X565.9870 Y855.6822 Z-10.8981 F2500
G1 X566.5570 Y853.5934 Z-11.6124 F2500
G1 X567.2213 Y851.5485 Z-12.3217 F2500
G1 X567.9755 Y849.5535 Z-13.0254 F2500
G1 X568.8148 Y847.6139 Z-13.7226 F2500
G1 X569.7339 Y845.7346 Z-14.4128 F2500
G1 X570.7273 Y843.9201 Z-15.0953 F2500
G1 X571.7891 Y842.1739 Z-15.7695 F2500
G1 X572.9133 Y840.4992 Z-16.4349 F2500
G1 X574.0938 Y838.8986 Z-17.0911 F2500
G1 X575.3247 Y837.3739 Z-17.7376 F2500
G1 X576.5997 Y835.9263 Z-18.3740 F2500
G1 X577.9130 Y834.5568 Z-19.0000 F2500
G1 X576.5997 Y835.9263 Z-19.0000 F4000
G1 X575.3247 Y837.3739 Z-19.0000 F4000
G1 X574.0938 Y838.8986 Z-19.0000 F4000
G1 X572.9133 Y840.4992 Z-19.0000 F4000
G1 X571.7891 Y842.1739 Z-19.0000 F4000
G1 X570.7273 Y843.9201 Z-19.0000 F4000
G1 X569.7339 Y845.7346 Z-19.0000 F4000
G1 X568.8148 Y847.6139 Z-19.0000 F4000
G1 X567.9755 Y849.5535 Z-19.0000 F4000
G1 X567.2213 Y851.5485 Z-19.0000 F4000
G1 X566.5570 Y853.5934 Z-19.0000 F4000
G1 X565.9870 Y855.6822 Z-19.0000 F4000
G1 X565.5152 Y857.8083 Z-19.0000 F4000
G1 X565.1448 Y859.9649 Z-19.0000 F4000
G1 X564.8783 Y862.1445 Z-19.0000 F4000
G1 X564.7176 Y864.3397 Z-19.0000 F4000
G1 X564.6639 Y866.5428 Z-19.0000 F4000
G1 X564.7176 Y868.7458 Z-19.0000 F4000
G1 X564.8783 Y870.9410 Z-19.0000 F4000
G1 X565.1448 Y873.1207 Z-19.0000 F4000
G1 X565.5152 Y875.2772 Z-19.0000 F4000
G1 X565.9870 Y877.4033 Z-19.0000 F4000
G1 X566.5570 Y879.4921 Z-19.0000 F4000
G1 X567.2213 Y881.5370 Z-19.0000 F4000
G1 X567.9755 Y883.5320 Z-19.0000 F4000
G1 X568.8148 Y885.4716 Z-19.0000 F4000
G1 X569.7339 Y887.3509 Z-19.0000 F4000
G1 X570.7273 Y889.1655 Z-19.0000 F4000
G1 X571.7891 Y890.9116 Z-19.0000 F4000
G1 X572.9133 Y892.5863 Z-19.0000 F4000
G1 X574.0938 Y894.1869 Z-19.0000 F4000
G1 X575.3247 Y895.7117 Z-19.0000 F4000
G1 X576.5997 Y897.1592 Z-19.0000 F4000
G1 X577.9130 Y898.5287 Z-19.0000 F4000
G1 X579.2825 Y899.8420 Z-19.0000 F4000
G1 X580.7300 Y901.1170 Z-19.0000 F4000
G1 X582.2548 Y902.3479 Z-19.0000 F4000
G1 X583.8554 Y903.5284 Z-19.0000 F4000
G1 X585.5301 Y904.6526 Z-19.0000 F4000
G1 X587.2762 Y905.7144 Z-19.0000 F4000
G1 X589.0908 Y906.7078 Z-19.0000 F4000
G1 X590.9701 Y907.6269 Z-19.0000 F4000
G1 X592.9097 Y908.4661 Z-19.0000 F4000
G1 X594.9047 Y909.2204 Z-19.0000 F4000
G1 X596.9496 Y909.8847 Z-19.0000 F4000
G1 X599.0384 Y910.4547 Z-19.0000 F4000
G1 X601.1645 Y910.9265 Z-19.0000 F4000
G1 X603.3210 Y911.2969 Z-19.0000 F4000
G1 X605.5007 Y911.5634 Z-19.0000 F4000
G1 X607.6959 Y911.7241 Z-19.0000 F4000
G1 X609.8989 Y911.7778 Z-19.0000 F4000
G1 X612.1020 Y911.7241 Z-19.0000 F4000
G1 X614.2972 Y911.5634 Z-19.0000 F4000
G1 X616.4768 Y911.2969 Z-19.0000 F4000
G1 X618.6334 Y910.9265 Z-19.0000 F4000
G1 X620.7595 Y910.4547 Z-19.0000 F4000
G1 X622.8483 Y909.8847 Z-19.0000 F4000
G1 X624.8932 Y909.2204 Z-19.0000 F4000
G1 X626.8882 Y908.4661 Z-19.0000 F4000
G1 X628.8278 Y907.6269 Z-19.0000 F4000
G1 X630.7071 Y906.7078 Z-19.0000 F4000
G1 X632.5216 Y905.7144 Z-19.0000 F4000
G1 X634.2678 Y904.6526 Z-19.0000 F4000
G1 X635.9425 Y903.5284 Z-19.0000 F4000
G1 X637.5431 Y902.3479 Z-19.0000 F4000
G1 X639.0678 Y901.1170 Z-19.0000 F4000
G1 X640.5154 Y899.8420 Z-19.0000 F4000
G1 X641.8849 Y898.5287 Z-19.0000 F4000
G1 X643.1982 Y897.1592 Z-19.0000 F4000
G1 X644.4732 Y895.7117 Z-19.0000 F4000
G1 X645.7040 Y894.1869 Z-19.0000 F4000
G1 X646.8846 Y892.5863 Z-19.0000 F4000
G1 X648.0088 Y890.9116 Z-19.0000 F4000
G1 X649.0706 Y889.1655 Z-19.0000 F4000
G1 X650.0639 Y887.3509 Z-19.0000 F4000
G1 X650.9830 Y885.4716 Z-19.0000 F4000
G1 X651.8223 Y883.5320 Z-19.0000 F4000
G1 X652.5765 Y881.5370 Z-19.0000 F4000
G1 X653.2408 Y879.4921 Z-19.0000 F4000
G1 X653.8108 Y877.4033 Z-19.0000 F4000
G1 X654.2827 Y875.2772 Z-19.0000 F4000
G1 X654.6531 Y873.1207 Z-19.0000 F4000
G1 X654.9196 Y870.9410 Z-19.0000 F4000
G1 X655.0803 Y868.7458 Z-19.0000 F4000
G1 X655.1339 Y866.5428 Z-19.0000 F4000
G1 X655.0803 Y864.3397 Z-19.0000 F4000
G1 X654.9196 Y862.1445 Z-19.0000 F4000
G1 X654.6531 Y859.9649 Z-19.0000 F4000
G1 X654.2827 Y857.8083 Z-19.0000 F4000
G1 X653.8108 Y855.6822 Z-19.0000 F4000
G1 X653.2408 Y853.5934 Z-19.0000 F4000
G1 X652.5765 Y851.5485 Z-19.0000 F4000
G1 X651.8223 Y849.5535 Z-19.0000 F4000
G1 X650.9830 Y847.6139 Z-19.0000 F4000
G1 X650.0639 Y845.7346 Z-19.0000 F4000
G1 X649.0706 Y843.9201 Z-19.0000 F4000
G1 X648.0088 Y842.1739 Z-19.0000 F4000
G1 X646.8846 Y840.4992 Z-19.0000 F4000
G1 X645.7040 Y838.8986 Z-19.0000 F4000
G1 X644.4732 Y837.3739 Z-19.0000 F4000
G1 X643.1982 Y835.9263 Z-19.0000 F4000
G1 X641.8849 Y834.5568 Z-19.0000 F4000
G1 X640.5154 Y833.2435 Z-19.0000 F4000
G1 X639.0678 Y831.9685 Z-19.0000 F4000
G1 X637.5431 Y830.7377 Z-19.0000 F4000
G1 X635.9425 Y829.5571 Z-19.0000 F4000
G1 X634.2678 Y828.4329 Z-19.0000 F4000
G1 X632.5216 Y827.3711 Z-19.0000 F4000
G1 X630.7071 Y826.3778 Z-19.0000 F4000
G1 X628.8278 Y825.4587 Z-19.0000 F4000
G1 X626.8882 Y824.6194 Z-19.0000 F4000
G1 X624.8932 Y823.8652 Z-19.0000 F4000
G1 X622.8483 Y823.2009 Z-19.0000 F4000
G1 X620.7595 Y822.6309 Z-19.0000 F4000
G1 X618.6334 Y822.1590 Z-19.0000 F4000
G1 X616.4768 Y821.7886 Z-19.0000 F4000
G1 X614.2972 Y821.5221 Z-19.0000 F4000
G1 X612.1020 Y821.3614 Z-19.0000 F4000
G1 X609.8989 Y821.3078 Z-19.0000 F4000
G1 X607.6959 Y821.3614 Z-19.0000 F4000
G1 X605.5007 Y821.5221 Z-19.0000 F4000
G1 X603.3210 Y821.7886 Z-19.0000 F4000
G1 X601.1645 Y822.1590 Z-19.0000 F4000
G1 X599.0384 Y822.6309 Z-19.0000 F4000
G1 X596.9496 Y823.2009 Z-19.0000 F4000
G1 X594.9047 Y823.8652 Z-19.0000 F4000
G1 X592.9097 Y824.6194 Z-19.0000 F4000
G1 X590.9701 Y825.4587 Z-19.0000 F4000
G1 X589.0908 Y826.3778 Z-19.0000 F4000
G1 X587.2762 Y827.3711 Z-19.0000 F4000
G1 X585.5301 Y828.4329 Z-19.0000 F4000
G1 X583.8554 Y829.5571 Z-19.0000 F4000
G1 X582.2548 Y830.7377 Z-19.0000 F4000
G1 X580.7300 Y831.9685 Z-19.0000 F4000
G1 X579.2825 Y833.2435 Z-19.0000 F4000
G1 X577.9130 Y834.5568 Z-19.0000 F4000
G1 X577.9130 Y834.5568 Z10.0000 F9999
G1 X441.8849 Y834.5568 Z10.0000 F9999
G1 X441.8849 Y834.5568 Z1.0000 F2500
G1 X440.5154 Y833.2435 Z0.3740 F2500
G1 X439.0678 Y831.9685 Z-0.2624 F2500
G1 X437.5431 Y830.7377 Z-0.9089 F2500
G1 X435.9425 Y829.5571 Z-1.5651 F2500
G1 X434.2678 Y828.4329 Z-2.2305 F2500
G1 X432.5216 Y827.3711 Z-2.9047 F2500
G1 X430.7071 Y826.3778 Z-3.5872 F2500
G1 X428.8278 Y825.4587 Z-4.2774 F2500
G1 X426.8882 Y824.6194 Z-4.9746 F2500
G1 X424.8932 Y823.8652 Z-5.6783 F2500
G1 X422.8483 Y823.2009 Z-6.3876 F2500
G1 X420.7595 Y822.6309 Z-7.1019 F2500
G1 X418.6334 Y822.1590 Z-7.8204 F2500
G1 X416.4768 Y821.7886 Z-8.5423 F2500
G1 X415.0998 Y821.6202 Z-9.0000 F2500
G1 X416.4768 Y821.7886 Z-9.4577 F2500
G1 X418.6334 Y822.1590 Z-10.1796 F2500
G1 X420.7595 Y822.6309 Z-10.8981 F2500
G1 X422.8483 Y823.2009 Z-11.6124 F2500
G1 X424.8932 Y823.8652 Z-12.3217 F2500
G1 X426.8882 Y824.6194 Z-13.0254 F2500
G1 X428.8278 Y825.4587 Z-13.7226 F2500
G1 X430.7071 Y826.3778 Z-14.4128 F2500
G1 X432.5216 Y827.3711 Z-15.0953 F2500
G1 X434.2678 Y828.4329 Z-15.7695 F2500
G1 X435.9425 Y829.5571 Z-16.4349 F2500
G1 X437.5431 Y830.7377 Z-17.0911 F2500
G1 X439.0678 Y831.9685 Z-17.7376 F2500
G1 X440.5154 Y833.2435 Z-18.3740 F2500
G1 X441.8849 Y834.5568 Z-19.0000 F2500
G1 X440.5154 Y833.2435 Z-19.0000 F4000
G1 X439.0678 Y831.9685 Z-19.0000 F4000
G1 X437.5431 Y830.7377 Z-19.0000 F4000
G1 X435.9425 Y829.5571 Z-19.0000 F4000
G1 X434.2678 Y828.4329 Z-19.0000 F4000
G1 X432.5216 Y827.3711 Z-19.0000 F4000
G1 X430.7071 Y826.3778 Z-19.0000 F4000
G1 X428.8278 Y825.4587 Z-19.0000 F4000
G1 X426.8882 Y824.6194 Z-19.0000 F4000
G1 X424.8932 Y823.8652 Z-19.0000 F4000
G1 X422.8483 Y823.2009 Z-19.0000 F4000
G1 X420.7595 Y822.6309 Z-19.0000 F4000
G1 X418.6334 Y822.1590 Z-19.0000 F4000
G1 X416.4768 Y821.7886 Z-19.0000 F4000
G1 X414.2972 Y821.5221 Z-19.0000 F4000
G1 X412.1020 Y821.3614 Z-19.0000 F4000
G1 X409.8989 Y821.3078 Z-19.0000 F4000
G1 X407.6959 Y821.3614 Z-19.0000 F4000
G1 X405.5007 Y821.5221 Z-19.0000 F4000
G1 X403.3210 Y821.7886 Z-19.0000 F4000
G1 X401.1645 Y822.1590 Z-19.0000 F4000
G1 X399.0384 Y822.6309 Z-19.0000 F4000
G1 X396.9496 Y823.2009 Z-19.0000 F4000
G1 X394.9047 Y823.8652 Z-19.0000 F4000
G1 X392.9097 Y824.6194 Z-19.0000 F4000
G1 X390.9701 Y825.4587 Z-19.0000 F4000
G1 X389.0908 Y826.3778 Z-19.0000 F4000
G1 X387.2762 Y827.3711 Z-19.0000 F4000
G1 X385.5301 Y828.4329 Z-19.0000 F4000
G1 X383.8554 Y829.5571 Z-19.0000 F4000
G1 X382.2548 Y830.7377 Z-19.0000 F4000
G1 X380.7300 Y831.9685 Z-19.0000 F4000
G1 X379.2825 Y833.2435 Z-19.0000 F4000
G1 X377.9130 Y834.5568 Z-19.0000 F4000
G1 X376.5997 Y835.9263 Z-19.0000 F4000
G1 X375.3247 Y837.3739 Z-19.0000 F4000
G1 X374.0938 Y838.8986 Z-19.0000 F4000
G1 X372.9133 Y840.4992 Z-19.0000 F4000
G1 X371.7891 Y842.1739 Z-19.0000 F4000
G1 X370.7273 Y843.9201 Z-19.0000 F4000
G1 X369.7339 Y845.7346 Z-19.0000 F4000
G1 X368.8148 Y847.6139 Z-19.0000 F4000
G1 X367.9755 Y849.5535 Z-19.0000 F4000
G1 X367.2213 Y851.5485 Z-19.0000 F4000
G1 X366.5570 Y853.5934 Z-19.0000 F4000
G1 X365.9870 Y855.6822 Z-19.0000 F4000
G1 X365.5152 Y857.8083 Z-19.0000 F4000
G1 X365.1448 Y859.9649 Z-19.0000 F4000
G1 X364.8783 Y862.1445 Z-19.0000 F4000
G1 X364.7176 Y864.3397 Z-19.0000 F4000
G1 X364.6639 Y866.5428 Z-19.0000 F4000
G1 X364.7176 Y868.7458 Z-19.0000 F4000
G1 X364.8783 Y870.9410 Z-19.0000 F4000
G1 X365.1448 Y873.1207 Z-19.0000 F4000
G1 X365.5152 Y875.2772 Z-19.0000 F4000
G1 X365.9870 Y877.4033 Z-19.0000 F4000
G1 X366.5570 Y879.4921 Z-19.0000 F4000
G1 X367.2213 Y881.5370 Z-19.0000 F4000
G1 X367.9755 Y883.5320 Z-19.0000 F4000
G1 X368.8148 Y885.4716 Z-19.0000 F4000
G1 X369.7339 Y887.3509 Z-19.0000 F4000
G1 X370.7273 Y889.1655 Z-19.0000 F4000
G1 X371.7891 Y890.9116 Z-19.0000 F4000
G1 X372.9133 Y892.5863 Z-19.0000 F4000
G1 X374.0938 Y894.1869 Z-19.0000 F4000
G1 X375.3247 Y895.7117 Z-19.0000 F4000
G1 X376.5997 Y897.1592 Z-19.0000 F4000
G1 X377.9130 Y898.5287 Z-19.0000 F4000
G1 X379.2825 Y899.8420 Z-19.0000 F4000
G1 X380.7300 Y901.1170 Z-19.0000 F4000
G1 X382.2548 Y902.3479 Z-19.0000 F4000
G1 X383.8554 Y903.5284 Z-19.0000 F4000
G1 X385.5301 Y904.6526 Z-19.0000 F4000
G1 X387.2762 Y905.7144 Z-19.0000 F4000
G1 X389.0908 Y906.7078 Z-19.0000 F4000
G1 X390.9701 Y907.6269 Z-19.0000 F4000
G1 X392.9097 Y908.4661 Z-19.0000 F4000
G1 X394.9047 Y909.2204 Z-19.0000 F4000
G1 X396.9496 Y909.8847 Z-19.0000 F4000
G1 X399.0384 Y910.4547 Z-19.0000 F4000
G1 X401.1645 Y910.9265 Z-19.0000 F4000
G1 X403.3210 Y911.2969 Z-19.0000 F4000
G1 X405.5007 Y911.5634 Z-19.0000 F4000
G1 X407.6959 Y911.7241 Z-19.0000 F4000
G1 X409.8989 Y911.7778 Z-19.0000 F4000
G1 X412.1020 Y911.7241 Z-19.0000 F4000
G1 X414.2972 Y911.5634 Z-19.0000 F4000
G1 X416.4768 Y911.2969 Z-19.0000 F4000
G1 X418.6334 Y910.9265 Z-19.0000 F4000
G1 X420.7595 Y910.4547 Z-19.0000 F4000
G1 X422.8483 Y909.8847 Z-19.0000 F4000
G1 X424.8932 Y909.2204 Z-19.0000 F4000
G1 X426.8882 Y908.4661 Z-19.0000 F4000
G1 X428.8278 Y907.6269 Z-19.0000 F4000
G1 X430.7071 Y906.7078 Z-19.0000 F4000
G1 X432.5216 Y905.7144 Z-19.0000 F4000
G1 X434.2678 Y904.6526 Z-19.0000 F4000
G1 X435.9425 Y903.5284 Z-19.0000 F4000
G1 X437.5431 Y902.3479 Z-19.0000 F4000
G1 X439.0678 Y901.1170 Z-19.0000 F4000
G1 X440.5154 Y899.8420 Z-19.0000 F4000
G1 X441.8849 Y898.5287 Z-19.0000 F4000
G1 X443.1982 Y897.1592 Z-19.0000 F4000
G1 X444.4732 Y895.7117 Z-19.0000 F4000
G1 X445.7040 Y894.1869 Z-19.0000 F4000
G1 X446.8846 Y892.5863 Z-19.0000 F4000
G1 X448.0088 Y890.9116 Z-19.0000 F4000
G1 X449.0706 Y889.1655 Z-19.0000 F4000
G1 X450.0639 Y887.3509 Z-19.0000 F4000
G1 X450.9830 Y885.4716 Z-19.0000 F4000
G1 X451.8223 Y883.5320 Z-19.0000 F4000
G1 X452.5765 Y881.5370 Z-19.0000 F4000
G1 X453.2408 Y879.4921 Z-19.0000 F4000
G1 X453.8108 Y877.4033 Z-19.0000 F4000
G1 X454.2827 Y875.2772 Z-19.0000 F4000
G1 X454.6531 Y873.1207 Z-19.0000 F4000
G1 X454.9196 Y870.9410 Z-19.0000 F4000
G1 X455.0803 Y868.7458 Z-19.0000 F4000
G1 X455.1339 Y866.5428 Z-19.0000 F4000
G1 X455.0803 Y864.3397 Z-19.0000 F4000
G1 X454.9196 Y862.1445 Z-19.0000 F4000
G1 X454.6531 Y859.9649 Z-19.0000 F4000
G1 X454.2827 Y857.8083 Z-19.0000 F4000
G1 X453.8108 Y855.6822 Z-19.0000 F4000
G1 X453.2408 Y853.5934 Z-19.0000 F4000
G1 X452.5765 Y851.5485 Z-19.0000 F4000
G1 X451.8223 Y849.5535 Z-19.0000 F4000
G1 X450.9830 Y847.6139 Z-19.0000 F4000
G1 X450.0639 Y845.7346 Z-19.0000 F4000
G1 X449.0706 Y843.9201 Z-19.0000 F4000
G1 X448.0088 Y842.1739 Z-19.0000 F4000
G1 X446.8846 Y840.4992 Z-19.0000 F4000
G1 X445.7040 Y838.8986 Z-19.0000 F4000
G1 X444.4732 Y837.3739 Z-19.0000 F4000
G1 X443.1982 Y835.9263 Z-19.0000 F4000
G1 X441.8849 Y834.5568 Z-19.0000 F4000
G1 X441.8849 Y834.5568 Z10.0000 F9999
G1 X53.6650 Y1006.5420 Z10.0000 F9999
G1 X53.6650 Y1006.5420 Z1.0000 F2500
G1 X53.6650 Y1036.8529 Z-9.0000 F2500
G1 X53.6650 Y1006.5420 Z-19.0000 F2500
G1 X53.6650 Y1091.3070 Z-19.0000 F4000
G1 X48.6651 Y1091.3070 Z-19.0000 F4000
G1 X48.6651 Y1091.7777 Z-19.0000 F4000
G1 X85.1350 Y1091.7777 Z-19.0000 F4000
G1 X85.1350 Y1091.3070 Z-19.0000 F4000
G1 X80.1350 Y1091.3070 Z-19.0000 F4000
G1 X80.1350 Y921.7769 Z-19.0000 F4000
G1 X85.1350 Y921.7769 Z-19.0000 F4000
G1 X85.1350 Y921.3078 Z-19.0000 F4000
G1 X48.6651 Y921.3078 Z-19.0000 F4000
G1 X48.6651 Y921.7769 Z-19.0000 F4000
G1 X53.6650 Y921.7769 Z-19.0000 F4000
G1 X53.6650 Y1006.5420 Z-19.0000 F4000
G1 X53.6650 Y1006.5420 Z10.0000 F9999
G1 X377.9130 Y1499.0185 Z10.0000 F9999
G1 X377.9130 Y1499.0185 Z1.0000 F2500
G1 X379.2825 Y1500.3318 Z0.3740 F2500
G1 X380.7300 Y1501.6068 Z-0.2624 F2500
G1 X382.2548 Y1502.8376 Z-0.9089 F2500
G1 X383.8554 Y1504.0182 Z-1.5651 F2500
G1 X385.5301 Y1505.1424 Z-2.2305 F2500
G1 X387.2762 Y1506.2042 Z-2.9047 F2500
G1 X389.0908 Y1507.1975 Z-3.5872 F2500
G1 X390.9701 Y1508.1166 Z-4.2774 F2500
G1 X392.9097 Y1508.9559 Z-4.9746 F2500
G1 X394.9047 Y1509.7101 Z-5.6783 F2500
G1 X396.9496 Y1510.3744 Z-6.3876 F2500
G1 X399.0384 Y1510.9444 Z-7.1019 F2500
G1 X401.1645 Y1511.4163 Z-7.8204 F2500
G1 X403.3210 Y1511.7867 Z-8.5423 F2500
G1 X404.6980 Y1511.9551 Z-9.0000 F2500
G1 X403.3210 Y1511.7867 Z-9.4577 F2500
G1 X401.1645 Y1511.4163 Z-10.1796 F2500
G1 X399.0384 Y1510.9444 Z-10.8981 F2500
G1 X396.9496 Y1510.3744 Z-11.6124 F2500
G1 X394.9047 Y1509.7101 Z-12.3217 F2500
G1 X392.9097 Y1508.9559 Z-13.0254 F2500
G1 X390.9701 Y1508.1166 Z-13.7226 F2500
G1 X389.0908 Y1507.1975 Z-14.4128 F2500
G1 X387.2762 Y1506.2042 Z-15.0953 F2500
G1 X385.5301 Y1505.1424 Z-15.7695 F2500
G1 X383.8554 Y1504.0182 Z-16.4349 F2500
G1 X382.2548 Y1502.8376 Z-17.0911 F2500
G1 X380.7300 Y1501.6068 Z-17.7376 F2500
G1 X379.2825 Y1500.3318 Z-18.3740 F2500
G1 X377.9130 Y1499.0185 Z-19.0000 F2500
G1 X379.2825 Y1500.3318 Z-19.0000 F4000
G1 X380.7300 Y1501.6068 Z-19.0000 F4000
G1 X382.2548 Y1502.8376 Z-19.0000 F4000
G1 X383.8554 Y1504.0182 Z-19.0000 F4000
G1 X385.5301 Y1505.1424 Z-19.0000 F4000
G1 X387.2762 Y1506.2042 Z-19.0000 F4000
G1 X389.0908 Y1507.1975 Z-19.0000 F4000
G1 X390.9701 Y1508.1166 Z-19.0000 F4000
G1 X392.9097 Y1508.9559 Z-19.0000 F4000
G1 X394.9047 Y1509.7101 Z-19.0000 F4000
G1 X396.9496 Y1510.3744 Z-19.0000 F4000
G1 X399.0384 Y1510.9444 Z-19.0000 F4000
G1 X401.1645 Y1511.4163 Z-19.0000 F4000
G1 X403.3210 Y1511.7867 Z-19.0000 F4000
G1 X405.5007 Y1512.0532 Z-19.0000 F4000
G1 X407.6959 Y1512.2139 Z-19.0000 F4000
G1 X409.8989 Y1512.2675 Z-19.0000 F4000
G1 X412.1020 Y1512.2139 Z-19.0000 F4000
G1 X414.2972 Y1512.0532 Z-19.0000 F4000
G1 X416.4768 Y1511.7867 Z-19.0000 F4000
G1 X418.6334 Y1511.4163 Z-19.0000 F4000
G1 X420.7595 Y1510.9444 Z-19.0000 F4000
G1 X422.8483 Y1510.3744 Z-19.0000 F4000
G1 X424.8932 Y1509.7101 Z-19.0000 F4000
G1 X426.8882 Y1508.9559 Z-19.0000 F4000
G1 X428.8278 Y1508.1166 Z-19.0000 F4000
G1 X430.7071 Y1507.1975 Z-19.0000 F4000
G1 X432.5216 Y1506.2042 Z-19.0000 F4000
G1 X434.2678 Y1505.1424 Z-19.0000 F4000
G1 X435.9425 Y1504.0182 Z-19.0000 F4000
G1 X437.5431 Y1502.8376 Z-19.0000 F4000
G1 X439.0678 Y1501.6068 Z-19.0000 F4000
G1 X440.5154 Y1500.3318 Z-19.0000 F4000
G1 X441.8849 Y1499.0185 Z-19.0000 F4000
G1 X443.1982 Y1497.6490 Z-19.0000 F4000
G1 X444.4732 Y1496.2014 Z-19.0000 F4000
G1 X445.7040 Y1494.6767 Z-19.0000 F4000
G1 X446.8846 Y1493.0761 Z-19.0000 F4000
G1 X448.0088 Y1491.4014 Z-19.0000 F4000
G1 X449.0706 Y1489.6552 Z-19.0000 F4000
G1 X450.0639 Y1487.8407 Z-19.0000 F4000
G1 X450.9830 Y1485.9614 Z-19.0000 F4000
G1 X451.8223 Y1484.0218 Z-19.0000 F4000
G1 X452.5765 Y1482.0268 Z-19.0000 F4000
G1 X453.2408 Y1479.9819 Z-19.0000 F4000
G1 X453.8108 Y1477.8931 Z-19.0000 F4000
G1 X454.2827 Y1475.7670 Z-19.0000 F4000
G1 X454.6531 Y1473.6104 Z-19.0000 F4000
G1 X454.9196 Y1471.4308 Z-19.0000 F4000
G1 X455.0803 Y1469.2356 Z-19.0000 F4000
G1 X455.1339 Y1467.0325 Z-19.0000 F4000
G1 X455.0803 Y1464.8295 Z-19.0000 F4000
G1 X454.9196 Y1462.6343 Z-19.0000 F4000
G1 X454.6531 Y1460.4546 Z-19.0000 F4000
G1 X454.2827 Y1458.2981 Z-19.0000 F4000
G1 X453.8108 Y1456.1720 Z-19.0000 F4000
G1 X453.2408 Y1454.0832 Z-19.0000 F4000
G1 X452.5765 Y1452.0383 Z-19.0000 F4000
G1 X451.8223 Y1450.0433 Z-19.0000 F4000
G1 X450.9830 Y1448.1037 Z-19.0000 F4000
G1 X450.0639 Y1446.2244 Z-19.0000 F4000
G1 X449.0706 Y1444.4098 Z-19.0000 F4000
G1 X448.0088 Y1442.6636 Z-19.0000 F4000
G1 X446.8846 Y1440.9890 Z-19.0000 F4000
G1 X445.7040 Y1439.3884 Z-19.0000 F4000
G1 X444.4732 Y1437.8636 Z-19.0000 F4000
G1 X443.1982 Y1436.4161 Z-19.0000 F4000
G1 X441.8849 Y1435.0466 Z-19.0000 F4000
G1 X440.5154 Y1433.7333 Z-19.0000 F4000
G1 X439.0678 Y1432.4583 Z-19.0000 F4000
G1 X437.5431 Y1431.2274 Z-19.0000 F4000
G1 X435.9425 Y1430.0469 Z-19.0000 F4000
G1 X434.2678 Y1428.9226 Z-19.0000 F4000
G1 X432.5216 Y1427.8609 Z-19.0000 F4000
G1 X430.7071 Y1426.8675 Z-19.0000 F4000
G1 X428.8278 Y1425.9484 Z-19.0000 F4000
G1 X426.8882 Y1425.1091 Z-19.0000 F4000
G1 X424.8932 Y1424.3549 Z-19.0000 F4000
G1 X422.8483 Y1423.6906 Z-19.0000 F4000
G1 X420.7595 Y1423.1206 Z-19.0000 F4000
G1 X418.6334 Y1422.6488 Z-19.0000 F4000
G1 X416.4768 Y1422.2784 Z-19.0000 F4000
G1 X414.2972 Y1422.0119 Z-19.0000 F4000
G1 X412.1020 Y1421.8512 Z-19.0000 F4000
G1 X409.8989 Y1421.7975 Z-19.0000 F4000
G1 X407.6959 Y1421.8512 Z-19.0000 F4000
G1 X405.5007 Y1422.0119 Z-19.0000 F4000
G1 X403.3210 Y1422.2784 Z-19.0000 F4000
G1 X401.1645 Y1422.6488 Z-19.0000 F4000
G1 X399.0384 Y1423.1206 Z-19.0000 F4000
G1 X396.9496 Y1423.6906 Z-19.0000 F4000
G1 X394.9047 Y1424.3549 Z-19.0000 F4000
G1 X392.9097 Y1425.1091 Z-19.0000 F4000
G1 X390.9701 Y1425.9484 Z-19.0000 F4000
G1 X389.0908 Y1426.8675 Z-19.0000 F4000
G1 X387.2762 Y1427.8609 Z-19.0000 F4000
G1 X385.5301 Y1428.9226 Z-19.0000 F4000
G1 X383.8554 Y1430.0469 Z-19.0000 F4000
G1 X382.2548 Y1431.2274 Z-19.0000 F4000
G1 X380.7300 Y1432.4583 Z-19.0000 F4000
G1 X379.2825 Y1433.7333 Z-19.0000 F4000
G1 X377.9130 Y1435.0466 Z-19.0000 F4000
G1 X376.5997 Y1436.4161 Z-19.0000 F4000
G1 X375.3247 Y1437.8636 Z-19.0000 F4000
G1 X374.0938 Y1439.3884 Z-19.0000 F4000
G1 X372.9133 Y1440.9890 Z-19.0000 F4000
G1 X371.7891 Y1442.6636 Z-19.0000 F4000
G1 X370.7273 Y1444.4098 Z-19.0000 F4000
G1 X369.7339 Y1446.2244 Z-19.0000 F4000
G1 X368.8148 Y1448.1037 Z-19.0000 F4000
G1 X367.9755 Y1450.0433 Z-19.0000 F4000
G1 X367.2213 Y1452.0383 Z-19.0000 F4000
G1 X366.5570 Y1454.0832 Z-19.0000 F4000
G1 X365.9870 Y1456.1720 Z-19.0000 F4000
G1 X365.5152 Y1458.2981 Z-19.0000 F4000
G1 X365.1448 Y1460.4546 Z-19.0000 F4000
G1 X364.8783 Y1462.6343 Z-19.0000 F4000
G1 X364.7176 Y1464.8295 Z-19.0000 F4000
G1 X364.6639 Y1467.0325 Z-19.0000 F4000
G1 X364.7176 Y1469.2356 Z-19.0000 F4000
G1 X364.8783 Y1471.4308 Z-19.0000 F4000
G1 X365.1448 Y1473.6104 Z-19.0000 F4000
G1 X365.5152 Y1475.7670 Z-19.0000 F4000
G1 X365.9870 Y1477.8931 Z-19.0000 F4000
G1 X366.5570 Y1479.9819 Z-19.0000 F4000
G1 X367.2213 Y1482.0268 Z-19.0000 F4000
G1 X367.9755 Y1484.0218 Z-19.0000 F4000
G1 X368.8148 Y1485.9614 Z-19.0000 F4000
G1 X369.7339 Y1487.8407 Z-19.0000 F4000
G1 X370.7273 Y1489.6552 Z-19.0000 F4000
G1 X371.7891 Y1491.4014 Z-19.0000 F4000
G1 X372.9133 Y1493.0761 Z-19.0000 F4000
G1 X374.0938 Y1494.6767 Z-19.0000 F4000
G1 X375.3247 Y1496.2014 Z-19.0000 F4000
G1 X376.5997 Y1497.6490 Z-19.0000 F4000
G1 X377.9130 Y1499.0185 Z-19.0000 F4000
G1 X377.9130 Y1499.0185 Z10.0000 F9999
G1 X641.8849 Y1435.0466 Z10.0000 F9999
G1 X641.8849 Y1435.0466 Z1.0000 F2500
G1 X640.5154 Y1433.7333 Z0.3740 F2500
G1 X639.0678 Y1432.4583 Z-0.2624 F2500
G1 X637.5431 Y1431.2274 Z-0.9089 F2500
G1 X635.9425 Y1430.0469 Z-1.5651 F2500
G1 X634.2678 Y1428.9226 Z-2.2305 F2500
G1 X632.5216 Y1427.8609 Z-2.9047 F2500
G1 X630.7071 Y1426.8675 Z-3.5872 F2500
G1 X628.8278 Y1425.9484 Z-4.2774 F2500
G1 X626.8882 Y1425.1091 Z-4.9746 F2500
G1 X624.8932 Y1424.3549 Z-5.6783 F2500
G1 X622.8483 Y1423.6906 Z-6.3876 F2500
G1 X620.7595 Y1423.1206 Z-7.1019 F2500
G1 X618.6334 Y1422.6488 Z-7.8204 F2500
G1 X616.4768 Y1422.2784 Z-8.5423 F2500
G1 X615.0998 Y1422.1100 Z-9.0000 F2500
G1 X616.4768 Y1422.2784 Z-9.4577 F2500
G1 X618.6334 Y1422.6488 Z-10.1796 F2500
G1 X620.7595 Y1423.1206 Z-10.8981 F2500
G1 X622.8483 Y1423.6906 Z-11.6124 F2500
G1 X624.8932 Y1424.3549 Z-12.3217 F2500
G1 X626.8882 Y1425.1091 Z-13.0254 F2500
G1 X628.8278 Y1425.9484 Z-13.7226 F2500
G1 X630.7071 Y1426.8675 Z-14.4128 F2500
G1 X632.5216 Y1427.8609 Z-15.0953 F2500
G1 X634.2678 Y1428.9226 Z-15.7695 F2500
G1 X635.9425 Y1430.0469 Z-16.4349 F2500
G1 X637.5431 Y1431.2274 Z-17.0911 F2500
G1 X639.0678 Y1432.4583 Z-17.7376 F2500
G1 X640.5154 Y1433.7333 Z-18.3740 F2500
G1 X641.8849 Y1435.0466 Z-19.0000 F2500
G1 X640.5154 Y1433.7333 Z-19.0000 F4000
G1 X639.0678 Y1432.4583 Z-19.0000 F4000
G1 X637.5431 Y1431.2274 Z-19.0000 F4000
G1 X635.9425 Y1430.0469 Z-19.0000 F4000
G1 X634.2678 Y1428.9226 Z-19.0000 F4000
G1 X632.5216 Y1427.8609 Z-19.0000 F4000
G1 X630.7071 Y1426.8675 Z-19.0000 F4000
G1 X628.8278 Y1425.9484 Z-19.0000 F4000
G1 X626.8882 Y1425.1091 Z-19.0000 F4000
G1 X624.8932 Y1424.3549 Z-19.0000 F4000
G1 X622.8483 Y1423.6906 Z-19.0000 F4000
G1 X620.7595 Y1423.1206 Z-19.0000 F4000
G1 X618.6334 Y1422.6488 Z-19.0000 F4000
G1 X616.4768 Y1422.2784 Z-19.0000 F4000
G1 X614.2972 Y1422.0119 Z-19.0000 F4000
G1 X612.1020 Y1421.8512 Z-19.0000 F4000
G1 X609.8989 Y1421.7975 Z-19.0000 F4000
G1 X607.6959 Y1421.8512 Z-19.0000 F4000
G1 X605.5007 Y1422.0119 Z-19.0000 F4000
G1 X603.3210 Y1422.2784 Z-19.0000 F4000
G1 X601.1645 Y1422.6488 Z-19.0000 F4000
G1 X599.0384 Y1423.1206 Z-19.0000 F4000
G1 X596.9496 Y1423.6906 Z-19.0000 F4000
G1 X594.9047 Y1424.3549 Z-19.0000 F4000
G1 X592.9097 Y1425.1091 Z-19.0000 F4000
G1 X590.9701 Y1425.9484 Z-19.0000 F4000
G1 X589.0908 Y1426.8675 Z-19.0000 F4000
G1 X587.2762 Y1427.8609 Z-19.0000 F4000
G1 X585.5301 Y1428.9226 Z-19.0000 F4000
G1 X583.8554 Y1430.0469 Z-19.0000 F4000
G1 X582.2548 Y1431.2274 Z-19.0000 F4000
G1 X580.7300 Y1432.4583 Z-19.0000 F4000
G1 X579.2825 Y1433.7333 Z-19.0000 F4000
G1 X577.9130 Y1435.0466 Z-19.0000 F4000
G1 X576.5997 Y1436.4161 Z-19.0000 F4000
G1 X575.3247 Y1437.8636 Z-19.0000 F4000
G1 X574.0938 Y1439.3884 Z-19.0000 F4000
G1 X572.9133 Y1440.9890 Z-19.0000 F4000
G1 X571.7891 Y1442.6636 Z-19.0000 F4000
G1 X570.7273 Y1444.4098 Z-19.0000 F4000
G1 X569.7339 Y1446.2244 Z-19.0000 F4000
G1 X568.8148 Y1448.1037 Z-19.0000 F4000
G1 X567.9755 Y1450.0433 Z-19.0000 F4000
G1 X567.2213 Y1452.0383 Z-19.0000 F4000
G1 X566.5570 Y1454.0832 Z-19.0000 F4000
G1 X565.9870 Y1456.1720 Z-19.0000 F4000
G1 X565.5152 Y1458.2981 Z-19.0000 F4000
G1 X565.1448 Y1460.4546 Z-19.0000 F4000
G1 X564.8783 Y1462.6343 Z-19.0000 F4000
G1 X564.7176 Y1464.8295 Z-19.0000 F4000
G1 X564.6639 Y1467.0325 Z-19.0000 F4000
G1 X564.7176 Y1469.2356 Z-19.0000 F4000
G1 X564.8783 Y1471.4308 Z-19.0000 F4000
G1 X565.1448 Y1473.6104 Z-19.0000 F4000
G1 X565.5152 Y1475.7670 Z-19.0000 F4000
G1 X565.9870 Y1477.8931 Z-19.0000 F4000
G1 X566.5570 Y1479.9819 Z-19.0000 F4000
G1 X567.2213 Y1482.0268 Z-19.0000 F4000
G1 X567.9755 Y1484.0218 Z-19.0000 F4000
G1 X568.8148 Y1485.9614 Z-19.0000 F4000
G1 X569.7339 Y1487.8407 Z-19.0000 F4000
G1 X570.7273 Y1489.6552 Z-19.0000 F4000
G1 X571.7891 Y1491.4014 Z-19.0000 F4000
G1 X572.9133 Y1493.0761 Z-19.0000 F4000
G1 X574.0938 Y1494.6767 Z-19.0000 F4000
G1 X575.3247 Y1496.2014 Z-19.0000 F4000
G1 X576.5997 Y1497.6490 Z-19.0000 F4000
G1 X577.9130 Y1499.0185 Z-19.0000 F4000
G1 X579.2825 Y1500.3318 Z-19.0000 F4000
G1 X580.7300 Y1501.6068 Z-19.0000 F4000
G1 X582.2548 Y1502.8376 Z-19.0000 F4000
G1 X583.8554 Y1504.0182 Z-19.0000 F4000
G1 X585.5301 Y1505.1424 Z-19.0000 F4000
G1 X587.2762 Y1506.2042 Z-19.0000 F4000
G1 X589.0908 Y1507.1975 Z-19.0000 F4000
G1 X590.9701 Y1508.1166 Z-19.0000 F4000
G1 X592.9097 Y1508.9559 Z-19.0000 F4000
G1 X594.9047 Y1509.7101 Z-19.0000 F4000
G1 X596.9496 Y1510.3744 Z-19.0000 F4000
G1 X599.0384 Y1510.9444 Z-19.0000 F4000
G1 X601.1645 Y1511.4163 Z-19.0000 F4000
G1 X603.3210 Y1511.7867 Z-19.0000 F4000
G1 X605.5007 Y1512.0532 Z-19.0000 F4000
G1 X607.6959 Y1512.2139 Z-19.0000 F4000
G1 X609.8989 Y1512.2675 Z-19.0000 F4000
G1 X612.1020 Y1512.2139 Z-19.0000 F4000
G1 X614.2972 Y1512.0532 Z-19.0000 F4000
G1 X616.4768 Y1511.7867 Z-19.0000 F4000
G1 X618.6334 Y1511.4163 Z-19.0000 F4000
G1 X620.7595 Y1510.9444 Z-19.0000 F4000
G1 X622.8483 Y1510.3744 Z-19.0000 F4000
G1 X624.8932 Y1509.7101 Z-19.0000 F4000
G1 X626.8882 Y1508.9559 Z-19.0000 F4000
G1 X628.8278 Y1508.1166 Z-19.0000 F4000
G1 X630.7071 Y1507.1975 Z-19.0000 F4000
G1 X632.5216 Y1506.2042 Z-19.0000 F4000
G1 X634.2678 Y1505.1424 Z-19.0000 F4000
G1 X635.9425 Y1504.0182 Z-19.0000 F4000
G1 X637.5431 Y1502.8376 Z-19.0000 F4000
G1 X639.0678 Y1501.6068 Z-19.0000 F4000
G1 X640.5154 Y1500.3318 Z-19.0000 F4000
G1 X641.8849 Y1499.0185 Z-19.0000 F4000
G1 X643.1982 Y1497.6490 Z-19.0000 F4000
G1 X644.4732 Y1496.2014 Z-19.0000 F4000
G1 X645.7040 Y1494.6767 Z-19.0000 F4000
G1 X646.8846 Y1493.0761 Z-19.0000 F4000
G1 X648.0088 Y1491.4014 Z-19.0000 F4000
G1 X649.0706 Y1489.6552 Z-19.0000 F4000
G1 X650.0639 Y1487.8407 Z-19.0000 F4000
G1 X650.9830 Y1485.9614 Z-19.0000 F4000
G1 X651.8223 Y1484.0218 Z-19.0000 F4000
G1 X652.5765 Y1482.0268 Z-19.0000 F4000
G1 X653.2408 Y1479.9819 Z-19.0000 F4000
G1 X653.8108 Y1477.8931 Z-19.0000 F4000
G1 X654.2827 Y1475.7670 Z-19.0000 F4000
G1 X654.6531 Y1473.6104 Z-19.0000 F4000
G1 X654.9196 Y1471.4308 Z-19.0000 F4000
G1 X655.0803 Y1469.2356 Z-19.0000 F4000
G1 X655.1339 Y1467.0325 Z-19.0000 F4000
G1 X655.0803 Y1464.8295 Z-19.0000 F4000
G1 X654.9196 Y1462.6343 Z-19.0000 F4000
G1 X654.6531 Y1460.4546 Z-19.0000 F4000
G1 X654.2827 Y1458.2981 Z-19.0000 F4000
G1 X653.8108 Y1456.1720 Z-19.0000 F4000
G1 X653.2408 Y1454.0832 Z-19.0000 F4000
G1 X652.5765 Y1452.0383 Z-19.0000 F4000
G1 X651.8223 Y1450.0433 Z-19.0000 F4000
G1 X650.9830 Y1448.1037 Z-19.0000 F4000
G1 X650.0639 Y1446.2244 Z-19.0000 F4000
G1 X649.0706 Y1444.4098 Z-19.0000 F4000
G1 X648.0088 Y1442.6636 Z-19.0000 F4000
G1 X646.8846 Y1440.9890 Z-19.0000 F4000
G1 X645.7040 Y1439.3884 Z-19.0000 F4000
G1 X644.4732 Y1437.8636 Z-19.0000 F4000
G1 X643.1982 Y1436.4161 Z-19.0000 F4000
G1 X641.8849 Y1435.0466 Z-19.0000 F4000
G1 X641.8849 Y1435.0466 Z10.0000 F9999
G1 X841.8849 Y1435.0466 Z10.0000 F9999
G1 X841.8849 Y1435.0466 Z1.0000 F2500
G1 X840.5154 Y1433.7333 Z0.3740 F2500
G1 X839.0678 Y1432.4583 Z-0.2624 F2500
G1 X837.5431 Y1431.2274 Z-0.9089 F2500
G1 X835.9425 Y1430.0469 Z-1.5651 F2500
G1 X834.2678 Y1428.9226 Z-2.2305 F2500
G1 X832.5216 Y1427.8609 Z-2.9047 F2500
G1 X830.7071 Y1426.8675 Z-3.5872 F2500
G1 X828.8278 Y1425.9484 Z-4.2774 F2500
G1 X826.8882 Y1425.1091 Z-4.9746 F2500
G1 X824.8932 Y1424.3549 Z-5.6783 F2500
G1 X822.8483 Y1423.6906 Z-6.3876 F2500
G1 X820.7595 Y1423.1206 Z-7.1019 F2500
G1 X818.6334 Y1422.6488 Z-7.8204 F2500
G1 X816.4768 Y1422.2784 Z-8.5423 F2500
G1 X815.0998 Y1422.1100 Z-9.0000 F2500
G1 X816.4768 Y1422.2784 Z-9.4577 F2500
G1 X818.6334 Y1422.6488 Z-10.1796 F2500
G1 X820.7595 Y1423.1206 Z-10.8981 F2500
G1 X822.8483 Y1423.6906 Z-11.6124 F2500
G1 X824.8932 Y1424.3549 Z-12.3217 F2500
G1 X826.8882 Y1425.1091 Z-13.0254 F2500
G1 X828.8278 Y1425.9484 Z-13.7226 F2500
G1 X830.7071 Y1426.8675 Z-14.4128 F2500
G1 X832.5216 Y1427.8609 Z-15.0953 F2500
G1 X834.2678 Y1428.9226 Z-15.7695 F2500
G1 X835.9425 Y1430.0469 Z-16.4349 F2500
G1 X837.5431 Y1431.2274 Z-17.0911 F2500
G1 X839.0678 Y1432.4583 Z-17.7376 F2500
G1 X840.5154 Y1433.7333 Z-18.3740 F2500
G1 X841.8849 Y1435.0466 Z-19.0000 F2500
G1 X840.5154 Y1433.7333 Z-19.0000 F4000
G1 X839.0678 Y1432.4583 Z-19.0000 F4000
G1 X837.5431 Y1431.2274 Z-19.0000 F4000
G1 X835.9425 Y1430.0469 Z-19.0000 F4000
G1 X834.2678 Y1428.9226 Z-19.0000 F4000
G1 X832.5216 Y1427.8609 Z-19.0000 F4000
G1 X830.7071 Y1426.8675 Z-19.0000 F4000
G1 X828.8278 Y1425.9484 Z-19.0000 F4000
G1 X826.8882 Y1425.1091 Z-19.0000 F4000
G1 X824.8932 Y1424.3549 Z-19.0000 F4000
G1 X822.8483 Y1423.6906 Z-19.0000 F4000
G1 X820.7595 Y1423.1206 Z-19.0000 F4000
G1 X818.6334 Y1422.6488 Z-19.0000 F4000
G1 X816.4768 Y1422.2784 Z-19.0000 F4000
G1 X814.2972 Y1422.0119 Z-19.0000 F4000
G1 X812.1020 Y1421.8512 Z-19.0000 F4000
G1 X809.8989 Y1421.7975 Z-19.0000 F4000
G1 X807.6959 Y1421.8512 Z-19.0000 F4000
G1 X805.5007 Y1422.0119 Z-19.0000 F4000
G1 X803.3210 Y1422.2784 Z-19.0000 F4000
G1 X801.1645 Y1422.6488 Z-19.0000 F4000
G1 X799.0384 Y1423.1206 Z-19.0000 F4000
G1 X796.9496 Y1423.6906 Z-19.0000 F4000
G1 X794.9047 Y1424.3549 Z-19.0000 F4000
G1 X792.9097 Y1425.1091 Z-19.0000 F4000
G1 X790.9701 Y1425.9484 Z-19.0000 F4000
G1 X789.0908 Y1426.8675 Z-19.0000 F4000
G1 X787.2762 Y1427.8609 Z-19.0000 F4000
G1 X785.5301 Y1428.9226 Z-19.0000 F4000
G1 X783.8554 Y1430.0469 Z-19.0000 F4000
G1 X782.2548 Y1431.2274 Z-19.0000 F4000
G1 X780.7300 Y1432.4583 Z-19.0000 F4000
G1 X779.2825 Y1433.7333 Z-19.0000 F4000
G1 X777.9130 Y1435.0466 Z-19.0000 F4000
G1 X776.5997 Y1436.4161 Z-19.0000 F4000
G1 X775.3247 Y1437.8636 Z-19.0000 F4000
G1 X774.0938 Y1439.3884 Z-19.0000 F4000
G1 X772.9133 Y1440.9890 Z-19.0000 F4000
G1 X771.7891 Y1442.6636 Z-19.0000 F4000
G1 X770.7273 Y1444.4098 Z-19.0000 F4000
G1 X769.7339 Y1446.2244 Z-19.0000 F4000
G1 X768.8148 Y1448.1037 Z-19.0000 F4000
G1 X767.9755 Y1450.0433 Z-19.0000 F4000
G1 X767.2213 Y1452.0383 Z-19.0000 F4000
G1 X766.5570 Y1454.0832 Z-19.0000 F4000
G1 X765.9870 Y1456.1720 Z-19.0000 F4000
G1 X765.5152 Y1458.2981 Z-19.0000 F4000
G1 X765.1448 Y1460.4546 Z-19.0000 F4000
G1 X764.8783 Y1462.6343 Z-19.0000 F4000
G1 X764.7176 Y1464.8295 Z-19.0000 F4000
G1 X764.6639 Y1467.0325 Z-19.0000 F4000
G1 X764.7176 Y1469.2356 Z-19.0000 F4000
G1 X764.8783 Y1471.4308 Z-19.0000 F4000
G1 X765.1448 Y1473.6104 Z-19.0000 F4000
G1 X765.5152 Y1475.7670 Z-19.0000 F4000
G1 X765.9870 Y1477.8931 Z-19.0000 F4000
G1 X766.5570 Y1479.9819 Z-19.0000 F4000
G1 X767.2213 Y1482.0268 Z-19.0000 F4000
G1 X767.9755 Y1484.0218 Z-19.0000 F4000
G1 X768.8148 Y1485.9614 Z-19.0000 F4000
G1 X769.7339 Y1487.8407 Z-19.0000 F4000
G1 X770.7273 Y1489.6552 Z-19.0000 F4000
G1 X771.7891 Y1491.4014 Z-19.0000 F4000
G1 X772.9133 Y1493.0761 Z-19.0000 F4000
G1 X774.0938 Y1494.6767 Z-19.0000 F4000
G1 X775.3247 Y1496.2014 Z-19.0000 F4000
G1 X776.5997 Y1497.6490 Z-19.0000 F4000
G1 X777.9130 Y1499.0185 Z-19.0000 F4000
G1 X779.2825 Y1500.3318 Z-19.0000 F4000
G1 X780.7300 Y1501.6068 Z-19.0000 F4000
G1 X782.2548 Y1502.8376 Z-19.0000 F4000
G1 X783.8554 Y1504.0182 Z-19.0000 F4000
G1 X785.5301 Y1505.1424 Z-19.0000 F4000
G1 X787.2762 Y1506.2042 Z-19.0000 F4000
G1 X789.0908 Y1507.1975 Z-19.0000 F4000
G1 X790.9701 Y1508.1166 Z-19.0000 F4000
G1 X792.9097 Y1508.9559 Z-19.0000 F4000
G1 X794.9047 Y1509.7101 Z-19.0000 F4000
G1 X796.9496 Y1510.3744 Z-19.0000 F4000
G1 X799.0384 Y1510.9444 Z-19.0000 F4000
G1 X801.1645 Y1511.4163 Z-19.0000 F4000
G1 X803.3210 Y1511.7867 Z-19.0000 F4000
G1 X805.5007 Y1512.0532 Z-19.0000 F4000
G1 X807.6959 Y1512.2139 Z-19.0000 F4000
G1 X809.8989 Y1512.2675 Z-19.0000 F4000
G1 X812.1020 Y1512.2139 Z-19.0000 F4000
G1 X814.2972 Y1512.0532 Z-19.0000 F4000
G1 X816.4768 Y1511.7867 Z-19.0000 F4000
G1 X818.6334 Y1511.4163 Z-19.0000 F4000
G1 X820.7595 Y1510.9444 Z-19.0000 F4000
G1 X822.8483 Y1510.3744 Z-19.0000 F4000
G1 X824.8932 Y1509.7101 Z-19.0000 F4000
G1 X826.8882 Y1508.9559 Z-19.0000 F4000
G1 X828.8278 Y1508.1166 Z-19.0000 F4000
G1 X830.7071 Y1507.1975 Z-19.0000 F4000
G1 X832.5216 Y1506.2042 Z-19.0000 F4000
G1 X834.2678 Y1505.1424 Z-19.0000 F4000
G1 X835.9425 Y1504.0182 Z-19.0000 F4000
G1 X837.5431 Y1502.8376 Z-19.0000 F4000
G1 X839.0678 Y1501.6068 Z-19.0000 F4000
G1 X840.5154 Y1500.3318 Z-19.0000 F4000
G1 X841.8849 Y1499.0185 Z-19.0000 F4000
G1 X843.1982 Y1497.6490 Z-19.0000 F4000
G1 X844.4732 Y1496.2014 Z-19.0000 F4000
G1 X845.7040 Y1494.6767 Z-19.0000 F4000
G1 X846.8846 Y1493.0761 Z-19.0000 F4000
G1 X848.0088 Y1491.4014 Z-19.0000 F4000
G1 X849.0706 Y1489.6552 Z-19.0000 F4000
G1 X850.0639 Y1487.8407 Z-19.0000 F4000
G1 X850.9830 Y1485.9614 Z-19.0000 F4000
G1 X851.8223 Y1484.0218 Z-19.0000 F4000
G1 X852.5765 Y1482.0268 Z-19.0000 F4000
G1 X853.2408 Y1479.9819 Z-19.0000 F4000
G1 X853.8108 Y1477.8931 Z-19.0000 F4000
G1 X854.2827 Y1475.7670 Z-19.0000 F4000
G1 X854.6531 Y1473.6104 Z-19.0000 F4000
G1 X854.9196 Y1471.4308 Z-19.0000 F4000
G1 X855.0803 Y1469.2356 Z-19.0000 F4000
G1 X855.1339 Y1467.0325 Z-19.0000 F4000
G1 X855.0803 Y1464.8295 Z-19.0000 F4000
G1 X854.9196 Y1462.6343 Z-19.0000 F4000
G1 X854.6531 Y1460.4546 Z-19.0000 F4000
G1 X854.2827 Y1458.2981 Z-19.0000 F4000
G1 X853.8108 Y1456.1720 Z-19.0000 F4000
G1 X853.2408 Y1454.0832 Z-19.0000 F4000
G1 X852.5765 Y1452.0383 Z-19.0000 F4000
G1 X851.8223 Y1450.0433 Z-19.0000 F4000
G1 X850.9830 Y1448.1037 Z-19.0000 F4000
G1 X850.0639 Y1446.2244 Z-19.0000 F4000
G1 X849.0706 Y1444.4098 Z-19.0000 F4000
G1 X848.0088 Y1442.6636 Z-19.0000 F4000
G1 X846.8846 Y1440.9890 Z-19.0000 F4000
G1 X845.7040 Y1439.3884 Z-19.0000 F4000
G1 X844.4732 Y1437.8636 Z-19.0000 F4000
G1 X843.1982 Y1436.4161 Z-19.0000 F4000
G1 X841.8849 Y1435.0466 Z-19.0000 F4000
G1 X841.8849 Y1435.0466 Z10.0000 F9999
G1 X1139.6628 Y1607.0317 Z10.0000 F9999
G1 X1139.6628 Y1607.0317 Z1.0000 F2500
G1 X1139.6628 Y1637.3426 Z-9.0000 F2500
G1 X1139.6628 Y1607.0317 Z-19.0000 F2500
G1 X1139.6628 Y1691.7968 Z-19.0000 F4000
G1 X1134.6629 Y1691.7968 Z-19.0000 F4000
G1 X1134.6629 Y1692.2674 Z-19.0000 F4000
G1 X1171.1327 Y1692.2674 Z-19.0000 F4000
G1 X1171.1327 Y1691.7968 Z-19.0000 F4000
G1 X1166.1327 Y1691.7968 Z-19.0000 F4000
G1 X1166.1327 Y1522.2666 Z-19.0000 F4000
G1 X1171.1327 Y1522.2666 Z-19.0000 F4000
G1 X1171.1327 Y1521.7975 Z-19.0000 F4000
G1 X1134.6629 Y1521.7975 Z-19.0000 F4000
G1 X1134.6629 Y1522.2666 Z-19.0000 F4000
G1 X1139.6628 Y1522.2666 Z-19.0000 F4000
G1 X1139.6628 Y1607.0317 Z-19.0000 F4000
G1 X1139.6628 Y1607.0317 Z10.0000 F9999
G1 X841.8849 Y2099.5083 Z10.0000 F9999
G1 X841.8849 Y2099.5083 Z1.0000 F2500
G1 X843.1982 Y2098.1387 Z0.3740 F2500
G1 X844.4732 Y2096.6912 Z-0.2624 F2500
G1 X845.7040 Y2095.1665 Z-0.9089 F2500
G1 X846.8846 Y2093.5658 Z-1.5651 F2500
G1 X848.0088 Y2091.8912 Z-2.2305 F2500
G1 X849.0706 Y2090.1450 Z-2.9047 F2500
G1 X850.0639 Y2088.3304 Z-3.5872 F2500
G1 X850.9830 Y2086.4512 Z-4.2774 F2500
G1 X851.8223 Y2084.5116 Z-4.9746 F2500
G1 X852.5765 Y2082.5165 Z-5.6783 F2500
G1 X853.2408 Y2080.4716 Z-6.3876 F2500
G1 X853.8108 Y2078.3828 Z-7.1019 F2500
G1 X854.2827 Y2076.2567 Z-7.8204 F2500
G1 X854.6531 Y2074.1002 Z-8.5423 F2500
G1 X854.8215 Y2072.7232 Z-9.0000 F2500
G1 X854.6531 Y2074.1002 Z-9.4577 F2500
G1 X854.2827 Y2076.2567 Z-10.1796 F2500
G1 X853.8108 Y2078.3828 Z-10.8981 F2500
G1 X853.2408 Y2080.4716 Z-11.6124 F2500
G1 X852.5765 Y2082.5165 Z-12.3217 F2500
G1 X851.8223 Y2084.5116 Z-13.0254 F2500
G1 X850.9830 Y2086.4512 Z-13.7226 F2500
G1 X850.0639 Y2088.3304 Z-14.4128 F2500
G1 X849.0706 Y2090.1450 Z-15.0953 F2500
G1 X848.0088 Y2091.8912 Z-15.7695 F2500
G1 X846.8846 Y2093.5658 Z-16.4349 F2500
G1 X845.7040 Y2095.1665 Z-17.0911 F2500
G1 X844.4732 Y2096.6912 Z-17.7376 F2500
G1 X843.1982 Y2098.1387 Z-18.3740 F2500
G1 X841.8849 Y2099.5083 Z-19.0000 F2500
G1 X843.1982 Y2098.1387 Z-19.0000 F4000
G1 X844.4732 Y2096.6912 Z-19.0000 F4000
G1 X845.7040 Y2095.1665 Z-19.0000 F4000
G1 X846.8846 Y2093.5658 Z-19.0000 F4000
G1 X848.0088 Y2091.8912 Z-19.0000 F4000
G1 X849.0706 Y2090.1450 Z-19.0000 F4000
G1 X850.0639 Y2088.3304 Z-19.0000 F4000
G1 X850.9830 Y2086.4512 Z-19.0000 F4000
G1 X851.8223 Y2084.5116 Z-19.0000 F4000
G1 X852.5765 Y2082.5165 Z-19.0000 F4000
G1 X853.2408 Y2080.4716 Z-19.0000 F4000
G1 X853.8108 Y2078.3828 Z-19.0000 F4000
G1 X854.2827 Y2076.2567 Z-19.0000 F4000
G1 X854.6531 Y2074.1002 Z-19.0000 F4000
G1 X854.9196 Y2071.9205 Z-19.0000 F4000
G1 X855.0803 Y2069.7253 Z-19.0000 F4000
G1 X855.1339 Y2067.5223 Z-19.0000 F4000
G1 X855.0803 Y2065.3193 Z-19.0000 F4000
G1 X854.9196 Y2063.1240 Z-19.0000 F4000
G1 X854.6531 Y2060.9444 Z-19.0000 F4000
G1 X854.2827 Y2058.7879 Z-19.0000 F4000
G1 X853.8108 Y2056.6617 Z-19.0000 F4000
G1 X853.2408 Y2054.5730 Z-19.0000 F4000
G1 X852.5765 Y2052.5280 Z-19.0000 F4000
G1 X851.8223 Y2050.5330 Z-19.0000 F4000
G1 X850.9830 Y2048.5934 Z-19.0000 F4000
G1 X850.0639 Y2046.7142 Z-19.0000 F4000
G1 X849.0706 Y2044.8996 Z-19.0000 F4000
G1 X848.0088 Y2043.1534 Z-19.0000 F4000
G1 X846.8846 Y2041.4788 Z-19.0000 F4000
G1 X845.7040 Y2039.8781 Z-19.0000 F4000
G1 X844.4732 Y2038.3534 Z-19.0000 F4000
G1 X843.1982 Y2036.9059 Z-19.0000 F4000
G1 X841.8849 Y2035.5363 Z-19.0000 F4000
G1 X840.5154 Y2034.2230 Z-19.0000 F4000
G1 X839.0678 Y2032.9480 Z-19.0000 F4000
G1 X837.5431 Y2031.7172 Z-19.0000 F4000
G1 X835.9425 Y2030.5366 Z-19.0000 F4000
G1 X834.2678 Y2029.4124 Z-19.0000 F4000
G1 X832.5216 Y2028.3506 Z-19.0000 F4000
G1 X830.7071 Y2027.3573 Z-19.0000 F4000
G1 X828.8278 Y2026.4382 Z-19.0000 F4000
G1 X826.8882 Y2025.5989 Z-19.0000 F4000
G1 X824.8932 Y2024.8447 Z-19.0000 F4000
G1 X822.8483 Y2024.1804 Z-19.0000 F4000
G1 X820.7595 Y2023.6104 Z-19.0000 F4000
G1 X818.6334 Y2023.1386 Z-19.0000 F4000
G1 X816.4768 Y2022.7681 Z-19.0000 F4000
G1 X814.2972 Y2022.5016 Z-19.0000 F4000
G1 X812.1020 Y2022.3410 Z-19.0000 F4000
G1 X809.8989 Y2022.2873 Z-19.0000 F4000
G1 X807.6959 Y2022.3410 Z-19.0000 F4000
G1 X805.5007 Y2022.5016 Z-19.0000 F4000
G1 X803.3210 Y2022.7681 Z-19.0000 F4000
G1 X801.1645 Y2023.1386 Z-19.0000 F4000
G1 X799.0384 Y2023.6104 Z-19.0000 F4000
G1 X796.9496 Y2024.1804 Z-19.0000 F4000
G1 X794.9047 Y2024.8447 Z-19.0000 F4000
G1 X792.9097 Y2025.5989 Z-19.0000 F4000
G1 X790.9701 Y2026.4382 Z-19.0000 F4000
G1 X789.0908 Y2027.3573 Z-19.0000 F4000
G1 X787.2762 Y2028.3506 Z-19.0000 F4000
G1 X785.5301 Y2029.4124 Z-19.0000 F4000
G1 X783.8554 Y2030.5366 Z-19.0000 F4000
G1 X782.2548 Y2031.7172 Z-19.0000 F4000
G1 X780.7300 Y2032.9480 Z-19.0000 F4000
G1 X779.2825 Y2034.2230 Z-19.0000 F4000
G1 X777.9130 Y2035.5363 Z-19.0000 F4000
G1 X776.5997 Y2036.9059 Z-19.0000 F4000
G1 X775.3247 Y2038.3534 Z-19.0000 F4000
G1 X774.0938 Y2039.8781 Z-19.0000 F4000
G1 X772.9133 Y2041.4788 Z-19.0000 F4000
G1 X771.7891 Y2043.1534 Z-19.0000 F4000
G1 X770.7273 Y2044.8996 Z-19.0000 F4000
G1 X769.7339 Y2046.7142 Z-19.0000 F4000
G1 X768.8148 Y2048.5934 Z-19.0000 F4000
G1 X767.9755 Y2050.5330 Z-19.0000 F4000
G1 X767.2213 Y2052.5280 Z-19.0000 F4000
G1 X766.5570 Y2054.5730 Z-19.0000 F4000
G1 X765.9870 Y2056.6617 Z-19.0000 F4000
G1 X765.5152 Y2058.7879 Z-19.0000 F4000
G1 X765.1448 Y2060.9444 Z-19.0000 F4000
G1 X764.8783 Y2063.1240 Z-19.0000 F4000
G1 X764.7176 Y2065.3193 Z-19.0000 F4000
G1 X764.6639 Y2067.5223 Z-19.0000 F4000
G1 X764.7176 Y2069.7253 Z-19.0000 F4000
G1 X764.8783 Y2071.9205 Z-19.0000 F4000
G1 X765.1448 Y2074.1002 Z-19.0000 F4000
G1 X765.5152 Y2076.2567 Z-19.0000 F4000
G1 X765.9870 Y2078.3828 Z-19.0000 F4000
G1 X766.5570 Y2080.4716 Z-19.0000 F4000
G1 X767.2213 Y2082.5165 Z-19.0000 F4000
G1 X767.9755 Y2084.5116 Z-19.0000 F4000
G1 X768.8148 Y2086.4512 Z-19.0000 F4000
G1 X769.7339 Y2088.3304 Z-19.0000 F4000
G1 X770.7273 Y2090.1450 Z-19.0000 F4000
G1 X771.7891 Y2091.8912 Z-19.0000 F4000
G1 X772.9133 Y2093.5658 Z-19.0000 F4000
G1 X774.0938 Y2095.1665 Z-19.0000 F4000
G1 X775.3247 Y2096.6912 Z-19.0000 F4000
G1 X776.5997 Y2098.1387 Z-19.0000 F4000
G1 X777.9130 Y2099.5083 Z-19.0000 F4000
G1 X779.2825 Y2100.8215 Z-19.0000 F4000
G1 X780.7300 Y2102.0966 Z-19.0000 F4000
G1 X782.2548 Y2103.3274 Z-19.0000 F4000
G1 X783.8554 Y2104.5080 Z-19.0000 F4000
G1 X785.5301 Y2105.6322 Z-19.0000 F4000
G1 X787.2762 Y2106.6939 Z-19.0000 F4000
G1 X789.0908 Y2107.6873 Z-19.0000 F4000
G1 X790.9701 Y2108.6064 Z-19.0000 F4000
G1 X792.9097 Y2109.4457 Z-19.0000 F4000
G1 X794.9047 Y2110.1999 Z-19.0000 F4000
G1 X796.9496 Y2110.8642 Z-19.0000 F4000
G1 X799.0384 Y2111.4342 Z-19.0000 F4000
G1 X801.1645 Y2111.9060 Z-19.0000 F4000
G1 X803.3210 Y2112.2765 Z-19.0000 F4000
G1 X805.5007 Y2112.5430 Z-19.0000 F4000
G1 X807.6959 Y2112.7036 Z-19.0000 F4000
G1 X809.8989 Y2112.7573 Z-19.0000 F4000
G1 X812.1020 Y2112.7036 Z-19.0000 F4000
G1 X814.2972 Y2112.5430 Z-19.0000 F4000
G1 X816.4768 Y2112.2765 Z-19.0000 F4000
G1 X818.6334 Y2111.9060 Z-19.0000 F4000
G1 X820.7595 Y2111.4342 Z-19.0000 F4000
G1 X822.8483 Y2110.8642 Z-19.0000 F4000
G1 X824.8932 Y2110.1999 Z-19.0000 F4000
G1 X826.8882 Y2109.4457 Z-19.0000 F4000
G1 X828.8278 Y2108.6064 Z-19.0000 F4000
G1 X830.7071 Y2107.6873 Z-19.0000 F4000
G1 X832.5216 Y2106.6939 Z-19.0000 F4000
G1 X834.2678 Y2105.6322 Z-19.0000 F4000
G1 X835.9425 Y2104.5080 Z-19.0000 F4000
G1 X837.5431 Y2103.3274 Z-19.0000 F4000
G1 X839.0678 Y2102.0966 Z-19.0000 F4000
G1 X840.5154 Y2100.8215 Z-19.0000 F4000
G1 X841.8849 Y2099.5083 Z-19.0000 F4000
G1 X841.8849 Y2099.5083 Z10.0000 F9999
G1 X641.8849 Y2099.5083 Z10.0000 F9999
G1 X641.8849 Y2099.5083 Z1.0000 F2500
G1 X643.1982 Y2098.1387 Z0.3740 F2500
G1 X644.4732 Y2096.6912 Z-0.2624 F2500
G1 X645.7040 Y2095.1665 Z-0.9089 F2500
G1 X646.8846 Y2093.5658 Z-1.5651 F2500
G1 X648.0088 Y2091.8912 Z-2.2305 F2500
G1 X649.0706 Y2090.1450 Z-2.9047 F2500
G1 X650.0639 Y2088.3304 Z-3.5872 F2500
G1 X650.9830 Y2086.4512 Z-4.2774 F2500
G1 X651.8223 Y2084.5116 Z-4.9746 F2500
G1 X652.5765 Y2082.5165 Z-5.6783 F2500
G1 X653.2408 Y2080.4716 Z-6.3876 F2500
G1 X653.8108 Y2078.3828 Z-7.1019 F2500
G1 X654.2827 Y2076.2567 Z-7.8204 F2500
G1 X654.6531 Y2074.1002 Z-8.5423 F2500
G1 X654.8215 Y2072.7232 Z-9.0000 F2500
G1 X654.6531 Y2074.1002 Z-9.4577 F2500
G1 X654.2827 Y2076.2567 Z-10.1796 F2500
G1 X653.8108 Y2078.3828 Z-10.8981 F2500
G1 X653.2408 Y2080.4716 Z-11.6124 F2500
G1 X652.5765 Y2082.5165 Z-12.3217 F2500
G1 X651.8223 Y2084.5116 Z-13.0254 F2500
G1 X650.9830 Y2086.4512 Z-13.7226 F2500
G1 X650.0639 Y2088.3304 Z-14.4128 F2500
G1 X649.0706 Y2090.1450 Z-15.0953 F2500
G1 X648.0088 Y2091.8912 Z-15.7695 F2500
G1 X646.8846 Y2093.5658 Z-16.4349 F2500
G1 X645.7040 Y2095.1665 Z-17.0911 F2500
G1 X644.4732 Y2096.6912 Z-17.7376 F2500
G1 X643.1982 Y2098.1387 Z-18.3740 F2500
G1 X641.8849 Y2099.5083 Z-19.0000 F2500
G1 X643.1982 Y2098.1387 Z-19.0000 F4000
G1 X644.4732 Y2096.6912 Z-19.0000 F4000
G1 X645.7040 Y2095.1665 Z-19.0000 F4000
G1 X646.8846 Y2093.5658 Z-19.0000 F4000
G1 X648.0088 Y2091.8912 Z-19.0000 F4000
G1 X649.0706 Y2090.1450 Z-19.0000 F4000
G1 X650.0639 Y2088.3304 Z-19.0000 F4000
G1 X650.9830 Y2086.4512 Z-19.0000 F4000
G1 X651.8223 Y2084.5116 Z-19.0000 F4000
G1 X652.5765 Y2082.5165 Z-19.0000 F4000
G1 X653.2408 Y2080.4716 Z-19.0000 F4000
G1 X653.8108 Y2078.3828 Z-19.0000 F4000
G1 X654.2827 Y2076.2567 Z-19.0000 F4000
G1 X654.6531 Y2074.1002 Z-19.0000 F4000
G1 X654.9196 Y2071.9205 Z-19.0000 F4000
G1 X655.0803 Y2069.7253 Z-19.0000 F4000
G1 X655.1339 Y2067.5223 Z-19.0000 F4000
G1 X655.0803 Y2065.3193 Z-19.0000 F4000
G1 X654.9196 Y2063.1240 Z-19.0000 F4000
G1 X654.6531 Y2060.9444 Z-19.0000 F4000
G1 X654.2827 Y2058.7879 Z-19.0000 F4000
G1 X653.8108 Y2056.6617 Z-19.0000 F4000
G1 X653.2408 Y2054.5730 Z-19.0000 F4000
G1 X652.5765 Y2052.5280 Z-19.0000 F4000
G1 X651.8223 Y2050.5330 Z-19.0000 F4000
G1 X650.9830 Y2048.5934 Z-19.0000 F4000
G1 X650.0639 Y2046.7142 Z-19.0000 F4000
G1 X649.0706 Y2044.8996 Z-19.0000 F4000
G1 X648.0088 Y2043.1534 Z-19.0000 F4000
G1 X646.8846 Y2041.4788 Z-19.0000 F4000
G1 X645.7040 Y2039.8781 Z-19.0000 F4000
G1 X644.4732 Y2038.3534 Z-19.0000 F4000
G1 X643.1982 Y2036.9059 Z-19.0000 F4000
G1 X641.8849 Y2035.5363 Z-19.0000 F4000
G1 X640.5154 Y2034.2230 Z-19.0000 F4000
G1 X639.0678 Y2032.9480 Z-19.0000 F4000
G1 X637.5431 Y2031.7172 Z-19.0000 F4000
G1 X635.9425 Y2030.5366 Z-19.0000 F4000
G1 X634.2678 Y2029.4124 Z-19.0000 F4000
G1 X632.5216 Y2028.3506 Z-19.0000 F4000
G1 X630.7071 Y2027.3573 Z-19.0000 F4000
G1 X628.8278 Y2026.4382 Z-19.0000 F4000
G1 X626.8882 Y2025.5989 Z-19.0000 F4000
G1 X624.8932 Y2024.8447 Z-19.0000 F4000
G1 X622.8483 Y2024.1804 Z-19.0000 F4000
G1 X620.7595 Y2023.6104 Z-19.0000 F4000
G1 X618.6334 Y2023.1386 Z-19.0000 F4000
G1 X616.4768 Y2022.7681 Z-19.0000 F4000
G1 X614.2972 Y2022.5016 Z-19.0000 F4000
G1 X612.1020 Y2022.3410 Z-19.0000 F4000
G1 X609.8989 Y2022.2873 Z-19.0000 F4000
G1 X607.6959 Y2022.3410 Z-19.0000 F4000
G1 X605.5007 Y2022.5016 Z-19.0000 F4000
G1 X603.3210 Y2022.7681 Z-19.0000 F4000
G1 X601.1645 Y2023.1386 Z-19.0000 F4000
G1 X599.0384 Y2023.6104 Z-19.0000 F4000
G1 X596.9496 Y2024.1804 Z-19.0000 F4000
G1 X594.9047 Y2024.8447 Z-19.0000 F4000
G1 X592.9097 Y2025.5989 Z-19.0000 F4000
G1 X590.9701 Y2026.4382 Z-19.0000 F4000
G1 X589.0908 Y2027.3573 Z-19.0000 F4000
G1 X587.2762 Y2028.3506 Z-19.0000 F4000
G1 X585.5301 Y2029.4124 Z-19.0000 F4000
G1 X583.8554 Y2030.5366 Z-19.0000 F4000
G1 X582.2548 Y2031.7172 Z-19.0000 F4000
G1 X580.7300 Y2032.9480 Z-19.0000 F4000
G1 X579.2825 Y2034.2230 Z-19.0000 F4000
G1 X577.9130 Y2035.5363 Z-19.0000 F4000
G1 X576.5997 Y2036.9059 Z-19.0000 F4000
G1 X575.3247 Y2038.3534 Z-19.0000 F4000
G1 X574.0938 Y2039.8781 Z-19.0000 F4000
G1 X572.9133 Y2041.4788 Z-19.0000 F4000
G1 X571.7891 Y2043.1534 Z-19.0000 F4000
G1 X570.7273 Y2044.8996 Z-19.0000 F4000
G1 X569.7339 Y2046.7142 Z-19.0000 F4000
G1 X568.8148 Y2048.5934 Z-19.0000 F4000
G1 X567.9755 Y2050.5330 Z-19.0000 F4000
G1 X567.2213 Y2052.5280 Z-19.0000 F4000
G1 X566.5570 Y2054.5730 Z-19.0000 F4000
G1 X565.9870 Y2056.6617 Z-19.0000 F4000
G1 X565.5152 Y2058.7879 Z-19.0000 F4000
G1 X565.1448 Y2060.9444 Z-19.0000 F4000
G1 X564.8783 Y2063.1240 Z-19.0000 F4000
G1 X564.7176 Y2065.3193 Z-19.0000 F4000
G1 X564.6639 Y2067.5223 Z-19.0000 F4000
G1 X564.7176 Y2069.7253 Z-19.0000 F4000
G1 X564.8783 Y2071.9205 Z-19.0000 F4000
G1 X565.1448 Y2074.1002 Z-19.0000 F4000
G1 X565.5152 Y2076.2567 Z-19.0000 F4000
G1 X565.9870 Y2078.3828 Z-19.0000 F4000
G1 X566.5570 Y2080.4716 Z-19.0000 F4000
G1 X567.2213 Y2082.5165 Z-19.0000 F4000
G1 X567.9755 Y2084.5116 Z-19.0000 F4000
G1 X568.8148 Y2086.4512 Z-19.0000 F4000
G1 X569.7339 Y2088.3304 Z-19.0000 F4000
G1 X570.7273 Y2090.1450 Z-19.0000 F4000
G1 X571.7891 Y2091.8912 Z-19.0000 F4000
G1 X572.9133 Y2093.5658 Z-19.0000 F4000
G1 X574.0938 Y2095.1665 Z-19.0000 F4000
G1 X575.3247 Y2096.6912 Z-19.0000 F4000
G1 X576.5997 Y2098.1387 Z-19.0000 F4000
G1 X577.9130 Y2099.5083 Z-19.0000 F4000
G1 X579.2825 Y2100.8215 Z-19.0000 F4000
G1 X580.7300 Y2102.0966 Z-19.0000 F4000
G1 X582.2548 Y2103.3274 Z-19.0000 F4000
G1 X583.8554 Y2104.5080 Z-19.0000 F4000
G1 X585.5301 Y2105.6322 Z-19.0000 F4000
G1 X587.2762 Y2106.6939 Z-19.0000 F4000
G1 X589.0908 Y2107.6873 Z-19.0000 F4000
G1 X590.9701 Y2108.6064 Z-19.0000 F4000
G1 X592.9097 Y2109.4457 Z-19.0000 F4000
G1 X594.9047 Y2110.1999 Z-19.0000 F4000
G1 X596.9496 Y2110.8642 Z-19.0000 F4000
G1 X599.0384 Y2111.4342 Z-19.0000 F4000
G1 X601.1645 Y2111.9060 Z-19.0000 F4000
G1 X603.3210 Y2112.2765 Z-19.0000 F4000
G1 X605.5007 Y2112.5430 Z-19.0000 F4000
G1 X607.6959 Y2112.7036 Z-19.0000 F4000
G1 X609.8989 Y2112.7573 Z-19.0000 F4000
G1 X612.1020 Y2112.7036 Z-19.0000 F4000
G1 X614.2972 Y2112.5430 Z-19.0000 F4000
G1 X616.4768 Y2112.2765 Z-19.0000 F4000
G1 X618.6334 Y2111.9060 Z-19.0000 F4000
G1 X620.7595 Y2111.4342 Z-19.0000 F4000
G1 X622.8483 Y2110.8642 Z-19.0000 F4000
G1 X624.8932 Y2110.1999 Z-19.0000 F4000
G1 X626.8882 Y2109.4457 Z-19.0000 F4000
G1 X628.8278 Y2108.6064 Z-19.0000 F4000
G1 X630.7071 Y2107.6873 Z-19.0000 F4000
G1 X632.5216 Y2106.6939 Z-19.0000 F4000
G1 X634.2678 Y2105.6322 Z-19.0000 F4000
G1 X635.9425 Y2104.5080 Z-19.0000 F4000
G1 X637.5431 Y2103.3274 Z-19.0000 F4000
G1 X639.0678 Y2102.0966 Z-19.0000 F4000
G1 X640.5154 Y2100.8215 Z-19.0000 F4000
G1 X641.8849 Y2099.5083 Z-19.0000 F4000
G1 X641.8849 Y2099.5083 Z10.0000 F9999
G1 X441.8849 Y2099.5083 Z10.0000 F9999
G1 X441.8849 Y2099.5083 Z1.0000 F2500
G1 X443.1982 Y2098.1387 Z0.3740 F2500
G1 X444.4732 Y2096.6912 Z-0.2624 F2500
G1 X445.7040 Y2095.1665 Z-0.9089 F2500
G1 X446.8846 Y2093.5658 Z-1.5651 F2500
G1 X448.0088 Y2091.8912 Z-2.2305 F2500
G1 X449.0706 Y2090.1450 Z-2.9047 F2500
G1 X450.0639 Y2088.3304 Z-3.5872 F2500
G1 X450.9830 Y2086.4512 Z-4.2774 F2500
G1 X451.8223 Y2084.5116 Z-4.9746 F2500
G1 X452.5765 Y2082.5165 Z-5.6783 F2500
G1 X453.2408 Y2080.4716 Z-6.3876 F2500
G1 X453.8108 Y2078.3828 Z-7.1019 F2500
G1 X454.2827 Y2076.2567 Z-7.8204 F2500
G1 X454.6531 Y2074.1002 Z-8.5423 F2500
G1 X454.8215 Y2072.7232 Z-9.0000 F2500
G1 X454.6531 Y2074.1002 Z-9.4577 F2500
G1 X454.2827 Y2076.2567 Z-10.1796 F2500
G1 X453.8108 Y2078.3828 Z-10.8981 F2500
G1 X453.2408 Y2080.4716 Z-11.6124 F2500
G1 X452.5765 Y2082.5165 Z-12.3217 F2500
G1 X451.8223 Y2084.5116 Z-13.0254 F2500
G1 X450.9830 Y2086.4512 Z-13.7226 F2500
G1 X450.0639 Y2088.3304 Z-14.4128 F2500
G1 X449.0706 Y2090.1450 Z-15.0953 F2500
G1 X448.0088 Y2091.8912 Z-15.7695 F2500
G1 X446.8846 Y2093.5658 Z-16.4349 F2500
G1 X445.7040 Y2095.1665 Z-17.0911 F2500
G1 X444.4732 Y2096.6912 Z-17.7376 F2500
G1 X443.1982 Y2098.1387 Z-18.3740 F2500
G1 X441.8849 Y2099.5083 Z-19.0000 F2500
G1 X443.1982 Y2098.1387 Z-19.0000 F4000
G1 X444.4732 Y2096.6912 Z-19.0000 F4000
G1 X445.7040 Y2095.1665 Z-19.0000 F4000
G1 X446.8846 Y2093.5658 Z-19.0000 F4000
G1 X448.0088 Y2091.8912 Z-19.0000 F4000
G1 X449.0706 Y2090.1450 Z-19.0000 F4000
G1 X450.0639 Y2088.3304 Z-19.0000 F4000
G1 X450.9830 Y2086.4512 Z-19.0000 F4000
G1 X451.8223 Y2084.5116 Z-19.0000 F4000
G1 X452.5765 Y2082.5165 Z-19.0000 F4000
G1 X453.2408 Y2080.4716 Z-19.0000 F4000
G1 X453.8108 Y2078.3828 Z-19.0000 F4000
G1 X454.2827 Y2076.2567 Z-19.0000 F4000
G1 X454.6531 Y2074.1002 Z-19.0000 F4000
G1 X454.9196 Y2071.9205 Z-19.0000 F4000
G1 X455.0803 Y2069.7253 Z-19.0000 F4000
G1 X455.1339 Y2067.5223 Z-19.0000 F4000
G1 X455.0803 Y2065.3193 Z-19.0000 F4000
G1 X454.9196 Y2063.1240 Z-19.0000 F4000
G1 X454.6531 Y2060.9444 Z-19.0000 F4000
G1 X454.2827 Y2058.7879 Z-19.0000 F4000
G1 X453.8108 Y2056.6617 Z-19.0000 F4000
G1 X453.2408 Y2054.5730 Z-19.0000 F4000
G1 X452.5765 Y2052.5280 Z-19.0000 F4000
G1 X451.8223 Y2050.5330 Z-19.0000 F4000
G1 X450.9830 Y2048.5934 Z-19.0000 F4000
G1 X450.0639 Y2046.7142 Z-19.0000 F4000
G1 X449.0706 Y2044.8996 Z-19.0000 F4000
G1 X448.0088 Y2043.1534 Z-19.0000 F4000
G1 X446.8846 Y2041.4788 Z-19.0000 F4000
G1 X445.7040 Y2039.8781 Z-19.0000 F4000
G1 X444.4732 Y2038.3534 Z-19.0000 F4000
G1 X443.1982 Y2036.9059 Z-19.0000 F4000
G1 X441.8849 Y2035.5363 Z-19.0000 F4000
G1 X440.5154 Y2034.2230 Z-19.0000 F4000
G1 X439.0678 Y2032.9480 Z-19.0000 F4000
G1 X437.5431 Y2031.7172 Z-19.0000 F4000
G1 X435.9425 Y2030.5366 Z-19.0000 F4000
G1 X434.2678 Y2029.4124 Z-19.0000 F4000
G1 X432.5216 Y2028.3506 Z-19.0000 F4000
G1 X430.7071 Y2027.3573 Z-19.0000 F4000
G1 X428.8278 Y2026.4382 Z-19.0000 F4000
G1 X426.8882 Y2025.5989 Z-19.0000 F4000
G1 X424.8932 Y2024.8447 Z-19.0000 F4000
G1 X422.8483 Y2024.1804 Z-19.0000 F4000
G1 X420.7595 Y2023.6104 Z-19.0000 F4000
G1 X418.6334 Y2023.1386 Z-19.0000 F4000
G1 X416.4768 Y2022.7681 Z-19.0000 F4000
G1 X414.2972 Y2022.5016 Z-19.0000 F4000
G1 X412.1020 Y2022.3410 Z-19.0000 F4000
G1 X409.8989 Y2022.2873 Z-19.0000 F4000
G1 X407.6959 Y2022.3410 Z-19.0000 F4000
G1 X405.5007 Y2022.5016 Z-19.0000 F4000
G1 X403.3210 Y2022.7681 Z-19.0000 F4000
G1 X401.1645 Y2023.1386 Z-19.0000 F4000
G1 X399.0384 Y2023.6104 Z-19.0000 F4000
G1 X396.9496 Y2024.1804 Z-19.0000 F4000
G1 X394.9047 Y2024.8447 Z-19.0000 F4000
G1 X392.9097 Y2025.5989 Z-19.0000 F4000
G1 X390.9701 Y2026.4382 Z-19.0000 F4000
G1 X389.0908 Y2027.3573 Z-19.0000 F4000
G1 X387.2762 Y2028.3506 Z-19.0000 F4000
G1 X385.5301 Y2029.4124 Z-19.0000 F4000
G1 X383.8554 Y2030.5366 Z-19.0000 F4000
G1 X382.2548 Y2031.7172 Z-19.0000 F4000
G1 X380.7300 Y2032.9480 Z-19.0000 F4000
G1 X379.2825 Y2034.2230 Z-19.0000 F4000
G1 X377.9130 Y2035.5363 Z-19.0000 F4000
G1 X376.5997 Y2036.9059 Z-19.0000 F4000
G1 X375.3247 Y2038.3534 Z-19.0000 F4000
G1 X374.0938 Y2039.8781 Z-19.0000 F4000
G1 X372.9133 Y2041.4788 Z-19.0000 F4000
G1 X371.7891 Y2043.1534 Z-19.0000 F4000
G1 X370.7273 Y2044.8996 Z-19.0000 F4000
G1 X369.7339 Y2046.7142 Z-19.0000 F4000
G1 X368.8148 Y2048.5934 Z-19.0000 F4000
G1 X367.9755 Y2050.5330 Z-19.0000 F4000
G1 X367.2213 Y2052.5280 Z-19.0000 F4000
G1 X366.5570 Y2054.5730 Z-19.0000 F4000
G1 X365.9870 Y2056.6617 Z-19.0000 F4000
G1 X365.5152 Y2058.7879 Z-19.0000 F4000
G1 X365.1448 Y2060.9444 Z-19.0000 F4000
G1 X364.8783 Y2063.1240 Z-19.0000 F4000
G1 X364.7176 Y2065.3193 Z-19.0000 F4000
G1 X364.6639 Y2067.5223 Z-19.0000 F4000
G1 X364.7176 Y2069.7253 Z-19.0000 F4000
G1 X364.8783 Y2071.9205 Z-19.0000 F4000
G1 X365.1448 Y2074.1002 Z-19.0000 F4000
G1 X365.5152 Y2076.2567 Z-19.0000 F4000
G1 X365.9870 Y2078.3828 Z-19.0000 F4000
G1 X366.5570 Y2080.4716 Z-19.0000 F4000
G1 X367.2213 Y2082.5165 Z-19.0000 F4000
G1 X367.9755 Y2084.5116 Z-19.0000 F4000
G1 X368.8148 Y2086.4512 Z-19.0000 F4000
G1 X369.7339 Y2088.3304 Z-19.0000 F4000
G1 X370.7273 Y2090.1450 Z-19.0000 F4000
G1 X371.7891 Y2091.8912 Z-19.0000 F4000
G1 X372.9133 Y2093.5658 Z-19.0000 F4000
G1 X374.0938 Y2095.1665 Z-19.0000 F4000
G1 X375.3247 Y2096.6912 Z-19.0000 F4000
G1 X376.5997 Y2098.1387 Z-19.0000 F4000
G1 X377.9130 Y2099.5083 Z-19.0000 F4000
G1 X379.2825 Y2100.8215 Z-19.0000 F4000
G1 X380.7300 Y2102.0966 Z-19.0000 F4000
G1 X382.2548 Y2103.3274 Z-19.0000 F4000
G1 X383.8554 Y2104.5080 Z-19.0000 F4000
G1 X385.5301 Y2105.6322 Z-19.0000 F4000
G1 X387.2762 Y2106.6939 Z-19.0000 F4000
G1 X389.0908 Y2107.6873 Z-19.0000 F4000
G1 X390.9701 Y2108.6064 Z-19.0000 F4000
G1 X392.9097 Y2109.4457 Z-19.0000 F4000
G1 X394.9047 Y2110.1999 Z-19.0000 F4000
G1 X396.9496 Y2110.8642 Z-19.0000 F4000
G1 X399.0384 Y2111.4342 Z-19.0000 F4000
G1 X401.1645 Y2111.9060 Z-19.0000 F4000
G1 X403.3210 Y2112.2765 Z-19.0000 F4000
G1 X405.5007 Y2112.5430 Z-19.0000 F4000
G1 X407.6959 Y2112.7036 Z-19.0000 F4000
G1 X409.8989 Y2112.7573 Z-19.0000 F4000
G1 X412.1020 Y2112.7036 Z-19.0000 F4000
G1 X414.2972 Y2112.5430 Z-19.0000 F4000
G1 X416.4768 Y2112.2765 Z-19.0000 F4000
G1 X418.6334 Y2111.9060 Z-19.0000 F4000
G1 X420.7595 Y2111.4342 Z-19.0000 F4000
G1 X422.8483 Y2110.8642 Z-19.0000 F4000
G1 X424.8932 Y2110.1999 Z-19.0000 F4000
G1 X426.8882 Y2109.4457 Z-19.0000 F4000
G1 X428.8278 Y2108.6064 Z-19.0000 F4000
G1 X430.7071 Y2107.6873 Z-19.0000 F4000
G1 X432.5216 Y2106.6939 Z-19.0000 F4000
G1 X434.2678 Y2105.6322 Z-19.0000 F4000
G1 X435.9425 Y2104.5080 Z-19.0000 F4000
G1 X437.5431 Y2103.3274 Z-19.0000 F4000
G1 X439.0678 Y2102.0966 Z-19.0000 F4000
G1 X440.5154 Y2100.8215 Z-19.0000 F4000
G1 X441.8849 Y2099.5083 Z-19.0000 F4000
G1 X441.8849 Y2099.5083 Z10.0000 F9999
G1 X53.6650 Y2207.5215 Z10.0000 F9999
G1 X53.6650 Y2207.5215 Z1.0000 F2500
G1 X53.6650 Y2237.8324 Z-9.0000 F2500
G1 X53.6650 Y2207.5215 Z-19.0000 F2500
G1 X53.6650 Y2292.2866 Z-19.0000 F4000
G1 X48.6651 Y2292.2866 Z-19.0000 F4000
G1 X48.6651 Y2292.7572 Z-19.0000 F4000
G1 X85.1350 Y2292.7572 Z-19.0000 F4000
G1 X85.1350 Y2292.2866 Z-19.0000 F4000
G1 X80.1350 Y2292.2866 Z-19.0000 F4000
G1 X80.1350 Y2122.7564 Z-19.0000 F4000
G1 X85.1350 Y2122.7564 Z-19.0000 F4000
G1 X85.1350 Y2122.2873 Z-19.0000 F4000
G1 X48.6651 Y2122.2873 Z-19.0000 F4000
G1 X48.6651 Y2122.7564 Z-19.0000 F4000
G1 X53.6650 Y2122.7564 Z-19.0000 F4000
G1 X53.6650 Y2207.5215 Z-19.0000 F4000
G1 X53.6650 Y2207.5215 Z10.0000 F9999
G1 X53.6650 Y1607.0317 Z10.0000 F9999
G1 X53.6650 Y1607.0317 Z1.0000 F2500
G1 X53.6650 Y1637.3426 Z-9.0000 F2500
G1 X53.6650 Y1607.0317 Z-19.0000 F2500
G1 X53.6650 Y1691.7968 Z-19.0000 F4000
G1 X48.6651 Y1691.7968 Z-19.0000 F4000
G1 X48.6651 Y1692.2674 Z-19.0000 F4000
G1 X85.1350 Y1692.2674 Z-19.0000 F4000
G1 X85.1350 Y1691.7968 Z-19.0000 F4000
G1 X80.1350 Y1691.7968 Z-19.0000 F4000
G1 X80.1350 Y1522.2666 Z-19.0000 F4000
G1 X85.1350 Y1522.2666 Z-19.0000 F4000
G1 X85.1350 Y1521.7975 Z-19.0000 F4000
G1 X48.6651 Y1521.7975 Z-19.0000 F4000
G1 X48.6651 Y1522.2666 Z-19.0000 F4000
G1 X53.6650 Y1522.2666 Z-19.0000 F4000
G1 X53.6650 Y1607.0317 Z-19.0000 F4000
G1 X53.6650 Y1607.0317 Z10.0000 F9999
G1 X1139.6628 Y2207.5215 Z10.0000 F9999
G1 X1139.6628 Y2207.5215 Z1.0000 F2500
G1 X1139.6628 Y2237.8324 Z-9.0000 F2500
G1 X1139.6628 Y2207.5215 Z-19.0000 F2500
G1 X1139.6628 Y2292.2866 Z-19.0000 F4000
G1 X1134.6629 Y2292.2866 Z-19.0000 F4000
G1 X1134.6629 Y2292.7572 Z-19.0000 F4000
G1 X1171.1327 Y2292.7572 Z-19.0000 F4000
G1 X1171.1327 Y2292.2866 Z-19.0000 F4000
G1 X1166.1327 Y2292.2866 Z-19.0000 F4000
G1 X1166.1327 Y2122.7564 Z-19.0000 F4000
G1 X1171.1327 Y2122.7564 Z-19.0000 F4000
G1 X1171.1327 Y2122.2873 Z-19.0000 F4000
G1 X1134.6629 Y2122.2873 Z-19.0000 F4000
G1 X1134.6629 Y2122.7564 Z-19.0000 F4000
G1 X1139.6628 Y2122.7564 Z-19.0000 F4000
G1 X1139.6628 Y2207.5215 Z-19.0000 F4000
G1 X1139.6628 Y2207.5215 Z10.0000 F9999
(Tool Number:1) (9.530 mm dia. slot drill)
M3 S17444
G1 X607.8430 Y1806.6043 Z10.0000 F9999
G1 X607.8430 Y1806.6043 Z1.0000 F2500
G1 X638.1539 Y1806.6043 Z-9.0000 F2500
G1 X607.8430 Y1806.6043 Z-19.0000 F2500
G1 X1094.3651 Y1806.6043 Z-19.0000 F4000
G1 X1094.3651 Y1806.6043 Z-13.0000 F9999
G1 X1123.8951 Y1806.6043 Z-13.0000 F4000
G1 X1123.8951 Y1806.6043 Z-19.0000 F2500
G1 X1214.6627 Y1806.6043 Z-19.0000 F4000
G1 X1214.6627 Y2329.5371 Z-19.0000 F4000
G1 X1157.2266 Y2329.5371 Z-19.0000 F4000
G1 X1156.5096 Y2329.7077 Z-19.0000 F4000
G1 X1156.3848 Y2329.8128 Z-19.0000 F4000
G1 X1156.3207 Y2329.9628 Z-19.0000 F4000
G1 X1156.3685 Y2330.6992 Z-19.0000 F4000
G1 X1172.3867 Y2382.7577 Z-19.0000 F4000
G1 X1172.6389 Y2386.6426 Z-19.0000 F4000
G1 X1170.8891 Y2390.7528 Z-19.0000 F4000
G1 X1167.4749 Y2393.6362 Z-19.0000 F4000
G1 X1163.6868 Y2394.5372 Z-19.0000 F4000
G1 X1056.1089 Y2394.5372 Z-19.0000 F4000
G1 X1052.3209 Y2393.6362 Z-19.0000 F4000
G1 X1048.9066 Y2390.7528 Z-19.0000 F4000
G1 X1047.1569 Y2386.6426 Z-19.0000 F4000
G1 X1047.4091 Y2382.7577 Z-19.0000 F4000
G1 X1063.4273 Y2330.6993 Z-19.0000 F4000
