(plotsheet 2n3_nested_153 sheets_final v1_0_sheet 108a_S108.1_text_CC8 - stepover 1mm)
(Material Size) (X=1220.000, Y=2440.000, Z=21.000)
(LinuxCNC_NoArcs_MM_TC_medium_50um_G1_verbose.con)
G90 G80 G21 G49
G64 P0.050
M6 T1
(Tool Number:1) (7.998 mm dia. slot drill)
G43 H1 G0Z80.0000
M3 S18000
G04 P10
G1 X589.4514 Y217.2042 Z10.0000 F9999
G1 X589.4514 Y217.2042 Z-1.0000 F2500
G1 X573.7083 Y199.5895 Z-1.0000 F4000
G1 X571.9597 Y197.5714 Z-1.0000 F4000
G1 X570.2771 Y195.4978 Z-1.0000 F4000
G1 X569.2573 Y193.9380 Z-1.0000 F4000
G1 X568.2955 Y192.3418 Z-1.0000 F4000
G1 X567.3597 Y189.8831 Z-1.0000 F4000
G1 X566.9560 Y186.5987 Z-1.0000 F4000
G1 X567.5799 Y182.8556 Z-1.0000 F4000
G1 X569.5065 Y179.4794 Z-1.0000 F4000
G1 X572.8459 Y177.0391 Z-1.0000 F4000
G1 X577.8368 Y176.1033 Z-1.0000 F4000
G1 X586.5523 Y178.7088 Z-1.0000 F4000
G1 X589.3413 Y185.4611 Z-1.0000 F4000
G1 X586.5523 Y178.7088 Z-1.0000 F4000
G1 X577.8368 Y176.1033 Z-1.0000 F4000
G1 X572.8459 Y177.0391 Z-1.0000 F4000
G1 X569.5065 Y179.4794 Z-1.0000 F4000
G1 X567.5799 Y182.8556 Z-1.0000 F4000
G1 X566.9560 Y186.5987 Z-1.0000 F4000
G1 X567.3597 Y189.8831 Z-1.0000 F4000
G1 X568.2955 Y192.3418 Z-1.0000 F4000
G1 X569.2573 Y193.9380 Z-1.0000 F4000
G1 X570.2771 Y195.4978 Z-1.0000 F4000
G1 X571.9597 Y197.5714 Z-1.0000 F4000
G1 X573.7083 Y199.5895 Z-1.0000 F4000
G1 X589.4514 Y217.2042 Z-1.0000 F4000
G1 X567.2496 Y217.2042 Z-1.0000 F4000
G1 X567.2496 Y217.2042 Z10.0000 F9999
G1 X646.8276 Y217.2042 Z10.0000 F9999
G1 X646.8276 Y217.2042 Z-1.0000 F2500
G1 X630.8826 Y176.1033 Z-1.0000 F4000
G1 X614.9193 Y217.2042 Z-1.0000 F4000
G1 X601.8551 Y176.1033 Z-1.0000 F4000
G1 X614.9193 Y217.2042 Z-1.0000 F4000
G1 X630.8826 Y176.1033 Z-1.0000 F4000
G1 X646.8276 Y217.2042 Z-1.0000 F4000
G1 X659.9101 Y176.1033 Z-1.0000 F4000
G1 X659.9101 Y176.1033 Z10.0000 F9999
G1 X681.3635 Y357.6479 Z10.0000 F9999
G1 X681.3635 Y357.6479 Z-1.0000 F2500
G1 X683.3085 Y354.6021 Z-1.0000 F4000
G1 X685.7305 Y352.5470 Z-1.0000 F4000
G1 X688.8498 Y351.2993 Z-1.0000 F4000
G1 X692.9782 Y350.8222 Z-1.0000 F4000
G1 X697.4736 Y351.2810 Z-1.0000 F4000
G1 X701.2901 Y353.0241 Z-1.0000 F4000
G1 X703.9690 Y356.0149 Z-1.0000 F4000
G1 X705.0883 Y360.1800 Z-1.0000 F4000
G1 X704.5562 Y364.1800 Z-1.0000 F4000
G1 X703.0149 Y366.8589 Z-1.0000 F4000
G1 X700.9782 Y368.5470 Z-1.0000 F4000
G1 X699.0699 Y369.6479 Z-1.0000 F4000
G1 X689.8773 Y374.3819 Z-1.0000 F4000
G1 X687.5103 Y375.7947 Z-1.0000 F4000
G1 X685.6571 Y377.4461 Z-1.0000 F4000
G1 X684.4094 Y379.6296 Z-1.0000 F4000
G1 X683.8956 Y382.5103 Z-1.0000 F4000
G1 X684.4277 Y385.7947 Z-1.0000 F4000
G1 X686.2626 Y388.8222 Z-1.0000 F4000
G1 X689.4002 Y391.0424 Z-1.0000 F4000
G1 X693.7672 Y391.9232 Z-1.0000 F4000
G1 X698.0241 Y391.2443 Z-1.0000 F4000
G1 X700.8681 Y389.7764 Z-1.0000 F4000
G1 X702.9599 Y387.6296 Z-1.0000 F4000
G1 X700.8681 Y389.7764 Z-1.0000 F4000
G1 X698.0241 Y391.2443 Z-1.0000 F4000
G1 X693.7672 Y391.9232 Z-1.0000 F4000
G1 X689.4002 Y391.0424 Z-1.0000 F4000
G1 X686.2626 Y388.8222 Z-1.0000 F4000
G1 X684.4277 Y385.7947 Z-1.0000 F4000
G1 X683.8956 Y382.5103 Z-1.0000 F4000
G1 X684.4094 Y379.6296 Z-1.0000 F4000
G1 X685.6571 Y377.4461 Z-1.0000 F4000
G1 X687.5103 Y375.7947 Z-1.0000 F4000
G1 X689.8773 Y374.3819 Z-1.0000 F4000
G1 X699.0699 Y369.6479 Z-1.0000 F4000
G1 X700.9782 Y368.5470 Z-1.0000 F4000
G1 X703.0149 Y366.8589 Z-1.0000 F4000
G1 X704.5562 Y364.1800 Z-1.0000 F4000
G1 X705.0883 Y360.1800 Z-1.0000 F4000
G1 X703.9690 Y356.0149 Z-1.0000 F4000
G1 X701.2901 Y353.0241 Z-1.0000 F4000
G1 X697.4736 Y351.2810 Z-1.0000 F4000
G1 X692.9782 Y350.8222 Z-1.0000 F4000
G1 X688.8498 Y351.2993 Z-1.0000 F4000
G1 X685.7305 Y352.5470 Z-1.0000 F4000
G1 X683.3085 Y354.6021 Z-1.0000 F4000
G1 X683.3085 Y354.6021 Z10.0000 F9999
G1 X757.6938 Y357.6479 Z10.0000 F9999
G1 X757.6938 Y357.6479 Z-1.0000 F2500
G1 X759.6388 Y354.6021 Z-1.0000 F4000
G1 X762.0608 Y352.5470 Z-1.0000 F4000
G1 X765.1800 Y351.2993 Z-1.0000 F4000
G1 X769.3085 Y350.8222 Z-1.0000 F4000
G1 X773.8039 Y351.2810 Z-1.0000 F4000
G1 X777.6204 Y353.0241 Z-1.0000 F4000
G1 X780.2993 Y356.0149 Z-1.0000 F4000
G1 X781.4186 Y360.1800 Z-1.0000 F4000
G1 X780.8865 Y364.1800 Z-1.0000 F4000
G1 X779.3452 Y366.8589 Z-1.0000 F4000
G1 X777.3085 Y368.5470 Z-1.0000 F4000
G1 X775.4002 Y369.6479 Z-1.0000 F4000
G1 X766.2076 Y374.3819 Z-1.0000 F4000
G1 X763.8406 Y375.7947 Z-1.0000 F4000
G1 X761.9874 Y377.4461 Z-1.0000 F4000
G1 X760.7397 Y379.6296 Z-1.0000 F4000
G1 X760.2259 Y382.5103 Z-1.0000 F4000
G1 X760.7580 Y385.7947 Z-1.0000 F4000
G1 X762.5929 Y388.8222 Z-1.0000 F4000
G1 X765.7305 Y391.0424 Z-1.0000 F4000
G1 X770.0975 Y391.9232 Z-1.0000 F4000
G1 X774.3544 Y391.2443 Z-1.0000 F4000
G1 X777.1984 Y389.7764 Z-1.0000 F4000
G1 X779.2901 Y387.6296 Z-1.0000 F4000
G1 X777.1984 Y389.7764 Z-1.0000 F4000
G1 X774.3544 Y391.2443 Z-1.0000 F4000
G1 X770.0975 Y391.9232 Z-1.0000 F4000
G1 X765.7305 Y391.0424 Z-1.0000 F4000
G1 X762.5929 Y388.8222 Z-1.0000 F4000
G1 X760.7580 Y385.7947 Z-1.0000 F4000
G1 X760.2259 Y382.5103 Z-1.0000 F4000
G1 X760.7397 Y379.6296 Z-1.0000 F4000
G1 X761.9874 Y377.4461 Z-1.0000 F4000
G1 X763.8406 Y375.7947 Z-1.0000 F4000
G1 X766.2076 Y374.3819 Z-1.0000 F4000
G1 X775.4002 Y369.6479 Z-1.0000 F4000
G1 X777.3085 Y368.5470 Z-1.0000 F4000
G1 X779.3452 Y366.8589 Z-1.0000 F4000
G1 X780.8865 Y364.1800 Z-1.0000 F4000
G1 X781.4186 Y360.1800 Z-1.0000 F4000
G1 X780.2993 Y356.0149 Z-1.0000 F4000
G1 X777.6204 Y353.0241 Z-1.0000 F4000
G1 X773.8039 Y351.2810 Z-1.0000 F4000
G1 X769.3085 Y350.8222 Z-1.0000 F4000
G1 X765.1800 Y351.2993 Z-1.0000 F4000
G1 X762.0608 Y352.5470 Z-1.0000 F4000
G1 X759.6388 Y354.6021 Z-1.0000 F4000
G1 X759.6388 Y354.6021 Z10.0000 F9999
G1 X746.9782 Y401.3177 Z10.0000 F9999
G1 X746.9782 Y401.3177 Z-1.0000 F2500
G1 X716.5929 Y348.4736 Z-1.0000 F4000
G1 X746.9782 Y401.3177 Z-1.0000 F4000
G1 X746.9782 Y401.3177 Z10.0000 F9999
G1 X945.0615 Y458.5010 Z10.0000 F9999
G1 X945.0615 Y458.5010 Z-1.0000 F2500
G1 X997.9055 Y428.1157 Z-1.0000 F4000
G1 X945.0615 Y458.5010 Z-1.0000 F4000
G1 X945.0615 Y458.5010 Z10.0000 F9999
G1 X988.7312 Y469.2166 Z10.0000 F9999
G1 X988.7312 Y469.2166 Z-1.0000 F2500
G1 X991.7771 Y471.1616 Z-1.0000 F4000
G1 X993.8321 Y473.5836 Z-1.0000 F4000
G1 X995.0799 Y476.7029 Z-1.0000 F4000
G1 X995.5569 Y480.8313 Z-1.0000 F4000
G1 X995.0982 Y485.3267 Z-1.0000 F4000
G1 X993.3551 Y489.1432 Z-1.0000 F4000
G1 X990.3643 Y491.8221 Z-1.0000 F4000
G1 X986.1991 Y492.9414 Z-1.0000 F4000
G1 X982.1991 Y492.4093 Z-1.0000 F4000
G1 X979.5202 Y490.8680 Z-1.0000 F4000
G1 X977.8321 Y488.8313 Z-1.0000 F4000
G1 X976.7312 Y486.9231 Z-1.0000 F4000
G1 X971.9973 Y477.7304 Z-1.0000 F4000
G1 X970.5844 Y475.3634 Z-1.0000 F4000
G1 X968.9331 Y473.5102 Z-1.0000 F4000
G1 X966.7496 Y472.2625 Z-1.0000 F4000
G1 X963.8688 Y471.7487 Z-1.0000 F4000
G1 X960.5844 Y472.2809 Z-1.0000 F4000
G1 X957.5569 Y474.1157 Z-1.0000 F4000
G1 X955.3367 Y477.2533 Z-1.0000 F4000
G1 X954.4560 Y481.6203 Z-1.0000 F4000
G1 X955.1349 Y485.8772 Z-1.0000 F4000
G1 X956.6028 Y488.7212 Z-1.0000 F4000
G1 X958.7496 Y490.8130 Z-1.0000 F4000
G1 X956.6028 Y488.7212 Z-1.0000 F4000
G1 X955.1349 Y485.8772 Z-1.0000 F4000
G1 X954.4560 Y481.6203 Z-1.0000 F4000
G1 X955.3367 Y477.2533 Z-1.0000 F4000
G1 X957.5569 Y474.1157 Z-1.0000 F4000
G1 X960.5844 Y472.2809 Z-1.0000 F4000
G1 X963.8688 Y471.7487 Z-1.0000 F4000
G1 X966.7496 Y472.2625 Z-1.0000 F4000
G1 X968.9331 Y473.5102 Z-1.0000 F4000
G1 X970.5844 Y475.3634 Z-1.0000 F4000
G1 X971.9973 Y477.7304 Z-1.0000 F4000
G1 X976.7312 Y486.9231 Z-1.0000 F4000
G1 X977.8321 Y488.8313 Z-1.0000 F4000
G1 X979.5202 Y490.8680 Z-1.0000 F4000
G1 X982.1991 Y492.4093 Z-1.0000 F4000
G1 X986.1991 Y492.9414 Z-1.0000 F4000
G1 X990.3643 Y491.8221 Z-1.0000 F4000
G1 X993.3551 Y489.1432 Z-1.0000 F4000
G1 X995.0982 Y485.3267 Z-1.0000 F4000
G1 X995.5569 Y480.8313 Z-1.0000 F4000
G1 X995.0799 Y476.7029 Z-1.0000 F4000
G1 X993.8321 Y473.5836 Z-1.0000 F4000
G1 X991.7771 Y471.1616 Z-1.0000 F4000
G1 X991.7771 Y471.1616 Z10.0000 F9999
G1 X988.7312 Y392.8864 Z10.0000 F9999
G1 X988.7312 Y392.8864 Z-1.0000 F2500
G1 X991.7771 Y394.8313 Z-1.0000 F4000
G1 X993.8321 Y397.2533 Z-1.0000 F4000
G1 X995.0799 Y400.3726 Z-1.0000 F4000
G1 X995.5569 Y404.5010 Z-1.0000 F4000
G1 X995.0982 Y408.9965 Z-1.0000 F4000
G1 X993.3551 Y412.8130 Z-1.0000 F4000
G1 X990.3643 Y415.4919 Z-1.0000 F4000
G1 X986.1991 Y416.6111 Z-1.0000 F4000
G1 X982.1991 Y416.0790 Z-1.0000 F4000
G1 X979.5202 Y414.5377 Z-1.0000 F4000
G1 X977.8321 Y412.5010 Z-1.0000 F4000
G1 X976.7312 Y410.5928 Z-1.0000 F4000
G1 X971.9973 Y401.4001 Z-1.0000 F4000
G1 X970.5844 Y399.0331 Z-1.0000 F4000
G1 X968.9331 Y397.1799 Z-1.0000 F4000
G1 X966.7496 Y395.9322 Z-1.0000 F4000
G1 X963.8688 Y395.4185 Z-1.0000 F4000
G1 X960.5844 Y395.9506 Z-1.0000 F4000
G1 X957.5569 Y397.7854 Z-1.0000 F4000
G1 X955.3367 Y400.9231 Z-1.0000 F4000
G1 X954.4560 Y405.2900 Z-1.0000 F4000
G1 X955.1349 Y409.5469 Z-1.0000 F4000
G1 X956.6028 Y412.3909 Z-1.0000 F4000
G1 X958.7496 Y414.4827 Z-1.0000 F4000
G1 X956.6028 Y412.3909 Z-1.0000 F4000
G1 X955.1349 Y409.5469 Z-1.0000 F4000
G1 X954.4560 Y405.2900 Z-1.0000 F4000
G1 X955.3367 Y400.9231 Z-1.0000 F4000
G1 X957.5569 Y397.7854 Z-1.0000 F4000
G1 X960.5844 Y395.9506 Z-1.0000 F4000
G1 X963.8688 Y395.4185 Z-1.0000 F4000
G1 X966.7496 Y395.9322 Z-1.0000 F4000
G1 X968.9331 Y397.1799 Z-1.0000 F4000
G1 X970.5844 Y399.0331 Z-1.0000 F4000
G1 X971.9973 Y401.4001 Z-1.0000 F4000
G1 X976.7312 Y410.5928 Z-1.0000 F4000
G1 X977.8321 Y412.5010 Z-1.0000 F4000
G1 X979.5202 Y414.5377 Z-1.0000 F4000
G1 X982.1991 Y416.0790 Z-1.0000 F4000
G1 X986.1991 Y416.6111 Z-1.0000 F4000
G1 X990.3643 Y415.4919 Z-1.0000 F4000
G1 X993.3551 Y412.8130 Z-1.0000 F4000
G1 X995.0982 Y408.9965 Z-1.0000 F4000
G1 X995.5569 Y404.5010 Z-1.0000 F4000
G1 X995.0799 Y400.3726 Z-1.0000 F4000
G1 X993.8321 Y397.2533 Z-1.0000 F4000
G1 X991.7771 Y394.8313 Z-1.0000 F4000
G1 X991.7771 Y394.8313 Z10.0000 F9999
G1 X860.2100 Y629.8414 Z10.0000 F9999
G1 X860.2100 Y629.8414 Z-1.0000 F2500
G1 X863.7391 Y629.0629 Z-1.0000 F4000
G1 X866.9048 Y629.3224 Z-1.0000 F4000
G1 X869.9927 Y630.6458 Z-1.0000 F4000
G1 X873.2493 Y633.2277 Z-1.0000 F4000
G1 X876.1037 Y636.7308 Z-1.0000 F4000
G1 X877.5698 Y640.6621 Z-1.0000 F4000
G1 X877.3492 Y644.6712 Z-1.0000 F4000
G1 X875.1955 Y648.4078 Z-1.0000 F4000
G1 X871.9908 Y650.8600 Z-1.0000 F4000
G1 X869.0067 Y651.6644 Z-1.0000 F4000
G1 X866.3729 Y651.4179 Z-1.0000 F4000
G1 X864.2451 Y650.8470 Z-1.0000 F4000
G1 X854.3975 Y647.6942 Z-1.0000 F4000
G1 X851.7247 Y647.0196 Z-1.0000 F4000
G1 X849.2466 Y646.8768 Z-1.0000 F4000
G1 X846.8204 Y647.5385 Z-1.0000 F4000
G1 X844.4201 Y649.2122 Z-1.0000 F4000
G1 X842.4740 Y651.9109 Z-1.0000 F4000
G1 X841.6306 Y655.3491 Z-1.0000 F4000
G1 X842.2793 Y659.1377 Z-1.0000 F4000
G1 X844.7445 Y662.8484 Z-1.0000 F4000
G1 X848.2346 Y665.3784 Z-1.0000 F4000
G1 X851.2836 Y666.3515 Z-1.0000 F4000
G1 X854.2807 Y666.3125 Z-1.0000 F4000
G1 X851.2836 Y666.3515 Z-1.0000 F4000
G1 X848.2346 Y665.3784 Z-1.0000 F4000
G1 X844.7445 Y662.8484 Z-1.0000 F4000
G1 X842.2793 Y659.1377 Z-1.0000 F4000
G1 X841.6306 Y655.3491 Z-1.0000 F4000
G1 X842.4740 Y651.9109 Z-1.0000 F4000
G1 X844.4201 Y649.2122 Z-1.0000 F4000
G1 X846.8204 Y647.5385 Z-1.0000 F4000
G1 X849.2466 Y646.8768 Z-1.0000 F4000
G1 X851.7247 Y647.0196 Z-1.0000 F4000
G1 X854.3975 Y647.6942 Z-1.0000 F4000
G1 X864.2451 Y650.8470 Z-1.0000 F4000
G1 X866.3729 Y651.4179 Z-1.0000 F4000
G1 X869.0067 Y651.6644 Z-1.0000 F4000
G1 X871.9908 Y650.8600 Z-1.0000 F4000
G1 X875.1955 Y648.4078 Z-1.0000 F4000
G1 X877.3492 Y644.6712 Z-1.0000 F4000
G1 X877.5698 Y640.6621 Z-1.0000 F4000
G1 X876.1037 Y636.7308 Z-1.0000 F4000
G1 X873.2493 Y633.2277 Z-1.0000 F4000
G1 X869.9927 Y630.6458 Z-1.0000 F4000
G1 X866.9048 Y629.3224 Z-1.0000 F4000
G1 X863.7391 Y629.0629 Z-1.0000 F4000
G1 X863.7391 Y629.0629 Z10.0000 F9999
G1 X914.1837 Y683.8151 Z10.0000 F9999
G1 X914.1837 Y683.8151 Z-1.0000 F2500
G1 X917.7127 Y683.0366 Z-1.0000 F4000
G1 X920.8785 Y683.2961 Z-1.0000 F4000
G1 X923.9664 Y684.6195 Z-1.0000 F4000
G1 X927.2230 Y687.2014 Z-1.0000 F4000
G1 X930.0773 Y690.7045 Z-1.0000 F4000
G1 X931.5435 Y694.6357 Z-1.0000 F4000
G1 X931.3229 Y698.6448 Z-1.0000 F4000
G1 X929.1691 Y702.3815 Z-1.0000 F4000
G1 X925.9644 Y704.8336 Z-1.0000 F4000
G1 X922.9803 Y705.6381 Z-1.0000 F4000
G1 X920.3465 Y705.3915 Z-1.0000 F4000
G1 X918.2187 Y704.8207 Z-1.0000 F4000
G1 X908.3711 Y701.6679 Z-1.0000 F4000
G1 X905.6984 Y700.9932 Z-1.0000 F4000
G1 X903.2203 Y700.8505 Z-1.0000 F4000
G1 X900.7940 Y701.5122 Z-1.0000 F4000
G1 X898.3938 Y703.1859 Z-1.0000 F4000
G1 X896.4476 Y705.8846 Z-1.0000 F4000
G1 X895.6043 Y709.3228 Z-1.0000 F4000
G1 X896.2530 Y713.1113 Z-1.0000 F4000
G1 X898.7181 Y716.8220 Z-1.0000 F4000
G1 X902.2083 Y719.3520 Z-1.0000 F4000
G1 X905.2572 Y720.3251 Z-1.0000 F4000
G1 X908.2543 Y720.2862 Z-1.0000 F4000
G1 X905.2572 Y720.3251 Z-1.0000 F4000
G1 X902.2083 Y719.3520 Z-1.0000 F4000
G1 X898.7181 Y716.8220 Z-1.0000 F4000
G1 X896.2530 Y713.1113 Z-1.0000 F4000
G1 X895.6043 Y709.3228 Z-1.0000 F4000
G1 X896.4476 Y705.8846 Z-1.0000 F4000
G1 X898.3938 Y703.1859 Z-1.0000 F4000
G1 X900.7940 Y701.5122 Z-1.0000 F4000
G1 X903.2203 Y700.8505 Z-1.0000 F4000
G1 X905.6984 Y700.9932 Z-1.0000 F4000
G1 X908.3711 Y701.6679 Z-1.0000 F4000
G1 X918.2187 Y704.8207 Z-1.0000 F4000
G1 X920.3465 Y705.3915 Z-1.0000 F4000
G1 X922.9803 Y705.6381 Z-1.0000 F4000
G1 X925.9644 Y704.8336 Z-1.0000 F4000
G1 X929.1691 Y702.3815 Z-1.0000 F4000
G1 X931.3229 Y698.6448 Z-1.0000 F4000
G1 X931.5435 Y694.6357 Z-1.0000 F4000
G1 X930.0773 Y690.7045 Z-1.0000 F4000
G1 X927.2230 Y687.2014 Z-1.0000 F4000
G1 X923.9664 Y684.6195 Z-1.0000 F4000
G1 X920.8785 Y683.2961 Z-1.0000 F4000
G1 X917.7127 Y683.0366 Z-1.0000 F4000
G1 X917.7127 Y683.0366 Z10.0000 F9999
G1 X875.7274 Y707.1171 Z10.0000 F9999
G1 X875.7274 Y707.1171 Z-1.0000 F2500
G1 X891.6081 Y648.2651 Z-1.0000 F4000
G1 X875.7274 Y707.1171 Z-1.0000 F4000
G1 X875.7274 Y707.1171 Z10.0000 F9999
G1 X791.8528 Y850.1758 Z10.0000 F9999
G1 X791.8528 Y850.1758 Z-1.0000 F2500
G1 X758.4583 Y872.3776 Z-1.0000 F4000
G1 X758.4583 Y843.5703 Z-1.0000 F4000
G1 X758.4583 Y872.3776 Z-1.0000 F4000
G1 X791.8528 Y850.1758 Z-1.0000 F4000
G1 X750.7519 Y850.1758 Z-1.0000 F4000
G1 X750.7519 Y850.1758 Z10.0000 F9999
G1 X773.5592 Y898.1207 Z10.0000 F9999
G1 X773.5592 Y898.1207 Z-1.0000 F2500
G1 X773.5592 Y883.6804 Z-1.0000 F4000
G1 X773.5592 Y898.1207 Z-1.0000 F4000
G1 X791.8528 Y898.1207 Z-1.0000 F4000
G1 X791.8528 Y883.0015 Z-1.0000 F4000
G1 X791.8528 Y898.1207 Z-1.0000 F4000
G1 X750.7519 Y898.1207 Z-1.0000 F4000
G1 X750.7519 Y898.1207 Z10.0000 F9999
G1 X801.2473 Y913.6253 Z10.0000 F9999
G1 X801.2473 Y913.6253 Z-1.0000 F2500
G1 X748.4033 Y944.0107 Z-1.0000 F4000
G1 X801.2473 Y913.6253 Z-1.0000 F4000
G1 X801.2473 Y913.6253 Z10.0000 F9999
G1 X791.8528 Y971.4418 Z10.0000 F9999
G1 X791.8528 Y971.4418 Z-1.0000 F2500
G1 X750.7519 Y955.3868 Z-1.0000 F4000
G1 X791.8528 Y971.4418 Z-1.0000 F4000
G1 X750.7519 Y987.4602 Z-1.0000 F4000
G1 X750.7519 Y987.4602 Z10.0000 F9999
G1 X775.4124 Y998.1391 Z10.0000 F9999
G1 X775.4124 Y998.1391 Z-1.0000 F2500
G1 X775.4124 Y1027.3868 Z-1.0000 F4000
G1 X775.4124 Y998.1391 Z-1.0000 F4000
G1 X775.4124 Y998.1391 Z10.0000 F9999
G1 X765.4491 Y961.1299 Z10.0000 F9999
G1 X765.4491 Y961.1299 Z-1.0000 F2500
G1 X765.4491 Y981.8272 Z-1.0000 F4000
G1 X765.4491 Y961.1299 Z-1.0000 F4000
G1 X765.4491 Y961.1299 Z10.0000 F9999
G1 X765.4491 Y1044.5061 Z10.0000 F9999
G1 X765.4491 Y1044.5061 Z-1.0000 F2500
G1 X765.4491 Y1065.2033 Z-1.0000 F4000
G1 X765.4491 Y1044.5061 Z-1.0000 F4000
G1 X765.4491 Y1044.5061 Z10.0000 F9999
G1 X791.8528 Y1054.8180 Z10.0000 F9999
G1 X791.8528 Y1054.8180 Z-1.0000 F2500
G1 X750.7519 Y1038.7629 Z-1.0000 F4000
G1 X791.8528 Y1054.8180 Z-1.0000 F4000
G1 X750.7519 Y1070.8363 Z-1.0000 F4000
G1 X750.7519 Y1070.8363 Z10.0000 F9999
G1 X750.7519 Y1081.5152 Z10.0000 F9999
G1 X750.7519 Y1081.5152 Z-1.0000 F2500
G1 X770.8987 Y1094.7446 Z-1.0000 F4000
G1 X750.7519 Y1081.5152 Z-1.0000 F4000
G1 X750.7519 Y1081.5152 Z10.0000 F9999
G1 X750.7519 Y1098.9281 Z10.0000 F9999
G1 X750.7519 Y1098.9281 Z-1.0000 F2500
G1 X791.8528 Y1098.9281 Z-1.0000 F4000
G1 X791.8528 Y1091.7721 Z-1.0000 F4000
G1 X791.2473 Y1087.9006 Z-1.0000 F4000
G1 X789.4308 Y1084.6896 Z-1.0000 F4000
G1 X786.2748 Y1082.4694 Z-1.0000 F4000
G1 X781.6326 Y1081.6253 Z-1.0000 F4000
G1 X776.9537 Y1082.7813 Z-1.0000 F4000
G1 X773.6326 Y1085.5519 Z-1.0000 F4000
G1 X771.6693 Y1088.8730 Z-1.0000 F4000
G1 X771.0088 Y1091.7721 Z-1.0000 F4000
G1 X771.0088 Y1098.9281 Z-1.0000 F4000
G1 X771.0088 Y1091.7721 Z-1.0000 F4000
G1 X771.6693 Y1088.8730 Z-1.0000 F4000
G1 X773.6326 Y1085.5519 Z-1.0000 F4000
G1 X776.9537 Y1082.7813 Z-1.0000 F4000
G1 X781.6326 Y1081.6253 Z-1.0000 F4000
G1 X786.2748 Y1082.4694 Z-1.0000 F4000
G1 X789.4308 Y1084.6896 Z-1.0000 F4000
G1 X791.2473 Y1087.9006 Z-1.0000 F4000
G1 X791.8528 Y1091.7721 Z-1.0000 F4000
G1 X791.8528 Y1098.9281 Z-1.0000 F4000
G1 X791.8528 Y1098.9281 Z10.0000 F9999
G1 X773.5592 Y1129.4602 Z10.0000 F9999
G1 X773.5592 Y1129.4602 Z-1.0000 F2500
G1 X773.5592 Y1115.0198 Z-1.0000 F4000
G1 X773.5592 Y1129.4602 Z-1.0000 F4000
G1 X791.8528 Y1129.4602 Z-1.0000 F4000
G1 X791.8528 Y1114.3409 Z-1.0000 F4000
G1 X791.8528 Y1129.4602 Z-1.0000 F4000
G1 X750.7519 Y1129.4602 Z-1.0000 F4000
G1 X750.7519 Y1129.4602 Z10.0000 F9999
G1 X1011.4410 Y1054.1877 Z10.0000 F9999
G1 X1011.4410 Y1054.1877 Z-1.0000 F2500
G1 X1064.2851 Y1023.8023 Z-1.0000 F4000
G1 X1011.4410 Y1054.1877 Z-1.0000 F4000
G1 X1011.4410 Y1054.1877 Z10.0000 F9999
G1 X1055.1108 Y1064.9032 Z10.0000 F9999
G1 X1055.1108 Y1064.9032 Z-1.0000 F2500
G1 X1058.1566 Y1066.8482 Z-1.0000 F4000
G1 X1060.2117 Y1069.2702 Z-1.0000 F4000
G1 X1061.4594 Y1072.3895 Z-1.0000 F4000
G1 X1061.9364 Y1076.5179 Z-1.0000 F4000
G1 X1061.4777 Y1081.0133 Z-1.0000 F4000
G1 X1059.7346 Y1084.8299 Z-1.0000 F4000
G1 X1056.7438 Y1087.5088 Z-1.0000 F4000
G1 X1052.5786 Y1088.6280 Z-1.0000 F4000
G1 X1048.5786 Y1088.0959 Z-1.0000 F4000
G1 X1045.8997 Y1086.5546 Z-1.0000 F4000
G1 X1044.2117 Y1084.5179 Z-1.0000 F4000
G1 X1043.1108 Y1082.6097 Z-1.0000 F4000
G1 X1038.3768 Y1073.4170 Z-1.0000 F4000
G1 X1036.9640 Y1071.0500 Z-1.0000 F4000
G1 X1035.3126 Y1069.1968 Z-1.0000 F4000
G1 X1033.1291 Y1067.9491 Z-1.0000 F4000
G1 X1030.2484 Y1067.4354 Z-1.0000 F4000
G1 X1026.9640 Y1067.9675 Z-1.0000 F4000
G1 X1023.9364 Y1069.8023 Z-1.0000 F4000
G1 X1021.7163 Y1072.9399 Z-1.0000 F4000
G1 X1020.8355 Y1077.3069 Z-1.0000 F4000
G1 X1021.5144 Y1081.5638 Z-1.0000 F4000
G1 X1022.9823 Y1084.4078 Z-1.0000 F4000
G1 X1025.1291 Y1086.4996 Z-1.0000 F4000
G1 X1022.9823 Y1084.4078 Z-1.0000 F4000
G1 X1021.5144 Y1081.5638 Z-1.0000 F4000
G1 X1020.8355 Y1077.3069 Z-1.0000 F4000
G1 X1021.7163 Y1072.9399 Z-1.0000 F4000
G1 X1023.9364 Y1069.8023 Z-1.0000 F4000
G1 X1026.9640 Y1067.9675 Z-1.0000 F4000
G1 X1030.2484 Y1067.4354 Z-1.0000 F4000
G1 X1033.1291 Y1067.9491 Z-1.0000 F4000
G1 X1035.3126 Y1069.1968 Z-1.0000 F4000
G1 X1036.9640 Y1071.0500 Z-1.0000 F4000
G1 X1038.3768 Y1073.4170 Z-1.0000 F4000
G1 X1043.1108 Y1082.6097 Z-1.0000 F4000
G1 X1044.2117 Y1084.5179 Z-1.0000 F4000
G1 X1045.8997 Y1086.5546 Z-1.0000 F4000
G1 X1048.5786 Y1088.0959 Z-1.0000 F4000
G1 X1052.5786 Y1088.6280 Z-1.0000 F4000
G1 X1056.7438 Y1087.5088 Z-1.0000 F4000
G1 X1059.7346 Y1084.8299 Z-1.0000 F4000
G1 X1061.4777 Y1081.0133 Z-1.0000 F4000
G1 X1061.9364 Y1076.5179 Z-1.0000 F4000
G1 X1061.4594 Y1072.3895 Z-1.0000 F4000
G1 X1060.2117 Y1069.2702 Z-1.0000 F4000
G1 X1058.1566 Y1066.8482 Z-1.0000 F4000
G1 X1058.1566 Y1066.8482 Z10.0000 F9999
G1 X1055.1108 Y988.5730 Z10.0000 F9999
G1 X1055.1108 Y988.5730 Z-1.0000 F2500
G1 X1058.1566 Y990.5179 Z-1.0000 F4000
G1 X1060.2117 Y992.9399 Z-1.0000 F4000
G1 X1061.4594 Y996.0592 Z-1.0000 F4000
G1 X1061.9364 Y1000.1877 Z-1.0000 F4000
G1 X1061.4777 Y1004.6831 Z-1.0000 F4000
G1 X1059.7346 Y1008.4996 Z-1.0000 F4000
G1 X1056.7438 Y1011.1785 Z-1.0000 F4000
G1 X1052.5786 Y1012.2977 Z-1.0000 F4000
G1 X1048.5786 Y1011.7656 Z-1.0000 F4000
G1 X1045.8997 Y1010.2244 Z-1.0000 F4000
G1 X1044.2117 Y1008.1877 Z-1.0000 F4000
G1 X1043.1108 Y1006.2794 Z-1.0000 F4000
G1 X1038.3768 Y997.0867 Z-1.0000 F4000
G1 X1036.9640 Y994.7198 Z-1.0000 F4000
G1 X1035.3126 Y992.8666 Z-1.0000 F4000
G1 X1033.1291 Y991.6188 Z-1.0000 F4000
G1 X1030.2484 Y991.1051 Z-1.0000 F4000
G1 X1026.9640 Y991.6372 Z-1.0000 F4000
G1 X1023.9364 Y993.4721 Z-1.0000 F4000
G1 X1021.7163 Y996.6097 Z-1.0000 F4000
G1 X1020.8355 Y1000.9766 Z-1.0000 F4000
G1 X1021.5144 Y1005.2335 Z-1.0000 F4000
G1 X1022.9823 Y1008.0776 Z-1.0000 F4000
G1 X1025.1291 Y1010.1693 Z-1.0000 F4000
G1 X1022.9823 Y1008.0776 Z-1.0000 F4000
G1 X1021.5144 Y1005.2335 Z-1.0000 F4000
G1 X1020.8355 Y1000.9766 Z-1.0000 F4000
G1 X1021.7163 Y996.6097 Z-1.0000 F4000
G1 X1023.9364 Y993.4721 Z-1.0000 F4000
G1 X1026.9640 Y991.6372 Z-1.0000 F4000
G1 X1030.2484 Y991.1051 Z-1.0000 F4000
G1 X1033.1291 Y991.6188 Z-1.0000 F4000
G1 X1035.3126 Y992.8666 Z-1.0000 F4000
G1 X1036.9640 Y994.7198 Z-1.0000 F4000
G1 X1038.3768 Y997.0867 Z-1.0000 F4000
G1 X1043.1108 Y1006.2794 Z-1.0000 F4000
G1 X1044.2117 Y1008.1877 Z-1.0000 F4000
G1 X1045.8997 Y1010.2244 Z-1.0000 F4000
G1 X1048.5786 Y1011.7656 Z-1.0000 F4000
G1 X1052.5786 Y1012.2977 Z-1.0000 F4000
G1 X1056.7438 Y1011.1785 Z-1.0000 F4000
G1 X1059.7346 Y1008.4996 Z-1.0000 F4000
G1 X1061.4777 Y1004.6831 Z-1.0000 F4000
G1 X1061.9364 Y1000.1877 Z-1.0000 F4000
G1 X1061.4594 Y996.0592 Z-1.0000 F4000
G1 X1060.2117 Y992.9399 Z-1.0000 F4000
G1 X1058.1566 Y990.5179 Z-1.0000 F4000
G1 X1058.1566 Y990.5179 Z10.0000 F9999
G1 X731.6667 Y1514.8060 Z10.0000 F9999
G1 X731.6667 Y1514.8060 Z-1.0000 F2500
G1 X734.7125 Y1516.7510 Z-1.0000 F4000
G1 X736.7676 Y1519.1730 Z-1.0000 F4000
G1 X738.0153 Y1522.2923 Z-1.0000 F4000
G1 X738.4923 Y1526.4207 Z-1.0000 F4000
G1 X738.0336 Y1530.9161 Z-1.0000 F4000
G1 X736.2905 Y1534.7327 Z-1.0000 F4000
G1 X733.2997 Y1537.4115 Z-1.0000 F4000
G1 X729.1345 Y1538.5308 Z-1.0000 F4000
G1 X725.1345 Y1537.9987 Z-1.0000 F4000
G1 X722.4557 Y1536.4574 Z-1.0000 F4000
G1 X720.7676 Y1534.4207 Z-1.0000 F4000
G1 X719.6667 Y1532.5125 Z-1.0000 F4000
G1 X714.9327 Y1523.3198 Z-1.0000 F4000
G1 X713.5199 Y1520.9528 Z-1.0000 F4000
G1 X711.8685 Y1519.0996 Z-1.0000 F4000
G1 X709.6850 Y1517.8519 Z-1.0000 F4000
G1 X706.8043 Y1517.3382 Z-1.0000 F4000
G1 X703.5199 Y1517.8703 Z-1.0000 F4000
G1 X700.4923 Y1519.7051 Z-1.0000 F4000
G1 X698.2722 Y1522.8427 Z-1.0000 F4000
G1 X697.3914 Y1527.2097 Z-1.0000 F4000
G1 X698.0703 Y1531.4666 Z-1.0000 F4000
G1 X699.5382 Y1534.3106 Z-1.0000 F4000
G1 X701.6850 Y1536.4024 Z-1.0000 F4000
G1 X699.5382 Y1534.3106 Z-1.0000 F4000
G1 X698.0703 Y1531.4666 Z-1.0000 F4000
G1 X697.3914 Y1527.2097 Z-1.0000 F4000
G1 X698.2722 Y1522.8427 Z-1.0000 F4000
G1 X700.4923 Y1519.7051 Z-1.0000 F4000
G1 X703.5199 Y1517.8703 Z-1.0000 F4000
G1 X706.8043 Y1517.3382 Z-1.0000 F4000
G1 X709.6850 Y1517.8519 Z-1.0000 F4000
G1 X711.8685 Y1519.0996 Z-1.0000 F4000
G1 X713.5199 Y1520.9528 Z-1.0000 F4000
G1 X714.9327 Y1523.3198 Z-1.0000 F4000
G1 X719.6667 Y1532.5125 Z-1.0000 F4000
G1 X720.7676 Y1534.4207 Z-1.0000 F4000
G1 X722.4557 Y1536.4574 Z-1.0000 F4000
G1 X725.1345 Y1537.9987 Z-1.0000 F4000
G1 X729.1345 Y1538.5308 Z-1.0000 F4000
G1 X733.2997 Y1537.4115 Z-1.0000 F4000
G1 X736.2905 Y1534.7327 Z-1.0000 F4000
G1 X738.0336 Y1530.9161 Z-1.0000 F4000
G1 X738.4923 Y1526.4207 Z-1.0000 F4000
G1 X738.0153 Y1522.2923 Z-1.0000 F4000
G1 X736.7676 Y1519.1730 Z-1.0000 F4000
G1 X734.7125 Y1516.7510 Z-1.0000 F4000
G1 X734.7125 Y1516.7510 Z10.0000 F9999
G1 X731.6667 Y1591.1363 Z10.0000 F9999
G1 X731.6667 Y1591.1363 Z-1.0000 F2500
G1 X734.7125 Y1593.0813 Z-1.0000 F4000
G1 X736.7676 Y1595.5033 Z-1.0000 F4000
G1 X738.0153 Y1598.6226 Z-1.0000 F4000
G1 X738.4923 Y1602.7510 Z-1.0000 F4000
G1 X738.0336 Y1607.2464 Z-1.0000 F4000
G1 X736.2905 Y1611.0629 Z-1.0000 F4000
G1 X733.2997 Y1613.7418 Z-1.0000 F4000
G1 X729.1345 Y1614.8611 Z-1.0000 F4000
G1 X725.1345 Y1614.3290 Z-1.0000 F4000
G1 X722.4557 Y1612.7877 Z-1.0000 F4000
G1 X720.7676 Y1610.7510 Z-1.0000 F4000
G1 X719.6667 Y1608.8427 Z-1.0000 F4000
G1 X714.9327 Y1599.6501 Z-1.0000 F4000
G1 X713.5199 Y1597.2831 Z-1.0000 F4000
G1 X711.8685 Y1595.4299 Z-1.0000 F4000
G1 X709.6850 Y1594.1822 Z-1.0000 F4000
G1 X706.8043 Y1593.6684 Z-1.0000 F4000
G1 X703.5199 Y1594.2005 Z-1.0000 F4000
G1 X700.4923 Y1596.0354 Z-1.0000 F4000
G1 X698.2722 Y1599.1730 Z-1.0000 F4000
G1 X697.3914 Y1603.5400 Z-1.0000 F4000
G1 X698.0703 Y1607.7969 Z-1.0000 F4000
G1 X699.5382 Y1610.6409 Z-1.0000 F4000
G1 X701.6850 Y1612.7327 Z-1.0000 F4000
G1 X699.5382 Y1610.6409 Z-1.0000 F4000
G1 X698.0703 Y1607.7969 Z-1.0000 F4000
G1 X697.3914 Y1603.5400 Z-1.0000 F4000
G1 X698.2722 Y1599.1730 Z-1.0000 F4000
G1 X700.4923 Y1596.0354 Z-1.0000 F4000
G1 X703.5199 Y1594.2005 Z-1.0000 F4000
G1 X706.8043 Y1593.6684 Z-1.0000 F4000
G1 X709.6850 Y1594.1822 Z-1.0000 F4000
G1 X711.8685 Y1595.4299 Z-1.0000 F4000
G1 X713.5199 Y1597.2831 Z-1.0000 F4000
G1 X714.9327 Y1599.6501 Z-1.0000 F4000
G1 X719.6667 Y1608.8427 Z-1.0000 F4000
G1 X720.7676 Y1610.7510 Z-1.0000 F4000
G1 X722.4557 Y1612.7877 Z-1.0000 F4000
G1 X725.1345 Y1614.3290 Z-1.0000 F4000
G1 X729.1345 Y1614.8611 Z-1.0000 F4000
G1 X733.2997 Y1613.7418 Z-1.0000 F4000
G1 X736.2905 Y1611.0629 Z-1.0000 F4000
G1 X738.0336 Y1607.2464 Z-1.0000 F4000
G1 X738.4923 Y1602.7510 Z-1.0000 F4000
G1 X738.0153 Y1598.6226 Z-1.0000 F4000
G1 X736.7676 Y1595.5033 Z-1.0000 F4000
G1 X734.7125 Y1593.0813 Z-1.0000 F4000
G1 X734.7125 Y1593.0813 Z10.0000 F9999
G1 X687.9969 Y1580.4207 Z10.0000 F9999
G1 X687.9969 Y1580.4207 Z-1.0000 F2500
G1 X740.8410 Y1550.0354 Z-1.0000 F4000
G1 X687.9969 Y1580.4207 Z-1.0000 F4000
G1 X687.9969 Y1580.4207 Z10.0000 F9999
G1 X532.2216 Y1744.9502 Z10.0000 F9999
G1 X532.2216 Y1744.9502 Z-1.0000 F2500
G1 X533.0001 Y1748.4792 Z-1.0000 F4000
G1 X532.7406 Y1751.6450 Z-1.0000 F4000
G1 X531.4172 Y1754.7329 Z-1.0000 F4000
G1 X528.8353 Y1757.9895 Z-1.0000 F4000
G1 X525.3322 Y1760.8438 Z-1.0000 F4000
G1 X521.4010 Y1762.3100 Z-1.0000 F4000
G1 X517.3919 Y1762.0894 Z-1.0000 F4000
G1 X513.6552 Y1759.9356 Z-1.0000 F4000
G1 X511.2031 Y1756.7310 Z-1.0000 F4000
G1 X510.3986 Y1753.7468 Z-1.0000 F4000
G1 X510.6452 Y1751.1130 Z-1.0000 F4000
G1 X511.2160 Y1748.9852 Z-1.0000 F4000
G1 X514.3688 Y1739.1376 Z-1.0000 F4000
G1 X515.0435 Y1736.4649 Z-1.0000 F4000
G1 X515.1862 Y1733.9868 Z-1.0000 F4000
G1 X514.5245 Y1731.5605 Z-1.0000 F4000
G1 X512.8508 Y1729.1603 Z-1.0000 F4000
G1 X510.1521 Y1727.2141 Z-1.0000 F4000
G1 X506.7139 Y1726.3708 Z-1.0000 F4000
G1 X502.9254 Y1727.0195 Z-1.0000 F4000
G1 X499.2147 Y1729.4846 Z-1.0000 F4000
G1 X496.6847 Y1732.9748 Z-1.0000 F4000
G1 X495.7116 Y1736.0238 Z-1.0000 F4000
G1 X495.7505 Y1739.0208 Z-1.0000 F4000
G1 X495.7116 Y1736.0238 Z-1.0000 F4000
G1 X496.6847 Y1732.9748 Z-1.0000 F4000
G1 X499.2147 Y1729.4846 Z-1.0000 F4000
G1 X502.9254 Y1727.0195 Z-1.0000 F4000
G1 X506.7139 Y1726.3708 Z-1.0000 F4000
G1 X510.1521 Y1727.2141 Z-1.0000 F4000
G1 X512.8508 Y1729.1603 Z-1.0000 F4000
G1 X514.5245 Y1731.5605 Z-1.0000 F4000
G1 X515.1862 Y1733.9868 Z-1.0000 F4000
G1 X515.0435 Y1736.4649 Z-1.0000 F4000
G1 X514.3688 Y1739.1376 Z-1.0000 F4000
G1 X511.2160 Y1748.9852 Z-1.0000 F4000
G1 X510.6452 Y1751.1130 Z-1.0000 F4000
G1 X510.3986 Y1753.7468 Z-1.0000 F4000
G1 X511.2031 Y1756.7310 Z-1.0000 F4000
G1 X513.6552 Y1759.9356 Z-1.0000 F4000
G1 X517.3919 Y1762.0894 Z-1.0000 F4000
G1 X521.4010 Y1762.3100 Z-1.0000 F4000
G1 X525.3322 Y1760.8438 Z-1.0000 F4000
G1 X528.8353 Y1757.9895 Z-1.0000 F4000
G1 X531.4172 Y1754.7329 Z-1.0000 F4000
G1 X532.7406 Y1751.6450 Z-1.0000 F4000
G1 X533.0001 Y1748.4792 Z-1.0000 F4000
G1 X533.0001 Y1748.4792 Z10.0000 F9999
G1 X478.2480 Y1798.9238 Z10.0000 F9999
G1 X478.2480 Y1798.9238 Z-1.0000 F2500
G1 X479.0265 Y1802.4529 Z-1.0000 F4000
G1 X478.7670 Y1805.6186 Z-1.0000 F4000
G1 X477.4436 Y1808.7065 Z-1.0000 F4000
G1 X474.8617 Y1811.9631 Z-1.0000 F4000
G1 X471.3586 Y1814.8175 Z-1.0000 F4000
G1 X467.4273 Y1816.2836 Z-1.0000 F4000
G1 X463.4182 Y1816.0630 Z-1.0000 F4000
G1 X459.6816 Y1813.9093 Z-1.0000 F4000
G1 X457.2294 Y1810.7046 Z-1.0000 F4000
G1 X456.4250 Y1807.7205 Z-1.0000 F4000
G1 X456.6715 Y1805.0867 Z-1.0000 F4000
G1 X457.2424 Y1802.9589 Z-1.0000 F4000
G1 X460.3952 Y1793.1113 Z-1.0000 F4000
G1 X461.0698 Y1790.4385 Z-1.0000 F4000
G1 X461.2126 Y1787.9604 Z-1.0000 F4000
G1 X460.5509 Y1785.5342 Z-1.0000 F4000
G1 X458.8772 Y1783.1339 Z-1.0000 F4000
G1 X456.1785 Y1781.1878 Z-1.0000 F4000
G1 X452.7402 Y1780.3444 Z-1.0000 F4000
G1 X448.9517 Y1780.9931 Z-1.0000 F4000
G1 X445.2410 Y1783.4583 Z-1.0000 F4000
G1 X442.7110 Y1786.9484 Z-1.0000 F4000
G1 X441.7379 Y1789.9974 Z-1.0000 F4000
G1 X441.7769 Y1792.9945 Z-1.0000 F4000
G1 X441.7379 Y1789.9974 Z-1.0000 F4000
G1 X442.7110 Y1786.9484 Z-1.0000 F4000
G1 X445.2410 Y1783.4583 Z-1.0000 F4000
G1 X448.9517 Y1780.9931 Z-1.0000 F4000
G1 X452.7402 Y1780.3444 Z-1.0000 F4000
G1 X456.1785 Y1781.1878 Z-1.0000 F4000
G1 X458.8772 Y1783.1339 Z-1.0000 F4000
G1 X460.5509 Y1785.5342 Z-1.0000 F4000
G1 X461.2126 Y1787.9604 Z-1.0000 F4000
G1 X461.0698 Y1790.4385 Z-1.0000 F4000
G1 X460.3952 Y1793.1113 Z-1.0000 F4000
G1 X457.2424 Y1802.9589 Z-1.0000 F4000
G1 X456.6715 Y1805.0867 Z-1.0000 F4000
G1 X456.4250 Y1807.7205 Z-1.0000 F4000
G1 X457.2294 Y1810.7046 Z-1.0000 F4000
G1 X459.6816 Y1813.9093 Z-1.0000 F4000
G1 X463.4182 Y1816.0630 Z-1.0000 F4000
G1 X467.4273 Y1816.2836 Z-1.0000 F4000
G1 X471.3586 Y1814.8175 Z-1.0000 F4000
G1 X474.8617 Y1811.9631 Z-1.0000 F4000
G1 X477.4436 Y1808.7065 Z-1.0000 F4000
G1 X478.7670 Y1805.6186 Z-1.0000 F4000
G1 X479.0265 Y1802.4529 Z-1.0000 F4000
G1 X479.0265 Y1802.4529 Z10.0000 F9999
G1 X454.9459 Y1760.4676 Z10.0000 F9999
G1 X454.9459 Y1760.4676 Z-1.0000 F2500
G1 X513.7979 Y1776.3483 Z-1.0000 F4000
G1 X454.9459 Y1760.4676 Z-1.0000 F4000
G1 X454.9459 Y1760.4676 Z10.0000 F9999
G1 X579.9239 Y1878.9133 Z10.0000 F9999
G1 X579.9239 Y1878.9133 Z-1.0000 F2500
G1 X638.7759 Y1894.7940 Z-1.0000 F4000
G1 X579.9239 Y1878.9133 Z-1.0000 F4000
G1 X579.9239 Y1878.9133 Z10.0000 F9999
G1 X603.2259 Y1917.3695 Z10.0000 F9999
G1 X603.2259 Y1917.3695 Z-1.0000 F2500
G1 X604.0044 Y1920.8985 Z-1.0000 F4000
G1 X603.7449 Y1924.0643 Z-1.0000 F4000
G1 X602.4215 Y1927.1522 Z-1.0000 F4000
G1 X599.8396 Y1930.4088 Z-1.0000 F4000
G1 X596.3365 Y1933.2632 Z-1.0000 F4000
G1 X592.4053 Y1934.7293 Z-1.0000 F4000
G1 X588.3962 Y1934.5087 Z-1.0000 F4000
G1 X584.6595 Y1932.3550 Z-1.0000 F4000
G1 X582.2074 Y1929.1503 Z-1.0000 F4000
G1 X581.4029 Y1926.1662 Z-1.0000 F4000
G1 X581.6495 Y1923.5323 Z-1.0000 F4000
G1 X582.2203 Y1921.4045 Z-1.0000 F4000
G1 X585.3731 Y1911.5569 Z-1.0000 F4000
G1 X586.0478 Y1908.8842 Z-1.0000 F4000
G1 X586.1905 Y1906.4061 Z-1.0000 F4000
G1 X585.5288 Y1903.9799 Z-1.0000 F4000
G1 X583.8551 Y1901.5796 Z-1.0000 F4000
G1 X581.1564 Y1899.6334 Z-1.0000 F4000
G1 X577.7182 Y1898.7901 Z-1.0000 F4000
G1 X573.9297 Y1899.4388 Z-1.0000 F4000
G1 X570.2190 Y1901.9040 Z-1.0000 F4000
G1 X567.6890 Y1905.3941 Z-1.0000 F4000
G1 X566.7159 Y1908.4431 Z-1.0000 F4000
G1 X566.7548 Y1911.4402 Z-1.0000 F4000
G1 X566.7159 Y1908.4431 Z-1.0000 F4000
G1 X567.6890 Y1905.3941 Z-1.0000 F4000
G1 X570.2190 Y1901.9040 Z-1.0000 F4000
G1 X573.9297 Y1899.4388 Z-1.0000 F4000
G1 X577.7182 Y1898.7901 Z-1.0000 F4000
G1 X581.1564 Y1899.6334 Z-1.0000 F4000
G1 X583.8551 Y1901.5796 Z-1.0000 F4000
G1 X585.5288 Y1903.9799 Z-1.0000 F4000
G1 X586.1905 Y1906.4061 Z-1.0000 F4000
G1 X586.0478 Y1908.8842 Z-1.0000 F4000
G1 X585.3731 Y1911.5569 Z-1.0000 F4000
G1 X582.2203 Y1921.4045 Z-1.0000 F4000
G1 X581.6495 Y1923.5323 Z-1.0000 F4000
G1 X581.4029 Y1926.1662 Z-1.0000 F4000
G1 X582.2074 Y1929.1503 Z-1.0000 F4000
G1 X584.6595 Y1932.3550 Z-1.0000 F4000
G1 X588.3962 Y1934.5087 Z-1.0000 F4000
G1 X592.4053 Y1934.7293 Z-1.0000 F4000
G1 X596.3365 Y1933.2632 Z-1.0000 F4000
G1 X599.8396 Y1930.4088 Z-1.0000 F4000
G1 X602.4215 Y1927.1522 Z-1.0000 F4000
G1 X603.7449 Y1924.0643 Z-1.0000 F4000
G1 X604.0044 Y1920.8985 Z-1.0000 F4000
G1 X604.0044 Y1920.8985 Z10.0000 F9999
G1 X657.1996 Y1863.3958 Z10.0000 F9999
G1 X657.1996 Y1863.3958 Z-1.0000 F2500
G1 X657.9781 Y1866.9249 Z-1.0000 F4000
G1 X657.7186 Y1870.0906 Z-1.0000 F4000
G1 X656.3952 Y1873.1786 Z-1.0000 F4000
G1 X653.8133 Y1876.4351 Z-1.0000 F4000
G1 X650.3102 Y1879.2895 Z-1.0000 F4000
G1 X646.3789 Y1880.7556 Z-1.0000 F4000
G1 X642.3698 Y1880.5351 Z-1.0000 F4000
G1 X638.6332 Y1878.3813 Z-1.0000 F4000
G1 X636.1810 Y1875.1766 Z-1.0000 F4000
G1 X635.3766 Y1872.1925 Z-1.0000 F4000
G1 X635.6231 Y1869.5587 Z-1.0000 F4000
G1 X636.1940 Y1867.4309 Z-1.0000 F4000
G1 X639.3468 Y1857.5833 Z-1.0000 F4000
G1 X640.0214 Y1854.9106 Z-1.0000 F4000
G1 X640.1642 Y1852.4324 Z-1.0000 F4000
G1 X639.5025 Y1850.0062 Z-1.0000 F4000
G1 X637.8288 Y1847.6059 Z-1.0000 F4000
G1 X635.1301 Y1845.6598 Z-1.0000 F4000
G1 X631.6919 Y1844.8164 Z-1.0000 F4000
G1 X627.9033 Y1845.4652 Z-1.0000 F4000
G1 X624.1926 Y1847.9303 Z-1.0000 F4000
G1 X621.6626 Y1851.4204 Z-1.0000 F4000
G1 X620.6895 Y1854.4694 Z-1.0000 F4000
G1 X620.7285 Y1857.4665 Z-1.0000 F4000
G1 X620.6895 Y1854.4694 Z-1.0000 F4000
G1 X621.6626 Y1851.4204 Z-1.0000 F4000
G1 X624.1926 Y1847.9303 Z-1.0000 F4000
G1 X627.9033 Y1845.4652 Z-1.0000 F4000
G1 X631.6919 Y1844.8164 Z-1.0000 F4000
G1 X635.1301 Y1845.6598 Z-1.0000 F4000
G1 X637.8288 Y1847.6059 Z-1.0000 F4000
G1 X639.5025 Y1850.0062 Z-1.0000 F4000
G1 X640.1642 Y1852.4324 Z-1.0000 F4000
G1 X640.0214 Y1854.9106 Z-1.0000 F4000
G1 X639.3468 Y1857.5833 Z-1.0000 F4000
G1 X636.1940 Y1867.4309 Z-1.0000 F4000
G1 X635.6231 Y1869.5587 Z-1.0000 F4000
G1 X635.3766 Y1872.1925 Z-1.0000 F4000
G1 X636.1810 Y1875.1766 Z-1.0000 F4000
G1 X638.6332 Y1878.3813 Z-1.0000 F4000
G1 X642.3698 Y1880.5351 Z-1.0000 F4000
G1 X646.3789 Y1880.7556 Z-1.0000 F4000
G1 X650.3102 Y1879.2895 Z-1.0000 F4000
G1 X653.8133 Y1876.4351 Z-1.0000 F4000
G1 X656.3952 Y1873.1786 Z-1.0000 F4000
G1 X657.7186 Y1870.0906 Z-1.0000 F4000
G1 X657.9781 Y1866.9249 Z-1.0000 F4000
G1 X657.9781 Y1866.9249 Z10.0000 F9999
G1 X829.4254 Y2063.2331 Z10.0000 F9999
G1 X829.4254 Y2063.2331 Z-1.0000 F2500
G1 X814.7902 Y2077.8683 Z-1.0000 F4000
G1 X829.4254 Y2063.2331 Z-1.0000 F4000
G1 X829.4254 Y2063.2331 Z10.0000 F9999
G1 X840.8039 Y2089.1950 Z10.0000 F9999
G1 X840.8039 Y2089.1950 Z-1.0000 F2500
G1 X823.0938 Y2048.7796 Z-1.0000 F4000
G1 X840.8039 Y2089.1950 Z-1.0000 F4000
G1 X800.4145 Y2071.4589 Z-1.0000 F4000
G1 X800.4145 Y2071.4589 Z10.0000 F9999
G1 X810.3010 Y2096.4477 Z10.0000 F9999
G1 X810.3010 Y2096.4477 Z-1.0000 F2500
G1 X789.6198 Y2117.1289 Z-1.0000 F4000
G1 X810.3010 Y2096.4477 Z-1.0000 F4000
G1 X810.3010 Y2096.4477 Z10.0000 F9999
G1 X770.4695 Y2122.1890 Z10.0000 F9999
G1 X770.4695 Y2122.1890 Z-1.0000 F2500
G1 X755.8344 Y2136.8241 Z-1.0000 F4000
G1 X770.4695 Y2122.1890 Z-1.0000 F4000
G1 X770.4695 Y2122.1890 Z10.0000 F9999
G1 X781.8481 Y2148.1508 Z10.0000 F9999
G1 X781.8481 Y2148.1508 Z-1.0000 F2500
G1 X764.1380 Y2107.7354 Z-1.0000 F4000
G1 X781.8481 Y2148.1508 Z-1.0000 F4000
G1 X741.4587 Y2130.4148 Z-1.0000 F4000
G1 X741.4587 Y2130.4148 Z10.0000 F9999
G1 X733.9076 Y2137.9659 Z10.0000 F9999
G1 X733.9076 Y2137.9659 Z-1.0000 F2500
G1 X738.7989 Y2161.5664 Z-1.0000 F4000
G1 X733.9076 Y2137.9659 Z-1.0000 F4000
G1 X733.9076 Y2137.9659 Z10.0000 F9999
G1 X721.5948 Y2150.2786 Z10.0000 F9999
G1 X721.5948 Y2150.2786 Z-1.0000 F2500
G1 X750.6576 Y2179.3414 Z-1.0000 F4000
G1 X755.7176 Y2174.2813 Z-1.0000 F4000
G1 X758.0270 Y2171.1156 Z-1.0000 F4000
G1 X759.0131 Y2167.5606 Z-1.0000 F4000
G1 X758.3514 Y2163.7591 Z-1.0000 F4000
G1 X755.6657 Y2159.8797 Z-1.0000 F4000
G1 X751.5398 Y2157.3886 Z-1.0000 F4000
G1 X747.2323 Y2156.9994 Z-1.0000 F4000
G1 X743.4957 Y2157.9595 Z-1.0000 F4000
G1 X740.9786 Y2159.5424 Z-1.0000 F4000
G1 X735.9186 Y2164.6024 Z-1.0000 F4000
G1 X740.9786 Y2159.5424 Z-1.0000 F4000
G1 X743.4957 Y2157.9595 Z-1.0000 F4000
G1 X747.2323 Y2156.9994 Z-1.0000 F4000
G1 X751.5398 Y2157.3886 Z-1.0000 F4000
G1 X755.6657 Y2159.8797 Z-1.0000 F4000
G1 X758.3514 Y2163.7591 Z-1.0000 F4000
G1 X759.0131 Y2167.5606 Z-1.0000 F4000
G1 X758.0270 Y2171.1156 Z-1.0000 F4000
G1 X755.7176 Y2174.2813 Z-1.0000 F4000
G1 X750.6576 Y2179.3414 Z-1.0000 F4000
G1 X750.6576 Y2179.3414 Z10.0000 F9999
G1 X716.1326 Y2187.9953 Z10.0000 F9999
G1 X716.1326 Y2187.9953 Z-1.0000 F2500
G1 X726.3435 Y2177.7844 Z-1.0000 F4000
G1 X716.1326 Y2187.9953 Z-1.0000 F4000
G1 X729.0681 Y2200.9308 Z-1.0000 F4000
G1 X739.7590 Y2190.2399 Z-1.0000 F4000
G1 X729.0681 Y2200.9308 Z-1.0000 F4000
G1 X700.0054 Y2171.8681 Z-1.0000 F4000
G1 X700.0054 Y2171.8681 Z10.0000 F9999
G1 X888.3293 Y2054.9554 Z10.0000 F9999
G1 X888.3293 Y2054.9554 Z-1.0000 F2500
G1 X829.4773 Y2039.0747 Z-1.0000 F4000
G1 X888.3293 Y2054.9554 Z-1.0000 F4000
G1 X888.3293 Y2054.9554 Z10.0000 F9999
G1 X879.7143 Y2024.4136 Z10.0000 F9999
G1 X879.7143 Y2024.4136 Z-1.0000 F2500
G1 X889.9252 Y2014.2027 Z-1.0000 F4000
G1 X879.7143 Y2024.4136 Z-1.0000 F4000
G1 X892.6498 Y2037.3491 Z-1.0000 F4000
G1 X903.3407 Y2026.6582 Z-1.0000 F4000
G1 X892.6498 Y2037.3491 Z-1.0000 F4000
G1 X863.5870 Y2008.2864 Z-1.0000 F4000
G1 X863.5870 Y2008.2864 Z10.0000 F9999
G1 X926.5520 Y2003.4469 Z10.0000 F9999
G1 X926.5520 Y2003.4469 Z-1.0000 F2500
G1 X887.2394 Y1995.5325 Z-1.0000 F4000
G1 X907.6093 Y1975.1627 Z-1.0000 F4000
G1 X887.2394 Y1995.5325 Z-1.0000 F4000
G1 X926.5520 Y2003.4469 Z-1.0000 F4000
G1 X897.4893 Y1974.3842 Z-1.0000 F4000
G1 X897.4893 Y1974.3842 Z10.0000 F9999
G1 X1121.5863 Y2232.2045 Z10.0000 F9999
G1 X1121.5863 Y2232.2045 Z-1.0000 F2500
G1 X1124.6322 Y2234.1494 Z-1.0000 F4000
G1 X1126.6873 Y2236.5714 Z-1.0000 F4000
G1 X1127.9350 Y2239.6907 Z-1.0000 F4000
G1 X1128.4120 Y2243.8191 Z-1.0000 F4000
G1 X1127.9533 Y2248.3146 Z-1.0000 F4000
G1 X1126.2102 Y2252.1311 Z-1.0000 F4000
G1 X1123.2194 Y2254.8100 Z-1.0000 F4000
G1 X1119.0542 Y2255.9292 Z-1.0000 F4000
G1 X1115.0542 Y2255.3971 Z-1.0000 F4000
G1 X1112.3753 Y2253.8558 Z-1.0000 F4000
G1 X1110.6873 Y2251.8191 Z-1.0000 F4000
G1 X1109.5863 Y2249.9109 Z-1.0000 F4000
G1 X1104.8524 Y2240.7182 Z-1.0000 F4000
G1 X1103.4396 Y2238.3513 Z-1.0000 F4000
G1 X1101.7882 Y2236.4980 Z-1.0000 F4000
G1 X1099.6047 Y2235.2503 Z-1.0000 F4000
G1 X1096.7240 Y2234.7366 Z-1.0000 F4000
G1 X1093.4396 Y2235.2687 Z-1.0000 F4000
G1 X1090.4120 Y2237.1036 Z-1.0000 F4000
G1 X1088.1918 Y2240.2412 Z-1.0000 F4000
G1 X1087.3111 Y2244.6081 Z-1.0000 F4000
G1 X1087.9900 Y2248.8650 Z-1.0000 F4000
G1 X1089.4579 Y2251.7091 Z-1.0000 F4000
G1 X1091.6047 Y2253.8008 Z-1.0000 F4000
G1 X1089.4579 Y2251.7091 Z-1.0000 F4000
G1 X1087.9900 Y2248.8650 Z-1.0000 F4000
G1 X1087.3111 Y2244.6081 Z-1.0000 F4000
G1 X1088.1918 Y2240.2412 Z-1.0000 F4000
G1 X1090.4120 Y2237.1036 Z-1.0000 F4000
G1 X1093.4396 Y2235.2687 Z-1.0000 F4000
G1 X1096.7240 Y2234.7366 Z-1.0000 F4000
G1 X1099.6047 Y2235.2503 Z-1.0000 F4000
G1 X1101.7882 Y2236.4980 Z-1.0000 F4000
G1 X1103.4396 Y2238.3513 Z-1.0000 F4000
G1 X1104.8524 Y2240.7182 Z-1.0000 F4000
G1 X1109.5863 Y2249.9109 Z-1.0000 F4000
G1 X1110.6873 Y2251.8191 Z-1.0000 F4000
G1 X1112.3753 Y2253.8558 Z-1.0000 F4000
G1 X1115.0542 Y2255.3971 Z-1.0000 F4000
G1 X1119.0542 Y2255.9292 Z-1.0000 F4000
G1 X1123.2194 Y2254.8100 Z-1.0000 F4000
G1 X1126.2102 Y2252.1311 Z-1.0000 F4000
G1 X1127.9533 Y2248.3146 Z-1.0000 F4000
G1 X1128.4120 Y2243.8191 Z-1.0000 F4000
G1 X1127.9350 Y2239.6907 Z-1.0000 F4000
G1 X1126.6873 Y2236.5714 Z-1.0000 F4000
G1 X1124.6322 Y2234.1494 Z-1.0000 F4000
G1 X1124.6322 Y2234.1494 Z10.0000 F9999
G1 X1121.5863 Y2308.5347 Z10.0000 F9999
G1 X1121.5863 Y2308.5347 Z-1.0000 F2500
G1 X1124.6322 Y2310.4797 Z-1.0000 F4000
G1 X1126.6873 Y2312.9017 Z-1.0000 F4000
G1 X1127.9350 Y2316.0210 Z-1.0000 F4000
G1 X1128.4120 Y2320.1494 Z-1.0000 F4000
G1 X1127.9533 Y2324.6448 Z-1.0000 F4000
G1 X1126.2102 Y2328.4614 Z-1.0000 F4000
G1 X1123.2194 Y2331.1403 Z-1.0000 F4000
G1 X1119.0542 Y2332.2595 Z-1.0000 F4000
G1 X1115.0542 Y2331.7274 Z-1.0000 F4000
G1 X1112.3753 Y2330.1861 Z-1.0000 F4000
G1 X1110.6873 Y2328.1494 Z-1.0000 F4000
G1 X1109.5863 Y2326.2412 Z-1.0000 F4000
G1 X1104.8524 Y2317.0485 Z-1.0000 F4000
G1 X1103.4396 Y2314.6815 Z-1.0000 F4000
G1 X1101.7882 Y2312.8283 Z-1.0000 F4000
G1 X1099.6047 Y2311.5806 Z-1.0000 F4000
G1 X1096.7240 Y2311.0669 Z-1.0000 F4000
G1 X1093.4396 Y2311.5990 Z-1.0000 F4000
G1 X1090.4120 Y2313.4338 Z-1.0000 F4000
G1 X1088.1918 Y2316.5714 Z-1.0000 F4000
G1 X1087.3111 Y2320.9384 Z-1.0000 F4000
G1 X1087.9900 Y2325.1953 Z-1.0000 F4000
G1 X1089.4579 Y2328.0393 Z-1.0000 F4000
G1 X1091.6047 Y2330.1311 Z-1.0000 F4000
G1 X1089.4579 Y2328.0393 Z-1.0000 F4000
G1 X1087.9900 Y2325.1953 Z-1.0000 F4000
G1 X1087.3111 Y2320.9384 Z-1.0000 F4000
G1 X1088.1918 Y2316.5714 Z-1.0000 F4000
G1 X1090.4120 Y2313.4338 Z-1.0000 F4000
G1 X1093.4396 Y2311.5990 Z-1.0000 F4000
G1 X1096.7240 Y2311.0669 Z-1.0000 F4000
G1 X1099.6047 Y2311.5806 Z-1.0000 F4000
G1 X1101.7882 Y2312.8283 Z-1.0000 F4000
G1 X1103.4396 Y2314.6815 Z-1.0000 F4000
G1 X1104.8524 Y2317.0485 Z-1.0000 F4000
G1 X1109.5863 Y2326.2412 Z-1.0000 F4000
G1 X1110.6873 Y2328.1494 Z-1.0000 F4000
G1 X1112.3753 Y2330.1861 Z-1.0000 F4000
G1 X1115.0542 Y2331.7274 Z-1.0000 F4000
G1 X1119.0542 Y2332.2595 Z-1.0000 F4000
G1 X1123.2194 Y2331.1403 Z-1.0000 F4000
G1 X1126.2102 Y2328.4614 Z-1.0000 F4000
G1 X1127.9533 Y2324.6448 Z-1.0000 F4000
G1 X1128.4120 Y2320.1494 Z-1.0000 F4000
G1 X1127.9350 Y2316.0210 Z-1.0000 F4000
G1 X1126.6873 Y2312.9017 Z-1.0000 F4000
G1 X1124.6322 Y2310.4797 Z-1.0000 F4000
G1 X1124.6322 Y2310.4797 Z10.0000 F9999
G1 X1077.9166 Y2297.8191 Z10.0000 F9999
G1 X1077.9166 Y2297.8191 Z-1.0000 F2500
G1 X1130.7607 Y2267.4338 Z-1.0000 F4000
G1 X1077.9166 Y2297.8191 Z-1.0000 F4000
G1 X1077.9166 Y2297.8191 Z10.0000 F9999
G1 X275.4608 Y1930.8088 Z10.0000 F9999
G1 X275.4608 Y1930.8088 Z-1.0000 F2500
G1 X278.9899 Y1930.0303 Z-1.0000 F4000
G1 X282.1556 Y1930.2898 Z-1.0000 F4000
G1 X285.2436 Y1931.6132 Z-1.0000 F4000
G1 X288.5001 Y1934.1951 Z-1.0000 F4000
G1 X291.3545 Y1937.6982 Z-1.0000 F4000
G1 X292.8206 Y1941.6294 Z-1.0000 F4000
G1 X292.6001 Y1945.6385 Z-1.0000 F4000
G1 X290.4463 Y1949.3752 Z-1.0000 F4000
G1 X287.2416 Y1951.8273 Z-1.0000 F4000
G1 X284.2575 Y1952.6318 Z-1.0000 F4000
G1 X281.6237 Y1952.3852 Z-1.0000 F4000
G1 X279.4959 Y1951.8144 Z-1.0000 F4000
G1 X269.6483 Y1948.6616 Z-1.0000 F4000
G1 X266.9755 Y1947.9869 Z-1.0000 F4000
G1 X264.4974 Y1947.8442 Z-1.0000 F4000
G1 X262.0712 Y1948.5059 Z-1.0000 F4000
G1 X259.6709 Y1950.1796 Z-1.0000 F4000
G1 X257.7248 Y1952.8783 Z-1.0000 F4000
G1 X256.8814 Y1956.3165 Z-1.0000 F4000
G1 X257.5302 Y1960.1050 Z-1.0000 F4000
G1 X259.9953 Y1963.8157 Z-1.0000 F4000
G1 X263.4854 Y1966.3457 Z-1.0000 F4000
G1 X266.5344 Y1967.3188 Z-1.0000 F4000
G1 X269.5315 Y1967.2799 Z-1.0000 F4000
G1 X266.5344 Y1967.3188 Z-1.0000 F4000
G1 X263.4854 Y1966.3457 Z-1.0000 F4000
G1 X259.9953 Y1963.8157 Z-1.0000 F4000
G1 X257.5302 Y1960.1050 Z-1.0000 F4000
G1 X256.8814 Y1956.3165 Z-1.0000 F4000
G1 X257.7248 Y1952.8783 Z-1.0000 F4000
G1 X259.6709 Y1950.1796 Z-1.0000 F4000
G1 X262.0712 Y1948.5059 Z-1.0000 F4000
G1 X264.4974 Y1947.8442 Z-1.0000 F4000
G1 X266.9755 Y1947.9869 Z-1.0000 F4000
G1 X269.6483 Y1948.6616 Z-1.0000 F4000
G1 X279.4959 Y1951.8144 Z-1.0000 F4000
G1 X281.6237 Y1952.3852 Z-1.0000 F4000
G1 X284.2575 Y1952.6318 Z-1.0000 F4000
G1 X287.2416 Y1951.8273 Z-1.0000 F4000
G1 X290.4463 Y1949.3752 Z-1.0000 F4000
G1 X292.6001 Y1945.6385 Z-1.0000 F4000
G1 X292.8206 Y1941.6294 Z-1.0000 F4000
G1 X291.3545 Y1937.6982 Z-1.0000 F4000
G1 X288.5001 Y1934.1951 Z-1.0000 F4000
G1 X285.2436 Y1931.6132 Z-1.0000 F4000
G1 X282.1556 Y1930.2898 Z-1.0000 F4000
G1 X278.9899 Y1930.0303 Z-1.0000 F4000
G1 X278.9899 Y1930.0303 Z10.0000 F9999
G1 X237.0046 Y1954.1108 Z10.0000 F9999
G1 X237.0046 Y1954.1108 Z-1.0000 F2500
G1 X252.8853 Y1895.2588 Z-1.0000 F4000
G1 X237.0046 Y1954.1108 Z-1.0000 F4000
G1 X237.0046 Y1954.1108 Z10.0000 F9999
G1 X221.4872 Y1876.8351 Z10.0000 F9999
G1 X221.4872 Y1876.8351 Z-1.0000 F2500
G1 X225.0162 Y1876.0566 Z-1.0000 F4000
G1 X228.1820 Y1876.3161 Z-1.0000 F4000
G1 X231.2699 Y1877.6395 Z-1.0000 F4000
G1 X234.5265 Y1880.2214 Z-1.0000 F4000
G1 X237.3809 Y1883.7245 Z-1.0000 F4000
G1 X238.8470 Y1887.6558 Z-1.0000 F4000
G1 X238.6264 Y1891.6649 Z-1.0000 F4000
G1 X236.4726 Y1895.4015 Z-1.0000 F4000
G1 X233.2680 Y1897.8537 Z-1.0000 F4000
G1 X230.2838 Y1898.6581 Z-1.0000 F4000
G1 X227.6500 Y1898.4116 Z-1.0000 F4000
G1 X225.5222 Y1897.8407 Z-1.0000 F4000
G1 X215.6746 Y1894.6879 Z-1.0000 F4000
G1 X213.0019 Y1894.0133 Z-1.0000 F4000
G1 X210.5238 Y1893.8705 Z-1.0000 F4000
G1 X208.0976 Y1894.5322 Z-1.0000 F4000
G1 X205.6973 Y1896.2059 Z-1.0000 F4000
G1 X203.7511 Y1898.9046 Z-1.0000 F4000
G1 X202.9078 Y1902.3428 Z-1.0000 F4000
G1 X203.5565 Y1906.1314 Z-1.0000 F4000
G1 X206.0216 Y1909.8421 Z-1.0000 F4000
G1 X209.5118 Y1912.3721 Z-1.0000 F4000
G1 X212.5608 Y1913.3452 Z-1.0000 F4000
G1 X215.5579 Y1913.3062 Z-1.0000 F4000
G1 X212.5608 Y1913.3452 Z-1.0000 F4000
G1 X209.5118 Y1912.3721 Z-1.0000 F4000
G1 X206.0216 Y1909.8421 Z-1.0000 F4000
G1 X203.5565 Y1906.1314 Z-1.0000 F4000
G1 X202.9078 Y1902.3428 Z-1.0000 F4000
G1 X203.7511 Y1898.9046 Z-1.0000 F4000
G1 X205.6973 Y1896.2059 Z-1.0000 F4000
G1 X208.0976 Y1894.5322 Z-1.0000 F4000
G1 X210.5238 Y1893.8705 Z-1.0000 F4000
G1 X213.0019 Y1894.0133 Z-1.0000 F4000
G1 X215.6746 Y1894.6879 Z-1.0000 F4000
G1 X225.5222 Y1897.8407 Z-1.0000 F4000
G1 X227.6500 Y1898.4116 Z-1.0000 F4000
G1 X230.2838 Y1898.6581 Z-1.0000 F4000
G1 X233.2680 Y1897.8537 Z-1.0000 F4000
G1 X236.4726 Y1895.4015 Z-1.0000 F4000
G1 X238.6264 Y1891.6649 Z-1.0000 F4000
G1 X238.8470 Y1887.6558 Z-1.0000 F4000
G1 X237.3809 Y1883.7245 Z-1.0000 F4000
G1 X234.5265 Y1880.2214 Z-1.0000 F4000
G1 X231.2699 Y1877.6395 Z-1.0000 F4000
G1 X228.1820 Y1876.3161 Z-1.0000 F4000
G1 X225.0162 Y1876.0566 Z-1.0000 F4000
G1 X225.0162 Y1876.0566 Z10.0000 F9999
G1 X223.1715 Y1722.2148 Z10.0000 F9999
G1 X223.1715 Y1722.2148 Z-1.0000 F2500
G1 X239.0522 Y1663.3627 Z-1.0000 F4000
G1 X223.1715 Y1722.2148 Z-1.0000 F4000
G1 X223.1715 Y1722.2148 Z10.0000 F9999
G1 X261.6278 Y1698.9127 Z10.0000 F9999
G1 X261.6278 Y1698.9127 Z-1.0000 F2500
G1 X265.1568 Y1698.1342 Z-1.0000 F4000
G1 X268.3226 Y1698.3937 Z-1.0000 F4000
G1 X271.4105 Y1699.7171 Z-1.0000 F4000
G1 X274.6671 Y1702.2990 Z-1.0000 F4000
G1 X277.5214 Y1705.8021 Z-1.0000 F4000
G1 X278.9876 Y1709.7334 Z-1.0000 F4000
G1 X278.7670 Y1713.7425 Z-1.0000 F4000
G1 X276.6132 Y1717.4791 Z-1.0000 F4000
G1 X273.4085 Y1719.9313 Z-1.0000 F4000
G1 X270.4244 Y1720.7357 Z-1.0000 F4000
G1 X267.7906 Y1720.4892 Z-1.0000 F4000
G1 X265.6628 Y1719.9183 Z-1.0000 F4000
G1 X255.8152 Y1716.7655 Z-1.0000 F4000
G1 X253.1425 Y1716.0908 Z-1.0000 F4000
G1 X250.6644 Y1715.9481 Z-1.0000 F4000
G1 X248.2381 Y1716.6098 Z-1.0000 F4000
G1 X245.8379 Y1718.2835 Z-1.0000 F4000
G1 X243.8917 Y1720.9822 Z-1.0000 F4000
G1 X243.0484 Y1724.4204 Z-1.0000 F4000
G1 X243.6971 Y1728.2090 Z-1.0000 F4000
G1 X246.1622 Y1731.9197 Z-1.0000 F4000
G1 X249.6524 Y1734.4497 Z-1.0000 F4000
G1 X252.7013 Y1735.4228 Z-1.0000 F4000
G1 X255.6984 Y1735.3838 Z-1.0000 F4000
G1 X252.7013 Y1735.4228 Z-1.0000 F4000
G1 X249.6524 Y1734.4497 Z-1.0000 F4000
G1 X246.1622 Y1731.9197 Z-1.0000 F4000
G1 X243.6971 Y1728.2090 Z-1.0000 F4000
G1 X243.0484 Y1724.4204 Z-1.0000 F4000
G1 X243.8917 Y1720.9822 Z-1.0000 F4000
G1 X245.8379 Y1718.2835 Z-1.0000 F4000
G1 X248.2381 Y1716.6098 Z-1.0000 F4000
G1 X250.6644 Y1715.9481 Z-1.0000 F4000
G1 X253.1425 Y1716.0908 Z-1.0000 F4000
G1 X255.8152 Y1716.7655 Z-1.0000 F4000
G1 X265.6628 Y1719.9183 Z-1.0000 F4000
G1 X267.7906 Y1720.4892 Z-1.0000 F4000
G1 X270.4244 Y1720.7357 Z-1.0000 F4000
G1 X273.4085 Y1719.9313 Z-1.0000 F4000
G1 X276.6132 Y1717.4791 Z-1.0000 F4000
G1 X278.7670 Y1713.7425 Z-1.0000 F4000
G1 X278.9876 Y1709.7334 Z-1.0000 F4000
G1 X277.5214 Y1705.8021 Z-1.0000 F4000
G1 X274.6671 Y1702.2990 Z-1.0000 F4000
G1 X271.4105 Y1699.7171 Z-1.0000 F4000
G1 X268.3226 Y1698.3937 Z-1.0000 F4000
G1 X265.1568 Y1698.1342 Z-1.0000 F4000
G1 X265.1568 Y1698.1342 Z10.0000 F9999
G1 X207.6541 Y1644.9390 Z10.0000 F9999
G1 X207.6541 Y1644.9390 Z-1.0000 F2500
G1 X211.1831 Y1644.1606 Z-1.0000 F4000
G1 X214.3489 Y1644.4201 Z-1.0000 F4000
G1 X217.4368 Y1645.7435 Z-1.0000 F4000
G1 X220.6934 Y1648.3254 Z-1.0000 F4000
G1 X223.5478 Y1651.8285 Z-1.0000 F4000
G1 X225.0139 Y1655.7597 Z-1.0000 F4000
G1 X224.7933 Y1659.7688 Z-1.0000 F4000
G1 X222.6396 Y1663.5055 Z-1.0000 F4000
G1 X219.4349 Y1665.9576 Z-1.0000 F4000
G1 X216.4508 Y1666.7620 Z-1.0000 F4000
G1 X213.8170 Y1666.5155 Z-1.0000 F4000
G1 X211.6891 Y1665.9446 Z-1.0000 F4000
G1 X201.8416 Y1662.7919 Z-1.0000 F4000
G1 X199.1688 Y1662.1172 Z-1.0000 F4000
G1 X196.6907 Y1661.9745 Z-1.0000 F4000
G1 X194.2645 Y1662.6362 Z-1.0000 F4000
G1 X191.8642 Y1664.3099 Z-1.0000 F4000
G1 X189.9180 Y1667.0086 Z-1.0000 F4000
G1 X189.0747 Y1670.4468 Z-1.0000 F4000
G1 X189.7234 Y1674.2353 Z-1.0000 F4000
G1 X192.1886 Y1677.9460 Z-1.0000 F4000
G1 X195.6787 Y1680.4760 Z-1.0000 F4000
G1 X198.7277 Y1681.4491 Z-1.0000 F4000
G1 X201.7248 Y1681.4102 Z-1.0000 F4000
G1 X198.7277 Y1681.4491 Z-1.0000 F4000
G1 X195.6787 Y1680.4760 Z-1.0000 F4000
G1 X192.1886 Y1677.9460 Z-1.0000 F4000
G1 X189.7234 Y1674.2353 Z-1.0000 F4000
G1 X189.0747 Y1670.4468 Z-1.0000 F4000
G1 X189.9180 Y1667.0086 Z-1.0000 F4000
G1 X191.8642 Y1664.3099 Z-1.0000 F4000
G1 X194.2645 Y1662.6362 Z-1.0000 F4000
G1 X196.6907 Y1661.9745 Z-1.0000 F4000
G1 X199.1688 Y1662.1172 Z-1.0000 F4000
G1 X201.8416 Y1662.7919 Z-1.0000 F4000
G1 X211.6891 Y1665.9446 Z-1.0000 F4000
G1 X213.8170 Y1666.5155 Z-1.0000 F4000
G1 X216.4508 Y1666.7620 Z-1.0000 F4000
G1 X219.4349 Y1665.9576 Z-1.0000 F4000
G1 X222.6396 Y1663.5055 Z-1.0000 F4000
G1 X224.7933 Y1659.7688 Z-1.0000 F4000
G1 X225.0139 Y1655.7597 Z-1.0000 F4000
G1 X223.5478 Y1651.8285 Z-1.0000 F4000
G1 X220.6934 Y1648.3254 Z-1.0000 F4000
G1 X217.4368 Y1645.7435 Z-1.0000 F4000
G1 X214.3489 Y1644.4201 Z-1.0000 F4000
G1 X211.1831 Y1644.1606 Z-1.0000 F4000
G1 X211.1831 Y1644.1606 Z10.0000 F9999
G1 X345.9693 Y1175.4750 Z10.0000 F9999
G1 X345.9693 Y1175.4750 Z-1.0000 F2500
G1 X346.7477 Y1179.0040 Z-1.0000 F4000
G1 X346.4882 Y1182.1698 Z-1.0000 F4000
G1 X345.1648 Y1185.2577 Z-1.0000 F4000
G1 X342.5829 Y1188.5143 Z-1.0000 F4000
G1 X339.0798 Y1191.3687 Z-1.0000 F4000
G1 X335.1486 Y1192.8348 Z-1.0000 F4000
G1 X331.1395 Y1192.6142 Z-1.0000 F4000
G1 X327.4028 Y1190.4605 Z-1.0000 F4000
G1 X324.9507 Y1187.2558 Z-1.0000 F4000
G1 X324.1462 Y1184.2717 Z-1.0000 F4000
G1 X324.3928 Y1181.6379 Z-1.0000 F4000
G1 X324.9636 Y1179.5100 Z-1.0000 F4000
G1 X328.1164 Y1169.6625 Z-1.0000 F4000
G1 X328.7911 Y1166.9897 Z-1.0000 F4000
G1 X328.9338 Y1164.5116 Z-1.0000 F4000
G1 X328.2721 Y1162.0854 Z-1.0000 F4000
G1 X326.5984 Y1159.6851 Z-1.0000 F4000
G1 X323.8997 Y1157.7389 Z-1.0000 F4000
G1 X320.4615 Y1156.8956 Z-1.0000 F4000
G1 X316.6730 Y1157.5443 Z-1.0000 F4000
G1 X312.9623 Y1160.0095 Z-1.0000 F4000
G1 X310.4323 Y1163.4996 Z-1.0000 F4000
G1 X309.4592 Y1166.5486 Z-1.0000 F4000
G1 X309.4981 Y1169.5457 Z-1.0000 F4000
G1 X309.4592 Y1166.5486 Z-1.0000 F4000
G1 X310.4323 Y1163.4996 Z-1.0000 F4000
G1 X312.9623 Y1160.0095 Z-1.0000 F4000
G1 X316.6730 Y1157.5443 Z-1.0000 F4000
G1 X320.4615 Y1156.8956 Z-1.0000 F4000
G1 X323.8997 Y1157.7389 Z-1.0000 F4000
G1 X326.5984 Y1159.6851 Z-1.0000 F4000
G1 X328.2721 Y1162.0854 Z-1.0000 F4000
G1 X328.9338 Y1164.5116 Z-1.0000 F4000
G1 X328.7911 Y1166.9897 Z-1.0000 F4000
G1 X328.1164 Y1169.6625 Z-1.0000 F4000
G1 X324.9636 Y1179.5100 Z-1.0000 F4000
G1 X324.3928 Y1181.6379 Z-1.0000 F4000
G1 X324.1462 Y1184.2717 Z-1.0000 F4000
G1 X324.9507 Y1187.2558 Z-1.0000 F4000
G1 X327.4028 Y1190.4605 Z-1.0000 F4000
G1 X331.1395 Y1192.6142 Z-1.0000 F4000
G1 X335.1486 Y1192.8348 Z-1.0000 F4000
G1 X339.0798 Y1191.3687 Z-1.0000 F4000
G1 X342.5829 Y1188.5143 Z-1.0000 F4000
G1 X345.1648 Y1185.2577 Z-1.0000 F4000
G1 X346.4882 Y1182.1698 Z-1.0000 F4000
G1 X346.7477 Y1179.0040 Z-1.0000 F4000
G1 X346.7477 Y1179.0040 Z10.0000 F9999
G1 X322.6672 Y1137.0188 Z10.0000 F9999
G1 X322.6672 Y1137.0188 Z-1.0000 F2500
G1 X381.5192 Y1152.8995 Z-1.0000 F4000
G1 X322.6672 Y1137.0188 Z-1.0000 F4000
G1 X322.6672 Y1137.0188 Z10.0000 F9999
G1 X399.9429 Y1121.5013 Z10.0000 F9999
G1 X399.9429 Y1121.5013 Z-1.0000 F2500
G1 X400.7214 Y1125.0304 Z-1.0000 F4000
G1 X400.4619 Y1128.1962 Z-1.0000 F4000
G1 X399.1385 Y1131.2841 Z-1.0000 F4000
G1 X396.5566 Y1134.5407 Z-1.0000 F4000
G1 X393.0535 Y1137.3950 Z-1.0000 F4000
G1 X389.1222 Y1138.8611 Z-1.0000 F4000
G1 X385.1131 Y1138.6406 Z-1.0000 F4000
G1 X381.3765 Y1136.4868 Z-1.0000 F4000
G1 X378.9243 Y1133.2821 Z-1.0000 F4000
G1 X378.1199 Y1130.2980 Z-1.0000 F4000
G1 X378.3664 Y1127.6642 Z-1.0000 F4000
G1 X378.9373 Y1125.5364 Z-1.0000 F4000
G1 X382.0901 Y1115.6888 Z-1.0000 F4000
G1 X382.7648 Y1113.0161 Z-1.0000 F4000
G1 X382.9075 Y1110.5379 Z-1.0000 F4000
G1 X382.2458 Y1108.1117 Z-1.0000 F4000
G1 X380.5721 Y1105.7115 Z-1.0000 F4000
G1 X377.8734 Y1103.7653 Z-1.0000 F4000
G1 X374.4352 Y1102.9220 Z-1.0000 F4000
G1 X370.6466 Y1103.5707 Z-1.0000 F4000
G1 X366.9359 Y1106.0358 Z-1.0000 F4000
G1 X364.4059 Y1109.5259 Z-1.0000 F4000
G1 X363.4328 Y1112.5749 Z-1.0000 F4000
G1 X363.4718 Y1115.5720 Z-1.0000 F4000
G1 X363.4328 Y1112.5749 Z-1.0000 F4000
G1 X364.4059 Y1109.5259 Z-1.0000 F4000
G1 X366.9359 Y1106.0358 Z-1.0000 F4000
G1 X370.6466 Y1103.5707 Z-1.0000 F4000
G1 X374.4352 Y1102.9220 Z-1.0000 F4000
G1 X377.8734 Y1103.7653 Z-1.0000 F4000
G1 X380.5721 Y1105.7115 Z-1.0000 F4000
G1 X382.2458 Y1108.1117 Z-1.0000 F4000
G1 X382.9075 Y1110.5379 Z-1.0000 F4000
G1 X382.7648 Y1113.0161 Z-1.0000 F4000
G1 X382.0901 Y1115.6888 Z-1.0000 F4000
G1 X378.9373 Y1125.5364 Z-1.0000 F4000
G1 X378.3664 Y1127.6642 Z-1.0000 F4000
G1 X378.1199 Y1130.2980 Z-1.0000 F4000
G1 X378.9243 Y1133.2821 Z-1.0000 F4000
G1 X381.3765 Y1136.4868 Z-1.0000 F4000
G1 X385.1131 Y1138.6406 Z-1.0000 F4000
G1 X389.1222 Y1138.8611 Z-1.0000 F4000
G1 X393.0535 Y1137.3950 Z-1.0000 F4000
G1 X396.5566 Y1134.5407 Z-1.0000 F4000
G1 X399.1385 Y1131.2841 Z-1.0000 F4000
G1 X400.4619 Y1128.1962 Z-1.0000 F4000
G1 X400.7214 Y1125.0304 Z-1.0000 F4000
G1 X400.7214 Y1125.0304 Z10.0000 F9999
G1 X199.1895 Y1032.4340 Z10.0000 F9999
G1 X199.1895 Y1032.4340 Z-1.0000 F2500
G1 X202.2354 Y1034.3789 Z-1.0000 F4000
G1 X204.2904 Y1036.8009 Z-1.0000 F4000
G1 X205.5381 Y1039.9202 Z-1.0000 F4000
G1 X206.0152 Y1044.0486 Z-1.0000 F4000
G1 X205.5565 Y1048.5441 Z-1.0000 F4000
G1 X203.8133 Y1052.3606 Z-1.0000 F4000
G1 X200.8225 Y1055.0395 Z-1.0000 F4000
G1 X196.6574 Y1056.1587 Z-1.0000 F4000
G1 X192.6574 Y1055.6266 Z-1.0000 F4000
G1 X189.9785 Y1054.0853 Z-1.0000 F4000
G1 X188.2904 Y1052.0486 Z-1.0000 F4000
G1 X187.1895 Y1050.1404 Z-1.0000 F4000
G1 X182.4555 Y1040.9477 Z-1.0000 F4000
G1 X181.0427 Y1038.5807 Z-1.0000 F4000
G1 X179.3913 Y1036.7275 Z-1.0000 F4000
G1 X177.2078 Y1035.4798 Z-1.0000 F4000
G1 X174.3271 Y1034.9661 Z-1.0000 F4000
G1 X171.0427 Y1035.4982 Z-1.0000 F4000
G1 X168.0152 Y1037.3330 Z-1.0000 F4000
G1 X165.7950 Y1040.4707 Z-1.0000 F4000
G1 X164.9143 Y1044.8376 Z-1.0000 F4000
G1 X165.5932 Y1049.0945 Z-1.0000 F4000
G1 X167.0611 Y1051.9385 Z-1.0000 F4000
G1 X169.2078 Y1054.0303 Z-1.0000 F4000
G1 X167.0611 Y1051.9385 Z-1.0000 F4000
G1 X165.5932 Y1049.0945 Z-1.0000 F4000
G1 X164.9143 Y1044.8376 Z-1.0000 F4000
G1 X165.7950 Y1040.4707 Z-1.0000 F4000
G1 X168.0152 Y1037.3330 Z-1.0000 F4000
G1 X171.0427 Y1035.4982 Z-1.0000 F4000
G1 X174.3271 Y1034.9661 Z-1.0000 F4000
G1 X177.2078 Y1035.4798 Z-1.0000 F4000
G1 X179.3913 Y1036.7275 Z-1.0000 F4000
G1 X181.0427 Y1038.5807 Z-1.0000 F4000
G1 X182.4555 Y1040.9477 Z-1.0000 F4000
G1 X187.1895 Y1050.1404 Z-1.0000 F4000
G1 X188.2904 Y1052.0486 Z-1.0000 F4000
G1 X189.9785 Y1054.0853 Z-1.0000 F4000
G1 X192.6574 Y1055.6266 Z-1.0000 F4000
G1 X196.6574 Y1056.1587 Z-1.0000 F4000
G1 X200.8225 Y1055.0395 Z-1.0000 F4000
G1 X203.8133 Y1052.3606 Z-1.0000 F4000
G1 X205.5565 Y1048.5441 Z-1.0000 F4000
G1 X206.0152 Y1044.0486 Z-1.0000 F4000
G1 X205.5381 Y1039.9202 Z-1.0000 F4000
G1 X204.2904 Y1036.8009 Z-1.0000 F4000
G1 X202.2354 Y1034.3789 Z-1.0000 F4000
G1 X202.2354 Y1034.3789 Z10.0000 F9999
G1 X155.5198 Y1021.7184 Z10.0000 F9999
G1 X155.5198 Y1021.7184 Z-1.0000 F2500
G1 X208.3638 Y991.3330 Z-1.0000 F4000
G1 X155.5198 Y1021.7184 Z-1.0000 F4000
G1 X155.5198 Y1021.7184 Z10.0000 F9999
G1 X199.1895 Y956.1037 Z10.0000 F9999
G1 X199.1895 Y956.1037 Z-1.0000 F2500
G1 X202.2354 Y958.0486 Z-1.0000 F4000
G1 X204.2904 Y960.4707 Z-1.0000 F4000
G1 X205.5381 Y963.5899 Z-1.0000 F4000
G1 X206.0152 Y967.7184 Z-1.0000 F4000
G1 X205.5565 Y972.2138 Z-1.0000 F4000
G1 X203.8133 Y976.0303 Z-1.0000 F4000
G1 X200.8225 Y978.7092 Z-1.0000 F4000
G1 X196.6574 Y979.8285 Z-1.0000 F4000
G1 X192.6574 Y979.2963 Z-1.0000 F4000
G1 X189.9785 Y977.7551 Z-1.0000 F4000
G1 X188.2904 Y975.7184 Z-1.0000 F4000
G1 X187.1895 Y973.8101 Z-1.0000 F4000
G1 X182.4555 Y964.6174 Z-1.0000 F4000
G1 X181.0427 Y962.2505 Z-1.0000 F4000
G1 X179.3913 Y960.3973 Z-1.0000 F4000
G1 X177.2078 Y959.1496 Z-1.0000 F4000
G1 X174.3271 Y958.6358 Z-1.0000 F4000
G1 X171.0427 Y959.1679 Z-1.0000 F4000
G1 X168.0152 Y961.0028 Z-1.0000 F4000
G1 X165.7950 Y964.1404 Z-1.0000 F4000
G1 X164.9143 Y968.5074 Z-1.0000 F4000
G1 X165.5932 Y972.7642 Z-1.0000 F4000
G1 X167.0611 Y975.6083 Z-1.0000 F4000
G1 X169.2078 Y977.7000 Z-1.0000 F4000
G1 X167.0611 Y975.6083 Z-1.0000 F4000
G1 X165.5932 Y972.7642 Z-1.0000 F4000
G1 X164.9143 Y968.5074 Z-1.0000 F4000
G1 X165.7950 Y964.1404 Z-1.0000 F4000
G1 X168.0152 Y961.0028 Z-1.0000 F4000
G1 X171.0427 Y959.1679 Z-1.0000 F4000
G1 X174.3271 Y958.6358 Z-1.0000 F4000
G1 X177.2078 Y959.1496 Z-1.0000 F4000
G1 X179.3913 Y960.3973 Z-1.0000 F4000
G1 X181.0427 Y962.2505 Z-1.0000 F4000
G1 X182.4555 Y964.6174 Z-1.0000 F4000
G1 X187.1895 Y973.8101 Z-1.0000 F4000
G1 X188.2904 Y975.7184 Z-1.0000 F4000
G1 X189.9785 Y977.7551 Z-1.0000 F4000
G1 X192.6574 Y979.2963 Z-1.0000 F4000
G1 X196.6574 Y979.8285 Z-1.0000 F4000
G1 X200.8225 Y978.7092 Z-1.0000 F4000
G1 X203.8133 Y976.0303 Z-1.0000 F4000
G1 X205.5565 Y972.2138 Z-1.0000 F4000
G1 X206.0152 Y967.7184 Z-1.0000 F4000
G1 X205.5381 Y963.5899 Z-1.0000 F4000
G1 X204.2904 Y960.4707 Z-1.0000 F4000
G1 X202.2354 Y958.0486 Z-1.0000 F4000
G1 X202.2354 Y958.0486 Z10.0000 F9999
G1 X309.6048 Y856.0097 Z10.0000 F9999
G1 X309.6048 Y856.0097 Z-1.0000 F2500
G1 X362.4488 Y825.6244 Z-1.0000 F4000
G1 X309.6048 Y856.0097 Z-1.0000 F4000
G1 X309.6048 Y856.0097 Z10.0000 F9999
G1 X353.2745 Y866.7253 Z10.0000 F9999
G1 X353.2745 Y866.7253 Z-1.0000 F2500
G1 X356.3204 Y868.6703 Z-1.0000 F4000
G1 X358.3755 Y871.0923 Z-1.0000 F4000
G1 X359.6232 Y874.2115 Z-1.0000 F4000
G1 X360.1002 Y878.3400 Z-1.0000 F4000
G1 X359.6415 Y882.8354 Z-1.0000 F4000
G1 X357.8984 Y886.6519 Z-1.0000 F4000
G1 X354.9076 Y889.3308 Z-1.0000 F4000
G1 X350.7424 Y890.4501 Z-1.0000 F4000
G1 X346.7424 Y889.9180 Z-1.0000 F4000
G1 X344.0635 Y888.3767 Z-1.0000 F4000
G1 X342.3755 Y886.3400 Z-1.0000 F4000
G1 X341.2745 Y884.4317 Z-1.0000 F4000
G1 X336.5406 Y875.2391 Z-1.0000 F4000
G1 X335.1277 Y872.8721 Z-1.0000 F4000
G1 X333.4764 Y871.0189 Z-1.0000 F4000
G1 X331.2929 Y869.7712 Z-1.0000 F4000
G1 X328.4121 Y869.2574 Z-1.0000 F4000
G1 X325.1277 Y869.7895 Z-1.0000 F4000
G1 X322.1002 Y871.6244 Z-1.0000 F4000
G1 X319.8800 Y874.7620 Z-1.0000 F4000
G1 X318.9993 Y879.1290 Z-1.0000 F4000
G1 X319.6782 Y883.3858 Z-1.0000 F4000
G1 X321.1461 Y886.2299 Z-1.0000 F4000
G1 X323.2929 Y888.3216 Z-1.0000 F4000
G1 X321.1461 Y886.2299 Z-1.0000 F4000
G1 X319.6782 Y883.3858 Z-1.0000 F4000
G1 X318.9993 Y879.1290 Z-1.0000 F4000
G1 X319.8800 Y874.7620 Z-1.0000 F4000
G1 X322.1002 Y871.6244 Z-1.0000 F4000
G1 X325.1277 Y869.7895 Z-1.0000 F4000
G1 X328.4121 Y869.2574 Z-1.0000 F4000
G1 X331.2929 Y869.7712 Z-1.0000 F4000
G1 X333.4764 Y871.0189 Z-1.0000 F4000
G1 X335.1277 Y872.8721 Z-1.0000 F4000
G1 X336.5406 Y875.2391 Z-1.0000 F4000
G1 X341.2745 Y884.4317 Z-1.0000 F4000
G1 X342.3755 Y886.3400 Z-1.0000 F4000
G1 X344.0635 Y888.3767 Z-1.0000 F4000
G1 X346.7424 Y889.9180 Z-1.0000 F4000
G1 X350.7424 Y890.4501 Z-1.0000 F4000
G1 X354.9076 Y889.3308 Z-1.0000 F4000
G1 X357.8984 Y886.6519 Z-1.0000 F4000
G1 X359.6415 Y882.8354 Z-1.0000 F4000
G1 X360.1002 Y878.3400 Z-1.0000 F4000
G1 X359.6232 Y874.2115 Z-1.0000 F4000
G1 X358.3755 Y871.0923 Z-1.0000 F4000
G1 X356.3204 Y868.6703 Z-1.0000 F4000
G1 X356.3204 Y868.6703 Z10.0000 F9999
G1 X353.2745 Y790.3950 Z10.0000 F9999
G1 X353.2745 Y790.3950 Z-1.0000 F2500
G1 X356.3204 Y792.3400 Z-1.0000 F4000
G1 X358.3755 Y794.7620 Z-1.0000 F4000
G1 X359.6232 Y797.8813 Z-1.0000 F4000
G1 X360.1002 Y802.0097 Z-1.0000 F4000
G1 X359.6415 Y806.5051 Z-1.0000 F4000
G1 X357.8984 Y810.3216 Z-1.0000 F4000
G1 X354.9076 Y813.0005 Z-1.0000 F4000
G1 X350.7424 Y814.1198 Z-1.0000 F4000
G1 X346.7424 Y813.5877 Z-1.0000 F4000
G1 X344.0635 Y812.0464 Z-1.0000 F4000
G1 X342.3755 Y810.0097 Z-1.0000 F4000
G1 X341.2745 Y808.1014 Z-1.0000 F4000
G1 X336.5406 Y798.9088 Z-1.0000 F4000
G1 X335.1277 Y796.5418 Z-1.0000 F4000
G1 X333.4764 Y794.6886 Z-1.0000 F4000
G1 X331.2929 Y793.4409 Z-1.0000 F4000
G1 X328.4121 Y792.9271 Z-1.0000 F4000
G1 X325.1277 Y793.4592 Z-1.0000 F4000
G1 X322.1002 Y795.2941 Z-1.0000 F4000
G1 X319.8800 Y798.4317 Z-1.0000 F4000
G1 X318.9993 Y802.7987 Z-1.0000 F4000
G1 X319.6782 Y807.0556 Z-1.0000 F4000
G1 X321.1461 Y809.8996 Z-1.0000 F4000
G1 X323.2929 Y811.9914 Z-1.0000 F4000
G1 X321.1461 Y809.8996 Z-1.0000 F4000
G1 X319.6782 Y807.0556 Z-1.0000 F4000
G1 X318.9993 Y802.7987 Z-1.0000 F4000
G1 X319.8800 Y798.4317 Z-1.0000 F4000
G1 X322.1002 Y795.2941 Z-1.0000 F4000
G1 X325.1277 Y793.4592 Z-1.0000 F4000
G1 X328.4121 Y792.9271 Z-1.0000 F4000
G1 X331.2929 Y793.4409 Z-1.0000 F4000
G1 X333.4764 Y794.6886 Z-1.0000 F4000
G1 X335.1277 Y796.5418 Z-1.0000 F4000
G1 X336.5406 Y798.9088 Z-1.0000 F4000
G1 X341.2745 Y808.1014 Z-1.0000 F4000
G1 X342.3755 Y810.0097 Z-1.0000 F4000
G1 X344.0635 Y812.0464 Z-1.0000 F4000
G1 X346.7424 Y813.5877 Z-1.0000 F4000
G1 X350.7424 Y814.1198 Z-1.0000 F4000
G1 X354.9076 Y813.0005 Z-1.0000 F4000
G1 X357.8984 Y810.3216 Z-1.0000 F4000
G1 X359.6415 Y806.5051 Z-1.0000 F4000
G1 X360.1002 Y802.0097 Z-1.0000 F4000
G1 X359.6232 Y797.8813 Z-1.0000 F4000
G1 X358.3755 Y794.7620 Z-1.0000 F4000
G1 X356.3204 Y792.3400 Z-1.0000 F4000
G1 X356.3204 Y792.3400 Z10.0000 F9999
G1 X199.1895 Y695.0607 Z10.0000 F9999
G1 X199.1895 Y695.0607 Z-1.0000 F2500
G1 X202.2354 Y697.0057 Z-1.0000 F4000
G1 X204.2904 Y699.4277 Z-1.0000 F4000
G1 X205.5381 Y702.5470 Z-1.0000 F4000
G1 X206.0152 Y706.6754 Z-1.0000 F4000
G1 X205.5565 Y711.1708 Z-1.0000 F4000
G1 X203.8133 Y714.9873 Z-1.0000 F4000
G1 X200.8225 Y717.6662 Z-1.0000 F4000
G1 X196.6574 Y718.7855 Z-1.0000 F4000
G1 X192.6574 Y718.2534 Z-1.0000 F4000
G1 X189.9785 Y716.7121 Z-1.0000 F4000
G1 X188.2904 Y714.6754 Z-1.0000 F4000
G1 X187.1895 Y712.7672 Z-1.0000 F4000
G1 X182.4555 Y703.5745 Z-1.0000 F4000
G1 X181.0427 Y701.2075 Z-1.0000 F4000
G1 X179.3913 Y699.3543 Z-1.0000 F4000
G1 X177.2078 Y698.1066 Z-1.0000 F4000
G1 X174.3271 Y697.5928 Z-1.0000 F4000
G1 X171.0427 Y698.1250 Z-1.0000 F4000
G1 X168.0152 Y699.9598 Z-1.0000 F4000
G1 X165.7950 Y703.0974 Z-1.0000 F4000
G1 X164.9143 Y707.4644 Z-1.0000 F4000
G1 X165.5932 Y711.7213 Z-1.0000 F4000
G1 X167.0611 Y714.5653 Z-1.0000 F4000
G1 X169.2078 Y716.6571 Z-1.0000 F4000
G1 X167.0611 Y714.5653 Z-1.0000 F4000
G1 X165.5932 Y711.7213 Z-1.0000 F4000
G1 X164.9143 Y707.4644 Z-1.0000 F4000
G1 X165.7950 Y703.0974 Z-1.0000 F4000
G1 X168.0152 Y699.9598 Z-1.0000 F4000
G1 X171.0427 Y698.1250 Z-1.0000 F4000
G1 X174.3271 Y697.5928 Z-1.0000 F4000
G1 X177.2078 Y698.1066 Z-1.0000 F4000
G1 X179.3913 Y699.3543 Z-1.0000 F4000
G1 X181.0427 Y701.2075 Z-1.0000 F4000
G1 X182.4555 Y703.5745 Z-1.0000 F4000
G1 X187.1895 Y712.7672 Z-1.0000 F4000
G1 X188.2904 Y714.6754 Z-1.0000 F4000
G1 X189.9785 Y716.7121 Z-1.0000 F4000
G1 X192.6574 Y718.2534 Z-1.0000 F4000
G1 X196.6574 Y718.7855 Z-1.0000 F4000
G1 X200.8225 Y717.6662 Z-1.0000 F4000
G1 X203.8133 Y714.9873 Z-1.0000 F4000
G1 X205.5565 Y711.1708 Z-1.0000 F4000
G1 X206.0152 Y706.6754 Z-1.0000 F4000
G1 X205.5381 Y702.5470 Z-1.0000 F4000
G1 X204.2904 Y699.4277 Z-1.0000 F4000
G1 X202.2354 Y697.0057 Z-1.0000 F4000
G1 X202.2354 Y697.0057 Z10.0000 F9999
G1 X155.5198 Y684.3451 Z10.0000 F9999
G1 X155.5198 Y684.3451 Z-1.0000 F2500
G1 X208.3638 Y653.9598 Z-1.0000 F4000
G1 X155.5198 Y684.3451 Z-1.0000 F4000
G1 X155.5198 Y684.3451 Z10.0000 F9999
G1 X199.1895 Y618.7305 Z10.0000 F9999
G1 X199.1895 Y618.7305 Z-1.0000 F2500
G1 X202.2354 Y620.6754 Z-1.0000 F4000
G1 X204.2904 Y623.0974 Z-1.0000 F4000
G1 X205.5381 Y626.2167 Z-1.0000 F4000
G1 X206.0152 Y630.3451 Z-1.0000 F4000
G1 X205.5565 Y634.8405 Z-1.0000 F4000
G1 X203.8133 Y638.6571 Z-1.0000 F4000
G1 X200.8225 Y641.3360 Z-1.0000 F4000
G1 X196.6574 Y642.4552 Z-1.0000 F4000
G1 X192.6574 Y641.9231 Z-1.0000 F4000
G1 X189.9785 Y640.3818 Z-1.0000 F4000
G1 X188.2904 Y638.3451 Z-1.0000 F4000
G1 X187.1895 Y636.4369 Z-1.0000 F4000
G1 X182.4555 Y627.2442 Z-1.0000 F4000
G1 X181.0427 Y624.8772 Z-1.0000 F4000
G1 X179.3913 Y623.0240 Z-1.0000 F4000
G1 X177.2078 Y621.7763 Z-1.0000 F4000
G1 X174.3271 Y621.2626 Z-1.0000 F4000
G1 X171.0427 Y621.7947 Z-1.0000 F4000
G1 X168.0152 Y623.6295 Z-1.0000 F4000
G1 X165.7950 Y626.7672 Z-1.0000 F4000
G1 X164.9143 Y631.1341 Z-1.0000 F4000
G1 X165.5932 Y635.3910 Z-1.0000 F4000
G1 X167.0611 Y638.2350 Z-1.0000 F4000
G1 X169.2078 Y640.3268 Z-1.0000 F4000
G1 X167.0611 Y638.2350 Z-1.0000 F4000
G1 X165.5932 Y635.3910 Z-1.0000 F4000
G1 X164.9143 Y631.1341 Z-1.0000 F4000
G1 X165.7950 Y626.7672 Z-1.0000 F4000
G1 X168.0152 Y623.6295 Z-1.0000 F4000
G1 X171.0427 Y621.7947 Z-1.0000 F4000
G1 X174.3271 Y621.2626 Z-1.0000 F4000
G1 X177.2078 Y621.7763 Z-1.0000 F4000
G1 X179.3913 Y623.0240 Z-1.0000 F4000
G1 X181.0427 Y624.8772 Z-1.0000 F4000
G1 X182.4555 Y627.2442 Z-1.0000 F4000
G1 X187.1895 Y636.4369 Z-1.0000 F4000
G1 X188.2904 Y638.3451 Z-1.0000 F4000
G1 X189.9785 Y640.3818 Z-1.0000 F4000
G1 X192.6574 Y641.9231 Z-1.0000 F4000
G1 X196.6574 Y642.4552 Z-1.0000 F4000
G1 X200.8225 Y641.3360 Z-1.0000 F4000
G1 X203.8133 Y638.6571 Z-1.0000 F4000
G1 X205.5565 Y634.8405 Z-1.0000 F4000
G1 X206.0152 Y630.3451 Z-1.0000 F4000
G1 X205.5381 Y626.2167 Z-1.0000 F4000
G1 X204.2904 Y623.0974 Z-1.0000 F4000
G1 X202.2354 Y620.6754 Z-1.0000 F4000
G1 X202.2354 Y620.6754 Z10.0000 F9999
(Tool Number:1) (7.998 mm dia. slot drill)
M3 S9000
G1 X52.8980 Y134.8997 Z10.0000 F9999
G1 X52.8980 Y134.8997 Z1.0000 F2500
G1 X52.8980 Y173.8709 Z-9.5000 F2500
G1 X52.8980 Y134.8997 Z-20.0000 F2500
G1 X52.8980 Y218.8986 Z-20.0000 F4000
G1 X47.8985 Y218.8986 Z-20.0000 F4000
G1 X47.8985 Y220.9006 Z-20.0000 F4000
G1 X85.9000 Y220.9006 Z-20.0000 F4000
G1 X85.9000 Y218.8986 Z-20.0000 F4000
G1 X80.8990 Y218.8986 Z-20.0000 F4000
G1 X80.8990 Y139.9007 Z-20.0000 F4000
G1 X108.8970 Y139.9007 Z-20.0000 F4000
G1 X108.8970 Y144.9007 Z-20.0000 F4000
G1 X110.9020 Y144.9007 Z-20.0000 F4000
G1 X110.9020 Y124.8988 Z-20.0000 F4000
G1 X108.8970 Y124.8988 Z-20.0000 F4000
G1 X108.8970 Y129.8988 Z-20.0000 F4000
G1 X80.8990 Y129.8988 Z-20.0000 F4000
G1 X80.8990 Y50.9009 Z-20.0000 F4000
G1 X85.9000 Y50.9009 Z-20.0000 F4000
G1 X85.9000 Y48.8989 Z-20.0000 F4000
G1 X47.8985 Y48.8989 Z-20.0000 F4000
G1 X47.8985 Y50.9009 Z-20.0000 F4000
G1 X52.8980 Y50.9009 Z-20.0000 F4000
G1 X52.8980 Y134.8997 Z-20.0000 F4000
G1 X52.8980 Y134.8997 Z10.0000 F9999
G1 X342.7357 Y585.5106 Z10.0000 F9999
G1 X342.7357 Y585.5106 Z1.0000 F2500
G1 X361.6369 Y610.0822 Z-7.3524 F2500
G1 X357.9803 Y605.3253 Z-8.9690 F2500
G1 X359.5423 Y604.1237 Z-9.5000 F2500
G1 X357.9803 Y605.3253 Z-10.0310 F2500
G1 X361.6369 Y610.0822 Z-11.6476 F2500
G1 X342.7357 Y585.5106 Z-20.0000 F2500
G1 X361.6369 Y610.0822 Z-20.0000 F4000
G1 X357.9803 Y605.3253 Z-20.0000 F4000
G1 X370.6622 Y595.5699 Z-20.0000 F4000
G1 X365.9053 Y599.2266 Z-20.0000 F4000
G1 X334.2017 Y558.0119 Z-20.0000 F4000
G1 X338.9574 Y554.3537 Z-20.0000 F4000
G1 X326.2742 Y564.1074 Z-20.0000 F4000
G1 X322.6160 Y559.3517 Z-20.0000 F4000
G1 X332.6693 Y572.4362 Z-20.0000 F4000
G1 X342.7357 Y585.5106 Z-20.0000 F4000
G1 X342.7357 Y585.5106 Z10.0000 F9999
G1 X533.3316 Y436.3734 Z10.0000 F9999
G1 X533.3316 Y436.3734 Z1.0000 F2500
G1 X514.4304 Y411.8018 Z-7.3524 F2500
G1 X518.0871 Y416.5587 Z-8.9690 F2500
G1 X516.5250 Y417.7603 Z-9.5000 F2500
G1 X518.0871 Y416.5587 Z-10.0310 F2500
G1 X514.4304 Y411.8018 Z-11.6476 F2500
G1 X533.3316 Y436.3734 Z-20.0000 F2500
G1 X514.4304 Y411.8018 Z-20.0000 F4000
G1 X518.0871 Y416.5587 Z-20.0000 F4000
G1 X505.4051 Y426.3141 Z-20.0000 F4000
G1 X510.1621 Y422.6574 Z-20.0000 F4000
G1 X541.8656 Y463.8721 Z-20.0000 F4000
G1 X537.1099 Y467.5303 Z-20.0000 F4000
G1 X549.7931 Y457.7766 Z-20.0000 F4000
G1 X553.4513 Y462.5323 Z-20.0000 F4000
G1 X543.3980 Y449.4478 Z-20.0000 F4000
G1 X533.3316 Y436.3734 Z-20.0000 F4000
G1 X533.3316 Y436.3734 Z10.0000 F9999
G1 X716.2453 Y674.1604 Z10.0000 F9999
G1 X716.2453 Y674.1604 Z1.0000 F2500
G1 X697.3441 Y649.5887 Z-7.3524 F2500
G1 X701.0008 Y654.3457 Z-8.9690 F2500
G1 X699.4387 Y655.5473 Z-9.5000 F2500
G1 X701.0008 Y654.3457 Z-10.0310 F2500
G1 X697.3441 Y649.5887 Z-11.6476 F2500
G1 X716.2453 Y674.1604 Z-20.0000 F2500
G1 X697.3441 Y649.5887 Z-20.0000 F4000
G1 X701.0008 Y654.3457 Z-20.0000 F4000
G1 X688.3188 Y664.1011 Z-20.0000 F4000
G1 X693.0758 Y660.4444 Z-20.0000 F4000
G1 X724.7793 Y701.6591 Z-20.0000 F4000
G1 X720.0236 Y705.3173 Z-20.0000 F4000
G1 X732.7068 Y695.5636 Z-20.0000 F4000
G1 X736.3650 Y700.3193 Z-20.0000 F4000
G1 X726.3117 Y687.2348 Z-20.0000 F4000
G1 X716.2453 Y674.1604 Z-20.0000 F4000
G1 X716.2453 Y674.1604 Z10.0000 F9999
G1 X525.6494 Y823.2976 Z10.0000 F9999
G1 X525.6494 Y823.2976 Z1.0000 F2500
G1 X544.5506 Y847.8692 Z-7.3524 F2500
G1 X540.8940 Y843.1123 Z-8.9690 F2500
G1 X542.4560 Y841.9107 Z-9.5000 F2500
G1 X540.8940 Y843.1123 Z-10.0310 F2500
G1 X544.5506 Y847.8692 Z-11.6476 F2500
G1 X525.6494 Y823.2976 Z-20.0000 F2500
G1 X544.5506 Y847.8692 Z-20.0000 F4000
G1 X540.8940 Y843.1123 Z-20.0000 F4000
G1 X553.5759 Y833.3569 Z-20.0000 F4000
G1 X548.8190 Y837.0136 Z-20.0000 F4000
G1 X517.1154 Y795.7989 Z-20.0000 F4000
G1 X521.8711 Y792.1407 Z-20.0000 F4000
G1 X509.1879 Y801.8944 Z-20.0000 F4000
G1 X505.5297 Y797.1387 Z-20.0000 F4000
G1 X515.5830 Y810.2232 Z-20.0000 F4000
G1 X525.6494 Y823.2976 Z-20.0000 F4000
G1 X525.6494 Y823.2976 Z10.0000 F9999
G1 X524.4287 Y1151.3201 Z10.0000 F9999
G1 X524.4287 Y1151.3201 Z1.0000 F2500
G1 X505.5275 Y1175.8918 Z-7.3524 F2500
G1 X509.1873 Y1171.1373 Z-8.9690 F2500
G1 X510.7494 Y1172.3389 Z-9.5000 F2500
G1 X509.1873 Y1171.1373 Z-10.0310 F2500
G1 X505.5275 Y1175.8918 Z-11.6476 F2500
G1 X524.4287 Y1151.3201 Z-20.0000 F2500
G1 X505.5275 Y1175.8918 Z-20.0000 F4000
G1 X509.1873 Y1171.1373 Z-20.0000 F4000
G1 X521.8693 Y1180.8926 Z-20.0000 F4000
G1 X517.1147 Y1177.2328 Z-20.0000 F4000
G1 X548.8183 Y1136.0181 Z-20.0000 F4000
G1 X553.5741 Y1139.6764 Z-20.0000 F4000
G1 X540.8933 Y1129.9194 Z-20.0000 F4000
G1 X544.5516 Y1125.1637 Z-20.0000 F4000
G1 X534.4836 Y1138.2369 Z-20.0000 F4000
G1 X524.4287 Y1151.3201 Z-20.0000 F4000
G1 X524.4287 Y1151.3201 Z10.0000 F9999
G1 X717.4656 Y1297.2840 Z10.0000 F9999
G1 X717.4656 Y1297.2840 Z1.0000 F2500
G1 X736.3668 Y1272.7123 Z-7.3524 F2500
G1 X732.7070 Y1277.4669 Z-8.9690 F2500
G1 X731.1449 Y1276.2653 Z-9.5000 F2500
G1 X732.7070 Y1277.4669 Z-10.0310 F2500
G1 X736.3668 Y1272.7123 Z-11.6476 F2500
G1 X717.4656 Y1297.2840 Z-20.0000 F2500
G1 X736.3668 Y1272.7123 Z-20.0000 F4000
G1 X732.7070 Y1277.4669 Z-20.0000 F4000
G1 X720.0250 Y1267.7115 Z-20.0000 F4000
G1 X724.7795 Y1271.3714 Z-20.0000 F4000
G1 X693.0760 Y1312.5861 Z-20.0000 F4000
G1 X688.3203 Y1308.9279 Z-20.0000 F4000
G1 X701.0011 Y1318.6848 Z-20.0000 F4000
G1 X697.3428 Y1323.4405 Z-20.0000 F4000
G1 X707.4108 Y1310.3673 Z-20.0000 F4000
G1 X717.4656 Y1297.2840 Z-20.0000 F4000
G1 X717.4656 Y1297.2840 Z10.0000 F9999
G1 X838.5155 Y1548.2792 Z10.0000 F9999
G1 X838.5155 Y1548.2792 Z1.0000 F2500
G1 X834.5059 Y1579.0192 Z-7.3524 F2500
G1 X835.2840 Y1573.0699 Z-8.9690 F2500
G1 X837.2382 Y1573.3248 Z-9.5000 F2500
G1 X835.2840 Y1573.0699 Z-10.0310 F2500
G1 X834.5059 Y1579.0192 Z-11.6476 F2500
G1 X838.5155 Y1548.2792 Z-20.0000 F2500
G1 X834.5059 Y1579.0192 Z-20.0000 F4000
G1 X835.2840 Y1573.0699 Z-20.0000 F4000
G1 X851.1495 Y1575.1393 Z-20.0000 F4000
G1 X845.2002 Y1574.3613 Z-20.0000 F4000
G1 X851.9256 Y1522.8003 Z-20.0000 F4000
G1 X857.8752 Y1523.5763 Z-20.0000 F4000
G1 X842.0098 Y1521.5049 Z-20.0000 F4000
G1 X842.7859 Y1515.5553 Z-20.0000 F4000
G1 X840.6425 Y1531.9162 Z-20.0000 F4000
G1 X838.5155 Y1548.2792 Z-20.0000 F4000
G1 X838.5155 Y1548.2792 Z10.0000 F9999
G1 X1078.7431 Y1577.5950 Z10.0000 F9999
G1 X1078.7431 Y1577.5950 Z1.0000 F2500
G1 X1082.7527 Y1546.8550 Z-7.3524 F2500
G1 X1081.9747 Y1552.8044 Z-8.9690 F2500
G1 X1080.0205 Y1552.5495 Z-9.5000 F2500
G1 X1081.9747 Y1552.8044 Z-10.0310 F2500
G1 X1082.7527 Y1546.8550 Z-11.6476 F2500
G1 X1078.7431 Y1577.5950 Z-20.0000 F2500
G1 X1082.7527 Y1546.8550 Z-20.0000 F4000
G1 X1081.9747 Y1552.8044 Z-20.0000 F4000
G1 X1066.1091 Y1550.7349 Z-20.0000 F4000
G1 X1072.0584 Y1551.5130 Z-20.0000 F4000
G1 X1065.3331 Y1603.0739 Z-20.0000 F4000
G1 X1059.3835 Y1602.2979 Z-20.0000 F4000
G1 X1075.2488 Y1604.3693 Z-20.0000 F4000
G1 X1074.4728 Y1610.3189 Z-20.0000 F4000
G1 X1076.6161 Y1593.9580 Z-20.0000 F4000
G1 X1078.7431 Y1577.5950 Z-20.0000 F4000
G1 X1078.7431 Y1577.5950 Z10.0000 F9999
G1 X1039.9418 Y1875.0753 Z10.0000 F9999
G1 X1039.9418 Y1875.0753 Z1.0000 F2500
G1 X1043.9514 Y1844.3353 Z-7.3524 F2500
G1 X1043.1734 Y1850.2847 Z-8.9690 F2500
G1 X1041.2192 Y1850.0298 Z-9.5000 F2500
G1 X1043.1734 Y1850.2847 Z-10.0310 F2500
G1 X1043.9514 Y1844.3353 Z-11.6476 F2500
G1 X1039.9418 Y1875.0753 Z-20.0000 F2500
G1 X1043.9514 Y1844.3353 Z-20.0000 F4000
G1 X1043.1734 Y1850.2847 Z-20.0000 F4000
G1 X1027.3078 Y1848.2152 Z-20.0000 F4000
G1 X1033.2572 Y1848.9933 Z-20.0000 F4000
G1 X1026.5318 Y1900.5543 Z-20.0000 F4000
G1 X1020.5822 Y1899.7782 Z-20.0000 F4000
G1 X1036.4475 Y1901.8496 Z-20.0000 F4000
G1 X1035.6715 Y1907.7992 Z-20.0000 F4000
G1 X1037.8148 Y1891.4383 Z-20.0000 F4000
G1 X1039.9418 Y1875.0753 Z-20.0000 F4000
G1 X1039.9418 Y1875.0753 Z10.0000 F9999
G1 X799.7142 Y1845.7595 Z10.0000 F9999
G1 X799.7142 Y1845.7595 Z1.0000 F2500
G1 X795.7047 Y1876.4995 Z-7.3524 F2500
G1 X796.4827 Y1870.5502 Z-8.9690 F2500
G1 X798.4369 Y1870.8051 Z-9.5000 F2500
G1 X796.4827 Y1870.5502 Z-10.0310 F2500
G1 X795.7047 Y1876.4995 Z-11.6476 F2500
G1 X799.7142 Y1845.7595 Z-20.0000 F2500
G1 X795.7047 Y1876.4995 Z-20.0000 F4000
G1 X796.4827 Y1870.5502 Z-20.0000 F4000
G1 X812.3483 Y1872.6196 Z-20.0000 F4000
G1 X806.3989 Y1871.8416 Z-20.0000 F4000
G1 X813.1243 Y1820.2806 Z-20.0000 F4000
G1 X819.0739 Y1821.0566 Z-20.0000 F4000
G1 X803.2086 Y1818.9852 Z-20.0000 F4000
G1 X803.9846 Y1813.0356 Z-20.0000 F4000
G1 X801.8412 Y1829.3965 Z-20.0000 F4000
G1 X799.7142 Y1845.7595 Z-20.0000 F4000
G1 X799.7142 Y1845.7595 Z10.0000 F9999
G1 X566.9041 Y2076.8434 Z10.0000 F9999
G1 X566.9041 Y2076.8434 Z1.0000 F2500
G1 X536.1641 Y2080.8529 Z-7.3524 F2500
G1 X542.1140 Y2080.0789 Z-8.9690 F2500
G1 X542.3689 Y2082.0331 Z-9.5000 F2500
G1 X542.1140 Y2080.0789 Z-10.0310 F2500
G1 X536.1641 Y2080.8529 Z-11.6476 F2500
G1 X566.9041 Y2076.8434 Z-20.0000 F2500
G1 X536.1641 Y2080.8529 Z-20.0000 F4000
G1 X542.1140 Y2080.0789 Z-20.0000 F4000
G1 X544.1834 Y2095.9445 Z-20.0000 F4000
G1 X543.4094 Y2089.9946 Z-20.0000 F4000
G1 X594.9704 Y2083.2693 Z-20.0000 F4000
G1 X595.7464 Y2089.2189 Z-20.0000 F4000
G1 X593.6790 Y2073.3530 Z-20.0000 F4000
G1 X599.6286 Y2072.5770 Z-20.0000 F4000
G1 X583.2653 Y2074.7020 Z-20.0000 F4000
G1 X566.9041 Y2076.8434 Z-20.0000 F4000
G1 X566.9041 Y2076.8434 Z10.0000 F9999
G1 X600.1898 Y2316.5531 Z10.0000 F9999
G1 X600.1898 Y2316.5531 Z1.0000 F2500
G1 X630.9298 Y2312.5435 Z-7.3524 F2500
G1 X624.9799 Y2313.3175 Z-8.9690 F2500
G1 X624.7250 Y2311.3633 Z-9.5000 F2500
G1 X624.9799 Y2313.3175 Z-10.0310 F2500
G1 X630.9298 Y2312.5435 Z-11.6476 F2500
G1 X600.1898 Y2316.5531 Z-20.0000 F2500
G1 X630.9298 Y2312.5435 Z-20.0000 F4000
G1 X624.9799 Y2313.3175 Z-20.0000 F4000
G1 X622.9104 Y2297.4520 Z-20.0000 F4000
G1 X623.6845 Y2303.4018 Z-20.0000 F4000
G1 X572.1235 Y2310.1273 Z-20.0000 F4000
G1 X571.3475 Y2304.1777 Z-20.0000 F4000
G1 X573.4150 Y2320.0435 Z-20.0000 F4000
G1 X567.4654 Y2320.8196 Z-20.0000 F4000
G1 X583.8286 Y2318.6945 Z-20.0000 F4000
G1 X600.1898 Y2316.5531 Z-20.0000 F4000
G1 X600.1898 Y2316.5531 Z10.0000 F9999
G1 X302.7103 Y2355.3545 Z10.0000 F9999
G1 X302.7103 Y2355.3545 Z1.0000 F2500
G1 X333.4502 Y2351.3448 Z-7.3524 F2500
G1 X327.5004 Y2352.1189 Z-8.9690 F2500
G1 X327.2455 Y2350.1647 Z-9.5000 F2500
G1 X327.5004 Y2352.1189 Z-10.0310 F2500
G1 X333.4502 Y2351.3448 Z-11.6476 F2500
G1 X302.7103 Y2355.3545 Z-20.0000 F2500
G1 X333.4502 Y2351.3448 Z-20.0000 F4000
G1 X327.5004 Y2352.1189 Z-20.0000 F4000
G1 X325.4309 Y2336.2533 Z-20.0000 F4000
G1 X326.2050 Y2342.2032 Z-20.0000 F4000
G1 X274.6440 Y2348.9287 Z-20.0000 F4000
G1 X273.8680 Y2342.9791 Z-20.0000 F4000
G1 X275.9354 Y2358.8449 Z-20.0000 F4000
G1 X269.9858 Y2359.6209 Z-20.0000 F4000
G1 X286.3491 Y2357.4959 Z-20.0000 F4000
G1 X302.7103 Y2355.3545 Z-20.0000 F4000
G1 X302.7103 Y2355.3545 Z10.0000 F9999
G1 X269.4246 Y2115.6447 Z10.0000 F9999
G1 X269.4246 Y2115.6447 Z1.0000 F2500
G1 X238.6846 Y2119.6543 Z-7.3524 F2500
G1 X244.6345 Y2118.8803 Z-8.9690 F2500
G1 X244.8894 Y2120.8345 Z-9.5000 F2500
G1 X244.6345 Y2118.8803 Z-10.0310 F2500
G1 X238.6846 Y2119.6543 Z-11.6476 F2500
G1 X269.4246 Y2115.6447 Z-20.0000 F2500
G1 X238.6846 Y2119.6543 Z-20.0000 F4000
G1 X244.6345 Y2118.8803 Z-20.0000 F4000
G1 X246.7039 Y2134.7458 Z-20.0000 F4000
G1 X245.9298 Y2128.7960 Z-20.0000 F4000
G1 X297.4908 Y2122.0706 Z-20.0000 F4000
G1 X298.2669 Y2128.0202 Z-20.0000 F4000
G1 X296.1994 Y2112.1544 Z-20.0000 F4000
G1 X302.1490 Y2111.3784 Z-20.0000 F4000
G1 X285.7858 Y2113.5034 Z-20.0000 F4000
G1 X269.4246 Y2115.6447 Z-20.0000 F4000
G1 X269.4246 Y2115.6447 Z10.0000 F9999
G1 X534.5525 Y1535.0705 Z10.0000 F9999
G1 X534.5525 Y1535.0705 Z1.0000 F2500
G1 X553.4537 Y1510.4988 Z-7.3524 F2500
G1 X549.7939 Y1515.2534 Z-8.9690 F2500
G1 X548.2318 Y1514.0518 Z-9.5000 F2500
G1 X549.7939 Y1515.2534 Z-10.0310 F2500
G1 X553.4537 Y1510.4988 Z-11.6476 F2500
G1 X534.5525 Y1535.0705 Z-20.0000 F2500
G1 X553.4537 Y1510.4988 Z-20.0000 F4000
G1 X549.7939 Y1515.2534 Z-20.0000 F4000
G1 X537.1119 Y1505.4980 Z-20.0000 F4000
G1 X541.8665 Y1509.1579 Z-20.0000 F4000
G1 X510.1630 Y1550.3726 Z-20.0000 F4000
G1 X505.4072 Y1546.7144 Z-20.0000 F4000
G1 X518.0880 Y1556.4713 Z-20.0000 F4000
G1 X514.4297 Y1561.2270 Z-20.0000 F4000
G1 X524.4977 Y1548.1538 Z-20.0000 F4000
G1 X534.5525 Y1535.0705 Z-20.0000 F4000
G1 X534.5525 Y1535.0705 Z10.0000 F9999
G1 X341.5156 Y1389.1066 Z10.0000 F9999
G1 X341.5156 Y1389.1066 Z1.0000 F2500
G1 X322.6144 Y1413.6783 Z-7.3524 F2500
G1 X326.2742 Y1408.9238 Z-8.9690 F2500
G1 X327.8363 Y1410.1254 Z-9.5000 F2500
G1 X326.2742 Y1408.9238 Z-10.0310 F2500
G1 X322.6144 Y1413.6783 Z-11.6476 F2500
G1 X341.5156 Y1389.1066 Z-20.0000 F2500
G1 X322.6144 Y1413.6783 Z-20.0000 F4000
G1 X326.2742 Y1408.9238 Z-20.0000 F4000
G1 X338.9562 Y1418.6791 Z-20.0000 F4000
G1 X334.2017 Y1415.0193 Z-20.0000 F4000
G1 X365.9053 Y1373.8046 Z-20.0000 F4000
G1 X370.6610 Y1377.4629 Z-20.0000 F4000
G1 X357.9803 Y1367.7059 Z-20.0000 F4000
G1 X361.6385 Y1362.9502 Z-20.0000 F4000
G1 X351.5706 Y1376.0234 Z-20.0000 F4000
G1 X341.5156 Y1389.1066 Z-20.0000 F4000
G1 X341.5156 Y1389.1066 Z10.0000 F9999
G1 X609.8971 Y139.9007 Z10.0000 F9999
G1 X609.8971 Y139.9007 Z1.0000 F2500
G1 X648.8682 Y139.9007 Z-9.5000 F2500
G1 X609.8971 Y139.9007 Z-20.0000 F2500
G1 X650.8981 Y139.9007 Z-20.0000 F4000
G1 X650.8981 Y137.8988 Z-20.0000 F4000
G1 X645.8990 Y137.8988 Z-20.0000 F4000
G1 X645.8990 Y124.8988 Z-20.0000 F4000
G1 X643.8975 Y124.8988 Z-20.0000 F4000
G1 X643.8975 Y129.8988 Z-20.0000 F4000
G1 X575.8995 Y129.8988 Z-20.0000 F4000
G1 X575.8995 Y124.8988 Z-20.0000 F4000
G1 X573.8970 Y124.8988 Z-20.0000 F4000
G1 X573.8970 Y137.8988 Z-20.0000 F4000
G1 X568.8961 Y137.8988 Z-20.0000 F4000
G1 X568.8961 Y139.9007 Z-20.0000 F4000
G1 X609.8971 Y139.9007 Z-20.0000 F4000
G1 X609.8971 Y139.9007 Z10.0000 F9999
G1 X1166.8981 Y134.8997 Z10.0000 F9999
G1 X1166.8981 Y134.8997 Z1.0000 F2500
G1 X1166.8981 Y95.9286 Z-9.5000 F2500
G1 X1166.8981 Y134.8997 Z-20.0000 F2500
G1 X1166.8981 Y50.9009 Z-20.0000 F4000
G1 X1171.8976 Y50.9009 Z-20.0000 F4000
G1 X1171.8976 Y48.8989 Z-20.0000 F4000
G1 X1133.8961 Y48.8989 Z-20.0000 F4000
G1 X1133.8961 Y50.9009 Z-20.0000 F4000
G1 X1138.8970 Y50.9009 Z-20.0000 F4000
G1 X1138.8970 Y129.8988 Z-20.0000 F4000
G1 X1110.8990 Y129.8988 Z-20.0000 F4000
G1 X1110.8990 Y124.8988 Z-20.0000 F4000
G1 X1108.8941 Y124.8988 Z-20.0000 F4000
G1 X1108.8941 Y144.9007 Z-20.0000 F4000
G1 X1110.8990 Y144.9007 Z-20.0000 F4000
G1 X1110.8990 Y139.9007 Z-20.0000 F4000
G1 X1138.8970 Y139.9007 Z-20.0000 F4000
G1 X1138.8970 Y218.8986 Z-20.0000 F4000
G1 X1133.8961 Y218.8986 Z-20.0000 F4000
G1 X1133.8961 Y220.9006 Z-20.0000 F4000
G1 X1171.8976 Y220.9006 Z-20.0000 F4000
G1 X1171.8976 Y218.8986 Z-20.0000 F4000
G1 X1166.8981 Y218.8986 Z-20.0000 F4000
G1 X1166.8981 Y134.8997 Z-20.0000 F4000
G1 X1166.8981 Y134.8997 Z10.0000 F9999
(Tool Number:1) (7.998 mm dia. slot drill)
M3 S9000
G1 X667.8912 Y313.9151 Z10.0000 F9999
G1 X667.8912 Y313.9151 Z1.0000 F2500
G1 X705.3901 Y313.9151 Z-9.1033 F2500
G1 X705.3901 Y315.3873 Z-9.5000 F2500
G1 X705.3901 Y313.9151 Z-9.8967 F2500
G1 X667.8912 Y313.9151 Z-20.0000 F2500
G1 X705.3901 Y313.9151 Z-20.0000 F4000
G1 X705.3901 Y318.9151 Z-20.0000 F4000
G1 X707.3921 Y318.9151 Z-20.0000 F4000
G1 X707.3921 Y301.2577 Z-20.0000 F4000
G1 X712.7347 Y295.9152 Z-20.0000 F4000
G1 X724.0873 Y295.9152 Z-20.0000 F4000
G1 X724.0873 Y295.9152 Z-10.0000 F9999
G1 X740.0853 Y295.9152 Z-10.0000 F4000
G1 X740.0853 Y295.9152 Z-20.0000 F2500
G1 X750.0474 Y295.9152 Z-20.0000 F4000
G1 X755.3900 Y301.2577 Z-20.0000 F4000
G1 X755.3900 Y318.9151 Z-20.0000 F4000
G1 X757.3920 Y318.9151 Z-20.0000 F4000
G1 X757.3920 Y313.9151 Z-20.0000 F4000
G1 X832.3899 Y313.9151 Z-20.0000 F4000
G1 X832.3899 Y318.9151 Z-20.0000 F4000
G1 X834.3918 Y318.9151 Z-20.0000 F4000
G1 X834.3918 Y301.2576 Z-20.0000 F4000
G1 X839.7344 Y295.9152 Z-20.0000 F4000
G1 X855.0472 Y295.9152 Z-20.0000 F4000
G1 X860.3898 Y301.2576 Z-20.0000 F4000
G1 X860.3898 Y318.9151 Z-20.0000 F4000
G1 X862.3918 Y318.9151 Z-20.0000 F4000
G1 X862.3918 Y313.9151 Z-20.0000 F4000
G1 X878.3898 Y313.9151 Z-20.0000 F4000
G1 X878.3898 Y352.9131 Z-20.0000 F4000
G1 X837.3899 Y352.9131 Z-20.0000 F4000
G1 X837.3899 Y354.9151 Z-20.0000 F4000
G1 X842.3898 Y354.9151 Z-20.0000 F4000
G1 X842.3898 Y394.9129 Z-20.0000 F4000
G1 X837.3899 Y394.9129 Z-20.0000 F4000
G1 X837.3899 Y396.9149 Z-20.0000 F4000
G1 X878.3898 Y396.9149 Z-20.0000 F4000
G1 X878.3898 Y406.5767 Z-20.0000 F4000
G1 X878.3898 Y406.5767 Z-10.0000 F9999
G1 X878.3898 Y422.5747 Z-10.0000 F4000
G1 X878.3898 Y422.5747 Z-20.0000 F2500
G1 X878.3898 Y435.9129 Z-20.0000 F4000
G1 X862.3918 Y435.9129 Z-20.0000 F4000
G1 X862.3918 Y430.9129 Z-20.0000 F4000
G1 X860.3898 Y430.9129 Z-20.0000 F4000
G1 X860.3898 Y448.5703 Z-20.0000 F4000
G1 X855.0472 Y453.9128 Z-20.0000 F4000
G1 X839.7344 Y453.9128 Z-20.0000 F4000
G1 X834.3918 Y448.5703 Z-20.0000 F4000
G1 X834.3918 Y430.9129 Z-20.0000 F4000
G1 X832.3899 Y430.9129 Z-20.0000 F4000
G1 X832.3899 Y435.9129 Z-20.0000 F4000
G1 X757.3920 Y435.9129 Z-20.0000 F4000
G1 X757.3920 Y430.9129 Z-20.0000 F4000
G1 X755.3900 Y430.9129 Z-20.0000 F4000
G1 X755.3900 Y448.5703 Z-20.0000 F4000
G1 X750.0474 Y453.9128 Z-20.0000 F4000
G1 X738.3597 Y453.9128 Z-20.0000 F4000
G1 X738.3597 Y453.9128 Z-10.0000 F9999
G1 X722.3617 Y453.9128 Z-10.0000 F4000
G1 X722.3617 Y453.9128 Z-20.0000 F2500
G1 X712.7347 Y453.9128 Z-20.0000 F4000
G1 X707.3921 Y448.5703 Z-20.0000 F4000
G1 X707.3921 Y430.9129 Z-20.0000 F4000
G1 X705.3901 Y430.9129 Z-20.0000 F4000
G1 X705.3901 Y435.9129 Z-20.0000 F4000
G1 X630.3922 Y435.9129 Z-20.0000 F4000
G1 X630.3922 Y430.9129 Z-20.0000 F4000
G1 X628.3903 Y430.9129 Z-20.0000 F4000
G1 X628.3903 Y448.5703 Z-20.0000 F4000
G1 X623.0477 Y453.9128 Z-20.0000 F4000
G1 X607.7349 Y453.9128 Z-20.0000 F4000
G1 X602.3923 Y448.5703 Z-20.0000 F4000
G1 X602.3923 Y430.9129 Z-20.0000 F4000
G1 X600.3903 Y430.9129 Z-20.0000 F4000
G1 X600.3903 Y435.9129 Z-20.0000 F4000
G1 X584.3923 Y435.9129 Z-20.0000 F4000
G1 X584.3923 Y396.9149 Z-20.0000 F4000
G1 X625.3923 Y396.9149 Z-20.0000 F4000
G1 X625.3923 Y394.9129 Z-20.0000 F4000
G1 X620.3923 Y394.9129 Z-20.0000 F4000
G1 X620.3923 Y354.9151 Z-20.0000 F4000
G1 X625.3923 Y354.9151 Z-20.0000 F4000
G1 X625.3923 Y352.9131 Z-20.0000 F4000
G1 X584.3923 Y352.9131 Z-20.0000 F4000
G1 X584.3923 Y313.9151 Z-20.0000 F4000
G1 X600.3903 Y313.9151 Z-20.0000 F4000
G1 X600.3903 Y318.9151 Z-20.0000 F4000
G1 X602.3923 Y318.9151 Z-20.0000 F4000
G1 X602.3923 Y301.2576 Z-20.0000 F4000
G1 X607.7349 Y295.9152 Z-20.0000 F4000
G1 X623.0477 Y295.9152 Z-20.0000 F4000
G1 X628.3903 Y301.2576 Z-20.0000 F4000
G1 X628.3903 Y318.9151 Z-20.0000 F4000
G1 X630.3922 Y318.9151 Z-20.0000 F4000
G1 X630.3922 Y313.9151 Z-20.0000 F4000
G1 X667.8912 Y313.9151 Z-20.0000 F4000
G1 X667.8912 Y313.9151 Z10.0000 F9999
G1 X1032.4640 Y379.4140 Z10.0000 F9999
G1 X1032.4640 Y379.4140 Z1.0000 F2500
G1 X1032.4640 Y416.9129 Z-9.1033 F2500
G1 X1030.9918 Y416.9129 Z-9.5000 F2500
G1 X1032.4640 Y416.9129 Z-9.8967 F2500
G1 X1032.4640 Y379.4140 Z-20.0000 F2500
G1 X1032.4640 Y416.9129 Z-20.0000 F4000
G1 X1027.4640 Y416.9129 Z-20.0000 F4000
G1 X1027.4640 Y418.9149 Z-20.0000 F4000
G1 X1045.1215 Y418.9149 Z-20.0000 F4000
G1 X1050.4640 Y424.2575 Z-20.0000 F4000
G1 X1050.4640 Y432.8921 Z-20.0000 F4000
G1 X1050.4640 Y432.8921 Z-10.0000 F9999
G1 X1050.4640 Y448.8901 Z-10.0000 F4000
G1 X1050.4640 Y448.8901 Z-20.0000 F2500
G1 X1050.4640 Y461.5703 Z-20.0000 F4000
G1 X1045.1215 Y466.9128 Z-20.0000 F4000
G1 X1027.4640 Y466.9128 Z-20.0000 F4000
G1 X1027.4640 Y468.9148 Z-20.0000 F4000
G1 X1032.4640 Y468.9148 Z-20.0000 F4000
G1 X1032.4640 Y543.9127 Z-20.0000 F4000
G1 X1027.4640 Y543.9127 Z-20.0000 F4000
G1 X1027.4640 Y545.9147 Z-20.0000 F4000
G1 X1045.1215 Y545.9147 Z-20.0000 F4000
G1 X1050.4640 Y551.2572 Z-20.0000 F4000
G1 X1050.4640 Y566.5700 Z-20.0000 F4000
G1 X1045.1215 Y571.9126 Z-20.0000 F4000
G1 X1027.4640 Y571.9126 Z-20.0000 F4000
G1 X1027.4640 Y573.9146 Z-20.0000 F4000
G1 X1032.4640 Y573.9146 Z-20.0000 F4000
G1 X1032.4640 Y589.9126 Z-20.0000 F4000
G1 X993.4661 Y589.9126 Z-20.0000 F4000
G1 X993.4661 Y548.9127 Z-20.0000 F4000
G1 X991.4641 Y548.9127 Z-20.0000 F4000
G1 X991.4641 Y553.9127 Z-20.0000 F4000
G1 X951.4662 Y553.9127 Z-20.0000 F4000
G1 X951.4662 Y548.9127 Z-20.0000 F4000
G1 X949.4642 Y548.9127 Z-20.0000 F4000
G1 X949.4642 Y589.9126 Z-20.0000 F4000
G1 X910.4663 Y589.9126 Z-20.0000 F4000
G1 X910.4663 Y573.9146 Z-20.0000 F4000
G1 X915.4663 Y573.9146 Z-20.0000 F4000
G1 X915.4663 Y571.9126 Z-20.0000 F4000
G1 X897.8088 Y571.9126 Z-20.0000 F4000
G1 X892.4664 Y566.5700 Z-20.0000 F4000
G1 X892.4664 Y551.2572 Z-20.0000 F4000
G1 X897.8088 Y545.9147 Z-20.0000 F4000
G1 X915.4663 Y545.9147 Z-20.0000 F4000
G1 X915.4663 Y543.9127 Z-20.0000 F4000
G1 X910.4663 Y543.9127 Z-20.0000 F4000
G1 X910.4663 Y468.9148 Z-20.0000 F4000
G1 X915.4663 Y468.9148 Z-20.0000 F4000
G1 X915.4663 Y466.9128 Z-20.0000 F4000
G1 X897.8088 Y466.9128 Z-20.0000 F4000
G1 X892.4664 Y461.5703 Z-20.0000 F4000
G1 X892.4664 Y447.1645 Z-20.0000 F4000
G1 X892.4664 Y447.1645 Z-10.0000 F9999
G1 X892.4664 Y431.1665 Z-10.0000 F4000
G1 X892.4664 Y431.1665 Z-20.0000 F2500
G1 X892.4664 Y424.2575 Z-20.0000 F4000
G1 X897.8088 Y418.9149 Z-20.0000 F4000
G1 X915.4663 Y418.9149 Z-20.0000 F4000
G1 X915.4663 Y416.9129 Z-20.0000 F4000
G1 X910.4663 Y416.9129 Z-20.0000 F4000
G1 X910.4663 Y341.9151 Z-20.0000 F4000
G1 X915.4663 Y341.9151 Z-20.0000 F4000
G1 X915.4663 Y339.9131 Z-20.0000 F4000
G1 X897.8088 Y339.9131 Z-20.0000 F4000
G1 X892.4664 Y334.5705 Z-20.0000 F4000
G1 X892.4664 Y319.2577 Z-20.0000 F4000
G1 X897.8088 Y313.9151 Z-20.0000 F4000
G1 X915.4663 Y313.9151 Z-20.0000 F4000
G1 X915.4663 Y311.9132 Z-20.0000 F4000
G1 X910.4663 Y311.9132 Z-20.0000 F4000
G1 X910.4663 Y295.9152 Z-20.0000 F4000
G1 X949.4642 Y295.9152 Z-20.0000 F4000
G1 X949.4642 Y336.9151 Z-20.0000 F4000
G1 X951.4662 Y336.9151 Z-20.0000 F4000
G1 X951.4662 Y331.9151 Z-20.0000 F4000
G1 X991.4641 Y331.9151 Z-20.0000 F4000
G1 X991.4641 Y336.9151 Z-20.0000 F4000
G1 X993.4661 Y336.9151 Z-20.0000 F4000
G1 X993.4661 Y295.9152 Z-20.0000 F4000
G1 X1032.4640 Y295.9152 Z-20.0000 F4000
G1 X1032.4640 Y311.9132 Z-20.0000 F4000
G1 X1027.4640 Y311.9132 Z-20.0000 F4000
G1 X1027.4640 Y313.9151 Z-20.0000 F4000
G1 X1045.1215 Y313.9151 Z-20.0000 F4000
G1 X1050.4640 Y319.2577 Z-20.0000 F4000
G1 X1050.4640 Y334.5705 Z-20.0000 F4000
G1 X1045.1215 Y339.9131 Z-20.0000 F4000
G1 X1027.4640 Y339.9131 Z-20.0000 F4000
G1 X1027.4640 Y341.9151 Z-20.0000 F4000
G1 X1032.4640 Y341.9151 Z-20.0000 F4000
G1 X1032.4640 Y379.4140 Z-20.0000 F4000
G1 X1032.4640 Y379.4140 Z10.0000 F9999
G1 X883.4465 Y585.0740 Z10.0000 F9999
G1 X883.4465 Y585.0740 Z1.0000 F2500
G1 X909.9623 Y611.5897 Z-9.1033 F2500
G1 X908.9213 Y612.6308 Z-9.5000 F2500
G1 X909.9623 Y611.5897 Z-9.8967 F2500
G1 X883.4465 Y585.0740 Z-20.0000 F2500
G1 X909.9623 Y611.5897 Z-20.0000 F4000
G1 X906.4267 Y615.1253 Z-20.0000 F4000
G1 X907.8423 Y616.5409 Z-20.0000 F4000
G1 X920.3281 Y604.0552 Z-20.0000 F4000
G1 X927.8835 Y604.0552 Z-20.0000 F4000
G1 X936.2297 Y612.4014 Z-20.0000 F4000
G1 X936.2297 Y612.4014 Z-10.0000 F9999
G1 X947.5420 Y623.7137 Z-10.0000 F4000
G1 X947.5420 Y623.7137 Z-20.0000 F2500
G1 X954.2676 Y630.4394 Z-20.0000 F4000
G1 X954.2677 Y637.9948 Z-20.0000 F4000
G1 X941.7820 Y650.4805 Z-20.0000 F4000
G1 X943.1976 Y651.8962 Z-20.0000 F4000
G1 X946.7331 Y648.3606 Z-20.0000 F4000
G1 X999.7646 Y701.3921 Z-20.0000 F4000
G1 X996.2291 Y704.9277 Z-20.0000 F4000
G1 X997.6447 Y706.3433 Z-20.0000 F4000
G1 X1010.1304 Y693.8575 Z-20.0000 F4000
G1 X1017.6859 Y693.8576 Z-20.0000 F4000
G1 X1028.5137 Y704.6854 Z-20.0000 F4000
G1 X1028.5138 Y712.2409 Z-20.0000 F4000
G1 X1016.0281 Y724.7266 Z-20.0000 F4000
G1 X1017.4437 Y726.1422 Z-20.0000 F4000
G1 X1020.9792 Y722.6067 Z-20.0000 F4000
G1 X1032.2915 Y733.9190 Z-20.0000 F4000
G1 X1004.7158 Y761.4947 Z-20.0000 F4000
G1 X975.7245 Y732.5034 Z-20.0000 F4000
G1 X974.3088 Y733.9190 Z-20.0000 F4000
G1 X977.8444 Y737.4545 Z-20.0000 F4000
G1 X949.5616 Y765.7373 Z-20.0000 F4000
G1 X946.0261 Y762.2018 Z-20.0000 F4000
G1 X944.6104 Y763.6174 Z-20.0000 F4000
G1 X973.6018 Y792.6087 Z-20.0000 F4000
G1 X964.9035 Y801.3069 Z-20.0000 F4000
G1 X964.9035 Y801.3069 Z-10.0000 F9999
G1 X953.5912 Y812.6192 Z-10.0000 F4000
G1 X953.5912 Y812.6192 Z-20.0000 F2500
G1 X946.0261 Y820.1844 Z-20.0000 F4000
G1 X934.7138 Y808.8721 Z-20.0000 F4000
G1 X938.2493 Y805.3366 Z-20.0000 F4000
G1 X936.8337 Y803.9210 Z-20.0000 F4000
G1 X924.3480 Y816.4067 Z-20.0000 F4000
G1 X916.7925 Y816.4066 Z-20.0000 F4000
G1 X905.9647 Y805.5788 Z-20.0000 F4000
G1 X905.9646 Y798.0233 Z-20.0000 F4000
G1 X918.4503 Y785.5376 Z-20.0000 F4000
G1 X917.0347 Y784.1220 Z-20.0000 F4000
G1 X913.4992 Y787.6576 Z-20.0000 F4000
G1 X860.4677 Y734.6261 Z-20.0000 F4000
G1 X864.0032 Y731.0905 Z-20.0000 F4000
G1 X862.5876 Y729.6749 Z-20.0000 F4000
G1 X850.1019 Y742.1606 Z-20.0000 F4000
G1 X842.5464 Y742.1606 Z-20.0000 F4000
G1 X834.9580 Y734.5721 Z-20.0000 F4000
G1 X834.9580 Y734.5721 Z-10.0000 F9999
G1 X823.6457 Y723.2598 Z-10.0000 F4000
G1 X823.6457 Y723.2598 Z-20.0000 F2500
G1 X816.1623 Y715.7764 Z-20.0000 F4000
G1 X816.1623 Y708.2210 Z-20.0000 F4000
G1 X828.6480 Y695.7353 Z-20.0000 F4000
G1 X827.2324 Y694.3196 Z-20.0000 F4000
G1 X823.6968 Y697.8552 Z-20.0000 F4000
G1 X770.6653 Y644.8237 Z-20.0000 F4000
G1 X774.2009 Y641.2881 Z-20.0000 F4000
G1 X772.7853 Y639.8725 Z-20.0000 F4000
G1 X760.2995 Y652.3583 Z-20.0000 F4000
G1 X752.7441 Y652.3582 Z-20.0000 F4000
G1 X741.9163 Y641.5304 Z-20.0000 F4000
G1 X741.9162 Y633.9749 Z-20.0000 F4000
G1 X754.4019 Y621.4892 Z-20.0000 F4000
G1 X752.9863 Y620.0736 Z-20.0000 F4000
G1 X749.4508 Y623.6091 Z-20.0000 F4000
G1 X738.1385 Y612.2968 Z-20.0000 F4000
G1 X765.7142 Y584.7211 Z-20.0000 F4000
G1 X794.7055 Y613.7124 Z-20.0000 F4000
G1 X796.1211 Y612.2968 Z-20.0000 F4000
G1 X792.5856 Y608.7613 Z-20.0000 F4000
G1 X820.8684 Y580.4785 Z-20.0000 F4000
G1 X824.4039 Y584.0140 Z-20.0000 F4000
G1 X825.8195 Y582.5984 Z-20.0000 F4000
G1 X796.8282 Y553.6071 Z-20.0000 F4000
G1 X824.4039 Y526.0314 Z-20.0000 F4000
G1 X835.7162 Y537.3437 Z-20.0000 F4000
G1 X832.1807 Y540.8792 Z-20.0000 F4000
G1 X833.5963 Y542.2948 Z-20.0000 F4000
G1 X846.0820 Y529.8091 Z-20.0000 F4000
G1 X853.6375 Y529.8092 Z-20.0000 F4000
G1 X864.4653 Y540.6370 Z-20.0000 F4000
G1 X864.4653 Y548.1925 Z-20.0000 F4000
G1 X851.9796 Y560.6782 Z-20.0000 F4000
G1 X853.3952 Y562.0938 Z-20.0000 F4000
G1 X856.9308 Y558.5582 Z-20.0000 F4000
G1 X883.4465 Y585.0740 Z-20.0000 F4000
G1 X883.4465 Y585.0740 Z10.0000 F9999
G1 X242.9223 Y605.2581 Z10.0000 F9999
G1 X242.9223 Y605.2581 Z1.0000 F2500
G1 X242.9223 Y642.7570 Z-9.1033 F2500
G1 X241.4501 Y642.7570 Z-9.5000 F2500
G1 X242.9223 Y642.7570 Z-9.8967 F2500
G1 X242.9223 Y605.2581 Z-20.0000 F2500
G1 X242.9223 Y642.7570 Z-20.0000 F4000
G1 X237.9223 Y642.7570 Z-20.0000 F4000
G1 X237.9223 Y644.7590 Z-20.0000 F4000
G1 X255.5798 Y644.7590 Z-20.0000 F4000
G1 X260.9223 Y650.1016 Z-20.0000 F4000
G1 X260.9223 Y661.1028 Z-20.0000 F4000
G1 X260.9223 Y661.1028 Z-10.0000 F9999
G1 X260.9223 Y677.1008 Z-10.0000 F4000
G1 X260.9223 Y677.1008 Z-20.0000 F2500
G1 X260.9223 Y687.4144 Z-20.0000 F4000
G1 X255.5798 Y692.7569 Z-20.0000 F4000
G1 X237.9223 Y692.7569 Z-20.0000 F4000
G1 X237.9223 Y694.7589 Z-20.0000 F4000
G1 X242.9223 Y694.7589 Z-20.0000 F4000
G1 X242.9223 Y769.7568 Z-20.0000 F4000
G1 X237.9223 Y769.7568 Z-20.0000 F4000
G1 X237.9223 Y771.7587 Z-20.0000 F4000
G1 X255.5798 Y771.7587 Z-20.0000 F4000
G1 X260.9223 Y777.1013 Z-20.0000 F4000
G1 X260.9223 Y792.4141 Z-20.0000 F4000
G1 X255.5798 Y797.7567 Z-20.0000 F4000
G1 X237.9223 Y797.7567 Z-20.0000 F4000
G1 X237.9223 Y799.7587 Z-20.0000 F4000
G1 X242.9223 Y799.7587 Z-20.0000 F4000
G1 X242.9223 Y815.7567 Z-20.0000 F4000
G1 X229.7387 Y815.7567 Z-20.0000 F4000
G1 X229.7387 Y815.7567 Z-10.0000 F9999
G1 X213.7407 Y815.7567 Z-10.0000 F4000
G1 X213.7407 Y815.7567 Z-20.0000 F2500
G1 X203.9244 Y815.7567 Z-20.0000 F4000
G1 X203.9244 Y774.7568 Z-20.0000 F4000
G1 X201.9224 Y774.7568 Z-20.0000 F4000
G1 X201.9224 Y779.7567 Z-20.0000 F4000
G1 X161.9245 Y779.7567 Z-20.0000 F4000
G1 X161.9245 Y774.7568 Z-20.0000 F4000
G1 X159.9225 Y774.7568 Z-20.0000 F4000
G1 X159.9225 Y815.7567 Z-20.0000 F4000
G1 X120.9246 Y815.7567 Z-20.0000 F4000
G1 X120.9246 Y799.7587 Z-20.0000 F4000
G1 X125.9246 Y799.7587 Z-20.0000 F4000
G1 X125.9246 Y797.7567 Z-20.0000 F4000
G1 X108.2671 Y797.7567 Z-20.0000 F4000
G1 X102.9246 Y792.4141 Z-20.0000 F4000
G1 X102.9246 Y777.1013 Z-20.0000 F4000
G1 X108.2671 Y771.7587 Z-20.0000 F4000
G1 X125.9246 Y771.7587 Z-20.0000 F4000
G1 X125.9246 Y769.7568 Z-20.0000 F4000
G1 X120.9246 Y769.7568 Z-20.0000 F4000
G1 X120.9246 Y694.7589 Z-20.0000 F4000
G1 X125.9246 Y694.7589 Z-20.0000 F4000
G1 X125.9246 Y692.7569 Z-20.0000 F4000
G1 X108.2671 Y692.7569 Z-20.0000 F4000
G1 X102.9246 Y687.4144 Z-20.0000 F4000
G1 X102.9246 Y677.5322 Z-20.0000 F4000
G1 X102.9246 Y677.5322 Z-10.0000 F9999
G1 X102.9246 Y661.5342 Z-10.0000 F4000
G1 X102.9246 Y661.5342 Z-20.0000 F2500
G1 X102.9246 Y650.1016 Z-20.0000 F4000
G1 X108.2671 Y644.7590 Z-20.0000 F4000
G1 X125.9246 Y644.7590 Z-20.0000 F4000
G1 X125.9246 Y642.7570 Z-20.0000 F4000
G1 X120.9246 Y642.7570 Z-20.0000 F4000
G1 X120.9246 Y567.7592 Z-20.0000 F4000
G1 X125.9246 Y567.7592 Z-20.0000 F4000
G1 X125.9246 Y565.7572 Z-20.0000 F4000
G1 X108.2671 Y565.7572 Z-20.0000 F4000
G1 X102.9246 Y560.4146 Z-20.0000 F4000
G1 X102.9246 Y545.1018 Z-20.0000 F4000
G1 X108.2671 Y539.7592 Z-20.0000 F4000
G1 X125.9246 Y539.7592 Z-20.0000 F4000
G1 X125.9246 Y537.7573 Z-20.0000 F4000
G1 X120.9246 Y537.7573 Z-20.0000 F4000
G1 X120.9246 Y521.7593 Z-20.0000 F4000
G1 X159.9225 Y521.7593 Z-20.0000 F4000
G1 X159.9225 Y562.7592 Z-20.0000 F4000
G1 X161.9245 Y562.7592 Z-20.0000 F4000
G1 X161.9245 Y557.7592 Z-20.0000 F4000
G1 X201.9224 Y557.7592 Z-20.0000 F4000
G1 X201.9224 Y562.7592 Z-20.0000 F4000
G1 X203.9244 Y562.7592 Z-20.0000 F4000
G1 X203.9244 Y521.7593 Z-20.0000 F4000
G1 X242.9223 Y521.7593 Z-20.0000 F4000
G1 X242.9223 Y537.7573 Z-20.0000 F4000
G1 X237.9223 Y537.7573 Z-20.0000 F4000
G1 X237.9223 Y539.7592 Z-20.0000 F4000
G1 X255.5798 Y539.7592 Z-20.0000 F4000
G1 X260.9223 Y545.1018 Z-20.0000 F4000
G1 X260.9223 Y560.4146 Z-20.0000 F4000
G1 X255.5798 Y565.7572 Z-20.0000 F4000
G1 X237.9223 Y565.7572 Z-20.0000 F4000
G1 X237.9223 Y567.7592 Z-20.0000 F4000
G1 X242.9223 Y567.7592 Z-20.0000 F4000
G1 X242.9223 Y605.2581 Z-20.0000 F4000
G1 X242.9223 Y605.2581 Z10.0000 F9999
G1 X397.0074 Y776.9227 Z10.0000 F9999
G1 X397.0074 Y776.9227 Z1.0000 F2500
G1 X397.0074 Y814.4216 Z-9.1033 F2500
G1 X395.5351 Y814.4216 Z-9.5000 F2500
G1 X397.0074 Y814.4216 Z-9.8967 F2500
G1 X397.0074 Y776.9227 Z-20.0000 F2500
G1 X397.0074 Y814.4216 Z-20.0000 F4000
G1 X392.0074 Y814.4216 Z-20.0000 F4000
G1 X392.0074 Y816.4236 Z-20.0000 F4000
G1 X409.6648 Y816.4236 Z-20.0000 F4000
G1 X415.0073 Y821.7662 Z-20.0000 F4000
G1 X415.0073 Y830.6431 Z-20.0000 F4000
G1 X415.0073 Y830.6431 Z-10.0000 F9999
G1 X415.0073 Y846.6411 Z-10.0000 F4000
G1 X415.0073 Y846.6411 Z-20.0000 F2500
G1 X415.0073 Y859.0789 Z-20.0000 F4000
G1 X409.6648 Y864.4215 Z-20.0000 F4000
G1 X392.0074 Y864.4215 Z-20.0000 F4000
G1 X392.0074 Y866.4235 Z-20.0000 F4000
G1 X397.0074 Y866.4235 Z-20.0000 F4000
G1 X397.0074 Y941.4213 Z-20.0000 F4000
G1 X392.0074 Y941.4213 Z-20.0000 F4000
G1 X392.0074 Y943.4233 Z-20.0000 F4000
G1 X409.6648 Y943.4233 Z-20.0000 F4000
G1 X415.0073 Y948.7659 Z-20.0000 F4000
G1 X415.0073 Y964.0787 Z-20.0000 F4000
G1 X409.6648 Y969.4213 Z-20.0000 F4000
G1 X392.0074 Y969.4213 Z-20.0000 F4000
G1 X392.0074 Y971.4233 Z-20.0000 F4000
G1 X397.0074 Y971.4233 Z-20.0000 F4000
G1 X397.0074 Y987.4213 Z-20.0000 F4000
G1 X358.0094 Y987.4213 Z-20.0000 F4000
G1 X358.0094 Y946.4213 Z-20.0000 F4000
G1 X356.0074 Y946.4213 Z-20.0000 F4000
G1 X356.0074 Y951.4213 Z-20.0000 F4000
G1 X316.0095 Y951.4213 Z-20.0000 F4000
G1 X316.0095 Y946.4213 Z-20.0000 F4000
G1 X314.0075 Y946.4213 Z-20.0000 F4000
G1 X314.0075 Y987.4213 Z-20.0000 F4000
G1 X275.0096 Y987.4213 Z-20.0000 F4000
G1 X275.0096 Y971.4233 Z-20.0000 F4000
G1 X280.0096 Y971.4233 Z-20.0000 F4000
G1 X280.0096 Y969.4213 Z-20.0000 F4000
G1 X262.3521 Y969.4213 Z-20.0000 F4000
G1 X257.0097 Y964.0787 Z-20.0000 F4000
G1 X257.0097 Y948.7659 Z-20.0000 F4000
G1 X262.3521 Y943.4233 Z-20.0000 F4000
G1 X280.0096 Y943.4233 Z-20.0000 F4000
G1 X280.0096 Y941.4213 Z-20.0000 F4000
G1 X275.0096 Y941.4213 Z-20.0000 F4000
G1 X275.0096 Y866.4235 Z-20.0000 F4000
G1 X280.0096 Y866.4235 Z-20.0000 F4000
G1 X280.0096 Y864.4215 Z-20.0000 F4000
G1 X262.3521 Y864.4215 Z-20.0000 F4000
G1 X257.0097 Y859.0789 Z-20.0000 F4000
G1 X257.0097 Y844.9155 Z-20.0000 F4000
G1 X257.0097 Y844.9155 Z-10.0000 F9999
G1 X257.0097 Y828.9175 Z-10.0000 F4000
G1 X257.0097 Y828.9175 Z-20.0000 F2500
G1 X257.0097 Y821.7662 Z-20.0000 F4000
G1 X262.3521 Y816.4236 Z-20.0000 F4000
G1 X280.0096 Y816.4236 Z-20.0000 F4000
G1 X280.0096 Y814.4216 Z-20.0000 F4000
G1 X275.0096 Y814.4216 Z-20.0000 F4000
G1 X275.0096 Y739.4237 Z-20.0000 F4000
G1 X280.0096 Y739.4237 Z-20.0000 F4000
G1 X280.0096 Y737.4218 Z-20.0000 F4000
G1 X262.3521 Y737.4218 Z-20.0000 F4000
G1 X257.0097 Y732.0792 Z-20.0000 F4000
G1 X257.0097 Y716.7664 Z-20.0000 F4000
G1 X262.3521 Y711.4238 Z-20.0000 F4000
G1 X280.0096 Y711.4238 Z-20.0000 F4000
G1 X280.0096 Y709.4218 Z-20.0000 F4000
G1 X275.0096 Y709.4218 Z-20.0000 F4000
G1 X275.0096 Y693.4238 Z-20.0000 F4000
G1 X287.5102 Y693.4238 Z-20.0000 F4000
G1 X287.5102 Y693.4238 Z-10.0000 F9999
G1 X303.5082 Y693.4238 Z-10.0000 F4000
G1 X303.5082 Y693.4238 Z-20.0000 F2500
G1 X314.0075 Y693.4238 Z-20.0000 F4000
G1 X314.0075 Y734.4238 Z-20.0000 F4000
G1 X316.0095 Y734.4238 Z-20.0000 F4000
G1 X316.0095 Y729.4238 Z-20.0000 F4000
G1 X356.0074 Y729.4238 Z-20.0000 F4000
G1 X356.0074 Y734.4238 Z-20.0000 F4000
G1 X358.0094 Y734.4238 Z-20.0000 F4000
G1 X358.0094 Y693.4238 Z-20.0000 F4000
G1 X397.0074 Y693.4238 Z-20.0000 F4000
G1 X397.0074 Y709.4218 Z-20.0000 F4000
G1 X392.0074 Y709.4218 Z-20.0000 F4000
G1 X392.0074 Y711.4238 Z-20.0000 F4000
G1 X409.6648 Y711.4238 Z-20.0000 F4000
G1 X415.0073 Y716.7664 Z-20.0000 F4000
G1 X415.0073 Y732.0792 Z-20.0000 F4000
G1 X409.6648 Y737.4218 Z-20.0000 F4000
G1 X392.0074 Y737.4218 Z-20.0000 F4000
G1 X392.0074 Y739.4237 Z-20.0000 F4000
G1 X397.0074 Y739.4237 Z-20.0000 F4000
G1 X397.0074 Y776.9227 Z-20.0000 F4000
G1 X397.0074 Y776.9227 Z10.0000 F9999
G1 X242.9223 Y942.6313 Z10.0000 F9999
G1 X242.9223 Y942.6313 Z1.0000 F2500
G1 X242.9223 Y980.1303 Z-9.1033 F2500
G1 X241.4501 Y980.1303 Z-9.5000 F2500
G1 X242.9223 Y980.1303 Z-9.8967 F2500
G1 X242.9223 Y942.6313 Z-20.0000 F2500
G1 X242.9223 Y980.1303 Z-20.0000 F4000
G1 X237.9223 Y980.1303 Z-20.0000 F4000
