(plotsheet 2n3_nested_153 sheets_final v1_0_sheet 123 to 131a_S123.0_8 screws_CC8 - stepover 1mm)
(Material Size) (X=1220.000, Y=2440.000, Z=21.000)
(LinuxCNC_NoArcs_MM_TC_medium_50um_G1_verbose.con)
G90 G80 G21 G49
G64 P0.050
M6 T1
(Tool Number:1) (7.998 mm dia. slot drill)
G43 H1 G0Z80.0000
M3 S9000
G04 P10
G1 X196.2871 Y319.3918 Z10.0000 F9999
G1 X196.2871 Y319.3918 Z2.0000 F9999
G1 X196.2871 Y319.3918 Z-1.0000 F2500
G1 X196.2871 Y319.3918 Z10.0000 F9999
G1 X151.4215 Y630.0000 Z10.0000 F9999
G1 X151.4215 Y630.0000 Z2.0000 F9999
G1 X151.4215 Y630.0000 Z-1.0000 F2500
G1 X151.4215 Y630.0000 Z10.0000 F9999
G1 X150.0365 Y1139.0184 Z10.0000 F9999
G1 X150.0365 Y1139.0184 Z2.0000 F9999
G1 X150.0365 Y1139.0184 Z-1.0000 F2500
G1 X150.0365 Y1139.0184 Z10.0000 F9999
G1 X738.1259 Y919.9010 Z10.0000 F9999
G1 X738.1259 Y919.9010 Z2.0000 F9999
G1 X738.1259 Y919.9010 Z-1.0000 F2500
G1 X738.1259 Y919.9010 Z10.0000 F9999
G1 X1060.8134 Y764.5969 Z10.0000 F9999
G1 X1060.8134 Y764.5969 Z2.0000 F9999
G1 X1060.8134 Y764.5969 Z-1.0000 F2500
G1 X1060.8134 Y764.5969 Z10.0000 F9999
G1 X1065.9901 Y1261.5701 Z10.0000 F9999
G1 X1065.9901 Y1261.5701 Z2.0000 F9999
G1 X1065.9901 Y1261.5701 Z-1.0000 F2500
G1 X1065.9901 Y1261.5701 Z10.0000 F9999
G1 X698.4371 Y1748.1896 Z10.0000 F9999
G1 X698.4371 Y1748.1896 Z2.0000 F9999
G1 X698.4371 Y1748.1896 Z-1.0000 F2500
G1 X698.4371 Y1748.1896 Z10.0000 F9999
G1 X522.4257 Y150.2829 Z10.0000 F9999
G1 X522.4257 Y150.2829 Z2.0000 F9999
G1 X522.4257 Y150.2829 Z-1.0000 F2500
G1 X522.4257 Y150.2829 Z10.0000 F9999
G1 X1900.0000 Y2800.0000 Z80.0000 F9999
G1 Z80.0000 F9999
G1 X1900.0000 Y2800.0000 F9999
M5
M30
