(plotsheet 2n3_nested_153 sheets_final v1_0_sheet 95 to 98a_S95.0_8 screws_CC8 - stepover 1mm)
(Material Size) (X=1220.000, Y=2440.000, Z=21.000)
(LinuxCNC_NoArcs_MM_TC_medium_50um_G1_verbose.con)
G90 G80 G21 G49
G64 P0.050
M6 T1
(Tool Number:1) (7.998 mm dia. slot drill)
G43 H1 G0Z80.0000
M3 S9000
G04 P10
G1 X157.0297 Y1045.8699 Z10.0000 F9999
G1 X157.0297 Y1045.8699 Z2.0000 F9999
G1 X157.0297 Y1045.8699 Z-1.0000 F2500
G1 X157.0297 Y1045.8699 Z10.0000 F9999
G1 X460.7355 Y1051.0466 Z10.0000 F9999
G1 X460.7355 Y1051.0466 Z2.0000 F9999
G1 X460.7355 Y1051.0466 Z-1.0000 F2500
G1 X460.7355 Y1051.0466 Z10.0000 F9999
G1 X767.8925 Y1049.3210 Z10.0000 F9999
G1 X767.8925 Y1049.3210 Z2.0000 F9999
G1 X767.8925 Y1049.3210 Z-1.0000 F2500
G1 X767.8925 Y1049.3210 Z10.0000 F9999
G1 X1068.1471 Y435.0071 Z10.0000 F9999
G1 X1068.1471 Y435.0071 Z2.0000 F9999
G1 X1068.1471 Y435.0071 Z-1.0000 F2500
G1 X1068.1471 Y435.0071 Z10.0000 F9999
G1 X1056.0679 Y1839.6464 Z10.0000 F9999
G1 X1056.0679 Y1839.6464 Z2.0000 F9999
G1 X1056.0679 Y1839.6464 Z-1.0000 F2500
G1 X1056.0679 Y1839.6464 Z10.0000 F9999
G1 X769.6181 Y2298.6563 Z10.0000 F9999
G1 X769.6181 Y2298.6563 Z2.0000 F9999
G1 X769.6181 Y2298.6563 Z-1.0000 F2500
G1 X769.6181 Y2298.6563 Z10.0000 F9999
G1 X465.9123 Y2296.9307 Z10.0000 F9999
G1 X465.9123 Y2296.9307 Z2.0000 F9999
G1 X465.9123 Y2296.9307 Z-1.0000 F2500
G1 X465.9123 Y2296.9307 Z10.0000 F9999
G1 X153.5785 Y2291.7539 Z10.0000 F9999
G1 X153.5785 Y2291.7539 Z2.0000 F9999
G1 X153.5785 Y2291.7539 Z-1.0000 F2500
G1 X153.5785 Y2291.7539 Z10.0000 F9999
G1 X1900.0000 Y2800.0000 Z80.0000 F9999
G1 Z80.0000 F9999
G1 X1900.0000 Y2800.0000 F9999
M5
M30
