(plotsheet 2n3_nested_153 sheets_final v1_0_sheet 56 to 58_S56.1_text_CC8 - stepover 1mm)
(Material Size) (X=1220.000, Y=2440.000, Z=21.000)
(LinuxCNC_NoArcs_MM_TC_medium_50um_G1_verbose.con)
G90 G80 G21 G49
G64 P0.050
M6 T1
(Tool Number:1) (7.998 mm dia. slot drill)
G43 H1 G0Z30.0000
M3 S19000
G04 P10
G1 X570.5502 Y815.2228 Z10.0000 F9999
G1 X570.5502 Y815.2228 Z-1.5000 F2000
G1 X576.3667 Y815.2228 Z-1.5000 F4000
G1 X570.5502 Y815.2228 Z-1.5000 F4000
G1 X570.5502 Y856.3237 Z-1.5000 F4000
G1 X570.5502 Y856.3237 Z10.0000 F9999
G1 X636.1648 Y856.3237 Z10.0000 F9999
G1 X636.1648 Y856.3237 Z-1.5000 F2000
G1 X620.2199 Y815.2228 Z-1.5000 F4000
G1 X604.2566 Y856.3237 Z-1.5000 F4000
G1 X591.1924 Y815.2228 Z-1.5000 F4000
G1 X604.2566 Y856.3237 Z-1.5000 F4000
G1 X620.2199 Y815.2228 Z-1.5000 F4000
G1 X636.1648 Y856.3237 Z-1.5000 F4000
G1 X649.2474 Y815.2228 Z-1.5000 F4000
G1 X649.2474 Y815.2228 Z10.0000 F9999
G1 X608.7062 Y2051.4970 Z10.0000 F9999
G1 X608.7062 Y2051.4970 Z-1.5000 F2000
G1 X630.9080 Y2084.8915 Z-1.5000 F4000
G1 X602.1007 Y2084.8915 Z-1.5000 F4000
G1 X630.9080 Y2084.8915 Z-1.5000 F4000
G1 X608.7062 Y2051.4970 Z-1.5000 F4000
G1 X608.7062 Y2092.5979 Z-1.5000 F4000
G1 X608.7062 Y2092.5979 Z10.0000 F9999
G1 X577.0548 Y2092.5979 Z10.0000 F9999
G1 X577.0548 Y2092.5979 Z-1.5000 F2000
G1 X581.5135 Y2091.7538 Z-1.5000 F4000
G1 X585.1649 Y2089.4236 Z-1.5000 F4000
G1 X587.6603 Y2085.9557 Z-1.5000 F4000
G1 X588.5594 Y2081.7722 Z-1.5000 F4000
G1 X587.6603 Y2077.6071 Z-1.5000 F4000
G1 X585.1649 Y2074.1759 Z-1.5000 F4000
G1 X581.5135 Y2071.8272 Z-1.5000 F4000
G1 X577.0548 Y2070.9465 Z-1.5000 F4000
G1 X572.5777 Y2071.8272 Z-1.5000 F4000
G1 X568.8897 Y2074.1759 Z-1.5000 F4000
G1 X566.4126 Y2077.6071 Z-1.5000 F4000
G1 X565.4952 Y2081.7722 Z-1.5000 F4000
G1 X566.4126 Y2085.9557 Z-1.5000 F4000
G1 X568.8897 Y2089.4236 Z-1.5000 F4000
G1 X572.5777 Y2091.7538 Z-1.5000 F4000
G1 X577.0548 Y2092.5979 Z-1.5000 F4000
G1 X581.5135 Y2091.7538 Z-1.5000 F4000
G1 X585.1649 Y2089.4236 Z-1.5000 F4000
G1 X587.6603 Y2085.9557 Z-1.5000 F4000
G1 X588.5594 Y2081.7722 Z-1.5000 F4000
G1 X587.6603 Y2077.6071 Z-1.5000 F4000
G1 X585.1649 Y2074.1759 Z-1.5000 F4000
G1 X581.5135 Y2071.8272 Z-1.5000 F4000
G1 X577.0548 Y2070.9465 Z-1.5000 F4000
G1 X572.5777 Y2071.8272 Z-1.5000 F4000
G1 X568.8897 Y2074.1759 Z-1.5000 F4000
G1 X566.4126 Y2077.6071 Z-1.5000 F4000
G1 X565.4952 Y2081.7722 Z-1.5000 F4000
G1 X566.4126 Y2085.9557 Z-1.5000 F4000
G1 X568.8897 Y2089.4236 Z-1.5000 F4000
G1 X572.5777 Y2091.7538 Z-1.5000 F4000
G1 X577.0548 Y2092.5979 Z-1.5000 F4000
G1 X577.0548 Y2092.5979 Z10.0000 F9999
G1 X577.0548 Y2070.9282 Z10.0000 F9999
G1 X577.0548 Y2070.9282 Z-1.5000 F2000
G1 X581.0181 Y2070.1759 Z-1.5000 F4000
G1 X584.2475 Y2068.0841 Z-1.5000 F4000
G1 X586.4493 Y2065.0199 Z-1.5000 F4000
G1 X587.2566 Y2061.2401 Z-1.5000 F4000
G1 X586.4493 Y2057.4419 Z-1.5000 F4000
G1 X584.2475 Y2054.3410 Z-1.5000 F4000
G1 X581.0181 Y2052.2493 Z-1.5000 F4000
G1 X577.0548 Y2051.4970 Z-1.5000 F4000
G1 X573.1098 Y2052.2493 Z-1.5000 F4000
G1 X569.8805 Y2054.3410 Z-1.5000 F4000
G1 X567.6787 Y2057.4419 Z-1.5000 F4000
G1 X566.8530 Y2061.2401 Z-1.5000 F4000
G1 X567.6787 Y2065.0199 Z-1.5000 F4000
G1 X569.8805 Y2068.0841 Z-1.5000 F4000
G1 X573.1098 Y2070.1759 Z-1.5000 F4000
G1 X577.0548 Y2070.9282 Z-1.5000 F4000
G1 X581.0181 Y2070.1759 Z-1.5000 F4000
G1 X584.2475 Y2068.0841 Z-1.5000 F4000
G1 X586.4493 Y2065.0199 Z-1.5000 F4000
G1 X587.2566 Y2061.2401 Z-1.5000 F4000
G1 X586.4493 Y2057.4419 Z-1.5000 F4000
G1 X584.2475 Y2054.3410 Z-1.5000 F4000
G1 X581.0181 Y2052.2493 Z-1.5000 F4000
G1 X577.0548 Y2051.4970 Z-1.5000 F4000
G1 X573.1098 Y2052.2493 Z-1.5000 F4000
G1 X569.8805 Y2054.3410 Z-1.5000 F4000
G1 X567.6787 Y2057.4419 Z-1.5000 F4000
G1 X566.8530 Y2061.2401 Z-1.5000 F4000
G1 X567.6787 Y2065.0199 Z-1.5000 F4000
G1 X569.8805 Y2068.0841 Z-1.5000 F4000
G1 X573.1098 Y2070.1759 Z-1.5000 F4000
G1 X577.0548 Y2070.9282 Z-1.5000 F4000
G1 X577.0548 Y2070.9282 Z10.0000 F9999
G1 X641.6787 Y2092.5979 Z10.0000 F9999
G1 X641.6787 Y2092.5979 Z-1.5000 F2000
G1 X654.3025 Y2092.5979 Z-1.5000 F4000
G1 X654.3025 Y2051.4970 Z-1.5000 F4000
G1 X654.3025 Y2092.5979 Z-1.5000 F4000
G1 X654.3025 Y2092.5979 Z10.0000 F9999
G1 X627.2560 Y2292.4985 Z10.0000 F9999
G1 X627.2560 Y2292.4985 Z-1.5000 F2000
G1 X643.9074 Y2317.5444 Z-1.5000 F4000
G1 X622.3019 Y2317.5444 Z-1.5000 F4000
G1 X643.9074 Y2317.5444 Z-1.5000 F4000
G1 X627.2560 Y2292.4985 Z-1.5000 F4000
G1 X627.2560 Y2323.3242 Z-1.5000 F4000
G1 X627.2560 Y2323.3242 Z10.0000 F9999
G1 X604.8205 Y2317.6358 Z10.0000 F9999
G1 X604.8205 Y2317.6358 Z-1.5000 F2000
G1 X604.2563 Y2319.6450 Z-1.5000 F4000
G1 X602.9627 Y2321.5716 Z-1.5000 F4000
G1 X600.7471 Y2323.0303 Z-1.5000 F4000
G1 X597.3343 Y2323.5945 Z-1.5000 F4000
G1 X590.9490 Y2321.6266 Z-1.5000 F4000
G1 X588.6233 Y2315.6404 Z-1.5000 F4000
G1 X589.2838 Y2312.0899 Z-1.5000 F4000
G1 X591.0178 Y2309.5716 Z-1.5000 F4000
G1 X593.4260 Y2308.0716 Z-1.5000 F4000
G1 X596.1095 Y2307.5624 Z-1.5000 F4000
G1 X593.5086 Y2307.0120 Z-1.5000 F4000
G1 X591.2930 Y2305.3468 Z-1.5000 F4000
G1 X589.7242 Y2302.8147 Z-1.5000 F4000
G1 X589.1324 Y2299.6633 Z-1.5000 F4000
G1 X589.1422 Y2298.7688 Z-1.5000 F4000
G1 X589.2204 Y2297.8762 Z-1.5000 F4000
G1 X589.3664 Y2296.9936 Z-1.5000 F4000
G1 X589.9581 Y2295.4798 Z-1.5000 F4000
G1 X591.1003 Y2294.1037 Z-1.5000 F4000
G1 X593.0132 Y2293.1266 Z-1.5000 F4000
G1 X595.8205 Y2292.7688 Z-1.5000 F4000
G1 X599.8526 Y2293.3881 Z-1.5000 F4000
G1 X602.1783 Y2294.9019 Z-1.5000 F4000
G1 X603.3205 Y2296.8973 Z-1.5000 F4000
G1 X603.7609 Y2298.9477 Z-1.5000 F4000
G1 X603.3205 Y2296.8973 Z-1.5000 F4000
G1 X602.1783 Y2294.9019 Z-1.5000 F4000
G1 X599.8526 Y2293.3881 Z-1.5000 F4000
G1 X595.8205 Y2292.7688 Z-1.5000 F4000
G1 X593.0132 Y2293.1266 Z-1.5000 F4000
G1 X591.1003 Y2294.1037 Z-1.5000 F4000
G1 X589.9581 Y2295.4798 Z-1.5000 F4000
G1 X589.3664 Y2296.9936 Z-1.5000 F4000
G1 X589.2186 Y2297.8760 Z-1.5000 F4000
G1 X589.1403 Y2298.7687 Z-1.5000 F4000
G1 X589.1324 Y2299.6633 Z-1.5000 F4000
G1 X589.7242 Y2302.8147 Z-1.5000 F4000
G1 X591.2930 Y2305.3468 Z-1.5000 F4000
G1 X593.5086 Y2307.0120 Z-1.5000 F4000
G1 X596.1095 Y2307.5624 Z-1.5000 F4000
G1 X593.4260 Y2308.0716 Z-1.5000 F4000
G1 X591.0178 Y2309.5716 Z-1.5000 F4000
G1 X589.2838 Y2312.0899 Z-1.5000 F4000
G1 X588.6233 Y2315.6404 Z-1.5000 F4000
G1 X590.9490 Y2321.6266 Z-1.5000 F4000
G1 X597.3343 Y2323.5945 Z-1.5000 F4000
G1 X600.7471 Y2323.0303 Z-1.5000 F4000
G1 X602.9627 Y2321.5716 Z-1.5000 F4000
G1 X604.2563 Y2319.6450 Z-1.5000 F4000
G1 X604.2563 Y2319.6450 Z10.0000 F9999
G1 X661.0957 Y2325.8325 Z10.0000 F9999
G1 X661.0957 Y2325.8325 Z-1.5000 F2000
G1 X670.5636 Y2325.8325 Z-1.5000 F4000
G1 X670.5636 Y2295.0068 Z-1.5000 F4000
G1 X670.5636 Y2325.8325 Z-1.5000 F4000
G1 X670.5636 Y2325.8325 Z10.0000 F9999
G1 X858.4929 Y2316.1258 Z10.0000 F9999
G1 X858.4929 Y2316.1258 Z-1.5000 F2000
G1 X857.9286 Y2318.1350 Z-1.5000 F4000
G1 X856.6351 Y2320.0616 Z-1.5000 F4000
G1 X854.4195 Y2321.5203 Z-1.5000 F4000
G1 X851.0066 Y2322.0845 Z-1.5000 F4000
G1 X844.6213 Y2320.1166 Z-1.5000 F4000
G1 X842.2956 Y2314.1304 Z-1.5000 F4000
G1 X842.9562 Y2310.5799 Z-1.5000 F4000
G1 X844.6901 Y2308.0616 Z-1.5000 F4000
G1 X847.0984 Y2306.5616 Z-1.5000 F4000
G1 X849.7818 Y2306.0524 Z-1.5000 F4000
G1 X847.1809 Y2305.5019 Z-1.5000 F4000
G1 X844.9653 Y2303.8368 Z-1.5000 F4000
G1 X843.3965 Y2301.3047 Z-1.5000 F4000
G1 X842.8048 Y2298.1533 Z-1.5000 F4000
G1 X842.8145 Y2297.2587 Z-1.5000 F4000
G1 X842.8927 Y2296.3662 Z-1.5000 F4000
G1 X843.0387 Y2295.4836 Z-1.5000 F4000
G1 X843.6305 Y2293.9698 Z-1.5000 F4000
G1 X844.7727 Y2292.5937 Z-1.5000 F4000
G1 X846.6855 Y2291.6166 Z-1.5000 F4000
G1 X849.4929 Y2291.2588 Z-1.5000 F4000
G1 X853.5250 Y2291.8781 Z-1.5000 F4000
G1 X855.8506 Y2293.3918 Z-1.5000 F4000
G1 X856.9929 Y2295.3873 Z-1.5000 F4000
G1 X857.4332 Y2297.4377 Z-1.5000 F4000
G1 X856.9929 Y2295.3873 Z-1.5000 F4000
G1 X855.8506 Y2293.3918 Z-1.5000 F4000
G1 X853.5250 Y2291.8781 Z-1.5000 F4000
G1 X849.4929 Y2291.2588 Z-1.5000 F4000
G1 X846.6855 Y2291.6166 Z-1.5000 F4000
G1 X844.7727 Y2292.5937 Z-1.5000 F4000
G1 X843.6305 Y2293.9698 Z-1.5000 F4000
G1 X843.0387 Y2295.4836 Z-1.5000 F4000
G1 X842.8909 Y2296.3660 Z-1.5000 F4000
G1 X842.8127 Y2297.2586 Z-1.5000 F4000
G1 X842.8048 Y2298.1533 Z-1.5000 F4000
G1 X843.3965 Y2301.3047 Z-1.5000 F4000
G1 X844.9653 Y2303.8368 Z-1.5000 F4000
G1 X847.1809 Y2305.5019 Z-1.5000 F4000
G1 X849.7818 Y2306.0524 Z-1.5000 F4000
G1 X847.0984 Y2306.5616 Z-1.5000 F4000
G1 X844.6901 Y2308.0616 Z-1.5000 F4000
G1 X842.9562 Y2310.5799 Z-1.5000 F4000
G1 X842.2956 Y2314.1304 Z-1.5000 F4000
G1 X844.6213 Y2320.1166 Z-1.5000 F4000
G1 X851.0066 Y2322.0845 Z-1.5000 F4000
G1 X854.4195 Y2321.5203 Z-1.5000 F4000
G1 X856.6351 Y2320.0616 Z-1.5000 F4000
G1 X857.9286 Y2318.1350 Z-1.5000 F4000
G1 X857.9286 Y2318.1350 Z10.0000 F9999
G1 X880.0566 Y2292.1243 Z10.0000 F9999
G1 X880.0566 Y2292.1243 Z-1.5000 F2000
G1 X896.7080 Y2317.1702 Z-1.5000 F4000
G1 X875.1024 Y2317.1702 Z-1.5000 F4000
G1 X896.7080 Y2317.1702 Z-1.5000 F4000
G1 X880.0566 Y2292.1243 Z-1.5000 F4000
G1 X880.0566 Y2322.9500 Z-1.5000 F4000
G1 X880.0566 Y2322.9500 Z10.0000 F9999
G1 X912.8659 Y2321.6558 Z10.0000 F9999
G1 X912.8659 Y2321.6558 Z-1.5000 F2000
G1 X922.3338 Y2321.6558 Z-1.5000 F4000
G1 X922.3338 Y2290.8301 Z-1.5000 F4000
G1 X922.3338 Y2321.6558 Z-1.5000 F4000
G1 X922.3338 Y2321.6558 Z10.0000 F9999
G1 X1041.4003 Y2364.0736 Z10.0000 F9999
G1 X1041.4003 Y2364.0736 Z-1.5000 F2000
G1 X1031.9324 Y2364.0736 Z-1.5000 F4000
G1 X1031.9324 Y2394.8992 Z-1.5000 F4000
G1 X1031.9324 Y2364.0736 Z-1.5000 F4000
G1 X1031.9324 Y2364.0736 Z10.0000 F9999
G1 X1075.0495 Y2396.4532 Z10.0000 F9999
G1 X1075.0495 Y2396.4532 Z-1.5000 F2000
G1 X1058.3981 Y2371.4074 Z-1.5000 F4000
G1 X1080.0036 Y2371.4074 Z-1.5000 F4000
G1 X1058.3981 Y2371.4074 Z-1.5000 F4000
G1 X1075.0495 Y2396.4532 Z-1.5000 F4000
G1 X1075.0495 Y2365.6275 Z-1.5000 F4000
G1 X1075.0495 Y2365.6275 Z10.0000 F9999
G1 X1099.5726 Y2371.9470 Z10.0000 F9999
G1 X1099.5726 Y2371.9470 Z-1.5000 F2000
G1 X1100.1368 Y2369.9378 Z-1.5000 F4000
G1 X1101.4304 Y2368.0112 Z-1.5000 F4000
G1 X1103.6460 Y2366.5525 Z-1.5000 F4000
G1 X1107.0588 Y2365.9883 Z-1.5000 F4000
G1 X1113.4441 Y2367.9562 Z-1.5000 F4000
G1 X1115.7698 Y2373.9424 Z-1.5000 F4000
G1 X1115.1093 Y2377.4929 Z-1.5000 F4000
G1 X1113.3753 Y2380.0112 Z-1.5000 F4000
G1 X1110.9671 Y2381.5112 Z-1.5000 F4000
G1 X1108.2836 Y2382.0204 Z-1.5000 F4000
G1 X1110.8845 Y2382.5708 Z-1.5000 F4000
G1 X1113.1001 Y2384.2360 Z-1.5000 F4000
G1 X1114.6689 Y2386.7681 Z-1.5000 F4000
G1 X1115.2606 Y2389.9195 Z-1.5000 F4000
G1 X1115.2509 Y2390.8140 Z-1.5000 F4000
G1 X1115.1727 Y2391.7065 Z-1.5000 F4000
G1 X1115.0267 Y2392.5892 Z-1.5000 F4000
G1 X1114.4350 Y2394.1029 Z-1.5000 F4000
G1 X1113.2928 Y2395.4791 Z-1.5000 F4000
G1 X1111.3799 Y2396.4562 Z-1.5000 F4000
G1 X1108.5726 Y2396.8140 Z-1.5000 F4000
G1 X1104.5405 Y2396.1947 Z-1.5000 F4000
G1 X1102.2148 Y2394.6809 Z-1.5000 F4000
G1 X1101.0726 Y2392.6855 Z-1.5000 F4000
G1 X1100.6322 Y2390.6351 Z-1.5000 F4000
G1 X1101.0726 Y2392.6855 Z-1.5000 F4000
G1 X1102.2148 Y2394.6809 Z-1.5000 F4000
G1 X1104.5405 Y2396.1947 Z-1.5000 F4000
G1 X1108.5726 Y2396.8140 Z-1.5000 F4000
G1 X1111.3799 Y2396.4562 Z-1.5000 F4000
G1 X1113.2928 Y2395.4791 Z-1.5000 F4000
G1 X1114.4350 Y2394.1029 Z-1.5000 F4000
G1 X1115.0267 Y2392.5892 Z-1.5000 F4000
G1 X1115.1745 Y2391.7068 Z-1.5000 F4000
G1 X1115.2528 Y2390.8141 Z-1.5000 F4000
G1 X1115.2606 Y2389.9195 Z-1.5000 F4000
G1 X1114.6689 Y2386.7681 Z-1.5000 F4000
G1 X1113.1001 Y2384.2360 Z-1.5000 F4000
G1 X1110.8845 Y2382.5708 Z-1.5000 F4000
G1 X1108.2836 Y2382.0204 Z-1.5000 F4000
G1 X1110.9671 Y2381.5112 Z-1.5000 F4000
G1 X1113.3753 Y2380.0112 Z-1.5000 F4000
G1 X1115.1093 Y2377.4929 Z-1.5000 F4000
G1 X1115.7698 Y2373.9424 Z-1.5000 F4000
G1 X1113.4441 Y2367.9562 Z-1.5000 F4000
G1 X1107.0588 Y2365.9883 Z-1.5000 F4000
G1 X1103.6460 Y2366.5525 Z-1.5000 F4000
G1 X1101.4304 Y2368.0112 Z-1.5000 F4000
G1 X1100.1368 Y2369.9378 Z-1.5000 F4000
G1 X1100.1368 Y2369.9378 Z10.0000 F9999
G1 X411.3032 Y2324.1948 Z10.0000 F9999
G1 X411.3032 Y2324.1948 Z-1.5000 F2000
G1 X420.7711 Y2324.1948 Z-1.5000 F4000
G1 X420.7711 Y2293.3691 Z-1.5000 F4000
G1 X420.7711 Y2324.1948 Z-1.5000 F4000
G1 X420.7711 Y2324.1948 Z10.0000 F9999
G1 X376.1810 Y2292.5787 Z10.0000 F9999
G1 X376.1810 Y2292.5787 Z-1.5000 F2000
G1 X392.8324 Y2317.6245 Z-1.5000 F4000
G1 X371.2269 Y2317.6245 Z-1.5000 F4000
G1 X392.8324 Y2317.6245 Z-1.5000 F4000
G1 X376.1810 Y2292.5787 Z-1.5000 F4000
G1 X376.1810 Y2323.4044 Z-1.5000 F4000
G1 X376.1810 Y2323.4044 Z10.0000 F9999
G1 X354.1859 Y2316.9886 Z10.0000 F9999
G1 X354.1859 Y2316.9886 Z-1.5000 F2000
G1 X353.6217 Y2318.9978 Z-1.5000 F4000
G1 X352.3281 Y2320.9244 Z-1.5000 F4000
G1 X350.1125 Y2322.3831 Z-1.5000 F4000
G1 X346.6997 Y2322.9473 Z-1.5000 F4000
G1 X340.3144 Y2320.9794 Z-1.5000 F4000
G1 X337.9887 Y2314.9932 Z-1.5000 F4000
G1 X338.6492 Y2311.4427 Z-1.5000 F4000
G1 X340.3832 Y2308.9244 Z-1.5000 F4000
G1 X342.7914 Y2307.4244 Z-1.5000 F4000
G1 X345.4749 Y2306.9152 Z-1.5000 F4000
G1 X342.8740 Y2306.3647 Z-1.5000 F4000
G1 X340.6584 Y2304.6996 Z-1.5000 F4000
G1 X339.0896 Y2302.1675 Z-1.5000 F4000
G1 X338.4978 Y2299.0161 Z-1.5000 F4000
G1 X338.5076 Y2298.1215 Z-1.5000 F4000
G1 X338.5858 Y2297.2290 Z-1.5000 F4000
G1 X338.7318 Y2296.3464 Z-1.5000 F4000
G1 X339.3235 Y2294.8326 Z-1.5000 F4000
G1 X340.4657 Y2293.4565 Z-1.5000 F4000
G1 X342.3786 Y2292.4794 Z-1.5000 F4000
G1 X345.1859 Y2292.1216 Z-1.5000 F4000
G1 X349.2180 Y2292.7409 Z-1.5000 F4000
G1 X351.5437 Y2294.2546 Z-1.5000 F4000
G1 X352.6859 Y2296.2501 Z-1.5000 F4000
G1 X353.1263 Y2298.3005 Z-1.5000 F4000
G1 X352.6859 Y2296.2501 Z-1.5000 F4000
G1 X351.5437 Y2294.2546 Z-1.5000 F4000
G1 X349.2180 Y2292.7409 Z-1.5000 F4000
G1 X345.1859 Y2292.1216 Z-1.5000 F4000
G1 X342.3786 Y2292.4794 Z-1.5000 F4000
G1 X340.4657 Y2293.4565 Z-1.5000 F4000
G1 X339.3235 Y2294.8326 Z-1.5000 F4000
G1 X338.7318 Y2296.3464 Z-1.5000 F4000
G1 X338.5840 Y2297.2288 Z-1.5000 F4000
G1 X338.5057 Y2298.1214 Z-1.5000 F4000
G1 X338.4978 Y2299.0161 Z-1.5000 F4000
G1 X339.0896 Y2302.1675 Z-1.5000 F4000
G1 X340.6584 Y2304.6996 Z-1.5000 F4000
G1 X342.8740 Y2306.3647 Z-1.5000 F4000
G1 X345.4749 Y2306.9152 Z-1.5000 F4000
G1 X342.7914 Y2307.4244 Z-1.5000 F4000
G1 X340.3832 Y2308.9244 Z-1.5000 F4000
G1 X338.6492 Y2311.4427 Z-1.5000 F4000
G1 X337.9887 Y2314.9932 Z-1.5000 F4000
G1 X340.3144 Y2320.9794 Z-1.5000 F4000
G1 X346.6997 Y2322.9473 Z-1.5000 F4000
G1 X350.1125 Y2322.3831 Z-1.5000 F4000
G1 X352.3281 Y2320.9244 Z-1.5000 F4000
G1 X353.6217 Y2318.9978 Z-1.5000 F4000
G1 X353.6217 Y2318.9978 Z10.0000 F9999
G1 X160.0958 Y2320.3616 Z10.0000 F9999
G1 X160.0958 Y2320.3616 Z-1.5000 F2000
G1 X169.5636 Y2320.3616 Z-1.5000 F4000
G1 X169.5636 Y2289.5359 Z-1.5000 F4000
G1 X169.5636 Y2320.3616 Z-1.5000 F4000
G1 X169.5636 Y2320.3616 Z10.0000 F9999
G1 X124.2433 Y2292.5557 Z10.0000 F9999
G1 X124.2433 Y2292.5557 Z-1.5000 F2000
G1 X140.8947 Y2317.6016 Z-1.5000 F4000
G1 X119.2892 Y2317.6016 Z-1.5000 F4000
G1 X140.8947 Y2317.6016 Z-1.5000 F4000
G1 X124.2433 Y2292.5557 Z-1.5000 F4000
G1 X124.2433 Y2323.3814 Z-1.5000 F4000
G1 X124.2433 Y2323.3814 Z10.0000 F9999
G1 X98.9688 Y2317.1243 Z10.0000 F9999
G1 X98.9688 Y2317.1243 Z-1.5000 F2000
G1 X98.4045 Y2319.1335 Z-1.5000 F4000
G1 X97.1110 Y2321.0601 Z-1.5000 F4000
G1 X94.8954 Y2322.5188 Z-1.5000 F4000
G1 X91.4825 Y2323.0830 Z-1.5000 F4000
G1 X85.0972 Y2321.1152 Z-1.5000 F4000
G1 X82.7715 Y2315.1289 Z-1.5000 F4000
G1 X83.4321 Y2311.5785 Z-1.5000 F4000
G1 X85.1660 Y2309.0601 Z-1.5000 F4000
G1 X87.5743 Y2307.5601 Z-1.5000 F4000
G1 X90.2577 Y2307.0509 Z-1.5000 F4000
G1 X87.6568 Y2306.5005 Z-1.5000 F4000
G1 X85.4412 Y2304.8353 Z-1.5000 F4000
G1 X83.8724 Y2302.3032 Z-1.5000 F4000
G1 X83.2807 Y2299.1519 Z-1.5000 F4000
G1 X83.2904 Y2298.2573 Z-1.5000 F4000
G1 X83.3686 Y2297.3648 Z-1.5000 F4000
G1 X83.5146 Y2296.4821 Z-1.5000 F4000
G1 X84.1064 Y2294.9684 Z-1.5000 F4000
G1 X85.2486 Y2293.5922 Z-1.5000 F4000
G1 X87.1614 Y2292.6152 Z-1.5000 F4000
G1 X89.9688 Y2292.2574 Z-1.5000 F4000
G1 X94.0009 Y2292.8766 Z-1.5000 F4000
G1 X96.3266 Y2294.3904 Z-1.5000 F4000
G1 X97.4688 Y2296.3858 Z-1.5000 F4000
G1 X97.9091 Y2298.4363 Z-1.5000 F4000
G1 X97.4688 Y2296.3858 Z-1.5000 F4000
G1 X96.3266 Y2294.3904 Z-1.5000 F4000
G1 X94.0009 Y2292.8766 Z-1.5000 F4000
G1 X89.9688 Y2292.2574 Z-1.5000 F4000
G1 X87.1614 Y2292.6152 Z-1.5000 F4000
G1 X85.2486 Y2293.5922 Z-1.5000 F4000
G1 X84.1064 Y2294.9684 Z-1.5000 F4000
G1 X83.5146 Y2296.4821 Z-1.5000 F4000
G1 X83.3668 Y2297.3645 Z-1.5000 F4000
G1 X83.2886 Y2298.2572 Z-1.5000 F4000
G1 X83.2807 Y2299.1519 Z-1.5000 F4000
G1 X83.8724 Y2302.3032 Z-1.5000 F4000
G1 X85.4412 Y2304.8353 Z-1.5000 F4000
G1 X87.6568 Y2306.5005 Z-1.5000 F4000
G1 X90.2577 Y2307.0509 Z-1.5000 F4000
G1 X87.5743 Y2307.5601 Z-1.5000 F4000
G1 X85.1660 Y2309.0601 Z-1.5000 F4000
G1 X83.4321 Y2311.5785 Z-1.5000 F4000
G1 X82.7715 Y2315.1289 Z-1.5000 F4000
G1 X85.0972 Y2321.1152 Z-1.5000 F4000
G1 X91.4825 Y2323.0830 Z-1.5000 F4000
G1 X94.8954 Y2322.5188 Z-1.5000 F4000
G1 X97.1110 Y2321.0601 Z-1.5000 F4000
G1 X98.4045 Y2319.1335 Z-1.5000 F4000
G1 X98.4045 Y2319.1335 Z10.0000 F9999
(Tool Number:1) (7.998 mm dia. slot drill)
M3 S19000
G1 X80.9015 Y318.6494 Z10.0000 F9999
G1 X80.9015 Y318.6494 Z1.0000 F2000
G1 X80.9015 Y279.6782 Z-10.0000 F2000
G1 X80.9015 Y318.6494 Z-21.0000 F2000
G1 X80.9015 Y234.6505 Z-21.0000 F2750
G1 X85.9010 Y234.6505 Z-21.0000 F2750
G1 X85.9010 Y232.6485 Z-21.0000 F2750
G1 X65.8990 Y232.6485 Z-21.0000 F2750
G1 X65.8990 Y234.6505 Z-21.0000 F2750
G1 X70.8995 Y234.6505 Z-21.0000 F2750
G1 X70.8995 Y313.6485 Z-21.0000 F2750
G1 X42.9015 Y313.6485 Z-21.0000 F2750
G1 X42.9015 Y308.6485 Z-21.0000 F2750
G1 X40.8995 Y308.6485 Z-21.0000 F2750
G1 X40.8995 Y328.6508 Z-21.0000 F2750
G1 X42.9015 Y328.6508 Z-21.0000 F2750
G1 X42.9015 Y323.6505 Z-21.0000 F2750
G1 X70.8995 Y323.6505 Z-21.0000 F2750
G1 X70.8995 Y402.6483 Z-21.0000 F2750
G1 X65.8990 Y402.6483 Z-21.0000 F2750
G1 X65.8990 Y404.6505 Z-21.0000 F2750
G1 X85.9010 Y404.6505 Z-21.0000 F2750
G1 X85.9010 Y402.6483 Z-21.0000 F2750
G1 X80.9015 Y402.6483 Z-21.0000 F2750
G1 X80.9015 Y318.6494 Z-21.0000 F2750
G1 X80.9015 Y318.6494 Z10.0000 F9999
G1 X70.8995 Y618.6490 Z10.0000 F9999
G1 X70.8995 Y618.6490 Z1.0000 F2000
G1 X70.8995 Y657.6202 Z-10.0000 F2000
G1 X70.8995 Y618.6490 Z-21.0000 F2000
G1 X70.8995 Y702.6480 Z-21.0000 F2750
G1 X65.8990 Y702.6480 Z-21.0000 F2750
G1 X65.8990 Y704.6495 Z-21.0000 F2750
G1 X85.9010 Y704.6495 Z-21.0000 F2750
G1 X85.9010 Y702.6480 Z-21.0000 F2750
G1 X80.9015 Y702.6480 Z-21.0000 F2750
G1 X80.9015 Y623.6495 Z-21.0000 F2750
G1 X108.8990 Y623.6495 Z-21.0000 F2750
G1 X108.8990 Y628.6500 Z-21.0000 F2750
G1 X110.9010 Y628.6500 Z-21.0000 F2750
G1 X110.9010 Y608.6480 Z-21.0000 F2750
G1 X108.8990 Y608.6480 Z-21.0000 F2750
G1 X108.8990 Y613.6480 Z-21.0000 F2750
G1 X80.9015 Y613.6480 Z-21.0000 F2750
G1 X80.9015 Y534.6500 Z-21.0000 F2750
G1 X85.9010 Y534.6500 Z-21.0000 F2750
G1 X85.9010 Y532.6480 Z-21.0000 F2750
G1 X65.8990 Y532.6480 Z-21.0000 F2750
G1 X65.8990 Y534.6500 Z-21.0000 F2750
G1 X70.8995 Y534.6500 Z-21.0000 F2750
G1 X70.8995 Y618.6490 Z-21.0000 F2750
G1 X70.8995 Y618.6490 Z10.0000 F9999
G1 X52.8990 Y918.6480 Z10.0000 F9999
G1 X52.8990 Y918.6480 Z1.0000 F2000
G1 X52.8990 Y957.6192 Z-10.0000 F2000
G1 X52.8990 Y918.6480 Z-21.0000 F2000
G1 X52.8990 Y1002.6470 Z-21.0000 F2750
G1 X47.8995 Y1002.6470 Z-21.0000 F2750
G1 X47.8995 Y1004.6495 Z-21.0000 F2750
G1 X85.9010 Y1004.6495 Z-21.0000 F2750
G1 X85.9010 Y1002.6470 Z-21.0000 F2750
G1 X80.9015 Y1002.6470 Z-21.0000 F2750
G1 X80.9015 Y834.6490 Z-21.0000 F2750
G1 X85.9010 Y834.6490 Z-21.0000 F2750
G1 X85.9010 Y832.6475 Z-21.0000 F2750
G1 X47.8995 Y832.6475 Z-21.0000 F2750
G1 X47.8995 Y834.6490 Z-21.0000 F2750
G1 X52.8990 Y834.6490 Z-21.0000 F2750
G1 X52.8990 Y918.6480 Z-21.0000 F2750
G1 X52.8990 Y918.6480 Z10.0000 F9999
G1 X52.8990 Y1218.6476 Z10.0000 F9999
G1 X52.8990 Y1218.6476 Z1.0000 F2000
G1 X52.8990 Y1257.6187 Z-10.0000 F2000
G1 X52.8990 Y1218.6476 Z-21.0000 F2000
G1 X52.8990 Y1302.6466 Z-21.0000 F2750
G1 X47.8995 Y1302.6466 Z-21.0000 F2750
G1 X47.8995 Y1304.6486 Z-21.0000 F2750
G1 X85.9010 Y1304.6486 Z-21.0000 F2750
G1 X85.9010 Y1302.6466 Z-21.0000 F2750
G1 X80.9015 Y1302.6466 Z-21.0000 F2750
G1 X80.9015 Y1223.6481 Z-21.0000 F2750
G1 X108.8990 Y1223.6481 Z-21.0000 F2750
G1 X108.8990 Y1228.6490 Z-21.0000 F2750
G1 X110.9010 Y1228.6490 Z-21.0000 F2750
G1 X110.9010 Y1208.6466 Z-21.0000 F2750
G1 X108.8990 Y1208.6466 Z-21.0000 F2750
G1 X108.8990 Y1213.6466 Z-21.0000 F2750
G1 X80.9015 Y1213.6466 Z-21.0000 F2750
G1 X80.9015 Y1134.6486 Z-21.0000 F2750
G1 X85.9010 Y1134.6486 Z-21.0000 F2750
G1 X85.9010 Y1132.6466 Z-21.0000 F2750
G1 X47.8995 Y1132.6466 Z-21.0000 F2750
G1 X47.8995 Y1134.6486 Z-21.0000 F2750
G1 X52.8990 Y1134.6486 Z-21.0000 F2750
G1 X52.8990 Y1218.6476 Z-21.0000 F2750
G1 X52.8990 Y1218.6476 Z10.0000 F9999
G1 X609.8993 Y1223.6481 Z10.0000 F9999
G1 X609.8993 Y1223.6481 Z1.0000 F2000
G1 X648.8704 Y1223.6481 Z-10.0000 F2000
G1 X609.8993 Y1223.6481 Z-21.0000 F2000
G1 X650.9000 Y1223.6481 Z-21.0000 F2750
G1 X650.9000 Y1221.6466 Z-21.0000 F2750
G1 X645.9000 Y1221.6466 Z-21.0000 F2750
G1 X645.9000 Y1208.6466 Z-21.0000 F2750
G1 X643.8980 Y1208.6466 Z-21.0000 F2750
G1 X643.8980 Y1213.6466 Z-21.0000 F2750
G1 X575.9000 Y1213.6466 Z-21.0000 F2750
G1 X575.9000 Y1208.6466 Z-21.0000 F2750
G1 X573.8980 Y1208.6466 Z-21.0000 F2750
G1 X573.8980 Y1221.6466 Z-21.0000 F2750
G1 X568.8985 Y1221.6466 Z-21.0000 F2750
G1 X568.8985 Y1223.6481 Z-21.0000 F2750
G1 X609.8993 Y1223.6481 Z-21.0000 F2750
G1 X609.8993 Y1223.6481 Z10.0000 F9999
G1 X1166.8986 Y1218.6476 Z10.0000 F9999
G1 X1166.8986 Y1218.6476 Z1.0000 F2000
G1 X1166.8986 Y1179.6764 Z-10.0000 F2000
G1 X1166.8986 Y1218.6476 Z-21.0000 F2000
G1 X1166.8986 Y1134.6486 Z-21.0000 F2750
G1 X1171.8990 Y1134.6486 Z-21.0000 F2750
G1 X1171.8990 Y1132.6466 Z-21.0000 F2750
G1 X1133.8970 Y1132.6466 Z-21.0000 F2750
G1 X1133.8970 Y1134.6486 Z-21.0000 F2750
G1 X1138.8970 Y1134.6486 Z-21.0000 F2750
G1 X1138.8970 Y1213.6466 Z-21.0000 F2750
G1 X1110.8990 Y1213.6466 Z-21.0000 F2750
G1 X1110.8990 Y1208.6466 Z-21.0000 F2750
G1 X1108.8970 Y1208.6466 Z-21.0000 F2750
G1 X1108.8970 Y1228.6490 Z-21.0000 F2750
G1 X1110.8990 Y1228.6490 Z-21.0000 F2750
G1 X1110.8990 Y1223.6481 Z-21.0000 F2750
G1 X1138.8970 Y1223.6481 Z-21.0000 F2750
G1 X1138.8970 Y1302.6466 Z-21.0000 F2750
G1 X1133.8970 Y1302.6466 Z-21.0000 F2750
G1 X1133.8970 Y1304.6486 Z-21.0000 F2750
G1 X1171.8990 Y1304.6486 Z-21.0000 F2750
G1 X1171.8990 Y1302.6466 Z-21.0000 F2750
G1 X1166.8986 Y1302.6466 Z-21.0000 F2750
G1 X1166.8986 Y1218.6476 Z-21.0000 F2750
G1 X1166.8986 Y1218.6476 Z10.0000 F9999
G1 X1166.8986 Y918.6480 Z10.0000 F9999
G1 X1166.8986 Y918.6480 Z1.0000 F2000
G1 X1166.8986 Y879.6769 Z-10.0000 F2000
G1 X1166.8986 Y918.6480 Z-21.0000 F2000
G1 X1166.8986 Y834.6490 Z-21.0000 F2750
G1 X1171.8990 Y834.6490 Z-21.0000 F2750
G1 X1171.8990 Y832.6475 Z-21.0000 F2750
G1 X1133.8970 Y832.6475 Z-21.0000 F2750
G1 X1133.8970 Y834.6490 Z-21.0000 F2750
G1 X1138.8970 Y834.6490 Z-21.0000 F2750
G1 X1138.8970 Y1002.6470 Z-21.0000 F2750
G1 X1133.8970 Y1002.6470 Z-21.0000 F2750
G1 X1133.8970 Y1004.6495 Z-21.0000 F2750
G1 X1171.8990 Y1004.6495 Z-21.0000 F2750
G1 X1171.8990 Y1002.6470 Z-21.0000 F2750
G1 X1166.8986 Y1002.6470 Z-21.0000 F2750
G1 X1166.8986 Y918.6480 Z-21.0000 F2750
G1 X1166.8986 Y918.6480 Z10.0000 F9999
G1 X1148.8990 Y618.6490 Z10.0000 F9999
G1 X1148.8990 Y618.6490 Z1.0000 F2000
G1 X1148.8990 Y579.6779 Z-10.0000 F2000
G1 X1148.8990 Y618.6490 Z-21.0000 F2000
G1 X1148.8990 Y534.6500 Z-21.0000 F2750
G1 X1153.8990 Y534.6500 Z-21.0000 F2750
G1 X1153.8990 Y532.6480 Z-21.0000 F2750
G1 X1133.8970 Y532.6480 Z-21.0000 F2750
G1 X1133.8970 Y534.6500 Z-21.0000 F2750
G1 X1138.8970 Y534.6500 Z-21.0000 F2750
G1 X1138.8970 Y613.6480 Z-21.0000 F2750
G1 X1110.8990 Y613.6480 Z-21.0000 F2750
G1 X1110.8990 Y608.6480 Z-21.0000 F2750
G1 X1108.8970 Y608.6480 Z-21.0000 F2750
G1 X1108.8970 Y628.6500 Z-21.0000 F2750
G1 X1110.8990 Y628.6500 Z-21.0000 F2750
G1 X1110.8990 Y623.6495 Z-21.0000 F2750
G1 X1138.8970 Y623.6495 Z-21.0000 F2750
G1 X1138.8970 Y702.6480 Z-21.0000 F2750
G1 X1133.8970 Y702.6480 Z-21.0000 F2750
G1 X1133.8970 Y704.6495 Z-21.0000 F2750
G1 X1153.8990 Y704.6495 Z-21.0000 F2750
G1 X1153.8990 Y702.6480 Z-21.0000 F2750
G1 X1148.8990 Y702.6480 Z-21.0000 F2750
G1 X1148.8990 Y618.6490 Z-21.0000 F2750
G1 X1148.8990 Y618.6490 Z10.0000 F9999
G1 X1138.8970 Y318.6494 Z10.0000 F9999
G1 X1138.8970 Y318.6494 Z1.0000 F2000
G1 X1138.8970 Y357.6205 Z-10.0000 F2000
G1 X1138.8970 Y318.6494 Z-21.0000 F2000
G1 X1138.8970 Y402.6483 Z-21.0000 F2750
G1 X1133.8970 Y402.6483 Z-21.0000 F2750
G1 X1133.8970 Y404.6505 Z-21.0000 F2750
G1 X1153.8990 Y404.6505 Z-21.0000 F2750
G1 X1153.8990 Y402.6483 Z-21.0000 F2750
G1 X1148.8990 Y402.6483 Z-21.0000 F2750
G1 X1148.8990 Y323.6505 Z-21.0000 F2750
G1 X1176.8970 Y323.6505 Z-21.0000 F2750
G1 X1176.8970 Y328.6508 Z-21.0000 F2750
G1 X1178.8990 Y328.6508 Z-21.0000 F2750
G1 X1178.8990 Y308.6485 Z-21.0000 F2750
G1 X1176.8970 Y308.6485 Z-21.0000 F2750
G1 X1176.8970 Y313.6485 Z-21.0000 F2750
G1 X1148.8990 Y313.6485 Z-21.0000 F2750
G1 X1148.8990 Y234.6505 Z-21.0000 F2750
G1 X1153.8990 Y234.6505 Z-21.0000 F2750
G1 X1153.8990 Y232.6485 Z-21.0000 F2750
G1 X1133.8970 Y232.6485 Z-21.0000 F2750
G1 X1133.8970 Y234.6505 Z-21.0000 F2750
G1 X1138.8970 Y234.6505 Z-21.0000 F2750
G1 X1138.8970 Y318.6494 Z-21.0000 F2750
G1 X1138.8970 Y318.6494 Z10.0000 F9999
G1 X609.8993 Y623.6495 Z10.0000 F9999
G1 X609.8993 Y623.6495 Z1.0000 F2000
G1 X648.8704 Y623.6495 Z-10.0000 F2000
G1 X609.8993 Y623.6495 Z-21.0000 F2000
G1 X650.9000 Y623.6495 Z-21.0000 F2750
G1 X650.9000 Y621.6480 Z-21.0000 F2750
G1 X645.9000 Y621.6480 Z-21.0000 F2750
G1 X645.9000 Y608.6480 Z-21.0000 F2750
G1 X643.8980 Y608.6480 Z-21.0000 F2750
G1 X643.8980 Y613.6480 Z-21.0000 F2750
G1 X575.9000 Y613.6480 Z-21.0000 F2750
G1 X575.9000 Y608.6480 Z-21.0000 F2750
G1 X573.8980 Y608.6480 Z-21.0000 F2750
G1 X573.8980 Y621.6480 Z-21.0000 F2750
G1 X568.8985 Y621.6480 Z-21.0000 F2750
G1 X568.8985 Y623.6495 Z-21.0000 F2750
G1 X609.8993 Y623.6495 Z-21.0000 F2750
G1 X609.8993 Y623.6495 Z10.0000 F9999
G1 X577.3713 Y1907.3270 Z10.0000 F9999
G1 X577.3713 Y1907.3270 Z1.0000 F2000
G1 X576.0358 Y1908.7197 Z0.4554 F2000
G1 X574.7392 Y1910.1917 Z-0.0983 F2000
G1 X573.4875 Y1911.7423 Z-0.6608 F2000
G1 X572.2870 Y1913.3700 Z-1.2317 F2000
G1 X571.1437 Y1915.0730 Z-1.8107 F2000
G1 X570.0640 Y1916.8488 Z-2.3973 F2000
G1 X569.0538 Y1918.6941 Z-2.9911 F2000
G1 X568.1191 Y1920.6052 Z-3.5915 F2000
G1 X567.2656 Y1922.5776 Z-4.1982 F2000
G1 X566.4986 Y1924.6064 Z-4.8104 F2000
G1 X565.8231 Y1926.6860 Z-5.4276 F2000
G1 X565.2435 Y1928.8101 Z-6.0490 F2000
G1 X564.7636 Y1930.9722 Z-6.6742 F2000
G1 X564.3869 Y1933.1653 Z-7.3022 F2000
G1 X564.1159 Y1935.3818 Z-7.9325 F2000
G1 X563.9525 Y1937.6142 Z-8.5643 F2000
G1 X563.8979 Y1939.8546 Z-9.1969 F2000
G1 X563.9525 Y1942.0949 Z-9.8294 F2000
G1 X563.9966 Y1942.6976 Z-10.0000 F2000
G1 X563.9525 Y1942.0949 Z-10.1706 F2000
G1 X563.8979 Y1939.8546 Z-10.8031 F2000
G1 X563.9525 Y1937.6142 Z-11.4357 F2000
G1 X564.1159 Y1935.3818 Z-12.0675 F2000
G1 X564.3869 Y1933.1653 Z-12.6978 F2000
G1 X564.7636 Y1930.9722 Z-13.3258 F2000
G1 X565.2435 Y1928.8101 Z-13.9510 F2000
G1 X565.8231 Y1926.6860 Z-14.5724 F2000
G1 X566.4986 Y1924.6064 Z-15.1896 F2000
G1 X567.2656 Y1922.5776 Z-15.8018 F2000
G1 X568.1191 Y1920.6052 Z-16.4085 F2000
G1 X569.0538 Y1918.6941 Z-17.0089 F2000
G1 X570.0640 Y1916.8488 Z-17.6027 F2000
G1 X571.1437 Y1915.0730 Z-18.1893 F2000
G1 X572.2870 Y1913.3700 Z-18.7683 F2000
G1 X573.4875 Y1911.7423 Z-19.3392 F2000
G1 X574.7392 Y1910.1917 Z-19.9017 F2000
G1 X576.0358 Y1908.7197 Z-20.4554 F2000
G1 X577.3713 Y1907.3270 Z-21.0000 F2000
G1 X576.0358 Y1908.7197 Z-21.0000 F2750
G1 X574.7392 Y1910.1917 Z-21.0000 F2750
G1 X573.4875 Y1911.7423 Z-21.0000 F2750
G1 X572.2870 Y1913.3700 Z-21.0000 F2750
G1 X571.1437 Y1915.0730 Z-21.0000 F2750
G1 X570.0640 Y1916.8488 Z-21.0000 F2750
G1 X569.0538 Y1918.6941 Z-21.0000 F2750
G1 X568.1191 Y1920.6052 Z-21.0000 F2750
G1 X567.2656 Y1922.5776 Z-21.0000 F2750
G1 X566.4986 Y1924.6064 Z-21.0000 F2750
G1 X565.8231 Y1926.6860 Z-21.0000 F2750
G1 X565.2435 Y1928.8101 Z-21.0000 F2750
G1 X564.7636 Y1930.9722 Z-21.0000 F2750
G1 X564.3869 Y1933.1653 Z-21.0000 F2750
G1 X564.1159 Y1935.3818 Z-21.0000 F2750
G1 X563.9525 Y1937.6142 Z-21.0000 F2750
G1 X563.8979 Y1939.8546 Z-21.0000 F2750
G1 X563.9525 Y1942.0949 Z-21.0000 F2750
G1 X564.1159 Y1944.3273 Z-21.0000 F2750
G1 X564.3869 Y1946.5439 Z-21.0000 F2750
G1 X564.7636 Y1948.7369 Z-21.0000 F2750
G1 X565.2435 Y1950.8990 Z-21.0000 F2750
G1 X565.8231 Y1953.0232 Z-21.0000 F2750
G1 X566.4986 Y1955.1027 Z-21.0000 F2750
G1 X567.2656 Y1957.1315 Z-21.0000 F2750
G1 X568.1191 Y1959.1040 Z-21.0000 F2750
G1 X569.0538 Y1961.0151 Z-21.0000 F2750
G1 X570.0640 Y1962.8604 Z-21.0000 F2750
G1 X571.1437 Y1964.6361 Z-21.0000 F2750
G1 X572.2870 Y1966.3391 Z-21.0000 F2750
G1 X573.4875 Y1967.9669 Z-21.0000 F2750
G1 X574.7392 Y1969.5174 Z-21.0000 F2750
G1 X576.0358 Y1970.9895 Z-21.0000 F2750
G1 X577.3713 Y1972.3822 Z-21.0000 F2750
G1 X578.7641 Y1973.7177 Z-21.0000 F2750
G1 X580.2361 Y1975.0143 Z-21.0000 F2750
G1 X581.7866 Y1976.2660 Z-21.0000 F2750
G1 X583.4144 Y1977.4666 Z-21.0000 F2750
G1 X585.1174 Y1978.6098 Z-21.0000 F2750
G1 X586.8931 Y1979.6895 Z-21.0000 F2750
G1 X588.7384 Y1980.6997 Z-21.0000 F2750
G1 X590.6495 Y1981.6344 Z-21.0000 F2750
G1 X592.6220 Y1982.4879 Z-21.0000 F2750
G1 X594.6508 Y1983.2549 Z-21.0000 F2750
G1 X596.7303 Y1983.9304 Z-21.0000 F2750
G1 X598.8545 Y1984.5101 Z-21.0000 F2750
G1 X601.0166 Y1984.9899 Z-21.0000 F2750
G1 X603.2096 Y1985.3666 Z-21.0000 F2750
G1 X605.4262 Y1985.6376 Z-21.0000 F2750
G1 X607.6586 Y1985.8010 Z-21.0000 F2750
G1 X609.8989 Y1985.8556 Z-21.0000 F2750
G1 X612.1393 Y1985.8010 Z-21.0000 F2750
G1 X614.3717 Y1985.6376 Z-21.0000 F2750
G1 X616.5882 Y1985.3666 Z-21.0000 F2750
G1 X618.7813 Y1984.9899 Z-21.0000 F2750
G1 X620.9434 Y1984.5101 Z-21.0000 F2750
G1 X623.0675 Y1983.9304 Z-21.0000 F2750
G1 X625.1471 Y1983.2549 Z-21.0000 F2750
G1 X627.1759 Y1982.4879 Z-21.0000 F2750
G1 X629.1483 Y1981.6344 Z-21.0000 F2750
G1 X631.0594 Y1980.6997 Z-21.0000 F2750
G1 X632.9047 Y1979.6895 Z-21.0000 F2750
G1 X634.6805 Y1978.6098 Z-21.0000 F2750
G1 X636.3835 Y1977.4666 Z-21.0000 F2750
G1 X638.0112 Y1976.2660 Z-21.0000 F2750
G1 X639.5618 Y1975.0143 Z-21.0000 F2750
G1 X641.0338 Y1973.7177 Z-21.0000 F2750
G1 X642.4266 Y1972.3822 Z-21.0000 F2750
G1 X643.7621 Y1970.9895 Z-21.0000 F2750
G1 X645.0587 Y1969.5174 Z-21.0000 F2750
G1 X646.3104 Y1967.9669 Z-21.0000 F2750
G1 X647.5109 Y1966.3391 Z-21.0000 F2750
G1 X648.6542 Y1964.6361 Z-21.0000 F2750
G1 X649.7339 Y1962.8604 Z-21.0000 F2750
G1 X650.7441 Y1961.0151 Z-21.0000 F2750
G1 X651.6787 Y1959.1040 Z-21.0000 F2750
G1 X652.5322 Y1957.1315 Z-21.0000 F2750
G1 X653.2992 Y1955.1027 Z-21.0000 F2750
G1 X653.9748 Y1953.0232 Z-21.0000 F2750
G1 X654.5544 Y1950.8990 Z-21.0000 F2750
G1 X655.0342 Y1948.7369 Z-21.0000 F2750
G1 X655.4110 Y1946.5439 Z-21.0000 F2750
G1 X655.6820 Y1944.3273 Z-21.0000 F2750
G1 X655.8453 Y1942.0949 Z-21.0000 F2750
G1 X655.8999 Y1939.8546 Z-21.0000 F2750
G1 X655.8453 Y1937.6142 Z-21.0000 F2750
G1 X655.6820 Y1935.3818 Z-21.0000 F2750
G1 X655.4110 Y1933.1653 Z-21.0000 F2750
G1 X655.0342 Y1930.9722 Z-21.0000 F2750
G1 X654.5544 Y1928.8101 Z-21.0000 F2750
G1 X653.9748 Y1926.6860 Z-21.0000 F2750
G1 X653.2992 Y1924.6064 Z-21.0000 F2750
G1 X652.5322 Y1922.5776 Z-21.0000 F2750
G1 X651.6787 Y1920.6052 Z-21.0000 F2750
G1 X650.7441 Y1918.6941 Z-21.0000 F2750
G1 X649.7339 Y1916.8488 Z-21.0000 F2750
G1 X648.6542 Y1915.0730 Z-21.0000 F2750
G1 X647.5109 Y1913.3700 Z-21.0000 F2750
G1 X646.3104 Y1911.7423 Z-21.0000 F2750
G1 X645.0587 Y1910.1917 Z-21.0000 F2750
G1 X643.7621 Y1908.7197 Z-21.0000 F2750
G1 X642.4266 Y1907.3270 Z-21.0000 F2750
G1 X641.0338 Y1905.9914 Z-21.0000 F2750
G1 X639.5618 Y1904.6948 Z-21.0000 F2750
G1 X638.0112 Y1903.4432 Z-21.0000 F2750
G1 X636.3835 Y1902.2426 Z-21.0000 F2750
G1 X634.6805 Y1901.0994 Z-21.0000 F2750
G1 X632.9047 Y1900.0196 Z-21.0000 F2750
G1 X631.0594 Y1899.0094 Z-21.0000 F2750
G1 X629.1483 Y1898.0748 Z-21.0000 F2750
G1 X627.1759 Y1897.2213 Z-21.0000 F2750
G1 X625.1471 Y1896.4543 Z-21.0000 F2750
G1 X623.0675 Y1895.7787 Z-21.0000 F2750
G1 X620.9434 Y1895.1991 Z-21.0000 F2750
G1 X618.7813 Y1894.7193 Z-21.0000 F2750
G1 X616.5882 Y1894.3425 Z-21.0000 F2750
G1 X614.3717 Y1894.0715 Z-21.0000 F2750
G1 X612.1393 Y1893.9082 Z-21.0000 F2750
G1 X609.8989 Y1893.8536 Z-21.0000 F2750
G1 X607.6586 Y1893.9082 Z-21.0000 F2750
G1 X605.4262 Y1894.0715 Z-21.0000 F2750
G1 X603.2096 Y1894.3425 Z-21.0000 F2750
G1 X601.0166 Y1894.7193 Z-21.0000 F2750
G1 X598.8545 Y1895.1991 Z-21.0000 F2750
G1 X596.7303 Y1895.7787 Z-21.0000 F2750
G1 X594.6508 Y1896.4543 Z-21.0000 F2750
G1 X592.6220 Y1897.2213 Z-21.0000 F2750
G1 X590.6495 Y1898.0748 Z-21.0000 F2750
G1 X588.7384 Y1899.0094 Z-21.0000 F2750
G1 X586.8931 Y1900.0196 Z-21.0000 F2750
G1 X585.1174 Y1901.0994 Z-21.0000 F2750
G1 X583.4144 Y1902.2426 Z-21.0000 F2750
G1 X581.7866 Y1903.4432 Z-21.0000 F2750
G1 X580.2361 Y1904.6948 Z-21.0000 F2750
G1 X578.7641 Y1905.9914 Z-21.0000 F2750
G1 X577.3713 Y1907.3270 Z-21.0000 F2750
G1 X577.3713 Y1907.3270 Z10.0000 F9999
G1 X377.3713 Y1907.3270 Z10.0000 F9999
G1 X377.3713 Y1907.3270 Z1.0000 F2000
G1 X376.0358 Y1908.7197 Z0.4554 F2000
G1 X374.7392 Y1910.1917 Z-0.0983 F2000
G1 X373.4875 Y1911.7423 Z-0.6608 F2000
G1 X372.2870 Y1913.3700 Z-1.2317 F2000
G1 X371.1437 Y1915.0730 Z-1.8107 F2000
G1 X370.0640 Y1916.8488 Z-2.3973 F2000
G1 X369.0538 Y1918.6941 Z-2.9911 F2000
G1 X368.1191 Y1920.6052 Z-3.5915 F2000
G1 X367.2656 Y1922.5776 Z-4.1982 F2000
G1 X366.4986 Y1924.6064 Z-4.8104 F2000
G1 X365.8231 Y1926.6860 Z-5.4276 F2000
G1 X365.2435 Y1928.8101 Z-6.0490 F2000
G1 X364.7636 Y1930.9722 Z-6.6742 F2000
G1 X364.3869 Y1933.1653 Z-7.3022 F2000
G1 X364.1159 Y1935.3818 Z-7.9325 F2000
G1 X363.9525 Y1937.6142 Z-8.5643 F2000
G1 X363.8979 Y1939.8546 Z-9.1969 F2000
G1 X363.9525 Y1942.0949 Z-9.8294 F2000
G1 X363.9966 Y1942.6976 Z-10.0000 F2000
G1 X363.9525 Y1942.0949 Z-10.1706 F2000
G1 X363.8979 Y1939.8546 Z-10.8031 F2000
G1 X363.9525 Y1937.6142 Z-11.4357 F2000
G1 X364.1159 Y1935.3818 Z-12.0675 F2000
G1 X364.3869 Y1933.1653 Z-12.6978 F2000
G1 X364.7636 Y1930.9722 Z-13.3258 F2000
G1 X365.2435 Y1928.8101 Z-13.9510 F2000
G1 X365.8231 Y1926.6860 Z-14.5724 F2000
G1 X366.4986 Y1924.6064 Z-15.1896 F2000
G1 X367.2656 Y1922.5776 Z-15.8018 F2000
G1 X368.1191 Y1920.6052 Z-16.4085 F2000
G1 X369.0538 Y1918.6941 Z-17.0089 F2000
G1 X370.0640 Y1916.8488 Z-17.6027 F2000
G1 X371.1437 Y1915.0730 Z-18.1893 F2000
G1 X372.2870 Y1913.3700 Z-18.7683 F2000
G1 X373.4875 Y1911.7423 Z-19.3392 F2000
G1 X374.7392 Y1910.1917 Z-19.9017 F2000
G1 X376.0358 Y1908.7197 Z-20.4554 F2000
G1 X377.3713 Y1907.3270 Z-21.0000 F2000
G1 X376.0358 Y1908.7197 Z-21.0000 F2750
G1 X374.7392 Y1910.1917 Z-21.0000 F2750
G1 X373.4875 Y1911.7423 Z-21.0000 F2750
G1 X372.2870 Y1913.3700 Z-21.0000 F2750
G1 X371.1437 Y1915.0730 Z-21.0000 F2750
G1 X370.0640 Y1916.8488 Z-21.0000 F2750
G1 X369.0538 Y1918.6941 Z-21.0000 F2750
G1 X368.1191 Y1920.6052 Z-21.0000 F2750
G1 X367.2656 Y1922.5776 Z-21.0000 F2750
G1 X366.4986 Y1924.6064 Z-21.0000 F2750
G1 X365.8231 Y1926.6860 Z-21.0000 F2750
G1 X365.2435 Y1928.8101 Z-21.0000 F2750
G1 X364.7636 Y1930.9722 Z-21.0000 F2750
G1 X364.3869 Y1933.1653 Z-21.0000 F2750
G1 X364.1159 Y1935.3818 Z-21.0000 F2750
G1 X363.9525 Y1937.6142 Z-21.0000 F2750
G1 X363.8979 Y1939.8546 Z-21.0000 F2750
G1 X363.9525 Y1942.0949 Z-21.0000 F2750
G1 X364.1159 Y1944.3273 Z-21.0000 F2750
G1 X364.3869 Y1946.5439 Z-21.0000 F2750
G1 X364.7636 Y1948.7369 Z-21.0000 F2750
G1 X365.2435 Y1950.8990 Z-21.0000 F2750
G1 X365.8231 Y1953.0232 Z-21.0000 F2750
G1 X366.4986 Y1955.1027 Z-21.0000 F2750
G1 X367.2656 Y1957.1315 Z-21.0000 F2750
G1 X368.1191 Y1959.1040 Z-21.0000 F2750
G1 X369.0538 Y1961.0151 Z-21.0000 F2750
G1 X370.0640 Y1962.8604 Z-21.0000 F2750
G1 X371.1437 Y1964.6361 Z-21.0000 F2750
G1 X372.2870 Y1966.3391 Z-21.0000 F2750
G1 X373.4875 Y1967.9669 Z-21.0000 F2750
G1 X374.7392 Y1969.5174 Z-21.0000 F2750
G1 X376.0358 Y1970.9895 Z-21.0000 F2750
G1 X377.3713 Y1972.3822 Z-21.0000 F2750
G1 X378.7641 Y1973.7177 Z-21.0000 F2750
G1 X380.2361 Y1975.0143 Z-21.0000 F2750
G1 X381.7866 Y1976.2660 Z-21.0000 F2750
G1 X383.4144 Y1977.4666 Z-21.0000 F2750
G1 X385.1174 Y1978.6098 Z-21.0000 F2750
G1 X386.8931 Y1979.6895 Z-21.0000 F2750
G1 X388.7384 Y1980.6997 Z-21.0000 F2750
G1 X390.6495 Y1981.6344 Z-21.0000 F2750
G1 X392.6220 Y1982.4879 Z-21.0000 F2750
G1 X394.6508 Y1983.2549 Z-21.0000 F2750
G1 X396.7303 Y1983.9304 Z-21.0000 F2750
G1 X398.8545 Y1984.5101 Z-21.0000 F2750
G1 X401.0166 Y1984.9899 Z-21.0000 F2750
G1 X403.2096 Y1985.3666 Z-21.0000 F2750
G1 X405.4262 Y1985.6376 Z-21.0000 F2750
G1 X407.6586 Y1985.8010 Z-21.0000 F2750
G1 X409.8989 Y1985.8556 Z-21.0000 F2750
G1 X412.1393 Y1985.8010 Z-21.0000 F2750
G1 X414.3717 Y1985.6376 Z-21.0000 F2750
G1 X416.5882 Y1985.3666 Z-21.0000 F2750
G1 X418.7813 Y1984.9899 Z-21.0000 F2750
G1 X420.9434 Y1984.5101 Z-21.0000 F2750
G1 X423.0675 Y1983.9304 Z-21.0000 F2750
G1 X425.1471 Y1983.2549 Z-21.0000 F2750
G1 X427.1759 Y1982.4879 Z-21.0000 F2750
G1 X429.1483 Y1981.6344 Z-21.0000 F2750
G1 X431.0594 Y1980.6997 Z-21.0000 F2750
G1 X432.9047 Y1979.6895 Z-21.0000 F2750
G1 X434.6805 Y1978.6098 Z-21.0000 F2750
G1 X436.3835 Y1977.4666 Z-21.0000 F2750
G1 X438.0112 Y1976.2660 Z-21.0000 F2750
G1 X439.5618 Y1975.0143 Z-21.0000 F2750
G1 X441.0338 Y1973.7177 Z-21.0000 F2750
G1 X442.4266 Y1972.3822 Z-21.0000 F2750
G1 X443.7621 Y1970.9895 Z-21.0000 F2750
G1 X445.0587 Y1969.5174 Z-21.0000 F2750
G1 X446.3104 Y1967.9669 Z-21.0000 F2750
G1 X447.5109 Y1966.3391 Z-21.0000 F2750
G1 X448.6542 Y1964.6361 Z-21.0000 F2750
G1 X449.7339 Y1962.8604 Z-21.0000 F2750
G1 X450.7441 Y1961.0151 Z-21.0000 F2750
G1 X451.6787 Y1959.1040 Z-21.0000 F2750
G1 X452.5322 Y1957.1315 Z-21.0000 F2750
G1 X453.2992 Y1955.1027 Z-21.0000 F2750
G1 X453.9748 Y1953.0232 Z-21.0000 F2750
G1 X454.5544 Y1950.8990 Z-21.0000 F2750
G1 X455.0342 Y1948.7369 Z-21.0000 F2750
G1 X455.4110 Y1946.5439 Z-21.0000 F2750
G1 X455.6820 Y1944.3273 Z-21.0000 F2750
G1 X455.8453 Y1942.0949 Z-21.0000 F2750
G1 X455.8999 Y1939.8546 Z-21.0000 F2750
G1 X455.8453 Y1937.6142 Z-21.0000 F2750
G1 X455.6820 Y1935.3818 Z-21.0000 F2750
G1 X455.4110 Y1933.1653 Z-21.0000 F2750
G1 X455.0342 Y1930.9722 Z-21.0000 F2750
G1 X454.5544 Y1928.8101 Z-21.0000 F2750
G1 X453.9748 Y1926.6860 Z-21.0000 F2750
G1 X453.2992 Y1924.6064 Z-21.0000 F2750
G1 X452.5322 Y1922.5776 Z-21.0000 F2750
G1 X451.6787 Y1920.6052 Z-21.0000 F2750
G1 X450.7441 Y1918.6941 Z-21.0000 F2750
G1 X449.7339 Y1916.8488 Z-21.0000 F2750
G1 X448.6542 Y1915.0730 Z-21.0000 F2750
G1 X447.5109 Y1913.3700 Z-21.0000 F2750
G1 X446.3104 Y1911.7423 Z-21.0000 F2750
G1 X445.0587 Y1910.1917 Z-21.0000 F2750
G1 X443.7621 Y1908.7197 Z-21.0000 F2750
G1 X442.4266 Y1907.3270 Z-21.0000 F2750
G1 X441.0338 Y1905.9914 Z-21.0000 F2750
G1 X439.5618 Y1904.6948 Z-21.0000 F2750
G1 X438.0112 Y1903.4432 Z-21.0000 F2750
G1 X436.3835 Y1902.2426 Z-21.0000 F2750
G1 X434.6805 Y1901.0994 Z-21.0000 F2750
G1 X432.9047 Y1900.0196 Z-21.0000 F2750
G1 X431.0594 Y1899.0094 Z-21.0000 F2750
G1 X429.1483 Y1898.0748 Z-21.0000 F2750
G1 X427.1759 Y1897.2213 Z-21.0000 F2750
G1 X425.1471 Y1896.4543 Z-21.0000 F2750
G1 X423.0675 Y1895.7787 Z-21.0000 F2750
G1 X420.9434 Y1895.1991 Z-21.0000 F2750
G1 X418.7813 Y1894.7193 Z-21.0000 F2750
G1 X416.5882 Y1894.3425 Z-21.0000 F2750
G1 X414.3717 Y1894.0715 Z-21.0000 F2750
G1 X412.1393 Y1893.9082 Z-21.0000 F2750
G1 X409.8989 Y1893.8536 Z-21.0000 F2750
G1 X407.6586 Y1893.9082 Z-21.0000 F2750
G1 X405.4262 Y1894.0715 Z-21.0000 F2750
G1 X403.2096 Y1894.3425 Z-21.0000 F2750
G1 X401.0166 Y1894.7193 Z-21.0000 F2750
G1 X398.8545 Y1895.1991 Z-21.0000 F2750
G1 X396.7303 Y1895.7787 Z-21.0000 F2750
G1 X394.6508 Y1896.4543 Z-21.0000 F2750
G1 X392.6220 Y1897.2213 Z-21.0000 F2750
G1 X390.6495 Y1898.0748 Z-21.0000 F2750
G1 X388.7384 Y1899.0094 Z-21.0000 F2750
G1 X386.8931 Y1900.0196 Z-21.0000 F2750
G1 X385.1174 Y1901.0994 Z-21.0000 F2750
G1 X383.4144 Y1902.2426 Z-21.0000 F2750
G1 X381.7866 Y1903.4432 Z-21.0000 F2750
G1 X380.2361 Y1904.6948 Z-21.0000 F2750
G1 X378.7641 Y1905.9914 Z-21.0000 F2750
G1 X377.3713 Y1907.3270 Z-21.0000 F2750
G1 X377.3713 Y1907.3270 Z10.0000 F9999
G1 X52.8990 Y2079.8538 Z10.0000 F9999
G1 X52.8990 Y2079.8538 Z1.0000 F2000
G1 X52.8990 Y2118.8249 Z-10.0000 F2000
G1 X52.8990 Y2079.8538 Z-21.0000 F2000
G1 X52.8990 Y2163.8529 Z-21.0000 F2750
G1 X47.8991 Y2163.8529 Z-21.0000 F2750
G1 X47.8991 Y2165.8555 Z-21.0000 F2750
G1 X85.9010 Y2165.8555 Z-21.0000 F2750
G1 X85.9010 Y2163.8529 Z-21.0000 F2750
G1 X80.9010 Y2163.8529 Z-21.0000 F2750
G1 X80.9010 Y1995.8547 Z-21.0000 F2750
G1 X85.9010 Y1995.8547 Z-21.0000 F2750
G1 X85.9010 Y1993.8536 Z-21.0000 F2750
G1 X47.8991 Y1993.8536 Z-21.0000 F2750
G1 X47.8991 Y1995.8547 Z-21.0000 F2750
G1 X52.8990 Y1995.8547 Z-21.0000 F2750
G1 X52.8990 Y2079.8538 Z-21.0000 F2750
G1 X52.8990 Y2079.8538 Z10.0000 F9999
G1 X777.3713 Y1907.3270 Z10.0000 F9999
G1 X777.3713 Y1907.3270 Z1.0000 F2000
G1 X776.0358 Y1908.7197 Z0.4554 F2000
G1 X774.7392 Y1910.1917 Z-0.0983 F2000
G1 X773.4875 Y1911.7423 Z-0.6608 F2000
G1 X772.2870 Y1913.3700 Z-1.2317 F2000
G1 X771.1437 Y1915.0730 Z-1.8107 F2000
G1 X770.0640 Y1916.8488 Z-2.3973 F2000
G1 X769.0538 Y1918.6941 Z-2.9911 F2000
G1 X768.1191 Y1920.6052 Z-3.5915 F2000
G1 X767.2656 Y1922.5776 Z-4.1982 F2000
G1 X766.4986 Y1924.6064 Z-4.8104 F2000
G1 X765.8231 Y1926.6860 Z-5.4276 F2000
G1 X765.2435 Y1928.8101 Z-6.0490 F2000
G1 X764.7636 Y1930.9722 Z-6.6742 F2000
G1 X764.3869 Y1933.1653 Z-7.3022 F2000
G1 X764.1159 Y1935.3818 Z-7.9325 F2000
G1 X763.9525 Y1937.6142 Z-8.5643 F2000
G1 X763.8979 Y1939.8546 Z-9.1969 F2000
G1 X763.9525 Y1942.0949 Z-9.8294 F2000
G1 X763.9966 Y1942.6976 Z-10.0000 F2000
G1 X763.9525 Y1942.0949 Z-10.1706 F2000
G1 X763.8979 Y1939.8546 Z-10.8031 F2000
G1 X763.9525 Y1937.6142 Z-11.4357 F2000
G1 X764.1159 Y1935.3818 Z-12.0675 F2000
G1 X764.3869 Y1933.1653 Z-12.6978 F2000
G1 X764.7636 Y1930.9722 Z-13.3258 F2000
G1 X765.2435 Y1928.8101 Z-13.9510 F2000
G1 X765.8231 Y1926.6860 Z-14.5724 F2000
G1 X766.4986 Y1924.6064 Z-15.1896 F2000
G1 X767.2656 Y1922.5776 Z-15.8018 F2000
G1 X768.1191 Y1920.6052 Z-16.4085 F2000
G1 X769.0538 Y1918.6941 Z-17.0089 F2000
G1 X770.0640 Y1916.8488 Z-17.6027 F2000
G1 X771.1437 Y1915.0730 Z-18.1893 F2000
G1 X772.2870 Y1913.3700 Z-18.7683 F2000
G1 X773.4875 Y1911.7423 Z-19.3392 F2000
G1 X774.7392 Y1910.1917 Z-19.9017 F2000
G1 X776.0358 Y1908.7197 Z-20.4554 F2000
G1 X777.3713 Y1907.3270 Z-21.0000 F2000
G1 X776.0358 Y1908.7197 Z-21.0000 F2750
G1 X774.7392 Y1910.1917 Z-21.0000 F2750
G1 X773.4875 Y1911.7423 Z-21.0000 F2750
G1 X772.2870 Y1913.3700 Z-21.0000 F2750
G1 X771.1437 Y1915.0730 Z-21.0000 F2750
G1 X770.0640 Y1916.8488 Z-21.0000 F2750
G1 X769.0538 Y1918.6941 Z-21.0000 F2750
G1 X768.1191 Y1920.6052 Z-21.0000 F2750
G1 X767.2656 Y1922.5776 Z-21.0000 F2750
G1 X766.4986 Y1924.6064 Z-21.0000 F2750
G1 X765.8231 Y1926.6860 Z-21.0000 F2750
G1 X765.2435 Y1928.8101 Z-21.0000 F2750
G1 X764.7636 Y1930.9722 Z-21.0000 F2750
G1 X764.3869 Y1933.1653 Z-21.0000 F2750
G1 X764.1159 Y1935.3818 Z-21.0000 F2750
G1 X763.9525 Y1937.6142 Z-21.0000 F2750
G1 X763.8979 Y1939.8546 Z-21.0000 F2750
G1 X763.9525 Y1942.0949 Z-21.0000 F2750
G1 X764.1159 Y1944.3273 Z-21.0000 F2750
G1 X764.3869 Y1946.5439 Z-21.0000 F2750
G1 X764.7636 Y1948.7369 Z-21.0000 F2750
G1 X765.2435 Y1950.8990 Z-21.0000 F2750
G1 X765.8231 Y1953.0232 Z-21.0000 F2750
G1 X766.4986 Y1955.1027 Z-21.0000 F2750
G1 X767.2656 Y1957.1315 Z-21.0000 F2750
G1 X768.1191 Y1959.1040 Z-21.0000 F2750
G1 X769.0538 Y1961.0151 Z-21.0000 F2750
G1 X770.0640 Y1962.8604 Z-21.0000 F2750
G1 X771.1437 Y1964.6361 Z-21.0000 F2750
G1 X772.2870 Y1966.3391 Z-21.0000 F2750
G1 X773.4875 Y1967.9669 Z-21.0000 F2750
G1 X774.7392 Y1969.5174 Z-21.0000 F2750
G1 X776.0358 Y1970.9895 Z-21.0000 F2750
G1 X777.3713 Y1972.3822 Z-21.0000 F2750
G1 X778.7641 Y1973.7177 Z-21.0000 F2750
G1 X780.2361 Y1975.0143 Z-21.0000 F2750
G1 X781.7866 Y1976.2660 Z-21.0000 F2750
G1 X783.4144 Y1977.4666 Z-21.0000 F2750
G1 X785.1174 Y1978.6098 Z-21.0000 F2750
G1 X786.8931 Y1979.6895 Z-21.0000 F2750
G1 X788.7384 Y1980.6997 Z-21.0000 F2750
G1 X790.6495 Y1981.6344 Z-21.0000 F2750
G1 X792.6220 Y1982.4879 Z-21.0000 F2750
G1 X794.6508 Y1983.2549 Z-21.0000 F2750
G1 X796.7303 Y1983.9304 Z-21.0000 F2750
G1 X798.8545 Y1984.5101 Z-21.0000 F2750
G1 X801.0166 Y1984.9899 Z-21.0000 F2750
G1 X803.2096 Y1985.3666 Z-21.0000 F2750
G1 X805.4262 Y1985.6376 Z-21.0000 F2750
G1 X807.6586 Y1985.8010 Z-21.0000 F2750
G1 X809.8989 Y1985.8556 Z-21.0000 F2750
G1 X812.1393 Y1985.8010 Z-21.0000 F2750
G1 X814.3717 Y1985.6376 Z-21.0000 F2750
G1 X816.5882 Y1985.3666 Z-21.0000 F2750
G1 X818.7813 Y1984.9899 Z-21.0000 F2750
G1 X820.9434 Y1984.5101 Z-21.0000 F2750
G1 X823.0675 Y1983.9304 Z-21.0000 F2750
G1 X825.1471 Y1983.2549 Z-21.0000 F2750
G1 X827.1759 Y1982.4879 Z-21.0000 F2750
G1 X829.1483 Y1981.6344 Z-21.0000 F2750
G1 X831.0594 Y1980.6997 Z-21.0000 F2750
G1 X832.9047 Y1979.6895 Z-21.0000 F2750
G1 X834.6805 Y1978.6098 Z-21.0000 F2750
G1 X836.3835 Y1977.4666 Z-21.0000 F2750
G1 X838.0112 Y1976.2660 Z-21.0000 F2750
G1 X839.5618 Y1975.0143 Z-21.0000 F2750
G1 X841.0338 Y1973.7177 Z-21.0000 F2750
G1 X842.4266 Y1972.3822 Z-21.0000 F2750
G1 X843.7621 Y1970.9895 Z-21.0000 F2750
G1 X845.0587 Y1969.5174 Z-21.0000 F2750
G1 X846.3104 Y1967.9669 Z-21.0000 F2750
G1 X847.5109 Y1966.3391 Z-21.0000 F2750
G1 X848.6542 Y1964.6361 Z-21.0000 F2750
G1 X849.7339 Y1962.8604 Z-21.0000 F2750
G1 X850.7441 Y1961.0151 Z-21.0000 F2750
G1 X851.6787 Y1959.1040 Z-21.0000 F2750
G1 X852.5322 Y1957.1315 Z-21.0000 F2750
G1 X853.2992 Y1955.1027 Z-21.0000 F2750
G1 X853.9748 Y1953.0232 Z-21.0000 F2750
G1 X854.5544 Y1950.8990 Z-21.0000 F2750
G1 X855.0342 Y1948.7369 Z-21.0000 F2750
G1 X855.4110 Y1946.5439 Z-21.0000 F2750
G1 X855.6820 Y1944.3273 Z-21.0000 F2750
G1 X855.8453 Y1942.0949 Z-21.0000 F2750
G1 X855.8999 Y1939.8546 Z-21.0000 F2750
G1 X855.8453 Y1937.6142 Z-21.0000 F2750
G1 X855.6820 Y1935.3818 Z-21.0000 F2750
G1 X855.4110 Y1933.1653 Z-21.0000 F2750
G1 X855.0342 Y1930.9722 Z-21.0000 F2750
G1 X854.5544 Y1928.8101 Z-21.0000 F2750
G1 X853.9748 Y1926.6860 Z-21.0000 F2750
G1 X853.2992 Y1924.6064 Z-21.0000 F2750
G1 X852.5322 Y1922.5776 Z-21.0000 F2750
G1 X851.6787 Y1920.6052 Z-21.0000 F2750
G1 X850.7441 Y1918.6941 Z-21.0000 F2750
G1 X849.7339 Y1916.8488 Z-21.0000 F2750
G1 X848.6542 Y1915.0730 Z-21.0000 F2750
G1 X847.5109 Y1913.3700 Z-21.0000 F2750
G1 X846.3104 Y1911.7423 Z-21.0000 F2750
G1 X845.0587 Y1910.1917 Z-21.0000 F2750
G1 X843.7621 Y1908.7197 Z-21.0000 F2750
G1 X842.4266 Y1907.3270 Z-21.0000 F2750
G1 X841.0338 Y1905.9914 Z-21.0000 F2750
G1 X839.5618 Y1904.6948 Z-21.0000 F2750
G1 X838.0112 Y1903.4432 Z-21.0000 F2750
G1 X836.3835 Y1902.2426 Z-21.0000 F2750
G1 X834.6805 Y1901.0994 Z-21.0000 F2750
G1 X832.9047 Y1900.0196 Z-21.0000 F2750
G1 X831.0594 Y1899.0094 Z-21.0000 F2750
G1 X829.1483 Y1898.0748 Z-21.0000 F2750
G1 X827.1759 Y1897.2213 Z-21.0000 F2750
G1 X825.1471 Y1896.4543 Z-21.0000 F2750
G1 X823.0675 Y1895.7787 Z-21.0000 F2750
G1 X820.9434 Y1895.1991 Z-21.0000 F2750
G1 X818.7813 Y1894.7193 Z-21.0000 F2750
G1 X816.5882 Y1894.3425 Z-21.0000 F2750
G1 X814.3717 Y1894.0715 Z-21.0000 F2750
G1 X812.1393 Y1893.9082 Z-21.0000 F2750
G1 X809.8989 Y1893.8536 Z-21.0000 F2750
G1 X807.6586 Y1893.9082 Z-21.0000 F2750
G1 X805.4262 Y1894.0715 Z-21.0000 F2750
G1 X803.2096 Y1894.3425 Z-21.0000 F2750
G1 X801.0166 Y1894.7193 Z-21.0000 F2750
G1 X798.8545 Y1895.1991 Z-21.0000 F2750
G1 X796.7303 Y1895.7787 Z-21.0000 F2750
G1 X794.6508 Y1896.4543 Z-21.0000 F2750
G1 X792.6220 Y1897.2213 Z-21.0000 F2750
G1 X790.6495 Y1898.0748 Z-21.0000 F2750
G1 X788.7384 Y1899.0094 Z-21.0000 F2750
G1 X786.8931 Y1900.0196 Z-21.0000 F2750
G1 X785.1174 Y1901.0994 Z-21.0000 F2750
G1 X783.4144 Y1902.2426 Z-21.0000 F2750
G1 X781.7866 Y1903.4432 Z-21.0000 F2750
G1 X780.2361 Y1904.6948 Z-21.0000 F2750
G1 X778.7641 Y1905.9914 Z-21.0000 F2750
G1 X777.3713 Y1907.3270 Z-21.0000 F2750
G1 X777.3713 Y1907.3270 Z10.0000 F9999
G1 X1138.8968 Y2079.8538 Z10.0000 F9999
G1 X1138.8968 Y2079.8538 Z1.0000 F2000
G1 X1138.8968 Y2118.8249 Z-10.0000 F2000
G1 X1138.8968 Y2079.8538 Z-21.0000 F2000
G1 X1138.8968 Y2163.8529 Z-21.0000 F2750
G1 X1133.8969 Y2163.8529 Z-21.0000 F2750
G1 X1133.8969 Y2165.8555 Z-21.0000 F2750
G1 X1171.8987 Y2165.8555 Z-21.0000 F2750
G1 X1171.8987 Y2163.8529 Z-21.0000 F2750
G1 X1166.8987 Y2163.8529 Z-21.0000 F2750
G1 X1166.8987 Y1995.8547 Z-21.0000 F2750
G1 X1171.8987 Y1995.8547 Z-21.0000 F2750
G1 X1171.8987 Y1993.8536 Z-21.0000 F2750
G1 X1133.8969 Y1993.8536 Z-21.0000 F2750
G1 X1133.8969 Y1995.8547 Z-21.0000 F2750
G1 X1138.8968 Y1995.8547 Z-21.0000 F2750
G1 X1138.8968 Y2079.8538 Z-21.0000 F2750
G1 X1138.8968 Y2079.8538 Z10.0000 F9999
(Tool Number:1) (7.998 mm dia. slot drill)
M3 S19000
G1 X122.5177 Y2280.1923 Z10.0000 F9999
G1 X122.5177 Y2280.1923 Z1.0000 F2000
G1 X161.4888 Y2280.1923 Z-10.0000 F2000
G1 X122.5177 Y2280.1923 Z-21.0000 F2000
G1 X199.1127 Y2280.1923 Z-21.0000 F2750
G1 X199.1127 Y2280.1923 Z-15.0000 F9999
G1 X227.1107 Y2280.1923 Z-15.0000 F2750
G1 X227.1107 Y2280.1923 Z-21.0000 F2000
G1 X243.8993 Y2280.1923 Z-21.0000 F2750
G1 X243.8993 Y2323.1904 Z-21.0000 F2750
G1 X185.3993 Y2323.1904 Z-21.0000 F2750
G1 X185.3993 Y2408.5655 Z-21.0000 F2750
G1 X143.6633 Y2408.5655 Z-21.0000 F2750
G1 X136.8130 Y2336.1904 Z-21.0000 F2750
G1 X112.9873 Y2336.1904 Z-21.0000 F2750
G1 X106.1370 Y2408.5655 Z-21.0000 F2750
G1 X100.7105 Y2408.5655 Z-21.0000 F2750
G1 X100.7105 Y2408.5655 Z-15.0000 F9999
G1 X72.7125 Y2408.5655 Z-15.0000 F2750
G1 X72.7125 Y2408.5655 Z-21.0000 F2000
G1 X64.4010 Y2408.5655 Z-21.0000 F2750
G1 X64.4010 Y2323.1904 Z-21.0000 F2750
G1 X5.9010 Y2323.1904 Z-21.0000 F2750
G1 X5.9010 Y2280.1923 Z-21.0000 F2750
G1 X17.9246 Y2280.1923 Z-21.0000 F2750
G1 X17.9246 Y2280.1923 Z-15.0000 F9999
G1 X45.9226 Y2280.1923 Z-15.0000 F2750
G1 X45.9226 Y2280.1923 Z-21.0000 F2000
G1 X122.5177 Y2280.1923 Z-21.0000 F2750
G1 X122.5177 Y2280.1923 Z10.0000 F9999
G1 X378.3380 Y2280.1923 Z10.0000 F9999
G1 X378.3380 Y2280.1923 Z1.0000 F2000
G1 X417.3092 Y2280.1923 Z-10.0000 F2000
G1 X378.3380 Y2280.1923 Z-21.0000 F2000
G1 X454.0703 Y2280.1923 Z-21.0000 F2750
G1 X454.0703 Y2280.1923 Z-15.0000 F9999
G1 X482.0683 Y2280.1923 Z-15.0000 F2750
G1 X482.0683 Y2280.1923 Z-21.0000 F2000
G1 X495.9686 Y2280.1923 Z-21.0000 F2750
G1 X495.9686 Y2323.1904 Z-21.0000 F2750
G1 X437.4686 Y2323.1904 Z-21.0000 F2750
G1 X437.4686 Y2408.5655 Z-21.0000 F2750
G1 X395.7326 Y2408.5655 Z-21.0000 F2750
G1 X388.8823 Y2336.1904 Z-21.0000 F2750
G1 X365.0566 Y2336.1904 Z-21.0000 F2750
G1 X358.2063 Y2408.5655 Z-21.0000 F2750
G1 X350.4912 Y2408.5655 Z-21.0000 F2750
G1 X350.4912 Y2408.5655 Z-15.0000 F9999
G1 X322.4932 Y2408.5655 Z-15.0000 F2750
G1 X322.4932 Y2408.5655 Z-21.0000 F2000
G1 X316.4703 Y2408.5655 Z-21.0000 F2750
G1 X316.4703 Y2323.1904 Z-21.0000 F2750
G1 X257.9703 Y2323.1904 Z-21.0000 F2750
G1 X257.9703 Y2280.1923 Z-21.0000 F2750
G1 X274.6078 Y2280.1923 Z-21.0000 F2750
G1 X274.6078 Y2280.1923 Z-15.0000 F9999
G1 X302.6058 Y2280.1923 Z-15.0000 F2750
G1 X302.6058 Y2280.1923 Z-21.0000 F2000
G1 X378.3380 Y2280.1923 Z-21.0000 F2750
G1 X378.3380 Y2280.1923 Z10.0000 F9999
G1 X627.0403 Y2280.1923 Z10.0000 F9999
G1 X627.0403 Y2280.1923 Z1.0000 F2000
G1 X666.0115 Y2280.1923 Z-10.0000 F2000
G1 X627.0403 Y2280.1923 Z-21.0000 F2000
G1 X698.2429 Y2280.1923 Z-21.0000 F2750
G1 X698.2429 Y2280.1923 Z-15.0000 F9999
G1 X726.2409 Y2280.1923 Z-15.0000 F2750
G1 X726.2409 Y2280.1923 Z-21.0000 F2000
G1 X748.0379 Y2280.1923 Z-21.0000 F2750
G1 X748.0379 Y2323.1904 Z-21.0000 F2750
G1 X689.5379 Y2323.1904 Z-21.0000 F2750
G1 X689.5379 Y2408.5655 Z-21.0000 F2750
G1 X647.8019 Y2408.5655 Z-21.0000 F2750
G1 X640.9515 Y2336.1904 Z-21.0000 F2750
G1 X617.1259 Y2336.1904 Z-21.0000 F2750
G1 X610.2756 Y2408.5655 Z-21.0000 F2750
G1 X604.5860 Y2408.5655 Z-21.0000 F2750
G1 X604.5860 Y2408.5655 Z-15.0000 F9999
G1 X576.5880 Y2408.5655 Z-15.0000 F2750
G1 X576.5880 Y2408.5655 Z-21.0000 F2000
G1 X568.5396 Y2408.5655 Z-21.0000 F2750
G1 X568.5396 Y2323.1904 Z-21.0000 F2750
G1 X510.0396 Y2323.1904 Z-21.0000 F2750
G1 X510.0396 Y2280.1923 Z-21.0000 F2750
G1 X527.8398 Y2280.1923 Z-21.0000 F2750
G1 X527.8398 Y2280.1923 Z-15.0000 F9999
G1 X555.8378 Y2280.1923 Z-15.0000 F2750
G1 X555.8378 Y2280.1923 Z-21.0000 F2000
G1 X627.0403 Y2280.1923 Z-21.0000 F2750
G1 X627.0403 Y2280.1923 Z10.0000 F9999
G1 X881.1351 Y2280.1923 Z10.0000 F9999
G1 X881.1351 Y2280.1923 Z1.0000 F2000
G1 X920.1062 Y2280.1923 Z-10.0000 F2000
G1 X881.1351 Y2280.1923 Z-21.0000 F2000
G1 X950.6120 Y2280.1923 Z-21.0000 F2750
G1 X950.6120 Y2280.1923 Z-15.0000 F9999
G1 X978.6100 Y2280.1923 Z-15.0000 F2750
G1 X978.6100 Y2280.1923 Z-21.0000 F2000
G1 X1000.1072 Y2280.1923 Z-21.0000 F2750
G1 X1000.1072 Y2323.1904 Z-21.0000 F2750
G1 X941.6072 Y2323.1904 Z-21.0000 F2750
G1 X941.6072 Y2408.5655 Z-21.0000 F2750
G1 X935.0386 Y2408.5655 Z-21.0000 F2750
G1 X935.0386 Y2408.5655 Z-15.0000 F9999
G1 X907.0406 Y2408.5655 Z-15.0000 F2750
G1 X907.0406 Y2408.5655 Z-21.0000 F2000
G1 X899.8712 Y2408.5655 Z-21.0000 F2750
G1 X893.0208 Y2336.1904 Z-21.0000 F2750
G1 X869.1952 Y2336.1904 Z-21.0000 F2750
G1 X862.3449 Y2408.5655 Z-21.0000 F2750
G1 X820.6089 Y2408.5655 Z-21.0000 F2750
G1 X820.6089 Y2323.1904 Z-21.0000 F2750
G1 X762.1089 Y2323.1904 Z-21.0000 F2750
G1 X762.1089 Y2280.1923 Z-21.0000 F2750
G1 X783.6601 Y2280.1923 Z-21.0000 F2750
G1 X783.6601 Y2280.1923 Z-15.0000 F9999
G1 X811.6581 Y2280.1923 Z-15.0000 F2750
G1 X811.6581 Y2280.1923 Z-21.0000 F2000
G1 X881.1351 Y2280.1923 Z-21.0000 F2750
G1 X881.1351 Y2280.1923 Z10.0000 F9999
G1 X1078.9321 Y2408.5655 Z10.0000 F9999
G1 X1078.9321 Y2408.5655 Z1.0000 F2000
G1 X1039.9610 Y2408.5655 Z-10.0000 F2000
G1 X1078.9321 Y2408.5655 Z-21.0000 F2000
G1 X1005.7883 Y2408.5655 Z-21.0000 F2750
G1 X1005.7883 Y2408.5655 Z-15.0000 F9999
G1 X977.7903 Y2408.5655 Z-15.0000 F2750
G1 X977.7903 Y2408.5655 Z-21.0000 F2000
G1 X955.7719 Y2408.5655 Z-21.0000 F2750
G1 X955.7719 Y2365.5675 Z-21.0000 F2750
G1 X1014.2719 Y2365.5675 Z-21.0000 F2750
G1 X1014.2719 Y2280.1923 Z-21.0000 F2750
G1 X1021.3617 Y2280.1923 Z-21.0000 F2750
G1 X1021.3617 Y2280.1923 Z-15.0000 F9999
G1 X1049.3597 Y2280.1923 Z-15.0000 F2750
G1 X1049.3597 Y2280.1923 Z-21.0000 F2000
G1 X1056.0079 Y2280.1923 Z-21.0000 F2750
G1 X1062.8582 Y2352.5675 Z-21.0000 F2750
G1 X1086.6838 Y2352.5675 Z-21.0000 F2750
G1 X1093.5342 Y2280.1923 Z-21.0000 F2750
G1 X1100.7393 Y2280.1923 Z-21.0000 F2750
G1 X1100.7393 Y2280.1923 Z-15.0000 F9999
G1 X1128.7373 Y2280.1923 Z-15.0000 F2750
G1 X1128.7373 Y2280.1923 Z-21.0000 F2000
G1 X1135.2702 Y2280.1923 Z-21.0000 F2750
G1 X1135.2702 Y2365.5675 Z-21.0000 F2750
G1 X1193.7702 Y2365.5675 Z-21.0000 F2750
G1 X1193.7702 Y2408.5655 Z-21.0000 F2750
G1 X1180.0740 Y2408.5655 Z-21.0000 F2750
G1 X1180.0740 Y2408.5655 Z-15.0000 F9999
G1 X1152.0760 Y2408.5655 Z-15.0000 F2750
G1 X1152.0760 Y2408.5655 Z-21.0000 F2000
G1 X1078.9321 Y2408.5655 Z-21.0000 F2750
G1 X1078.9321 Y2408.5655 Z10.0000 F9999
G1 X1213.8966 Y701.7738 Z10.0000 F9999
G1 X1213.8966 Y701.7738 Z1.0000 F2000
G1 X1213.8966 Y740.7449 Z-10.0000 F2000
G1 X1213.8966 Y701.7738 Z-21.0000 F2000
G1 X1213.8966 Y1397.6466 Z-21.0000 F2750
G1 X1138.8970 Y1397.6466 Z-21.0000 F2750
G1 X1138.8970 Y1665.6456 Z-21.0000 F2750
G1 X1078.2635 Y1665.6456 Z-21.0000 F2750
G1 X1078.2635 Y1665.6456 Z-15.0000 F9999
G1 X1050.2655 Y1665.6456 Z-15.0000 F2750
G1 X1050.2655 Y1665.6456 Z-21.0000 F2000
G1 X980.8995 Y1665.6456 Z-21.0000 F2750
G1 X980.8995 Y1642.6461 Z-21.0000 F2750
G1 X978.8975 Y1642.6461 Z-21.0000 F2750
G1 X978.8975 Y1647.6456 Z-21.0000 F2750
G1 X840.8995 Y1647.6456 Z-21.0000 F2750
G1 X840.8995 Y1642.6461 Z-21.0000 F2750
G1 X838.8975 Y1642.6461 Z-21.0000 F2750
G1 X838.8975 Y1665.6456 Z-21.0000 F2750
G1 X680.9000 Y1665.6456 Z-21.0000 F2750
G1 X680.9000 Y1642.6461 Z-21.0000 F2750
G1 X678.8980 Y1642.6461 Z-21.0000 F2750
G1 X678.8980 Y1647.6456 Z-21.0000 F2750
G1 X540.9005 Y1647.6456 Z-21.0000 F2750
G1 X540.9005 Y1642.6461 Z-21.0000 F2750
G1 X538.8985 Y1642.6461 Z-21.0000 F2750
G1 X538.8985 Y1665.6456 Z-21.0000 F2750
G1 X380.9005 Y1665.6456 Z-21.0000 F2750
G1 X380.9005 Y1642.6461 Z-21.0000 F2750
G1 X378.8990 Y1642.6461 Z-21.0000 F2750
G1 X378.8990 Y1647.6456 Z-21.0000 F2750
G1 X240.9010 Y1647.6456 Z-21.0000 F2750
G1 X240.9010 Y1642.6461 Z-21.0000 F2750
G1 X238.8990 Y1642.6461 Z-21.0000 F2750
G1 X238.8990 Y1665.6456 Z-21.0000 F2750
G1 X168.4403 Y1665.6456 Z-21.0000 F2750
G1 X168.4403 Y1665.6456 Z-15.0000 F9999
G1 X140.4423 Y1665.6456 Z-15.0000 F2750
G1 X140.4423 Y1665.6456 Z-21.0000 F2000
G1 X80.9015 Y1665.6456 Z-21.0000 F2750
G1 X80.9015 Y1397.6466 Z-21.0000 F2750
G1 X5.9010 Y1397.6466 Z-21.0000 F2750
G1 X5.9010 Y5.9010 Z-21.0000 F2750
G1 X70.8995 Y5.9010 Z-21.0000 F2750
G1 X70.8995 Y102.6490 Z-21.0000 F2750
G1 X65.8990 Y102.6490 Z-21.0000 F2750
G1 X65.8990 Y104.6510 Z-21.0000 F2750
G1 X85.9010 Y104.6510 Z-21.0000 F2750
G1 X85.9010 Y102.6490 Z-21.0000 F2750
G1 X80.9015 Y102.6490 Z-21.0000 F2750
G1 X80.9015 Y23.6510 Z-21.0000 F2750
G1 X100.2700 Y23.6510 Z-21.0000 F2750
G1 X101.8530 Y23.9010 Z-21.0000 F2750
G1 X108.8990 Y23.9010 Z-21.0000 F2750
G1 X108.8990 Y28.6510 Z-21.0000 F2750
G1 X110.9010 Y28.6510 Z-21.0000 F2750
G1 X110.9010 Y23.9010 Z-21.0000 F2750
G1 X164.9461 Y23.9010 Z-21.0000 F2750
G1 X165.6354 Y23.8002 Z-21.0000 F2750
G1 X165.9727 Y23.6536 Z-21.0000 F2750
G1 X166.2686 Y23.4196 Z-21.0000 F2750
G1 X166.4921 Y23.1197 Z-21.0000 F2750
G1 X166.6284 Y22.7822 Z-21.0000 F2750
G1 X166.6758 Y22.4112 Z-21.0000 F2750
G1 X166.6253 Y22.0373 Z-21.0000 F2750
G1 X166.4844 Y21.6976 Z-21.0000 F2750
G1 X164.6331 Y19.3043 Z-21.0000 F2750
G1 X163.6729 Y16.7644 Z-21.0000 F2750
G1 X163.5145 Y14.0532 Z-21.0000 F2750
G1 X164.1350 Y11.5048 Z-21.0000 F2750
G1 X165.4574 Y9.2409 Z-21.0000 F2750
G1 X167.4531 Y7.3988 Z-21.0000 F2750
G1 X169.9084 Y6.2376 Z-21.0000 F2750
G1 X172.2130 Y5.9010 Z-21.0000 F2750
G1 X236.5143 Y5.9010 Z-21.0000 F2750
G1 X238.8898 Y6.2758 Z-21.0000 F2750
G1 X241.4094 Y7.5788 Z-21.0000 F2750
G1 X243.3711 Y9.6291 Z-21.0000 F2750
G1 X244.5355 Y12.0910 Z-21.0000 F2750
G1 X244.8860 Y14.7903 Z-21.0000 F2750
G1 X244.3460 Y17.5735 Z-21.0000 F2750
G1 X242.9332 Y20.0330 Z-21.0000 F2750
G1 X240.6586 Y22.0594 Z-21.0000 F2750
G1 X240.4983 Y22.3151 Z-21.0000 F2750
G1 X240.4130 Y22.6142 Z-21.0000 F2750
G1 X240.4152 Y22.9220 Z-21.0000 F2750
G1 X240.4993 Y23.2080 Z-21.0000 F2750
G1 X240.6641 Y23.4680 Z-21.0000 F2750
G1 X240.8977 Y23.6733 Z-21.0000 F2750
G1 X241.1709 Y23.8015 Z-21.0000 F2750
G1 X241.8022 Y23.9010 Z-21.0000 F2750
G1 X304.8954 Y23.9010 Z-21.0000 F2750
G1 X305.5854 Y23.8001 Z-21.0000 F2750
G1 X305.9226 Y23.6534 Z-21.0000 F2750
G1 X306.2184 Y23.4193 Z-21.0000 F2750
G1 X306.4418 Y23.1194 Z-21.0000 F2750
G1 X306.5781 Y22.7819 Z-21.0000 F2750
G1 X306.6255 Y22.4109 Z-21.0000 F2750
G1 X306.5751 Y22.0371 Z-21.0000 F2750
G1 X306.4343 Y21.6974 Z-21.0000 F2750
G1 X304.5829 Y19.3045 Z-21.0000 F2750
G1 X303.6224 Y16.7638 Z-21.0000 F2750
G1 X303.4649 Y14.0539 Z-21.0000 F2750
G1 X304.0837 Y11.5054 Z-21.0000 F2750
G1 X305.4075 Y9.2405 Z-21.0000 F2750
G1 X307.4028 Y7.3988 Z-21.0000 F2750
G1 X309.8580 Y6.2377 Z-21.0000 F2750
G1 X312.1621 Y5.9010 Z-21.0000 F2750
G1 X376.4640 Y5.9010 Z-21.0000 F2750
G1 X378.8395 Y6.2758 Z-21.0000 F2750
G1 X381.3596 Y7.5790 Z-21.0000 F2750
G1 X383.3201 Y9.6291 Z-21.0000 F2750
G1 X384.4851 Y12.0904 Z-21.0000 F2750
G1 X384.8357 Y14.7896 Z-21.0000 F2750
G1 X384.2963 Y17.5740 Z-21.0000 F2750
G1 X382.8816 Y20.0336 Z-21.0000 F2750
G1 X380.6085 Y22.0592 Z-21.0000 F2750
G1 X380.4481 Y22.3149 Z-21.0000 F2750
G1 X380.3627 Y22.6140 Z-21.0000 F2750
G1 X380.3649 Y22.9219 Z-21.0000 F2750
G1 X380.4489 Y23.2079 Z-21.0000 F2750
G1 X380.6137 Y23.4679 Z-21.0000 F2750
G1 X380.8474 Y23.6732 Z-21.0000 F2750
G1 X381.1206 Y23.8015 Z-21.0000 F2750
G1 X381.7519 Y23.9010 Z-21.0000 F2750
G1 X444.8455 Y23.9010 Z-21.0000 F2750
G1 X445.5348 Y23.8002 Z-21.0000 F2750
G1 X445.8721 Y23.6536 Z-21.0000 F2750
G1 X446.1680 Y23.4196 Z-21.0000 F2750
G1 X446.3914 Y23.1197 Z-21.0000 F2750
G1 X446.5277 Y22.7822 Z-21.0000 F2750
G1 X446.5751 Y22.4112 Z-21.0000 F2750
G1 X446.5247 Y22.0373 Z-21.0000 F2750
G1 X446.3838 Y21.6976 Z-21.0000 F2750
G1 X444.5325 Y19.3043 Z-21.0000 F2750
G1 X443.5723 Y16.7644 Z-21.0000 F2750
G1 X443.4139 Y14.0525 Z-21.0000 F2750
G1 X444.0353 Y11.5043 Z-21.0000 F2750
G1 X445.3571 Y9.2413 Z-21.0000 F2750
G1 X447.3521 Y7.3990 Z-21.0000 F2750
G1 X449.8078 Y6.2376 Z-21.0000 F2750
G1 X452.1124 Y5.9010 Z-21.0000 F2750
G1 X516.4137 Y5.9010 Z-21.0000 F2750
G1 X518.7892 Y6.2758 Z-21.0000 F2750
G1 X521.3088 Y7.5788 Z-21.0000 F2750
G1 X523.2701 Y9.6287 Z-21.0000 F2750
G1 X524.4353 Y12.0904 Z-21.0000 F2750
G1 X524.7860 Y14.7909 Z-21.0000 F2750
G1 X524.2451 Y17.5740 Z-21.0000 F2750
G1 X522.8326 Y20.0330 Z-21.0000 F2750
G1 X520.5581 Y22.0594 Z-21.0000 F2750
G1 X520.3976 Y22.3150 Z-21.0000 F2750
G1 X520.3122 Y22.6141 Z-21.0000 F2750
G1 X520.3143 Y22.9219 Z-21.0000 F2750
G1 X520.3983 Y23.2079 Z-21.0000 F2750
G1 X520.5631 Y23.4679 Z-21.0000 F2750
G1 X520.7967 Y23.6732 Z-21.0000 F2750
G1 X521.0700 Y23.8014 Z-21.0000 F2750
G1 X521.7020 Y23.9010 Z-21.0000 F2750
G1 X698.0964 Y23.9010 Z-21.0000 F2750
G1 X698.7277 Y23.8014 Z-21.0000 F2750
G1 X699.0011 Y23.6733 Z-21.0000 F2750
G1 X699.2349 Y23.4680 Z-21.0000 F2750
G1 X699.3998 Y23.2078 Z-21.0000 F2750
G1 X699.4838 Y22.9217 Z-21.0000 F2750
G1 X699.4858 Y22.6137 Z-21.0000 F2750
G1 X699.4002 Y22.3145 Z-21.0000 F2750
G1 X699.2395 Y22.0589 Z-21.0000 F2750
G1 X696.9667 Y20.0336 Z-21.0000 F2750
G1 X695.5520 Y17.5740 Z-21.0000 F2750
G1 X695.0128 Y14.7903 Z-21.0000 F2750
G1 X695.3625 Y12.0904 Z-21.0000 F2750
G1 X696.5287 Y9.6287 Z-21.0000 F2750
G1 X698.4888 Y7.5790 Z-21.0000 F2750
G1 X701.0089 Y6.2757 Z-21.0000 F2750
G1 X703.3849 Y5.9010 Z-21.0000 F2750
G1 X767.6863 Y5.9010 Z-21.0000 F2750
G1 X769.9900 Y6.2377 Z-21.0000 F2750
G1 X772.4446 Y7.3986 Z-21.0000 F2750
G1 X774.4406 Y9.2401 Z-21.0000 F2750
G1 X775.7646 Y11.5054 Z-21.0000 F2750
G1 X776.3834 Y14.0539 Z-21.0000 F2750
G1 X776.2259 Y16.7638 Z-21.0000 F2750
G1 X775.2655 Y19.3043 Z-21.0000 F2750
G1 X773.4143 Y21.6976 Z-21.0000 F2750
G1 X773.2734 Y22.0372 Z-21.0000 F2750
G1 X773.2229 Y22.4110 Z-21.0000 F2750
G1 X773.2702 Y22.7819 Z-21.0000 F2750
G1 X773.4064 Y23.1194 Z-21.0000 F2750
G1 X773.6297 Y23.4193 Z-21.0000 F2750
G1 X773.9254 Y23.6534 Z-21.0000 F2750
G1 X774.2626 Y23.8001 Z-21.0000 F2750
G1 X774.9528 Y23.9010 Z-21.0000 F2750
G1 X838.0466 Y23.9010 Z-21.0000 F2750
G1 X838.6776 Y23.8015 Z-21.0000 F2750
G1 X838.9509 Y23.6733 Z-21.0000 F2750
G1 X839.1846 Y23.4680 Z-21.0000 F2750
G1 X839.3494 Y23.2079 Z-21.0000 F2750
G1 X839.4335 Y22.9219 Z-21.0000 F2750
G1 X839.4355 Y22.6140 Z-21.0000 F2750
G1 X839.3501 Y22.3149 Z-21.0000 F2750
G1 X839.1896 Y22.0592 Z-21.0000 F2750
G1 X836.9160 Y20.0332 Z-21.0000 F2750
G1 X835.5028 Y17.5746 Z-21.0000 F2750
G1 X834.9615 Y14.7895 Z-21.0000 F2750
G1 X835.3139 Y12.0898 Z-21.0000 F2750
G1 X836.4779 Y9.6287 Z-21.0000 F2750
G1 X838.4397 Y7.5792 Z-21.0000 F2750
G1 X840.9573 Y6.2758 Z-21.0000 F2750
G1 X843.3347 Y5.9010 Z-21.0000 F2750
G1 X907.6359 Y5.9010 Z-21.0000 F2750
G1 X909.9401 Y6.2377 Z-21.0000 F2750
G1 X912.3952 Y7.3988 Z-21.0000 F2750
G1 X914.3905 Y9.2405 Z-21.0000 F2750
G1 X915.7140 Y11.5048 Z-21.0000 F2750
G1 X916.3337 Y14.0532 Z-21.0000 F2750
G1 X916.1761 Y16.7638 Z-21.0000 F2750
G1 X915.2157 Y19.3045 Z-21.0000 F2750
G1 X913.3639 Y21.6978 Z-21.0000 F2750
G1 X913.2231 Y22.0375 Z-21.0000 F2750
G1 X913.1727 Y22.4113 Z-21.0000 F2750
G1 X913.2201 Y22.7823 Z-21.0000 F2750
G1 X913.3564 Y23.1197 Z-21.0000 F2750
G1 X913.5799 Y23.4196 Z-21.0000 F2750
G1 X913.8757 Y23.6535 Z-21.0000 F2750
G1 X914.2129 Y23.8002 Z-21.0000 F2750
G1 X914.9026 Y23.9010 Z-21.0000 F2750
G1 X977.9962 Y23.9010 Z-21.0000 F2750
G1 X978.6270 Y23.8015 Z-21.0000 F2750
G1 X978.9004 Y23.6733 Z-21.0000 F2750
G1 X979.1342 Y23.4680 Z-21.0000 F2750
G1 X979.2991 Y23.2079 Z-21.0000 F2750
G1 X979.3832 Y22.9218 Z-21.0000 F2750
G1 X979.3853 Y22.6138 Z-21.0000 F2750
G1 X979.2998 Y22.3146 Z-21.0000 F2750
G1 X979.1392 Y22.0589 Z-21.0000 F2750
G1 X976.8646 Y20.0328 Z-21.0000 F2750
G1 X975.4531 Y17.5740 Z-21.0000 F2750
G1 X974.9111 Y14.7902 Z-21.0000 F2750
G1 X975.2637 Y12.0891 Z-21.0000 F2750
G1 X976.4284 Y9.6287 Z-21.0000 F2750
G1 X978.3890 Y7.5794 Z-21.0000 F2750
G1 X980.9070 Y6.2758 Z-21.0000 F2750
G1 X983.2844 Y5.9010 Z-21.0000 F2750
G1 X1047.5850 Y5.9010 Z-21.0000 F2750
G1 X1049.8897 Y6.2376 Z-21.0000 F2750
G1 X1052.3445 Y7.3986 Z-21.0000 F2750
G1 X1054.3409 Y9.2405 Z-21.0000 F2750
G1 X1055.6639 Y11.5054 Z-21.0000 F2750
G1 X1056.2835 Y14.0539 Z-21.0000 F2750
G1 X1056.1252 Y16.7638 Z-21.0000 F2750
G1 X1055.1658 Y19.3038 Z-21.0000 F2750
G1 X1053.3142 Y21.6976 Z-21.0000 F2750
G1 X1053.1732 Y22.0372 Z-21.0000 F2750
G1 X1053.1227 Y22.4110 Z-21.0000 F2750
G1 X1053.1700 Y22.7820 Z-21.0000 F2750
G1 X1053.3061 Y23.1195 Z-21.0000 F2750
G1 X1053.5295 Y23.4194 Z-21.0000 F2750
G1 X1053.8252 Y23.6535 Z-21.0000 F2750
G1 X1054.1625 Y23.8002 Z-21.0000 F2750
G1 X1054.8527 Y23.9010 Z-21.0000 F2750
G1 X1108.8970 Y23.9010 Z-21.0000 F2750
G1 X1108.8970 Y28.6510 Z-21.0000 F2750
G1 X1110.8990 Y28.6510 Z-21.0000 F2750
G1 X1110.8990 Y23.9010 Z-21.0000 F2750
G1 X1117.9452 Y23.9010 Z-21.0000 F2750
G1 X1119.5286 Y23.6510 Z-21.0000 F2750
G1 X1138.8970 Y23.6510 Z-21.0000 F2750
G1 X1138.8970 Y102.6490 Z-21.0000 F2750
G1 X1133.8970 Y102.6490 Z-21.0000 F2750
G1 X1133.8970 Y104.6510 Z-21.0000 F2750
G1 X1153.8990 Y104.6510 Z-21.0000 F2750
G1 X1153.8990 Y102.6490 Z-21.0000 F2750
G1 X1148.8990 Y102.6490 Z-21.0000 F2750
G1 X1148.8990 Y5.9010 Z-21.0000 F2750
G1 X1213.8966 Y5.9010 Z-21.0000 F2750
G1 X1213.8966 Y701.7738 Z-21.0000 F2750
G1 X1213.8966 Y701.7738 Z10.0000 F9999
G1 X609.5686 Y1679.7026 Z10.0000 F9999
G1 X609.5686 Y1679.7026 Z1.0000 F2000
G1 X648.5397 Y1679.7026 Z-10.0000 F2000
G1 X609.5686 Y1679.7026 Z-21.0000 F2000
G1 X1050.6969 Y1679.7026 Z-21.0000 F2750
G1 X1050.6969 Y1679.7026 Z-15.0000 F9999
G1 X1078.6949 Y1679.7026 Z-15.0000 F2750
G1 X1078.6949 Y1679.7026 Z-21.0000 F2000
G1 X1213.8967 Y1679.7026 Z-21.0000 F2750
G1 X1213.8967 Y2201.1034 Z-21.0000 F2750
G1 X1157.1367 Y2201.1034 Z-21.0000 F2750
G1 X1156.1548 Y2201.3370 Z-21.0000 F2750
G1 X1155.7510 Y2201.6780 Z-21.0000 F2750
G1 X1155.5445 Y2202.1627 Z-21.0000 F2750
G1 X1155.6100 Y2203.1708 Z-21.0000 F2750
G1 X1171.6281 Y2255.2293 Z-21.0000 F2750
G1 X1171.8627 Y2258.8426 Z-21.0000 F2750
G1 X1170.2557 Y2262.6174 Z-21.0000 F2750
G1 X1167.1201 Y2265.2655 Z-21.0000 F2750
G1 X1163.5970 Y2266.1035 Z-21.0000 F2750
G1 X1056.1988 Y2266.1035 Z-21.0000 F2750
G1 X1052.6757 Y2265.2655 Z-21.0000 F2750
G1 X1049.5401 Y2262.6174 Z-21.0000 F2750
G1 X1047.9331 Y2258.8426 Z-21.0000 F2750
G1 X1048.1677 Y2255.2293 Z-21.0000 F2750
G1 X1064.1858 Y2203.1709 Z-21.0000 F2750
G1 X1064.2513 Y2202.1627 Z-21.0000 F2750
G1 X1064.0448 Y2201.6780 Z-21.0000 F2750
G1 X1063.6410 Y2201.3370 Z-21.0000 F2750
G1 X1062.6590 Y2201.1034 Z-21.0000 F2750
G1 X957.1372 Y2201.1034 Z-21.0000 F2750
G1 X956.1552 Y2201.3370 Z-21.0000 F2750
G1 X955.7515 Y2201.6780 Z-21.0000 F2750
G1 X955.5449 Y2202.1629 Z-21.0000 F2750
G1 X955.6103 Y2203.1709 Z-21.0000 F2750
G1 X971.6285 Y2255.2293 Z-21.0000 F2750
G1 X971.8631 Y2258.8425 Z-21.0000 F2750
G1 X970.2562 Y2262.6174 Z-21.0000 F2750
G1 X967.1205 Y2265.2655 Z-21.0000 F2750
G1 X963.5974 Y2266.1035 Z-21.0000 F2750
G1 X856.1993 Y2266.1035 Z-21.0000 F2750
G1 X852.6761 Y2265.2655 Z-21.0000 F2750
G1 X849.5404 Y2262.6174 Z-21.0000 F2750
G1 X847.9335 Y2258.8426 Z-21.0000 F2750
G1 X848.1681 Y2255.2293 Z-21.0000 F2750
G1 X864.1863 Y2203.1709 Z-21.0000 F2750
G1 X864.2517 Y2202.1629 Z-21.0000 F2750
G1 X864.0451 Y2201.6780 Z-21.0000 F2750
G1 X863.6414 Y2201.3370 Z-21.0000 F2750
G1 X862.6594 Y2201.1034 Z-21.0000 F2750
G1 X757.1376 Y2201.1034 Z-21.0000 F2750
G1 X756.1554 Y2201.3370 Z-21.0000 F2750
G1 X755.7517 Y2201.6780 Z-21.0000 F2750
G1 X755.5452 Y2202.1627 Z-21.0000 F2750
G1 X755.6107 Y2203.1709 Z-21.0000 F2750
G1 X771.6289 Y2255.2293 Z-21.0000 F2750
G1 X771.8634 Y2258.8426 Z-21.0000 F2750
G1 X770.2566 Y2262.6174 Z-21.0000 F2750
G1 X767.1210 Y2265.2655 Z-21.0000 F2750
G1 X763.5978 Y2266.1035 Z-21.0000 F2750
G1 X656.1997 Y2266.1035 Z-21.0000 F2750
G1 X652.6765 Y2265.2655 Z-21.0000 F2750
G1 X649.5408 Y2262.6174 Z-21.0000 F2750
G1 X647.9339 Y2258.8425 Z-21.0000 F2750
G1 X648.1685 Y2255.2293 Z-21.0000 F2750
G1 X664.1866 Y2203.1707 Z-21.0000 F2750
G1 X664.2521 Y2202.1627 Z-21.0000 F2750
G1 X664.0455 Y2201.6780 Z-21.0000 F2750
G1 X663.6418 Y2201.3370 Z-21.0000 F2750
G1 X662.6598 Y2201.1034 Z-21.0000 F2750
G1 X557.1380 Y2201.1034 Z-21.0000 F2750
G1 X556.1560 Y2201.3370 Z-21.0000 F2750
G1 X555.7522 Y2201.6780 Z-21.0000 F2750
G1 X555.5457 Y2202.1628 Z-21.0000 F2750
G1 X555.6111 Y2203.1709 Z-21.0000 F2750
G1 X571.6293 Y2255.2293 Z-21.0000 F2750
G1 X571.8639 Y2258.8425 Z-21.0000 F2750
G1 X570.2570 Y2262.6174 Z-21.0000 F2750
G1 X567.1213 Y2265.2655 Z-21.0000 F2750
G1 X563.5981 Y2266.1035 Z-21.0000 F2750
G1 X456.2001 Y2266.1035 Z-21.0000 F2750
G1 X452.6769 Y2265.2655 Z-21.0000 F2750
G1 X449.5412 Y2262.6174 Z-21.0000 F2750
G1 X447.9344 Y2258.8425 Z-21.0000 F2750
G1 X448.1689 Y2255.2293 Z-21.0000 F2750
G1 X464.1872 Y2203.1709 Z-21.0000 F2750
G1 X464.2526 Y2202.1629 Z-21.0000 F2750
G1 X464.0459 Y2201.6780 Z-21.0000 F2750
G1 X463.6422 Y2201.3370 Z-21.0000 F2750
G1 X462.6602 Y2201.1034 Z-21.0000 F2750
G1 X357.1384 Y2201.1034 Z-21.0000 F2750
G1 X356.1564 Y2201.3370 Z-21.0000 F2750
G1 X355.7527 Y2201.6780 Z-21.0000 F2750
G1 X355.5461 Y2202.1629 Z-21.0000 F2750
G1 X355.6114 Y2203.1709 Z-21.0000 F2750
G1 X371.6297 Y2255.2294 Z-21.0000 F2750
G1 X371.8642 Y2258.8425 Z-21.0000 F2750
G1 X370.2575 Y2262.6174 Z-21.0000 F2750
G1 X367.1218 Y2265.2655 Z-21.0000 F2750
G1 X363.5985 Y2266.1035 Z-21.0000 F2750
G1 X256.2001 Y2266.1035 Z-21.0000 F2750
G1 X252.6773 Y2265.2655 Z-21.0000 F2750
G1 X249.5416 Y2262.6174 Z-21.0000 F2750
G1 X247.9347 Y2258.8425 Z-21.0000 F2750
G1 X248.1693 Y2255.2293 Z-21.0000 F2750
G1 X264.1875 Y2203.1708 Z-21.0000 F2750
G1 X264.2530 Y2202.1629 Z-21.0000 F2750
G1 X264.0464 Y2201.6780 Z-21.0000 F2750
G1 X263.6426 Y2201.3370 Z-21.0000 F2750
G1 X262.6606 Y2201.1034 Z-21.0000 F2750
G1 X157.1386 Y2201.1034 Z-21.0000 F2750
G1 X156.1567 Y2201.3370 Z-21.0000 F2750
G1 X155.7529 Y2201.6779 Z-21.0000 F2750
G1 X155.5465 Y2202.1626 Z-21.0000 F2750
G1 X155.6119 Y2203.1709 Z-21.0000 F2750
G1 X171.6301 Y2255.2293 Z-21.0000 F2750
G1 X171.8648 Y2258.8425 Z-21.0000 F2750
G1 X170.2578 Y2262.6174 Z-21.0000 F2750
G1 X167.1221 Y2265.2655 Z-21.0000 F2750
G1 X163.5989 Y2266.1035 Z-21.0000 F2750
G1 X56.2006 Y2266.1035 Z-21.0000 F2750
G1 X52.6777 Y2265.2655 Z-21.0000 F2750
G1 X49.5420 Y2262.6174 Z-21.0000 F2750
G1 X47.9353 Y2258.8426 Z-21.0000 F2750
G1 X48.1696 Y2255.2295 Z-21.0000 F2750
G1 X64.1877 Y2203.1709 Z-21.0000 F2750
G1 X64.2531 Y2202.1626 Z-21.0000 F2750
G1 X64.0467 Y2201.6779 Z-21.0000 F2750
G1 X63.6431 Y2201.3370 Z-21.0000 F2750
G1 X62.6610 Y2201.1034 Z-21.0000 F2750
G1 X5.9010 Y2201.1034 Z-21.0000 F2750
G1 X5.9010 Y1679.7026 Z-21.0000 F2750
G1 X140.4423 Y1679.7026 Z-21.0000 F2750
G1 X140.4423 Y1679.7026 Z-15.0000 F9999
G1 X168.4403 Y1679.7026 Z-15.0000 F2750
G1 X168.4403 Y1679.7026 Z-21.0000 F2000
G1 X609.5686 Y1679.7026 Z-21.0000 F2750
G1 X609.5686 Y1679.7026 Z10.0000 F9999
G1 X1900.0000 Y2800.0000 Z80.0000 F9999
G1 Z80.0000 F9999
G1 X1900.0000 Y2800.0000 F9999
M5
M30
