(plotsheet 2n3_nested_153 sheets_final v1_0_sheet 153b_S153.1_text 1mm_CC8 - stepover 1mm)
(Material Size) (X=1220.000, Y=2440.000, Z=20.000)
(LinuxCNC_NoArcs_MM_TC_medium_50um_G1_verbose.con)
G90 G80 G21 G49
G64 P0.050
M6 T1
(Tool Number:1) (7.998 mm dia. slot drill)
G43 H1 G0Z80.0000
M3 S18000
G04 P10
G1 X210.6748 Y540.9572 Z10.0000 F9999
G1 X210.6748 Y540.9572 Z-1.0000 F2500
G1 X189.4638 Y529.0123 Z-1.0000 F5000
G1 X210.6748 Y540.9572 Z-1.0000 F5000
G1 X230.5647 Y529.0123 Z-1.0000 F5000
G1 X210.6748 Y540.9572 Z-1.0000 F5000
G1 X230.5647 Y553.0306 Z-1.0000 F5000
G1 X210.6748 Y540.9572 Z-1.0000 F5000
G1 X189.4638 Y553.0306 Z-1.0000 F5000
G1 X189.4638 Y553.0306 Z10.0000 F9999
G1 X189.4638 Y581.1224 Z10.0000 F9999
G1 X189.4638 Y581.1224 Z-1.0000 F2500
G1 X212.2712 Y581.1224 Z-1.0000 F5000
G1 X212.2712 Y564.6636 Z-1.0000 F5000
G1 X212.2712 Y581.1224 Z-1.0000 F5000
G1 X230.5647 Y581.1224 Z-1.0000 F5000
G1 X230.5647 Y563.3609 Z-1.0000 F5000
G1 X230.5647 Y581.1224 Z-1.0000 F5000
G1 X189.4638 Y581.1224 Z-1.0000 F5000
G1 X189.4638 Y563.3609 Z-1.0000 F5000
G1 X189.4638 Y563.3609 Z10.0000 F9999
G1 X239.9592 Y596.6270 Z10.0000 F9999
G1 X239.9592 Y596.6270 Z-1.0000 F2500
G1 X187.1152 Y627.0123 Z-1.0000 F5000
G1 X239.9592 Y596.6270 Z-1.0000 F5000
G1 X239.9592 Y596.6270 Z10.0000 F9999
G1 X189.4638 Y659.8930 Z10.0000 F9999
G1 X189.4638 Y659.8930 Z-1.0000 F2500
G1 X207.0785 Y644.1499 Z-1.0000 F5000
G1 X209.0967 Y642.4013 Z-1.0000 F5000
G1 X211.1702 Y640.7187 Z-1.0000 F5000
G1 X212.7300 Y639.6988 Z-1.0000 F5000
G1 X214.3262 Y638.7370 Z-1.0000 F5000
G1 X216.7849 Y637.8013 Z-1.0000 F5000
G1 X220.0693 Y637.3976 Z-1.0000 F5000
G1 X223.8124 Y638.0214 Z-1.0000 F5000
G1 X227.1886 Y639.9481 Z-1.0000 F5000
G1 X229.6290 Y643.2875 Z-1.0000 F5000
G1 X230.5647 Y648.2783 Z-1.0000 F5000
G1 X227.9592 Y656.9939 Z-1.0000 F5000
G1 X221.2069 Y659.7829 Z-1.0000 F5000
G1 X227.9592 Y656.9939 Z-1.0000 F5000
G1 X230.5647 Y648.2783 Z-1.0000 F5000
G1 X229.6290 Y643.2875 Z-1.0000 F5000
G1 X227.1886 Y639.9481 Z-1.0000 F5000
G1 X223.8124 Y638.0214 Z-1.0000 F5000
G1 X220.0693 Y637.3976 Z-1.0000 F5000
G1 X216.7849 Y637.8013 Z-1.0000 F5000
G1 X214.3262 Y638.7370 Z-1.0000 F5000
G1 X212.7300 Y639.6988 Z-1.0000 F5000
G1 X211.1702 Y640.7187 Z-1.0000 F5000
G1 X209.0967 Y642.4013 Z-1.0000 F5000
G1 X207.0785 Y644.1499 Z-1.0000 F5000
G1 X189.4638 Y659.8930 Z-1.0000 F5000
G1 X189.4638 Y637.6912 Z-1.0000 F5000
G1 X189.4638 Y637.6912 Z10.0000 F9999
G1 X196.2895 Y695.1224 Z10.0000 F9999
G1 X196.2895 Y695.1224 Z-1.0000 F2500
G1 X193.2436 Y693.1774 Z-1.0000 F5000
G1 X191.1886 Y690.7554 Z-1.0000 F5000
G1 X189.9409 Y687.6361 Z-1.0000 F5000
G1 X189.4638 Y683.5077 Z-1.0000 F5000
G1 X189.9225 Y679.0123 Z-1.0000 F5000
G1 X191.6657 Y675.1958 Z-1.0000 F5000
G1 X194.6565 Y672.5169 Z-1.0000 F5000
G1 X198.8216 Y671.3976 Z-1.0000 F5000
G1 X202.8216 Y671.9297 Z-1.0000 F5000
G1 X205.5005 Y673.4710 Z-1.0000 F5000
G1 X207.1886 Y675.5077 Z-1.0000 F5000
G1 X208.2895 Y677.4159 Z-1.0000 F5000
G1 X213.0234 Y686.6086 Z-1.0000 F5000
G1 X214.4363 Y688.9756 Z-1.0000 F5000
G1 X216.0877 Y690.8288 Z-1.0000 F5000
G1 X218.2712 Y692.0765 Z-1.0000 F5000
G1 X221.1519 Y692.5903 Z-1.0000 F5000
G1 X224.4363 Y692.0581 Z-1.0000 F5000
G1 X227.4638 Y690.2233 Z-1.0000 F5000
G1 X229.6840 Y687.0857 Z-1.0000 F5000
G1 X230.5647 Y682.7187 Z-1.0000 F5000
G1 X229.8858 Y678.4618 Z-1.0000 F5000
G1 X228.4179 Y675.6178 Z-1.0000 F5000
G1 X226.2712 Y673.5260 Z-1.0000 F5000
G1 X228.4179 Y675.6178 Z-1.0000 F5000
G1 X229.8858 Y678.4618 Z-1.0000 F5000
G1 X230.5647 Y682.7187 Z-1.0000 F5000
G1 X229.6840 Y687.0857 Z-1.0000 F5000
G1 X227.4638 Y690.2233 Z-1.0000 F5000
G1 X224.4363 Y692.0581 Z-1.0000 F5000
G1 X221.1519 Y692.5903 Z-1.0000 F5000
G1 X218.2712 Y692.0765 Z-1.0000 F5000
G1 X216.0877 Y690.8288 Z-1.0000 F5000
G1 X214.4363 Y688.9756 Z-1.0000 F5000
G1 X213.0234 Y686.6086 Z-1.0000 F5000
G1 X208.2895 Y677.4159 Z-1.0000 F5000
G1 X207.1886 Y675.5077 Z-1.0000 F5000
G1 X205.5005 Y673.4710 Z-1.0000 F5000
G1 X202.8216 Y671.9297 Z-1.0000 F5000
G1 X198.8216 Y671.3976 Z-1.0000 F5000
G1 X194.6565 Y672.5169 Z-1.0000 F5000
G1 X191.6657 Y675.1958 Z-1.0000 F5000
G1 X189.9225 Y679.0123 Z-1.0000 F5000
G1 X189.4638 Y683.5077 Z-1.0000 F5000
G1 X189.9409 Y687.6361 Z-1.0000 F5000
G1 X191.1886 Y690.7554 Z-1.0000 F5000
G1 X193.2436 Y693.1774 Z-1.0000 F5000
G1 X193.2436 Y693.1774 Z10.0000 F9999
G1 X239.9592 Y705.8380 Z10.0000 F9999
G1 X239.9592 Y705.8380 Z-1.0000 F2500
G1 X187.1152 Y736.2233 Z-1.0000 F5000
G1 X239.9592 Y705.8380 Z-1.0000 F5000
G1 X239.9592 Y705.8380 Z10.0000 F9999
G1 X230.5647 Y763.6545 Z10.0000 F9999
G1 X230.5647 Y763.6545 Z-1.0000 F2500
G1 X189.4638 Y747.5994 Z-1.0000 F5000
G1 X230.5647 Y763.6545 Z-1.0000 F5000
G1 X189.4638 Y779.6728 Z-1.0000 F5000
G1 X189.4638 Y779.6728 Z10.0000 F9999
G1 X214.1244 Y790.3517 Z10.0000 F9999
G1 X214.1244 Y790.3517 Z-1.0000 F2500
G1 X214.1244 Y819.5994 Z-1.0000 F5000
G1 X214.1244 Y790.3517 Z-1.0000 F5000
G1 X214.1244 Y790.3517 Z10.0000 F9999
G1 X204.1611 Y753.3425 Z10.0000 F9999
G1 X204.1611 Y753.3425 Z-1.0000 F2500
G1 X204.1611 Y774.0398 Z-1.0000 F5000
G1 X204.1611 Y753.3425 Z-1.0000 F5000
G1 X204.1611 Y753.3425 Z10.0000 F9999
G1 X204.1611 Y836.7187 Z10.0000 F9999
G1 X204.1611 Y836.7187 Z-1.0000 F2500
G1 X204.1611 Y857.4159 Z-1.0000 F5000
G1 X204.1611 Y836.7187 Z-1.0000 F5000
G1 X204.1611 Y836.7187 Z10.0000 F9999
G1 X230.5647 Y847.0306 Z10.0000 F9999
G1 X230.5647 Y847.0306 Z-1.0000 F2500
G1 X189.4638 Y830.9756 Z-1.0000 F5000
G1 X230.5647 Y847.0306 Z-1.0000 F5000
G1 X189.4638 Y863.0490 Z-1.0000 F5000
G1 X189.4638 Y863.0490 Z10.0000 F9999
G1 X189.4638 Y873.7279 Z10.0000 F9999
G1 X189.4638 Y873.7279 Z-1.0000 F2500
G1 X209.6106 Y886.9572 Z-1.0000 F5000
G1 X189.4638 Y873.7279 Z-1.0000 F5000
G1 X189.4638 Y873.7279 Z10.0000 F9999
G1 X189.4638 Y891.1407 Z10.0000 F9999
G1 X189.4638 Y891.1407 Z-1.0000 F2500
G1 X230.5647 Y891.1407 Z-1.0000 F5000
G1 X230.5647 Y883.9847 Z-1.0000 F5000
G1 X229.9592 Y880.1132 Z-1.0000 F5000
G1 X228.1427 Y876.9022 Z-1.0000 F5000
G1 X224.9868 Y874.6820 Z-1.0000 F5000
G1 X220.3445 Y873.8380 Z-1.0000 F5000
G1 X215.6657 Y874.9939 Z-1.0000 F5000
G1 X212.3445 Y877.7646 Z-1.0000 F5000
G1 X210.3812 Y881.0857 Z-1.0000 F5000
G1 X209.7207 Y883.9847 Z-1.0000 F5000
G1 X209.7207 Y891.1407 Z-1.0000 F5000
G1 X209.7207 Y883.9847 Z-1.0000 F5000
G1 X210.3812 Y881.0857 Z-1.0000 F5000
G1 X212.3445 Y877.7646 Z-1.0000 F5000
G1 X215.6657 Y874.9939 Z-1.0000 F5000
G1 X220.3445 Y873.8380 Z-1.0000 F5000
G1 X224.9868 Y874.6820 Z-1.0000 F5000
G1 X228.1427 Y876.9022 Z-1.0000 F5000
G1 X229.9592 Y880.1132 Z-1.0000 F5000
G1 X230.5647 Y883.9847 Z-1.0000 F5000
G1 X230.5647 Y891.1407 Z-1.0000 F5000
G1 X230.5647 Y891.1407 Z10.0000 F9999
G1 X212.2712 Y921.6728 Z10.0000 F9999
G1 X212.2712 Y921.6728 Z-1.0000 F2500
G1 X212.2712 Y907.2325 Z-1.0000 F5000
G1 X212.2712 Y921.6728 Z-1.0000 F5000
G1 X230.5647 Y921.6728 Z-1.0000 F5000
G1 X230.5647 Y906.5536 Z-1.0000 F5000
G1 X230.5647 Y921.6728 Z-1.0000 F5000
G1 X189.4638 Y921.6728 Z-1.0000 F5000
G1 X189.4638 Y921.6728 Z10.0000 F9999
G1 X372.4469 Y890.4682 Z10.0000 F9999
G1 X372.4469 Y890.4682 Z-1.0000 F2500
G1 X413.5478 Y890.4682 Z-1.0000 F5000
G1 X413.5478 Y883.3123 Z-1.0000 F5000
G1 X412.9423 Y879.4407 Z-1.0000 F5000
G1 X411.1258 Y876.2297 Z-1.0000 F5000
G1 X407.9698 Y874.0095 Z-1.0000 F5000
G1 X403.3276 Y873.1655 Z-1.0000 F5000
G1 X398.6487 Y874.3214 Z-1.0000 F5000
G1 X395.3276 Y877.0921 Z-1.0000 F5000
G1 X393.3643 Y880.4132 Z-1.0000 F5000
G1 X392.7037 Y883.3123 Z-1.0000 F5000
G1 X392.7037 Y890.4682 Z-1.0000 F5000
G1 X392.7037 Y883.3123 Z-1.0000 F5000
G1 X393.3643 Y880.4132 Z-1.0000 F5000
G1 X395.3276 Y877.0921 Z-1.0000 F5000
G1 X398.6487 Y874.3214 Z-1.0000 F5000
G1 X403.3276 Y873.1655 Z-1.0000 F5000
G1 X407.9698 Y874.0095 Z-1.0000 F5000
G1 X411.1258 Y876.2297 Z-1.0000 F5000
G1 X412.9423 Y879.4407 Z-1.0000 F5000
G1 X413.5478 Y883.3123 Z-1.0000 F5000
G1 X413.5478 Y890.4682 Z-1.0000 F5000
G1 X413.5478 Y890.4682 Z10.0000 F9999
G1 X395.2542 Y921.0003 Z10.0000 F9999
G1 X395.2542 Y921.0003 Z-1.0000 F2500
G1 X395.2542 Y906.5600 Z-1.0000 F5000
G1 X395.2542 Y921.0003 Z-1.0000 F5000
G1 X413.5478 Y921.0003 Z-1.0000 F5000
G1 X413.5478 Y905.8811 Z-1.0000 F5000
G1 X413.5478 Y921.0003 Z-1.0000 F5000
G1 X372.4469 Y921.0003 Z-1.0000 F5000
G1 X372.4469 Y921.0003 Z10.0000 F9999
G1 X372.4469 Y873.0554 Z10.0000 F9999
G1 X372.4469 Y873.0554 Z-1.0000 F2500
G1 X392.5937 Y886.2847 Z-1.0000 F5000
G1 X372.4469 Y873.0554 Z-1.0000 F5000
G1 X372.4469 Y873.0554 Z10.0000 F9999
G1 X387.1441 Y836.0462 Z10.0000 F9999
G1 X387.1441 Y836.0462 Z-1.0000 F2500
G1 X387.1441 Y856.7435 Z-1.0000 F5000
G1 X387.1441 Y836.0462 Z-1.0000 F5000
G1 X387.1441 Y836.0462 Z10.0000 F9999
G1 X413.5478 Y846.3581 Z10.0000 F9999
G1 X413.5478 Y846.3581 Z-1.0000 F2500
G1 X372.4469 Y830.3031 Z-1.0000 F5000
G1 X413.5478 Y846.3581 Z-1.0000 F5000
G1 X372.4469 Y862.3765 Z-1.0000 F5000
G1 X372.4469 Y862.3765 Z10.0000 F9999
G1 X397.1074 Y789.6792 Z10.0000 F9999
G1 X397.1074 Y789.6792 Z-1.0000 F2500
G1 X397.1074 Y818.9269 Z-1.0000 F5000
G1 X397.1074 Y789.6792 Z-1.0000 F5000
G1 X397.1074 Y789.6792 Z10.0000 F9999
G1 X413.5478 Y762.9820 Z10.0000 F9999
G1 X413.5478 Y762.9820 Z-1.0000 F2500
G1 X372.4469 Y746.9269 Z-1.0000 F5000
G1 X413.5478 Y762.9820 Z-1.0000 F5000
G1 X372.4469 Y779.0003 Z-1.0000 F5000
G1 X372.4469 Y779.0003 Z10.0000 F9999
G1 X387.1441 Y752.6701 Z10.0000 F9999
G1 X387.1441 Y752.6701 Z-1.0000 F2500
G1 X387.1441 Y773.3673 Z-1.0000 F5000
G1 X387.1441 Y752.6701 Z-1.0000 F5000
G1 X387.1441 Y752.6701 Z10.0000 F9999
G1 X379.2725 Y694.4499 Z10.0000 F9999
G1 X379.2725 Y694.4499 Z-1.0000 F2500
G1 X376.2267 Y692.5049 Z-1.0000 F5000
G1 X374.1716 Y690.0829 Z-1.0000 F5000
G1 X372.9239 Y686.9636 Z-1.0000 F5000
G1 X372.4469 Y682.8352 Z-1.0000 F5000
G1 X372.9056 Y678.3398 Z-1.0000 F5000
G1 X374.6487 Y674.5233 Z-1.0000 F5000
G1 X377.6395 Y671.8444 Z-1.0000 F5000
G1 X381.8047 Y670.7251 Z-1.0000 F5000
G1 X385.8047 Y671.2572 Z-1.0000 F5000
G1 X388.4836 Y672.7985 Z-1.0000 F5000
G1 X390.1716 Y674.8352 Z-1.0000 F5000
G1 X391.2725 Y676.7435 Z-1.0000 F5000
G1 X396.0065 Y685.9361 Z-1.0000 F5000
G1 X397.4193 Y688.3031 Z-1.0000 F5000
G1 X399.0707 Y690.1563 Z-1.0000 F5000
G1 X401.2542 Y691.4040 Z-1.0000 F5000
G1 X404.1349 Y691.9178 Z-1.0000 F5000
G1 X407.4193 Y691.3857 Z-1.0000 F5000
G1 X410.4469 Y689.5508 Z-1.0000 F5000
G1 X412.6670 Y686.4132 Z-1.0000 F5000
G1 X413.5478 Y682.0462 Z-1.0000 F5000
G1 X412.8689 Y677.7893 Z-1.0000 F5000
G1 X411.4010 Y674.9453 Z-1.0000 F5000
G1 X409.2542 Y672.8535 Z-1.0000 F5000
G1 X411.4010 Y674.9453 Z-1.0000 F5000
G1 X412.8689 Y677.7893 Z-1.0000 F5000
G1 X413.5478 Y682.0462 Z-1.0000 F5000
G1 X412.6670 Y686.4132 Z-1.0000 F5000
G1 X410.4469 Y689.5508 Z-1.0000 F5000
G1 X407.4193 Y691.3857 Z-1.0000 F5000
G1 X404.1349 Y691.9178 Z-1.0000 F5000
G1 X401.2542 Y691.4040 Z-1.0000 F5000
G1 X399.0707 Y690.1563 Z-1.0000 F5000
G1 X397.4193 Y688.3031 Z-1.0000 F5000
G1 X396.0065 Y685.9361 Z-1.0000 F5000
G1 X391.2725 Y676.7435 Z-1.0000 F5000
G1 X390.1716 Y674.8352 Z-1.0000 F5000
G1 X388.4836 Y672.7985 Z-1.0000 F5000
G1 X385.8047 Y671.2572 Z-1.0000 F5000
G1 X381.8047 Y670.7251 Z-1.0000 F5000
G1 X377.6395 Y671.8444 Z-1.0000 F5000
G1 X374.6487 Y674.5233 Z-1.0000 F5000
G1 X372.9056 Y678.3398 Z-1.0000 F5000
G1 X372.4469 Y682.8352 Z-1.0000 F5000
G1 X372.9239 Y686.9636 Z-1.0000 F5000
G1 X374.1716 Y690.0829 Z-1.0000 F5000
G1 X376.2267 Y692.5049 Z-1.0000 F5000
G1 X376.2267 Y692.5049 Z10.0000 F9999
G1 X372.4469 Y659.2205 Z10.0000 F9999
G1 X372.4469 Y659.2205 Z-1.0000 F2500
G1 X390.0615 Y643.4774 Z-1.0000 F5000
G1 X392.0797 Y641.7288 Z-1.0000 F5000
G1 X394.1533 Y640.0462 Z-1.0000 F5000
G1 X395.7130 Y639.0264 Z-1.0000 F5000
G1 X397.3092 Y638.0646 Z-1.0000 F5000
G1 X399.7680 Y637.1288 Z-1.0000 F5000
G1 X403.0524 Y636.7251 Z-1.0000 F5000
G1 X406.7955 Y637.3490 Z-1.0000 F5000
G1 X410.1716 Y639.2756 Z-1.0000 F5000
G1 X412.6120 Y642.6150 Z-1.0000 F5000
G1 X413.5478 Y647.6058 Z-1.0000 F5000
G1 X410.9423 Y656.3214 Z-1.0000 F5000
G1 X404.1900 Y659.1104 Z-1.0000 F5000
G1 X410.9423 Y656.3214 Z-1.0000 F5000
G1 X413.5478 Y647.6058 Z-1.0000 F5000
G1 X412.6120 Y642.6150 Z-1.0000 F5000
G1 X410.1716 Y639.2756 Z-1.0000 F5000
G1 X406.7955 Y637.3490 Z-1.0000 F5000
G1 X403.0524 Y636.7251 Z-1.0000 F5000
G1 X399.7680 Y637.1288 Z-1.0000 F5000
G1 X397.3092 Y638.0646 Z-1.0000 F5000
G1 X395.7130 Y639.0264 Z-1.0000 F5000
G1 X394.1533 Y640.0462 Z-1.0000 F5000
G1 X392.0797 Y641.7288 Z-1.0000 F5000
G1 X390.0615 Y643.4774 Z-1.0000 F5000
G1 X372.4469 Y659.2205 Z-1.0000 F5000
G1 X372.4469 Y637.0187 Z-1.0000 F5000
G1 X372.4469 Y637.0187 Z10.0000 F9999
G1 X372.4469 Y580.4499 Z10.0000 F9999
G1 X372.4469 Y580.4499 Z-1.0000 F2500
G1 X395.2542 Y580.4499 Z-1.0000 F5000
G1 X395.2542 Y563.9912 Z-1.0000 F5000
G1 X395.2542 Y580.4499 Z-1.0000 F5000
G1 X413.5478 Y580.4499 Z-1.0000 F5000
G1 X413.5478 Y562.6884 Z-1.0000 F5000
G1 X413.5478 Y580.4499 Z-1.0000 F5000
G1 X372.4469 Y580.4499 Z-1.0000 F5000
G1 X372.4469 Y562.6884 Z-1.0000 F5000
G1 X372.4469 Y562.6884 Z10.0000 F9999
G1 X393.6579 Y540.2847 Z10.0000 F9999
G1 X393.6579 Y540.2847 Z-1.0000 F2500
G1 X372.4469 Y528.3398 Z-1.0000 F5000
G1 X393.6579 Y540.2847 Z-1.0000 F5000
G1 X413.5478 Y528.3398 Z-1.0000 F5000
G1 X393.6579 Y540.2847 Z-1.0000 F5000
G1 X413.5478 Y552.3581 Z-1.0000 F5000
G1 X393.6579 Y540.2847 Z-1.0000 F5000
G1 X372.4469 Y552.3581 Z-1.0000 F5000
G1 X372.4469 Y552.3581 Z10.0000 F9999
G1 X422.9423 Y595.9545 Z10.0000 F9999
G1 X422.9423 Y595.9545 Z-1.0000 F2500
G1 X370.0982 Y626.3398 Z-1.0000 F5000
G1 X422.9423 Y595.9545 Z-1.0000 F5000
G1 X422.9423 Y595.9545 Z10.0000 F9999
G1 X422.9423 Y705.1655 Z10.0000 F9999
G1 X422.9423 Y705.1655 Z-1.0000 F2500
G1 X370.0982 Y735.5508 Z-1.0000 F5000
G1 X422.9423 Y705.1655 Z-1.0000 F5000
G1 X422.9423 Y705.1655 Z10.0000 F9999
G1 X567.6291 Y693.5143 Z10.0000 F9999
G1 X567.6291 Y693.5143 Z-1.0000 F2500
G1 X564.5832 Y691.5694 Z-1.0000 F5000
G1 X562.5282 Y689.1474 Z-1.0000 F5000
G1 X561.2805 Y686.0281 Z-1.0000 F5000
G1 X560.8034 Y681.8997 Z-1.0000 F5000
G1 X561.2621 Y677.4042 Z-1.0000 F5000
G1 X563.0052 Y673.5877 Z-1.0000 F5000
G1 X565.9961 Y670.9088 Z-1.0000 F5000
G1 X570.1612 Y669.7896 Z-1.0000 F5000
G1 X574.1612 Y670.3217 Z-1.0000 F5000
G1 X576.8401 Y671.8630 Z-1.0000 F5000
G1 X578.5282 Y673.8997 Z-1.0000 F5000
G1 X579.6291 Y675.8079 Z-1.0000 F5000
G1 X584.3630 Y685.0006 Z-1.0000 F5000
G1 X585.7759 Y687.3675 Z-1.0000 F5000
G1 X587.4273 Y689.2208 Z-1.0000 F5000
G1 X589.6107 Y690.4685 Z-1.0000 F5000
G1 X592.4915 Y690.9822 Z-1.0000 F5000
G1 X595.7759 Y690.4501 Z-1.0000 F5000
G1 X598.8034 Y688.6152 Z-1.0000 F5000
G1 X601.0236 Y685.4776 Z-1.0000 F5000
G1 X601.9043 Y681.1107 Z-1.0000 F5000
G1 X601.2254 Y676.8538 Z-1.0000 F5000
G1 X599.7575 Y674.0097 Z-1.0000 F5000
G1 X597.6107 Y671.9180 Z-1.0000 F5000
G1 X599.7575 Y674.0097 Z-1.0000 F5000
G1 X601.2254 Y676.8538 Z-1.0000 F5000
G1 X601.9043 Y681.1107 Z-1.0000 F5000
G1 X601.0236 Y685.4776 Z-1.0000 F5000
G1 X598.8034 Y688.6152 Z-1.0000 F5000
G1 X595.7759 Y690.4501 Z-1.0000 F5000
G1 X592.4915 Y690.9822 Z-1.0000 F5000
G1 X589.6107 Y690.4685 Z-1.0000 F5000
G1 X587.4273 Y689.2208 Z-1.0000 F5000
G1 X585.7759 Y687.3675 Z-1.0000 F5000
G1 X584.3630 Y685.0006 Z-1.0000 F5000
G1 X579.6291 Y675.8079 Z-1.0000 F5000
G1 X578.5282 Y673.8997 Z-1.0000 F5000
G1 X576.8401 Y671.8630 Z-1.0000 F5000
G1 X574.1612 Y670.3217 Z-1.0000 F5000
G1 X570.1612 Y669.7896 Z-1.0000 F5000
G1 X565.9961 Y670.9088 Z-1.0000 F5000
G1 X563.0052 Y673.5877 Z-1.0000 F5000
G1 X561.2621 Y677.4042 Z-1.0000 F5000
G1 X560.8034 Y681.8997 Z-1.0000 F5000
G1 X561.2805 Y686.0281 Z-1.0000 F5000
G1 X562.5282 Y689.1474 Z-1.0000 F5000
G1 X564.5832 Y691.5694 Z-1.0000 F5000
G1 X564.5832 Y691.5694 Z10.0000 F9999
G1 X560.8034 Y658.2850 Z10.0000 F9999
G1 X560.8034 Y658.2850 Z-1.0000 F2500
G1 X578.4181 Y642.5419 Z-1.0000 F5000
G1 X580.4363 Y640.7932 Z-1.0000 F5000
G1 X582.5098 Y639.1107 Z-1.0000 F5000
G1 X584.0696 Y638.0908 Z-1.0000 F5000
G1 X585.6658 Y637.1290 Z-1.0000 F5000
G1 X588.1245 Y636.1932 Z-1.0000 F5000
G1 X591.4089 Y635.7896 Z-1.0000 F5000
G1 X595.1520 Y636.4134 Z-1.0000 F5000
G1 X598.5282 Y638.3400 Z-1.0000 F5000
G1 X600.9685 Y641.6795 Z-1.0000 F5000
G1 X601.9043 Y646.6703 Z-1.0000 F5000
G1 X599.2988 Y655.3859 Z-1.0000 F5000
G1 X592.5465 Y658.1749 Z-1.0000 F5000
G1 X599.2988 Y655.3859 Z-1.0000 F5000
G1 X601.9043 Y646.6703 Z-1.0000 F5000
G1 X600.9685 Y641.6795 Z-1.0000 F5000
G1 X598.5282 Y638.3400 Z-1.0000 F5000
G1 X595.1520 Y636.4134 Z-1.0000 F5000
G1 X591.4089 Y635.7896 Z-1.0000 F5000
G1 X588.1245 Y636.1932 Z-1.0000 F5000
G1 X585.6658 Y637.1290 Z-1.0000 F5000
G1 X584.0696 Y638.0908 Z-1.0000 F5000
G1 X582.5098 Y639.1107 Z-1.0000 F5000
G1 X580.4363 Y640.7932 Z-1.0000 F5000
G1 X578.4181 Y642.5419 Z-1.0000 F5000
G1 X560.8034 Y658.2850 Z-1.0000 F5000
G1 X560.8034 Y636.0831 Z-1.0000 F5000
G1 X560.8034 Y636.0831 Z10.0000 F9999
G1 X560.8034 Y579.5143 Z10.0000 F9999
G1 X560.8034 Y579.5143 Z-1.0000 F2500
G1 X583.6107 Y579.5143 Z-1.0000 F5000
G1 X583.6107 Y563.0556 Z-1.0000 F5000
G1 X583.6107 Y579.5143 Z-1.0000 F5000
G1 X601.9043 Y579.5143 Z-1.0000 F5000
G1 X601.9043 Y561.7529 Z-1.0000 F5000
G1 X601.9043 Y579.5143 Z-1.0000 F5000
G1 X560.8034 Y579.5143 Z-1.0000 F5000
G1 X560.8034 Y561.7529 Z-1.0000 F5000
G1 X560.8034 Y561.7529 Z10.0000 F9999
G1 X582.0144 Y539.3492 Z10.0000 F9999
G1 X582.0144 Y539.3492 Z-1.0000 F2500
G1 X560.8034 Y527.4042 Z-1.0000 F5000
G1 X582.0144 Y539.3492 Z-1.0000 F5000
G1 X601.9043 Y527.4042 Z-1.0000 F5000
G1 X582.0144 Y539.3492 Z-1.0000 F5000
G1 X601.9043 Y551.4226 Z-1.0000 F5000
G1 X582.0144 Y539.3492 Z-1.0000 F5000
G1 X560.8034 Y551.4226 Z-1.0000 F5000
G1 X560.8034 Y551.4226 Z10.0000 F9999
G1 X611.2988 Y595.0189 Z10.0000 F9999
G1 X611.2988 Y595.0189 Z-1.0000 F2500
G1 X558.4548 Y625.4042 Z-1.0000 F5000
G1 X611.2988 Y595.0189 Z-1.0000 F5000
G1 X611.2988 Y595.0189 Z10.0000 F9999
G1 X611.2988 Y704.2299 Z10.0000 F9999
G1 X611.2988 Y704.2299 Z-1.0000 F2500
G1 X558.4548 Y734.6152 Z-1.0000 F5000
G1 X611.2988 Y704.2299 Z-1.0000 F5000
G1 X611.2988 Y704.2299 Z10.0000 F9999
G1 X601.9043 Y762.0464 Z10.0000 F9999
G1 X601.9043 Y762.0464 Z-1.0000 F2500
G1 X560.8034 Y745.9914 Z-1.0000 F5000
G1 X601.9043 Y762.0464 Z-1.0000 F5000
G1 X560.8034 Y778.0648 Z-1.0000 F5000
G1 X560.8034 Y778.0648 Z10.0000 F9999
G1 X585.4640 Y788.7437 Z10.0000 F9999
G1 X585.4640 Y788.7437 Z-1.0000 F2500
G1 X585.4640 Y817.9914 Z-1.0000 F5000
G1 X585.4640 Y788.7437 Z-1.0000 F5000
G1 X585.4640 Y788.7437 Z10.0000 F9999
G1 X575.5007 Y751.7345 Z10.0000 F9999
G1 X575.5007 Y751.7345 Z-1.0000 F2500
G1 X575.5007 Y772.4318 Z-1.0000 F5000
G1 X575.5007 Y751.7345 Z-1.0000 F5000
G1 X575.5007 Y751.7345 Z10.0000 F9999
G1 X575.5007 Y835.1107 Z10.0000 F9999
G1 X575.5007 Y835.1107 Z-1.0000 F2500
G1 X575.5007 Y855.8079 Z-1.0000 F5000
G1 X575.5007 Y835.1107 Z-1.0000 F5000
G1 X575.5007 Y835.1107 Z10.0000 F9999
G1 X601.9043 Y845.4226 Z10.0000 F9999
G1 X601.9043 Y845.4226 Z-1.0000 F2500
G1 X560.8034 Y829.3675 Z-1.0000 F5000
G1 X601.9043 Y845.4226 Z-1.0000 F5000
G1 X560.8034 Y861.4409 Z-1.0000 F5000
G1 X560.8034 Y861.4409 Z10.0000 F9999
G1 X560.8034 Y872.1198 Z10.0000 F9999
G1 X560.8034 Y872.1198 Z-1.0000 F2500
G1 X580.9502 Y885.3492 Z-1.0000 F5000
G1 X560.8034 Y872.1198 Z-1.0000 F5000
G1 X560.8034 Y872.1198 Z10.0000 F9999
G1 X560.8034 Y889.5327 Z10.0000 F9999
G1 X560.8034 Y889.5327 Z-1.0000 F2500
G1 X601.9043 Y889.5327 Z-1.0000 F5000
G1 X601.9043 Y882.3767 Z-1.0000 F5000
G1 X601.2988 Y878.5052 Z-1.0000 F5000
G1 X599.4823 Y875.2941 Z-1.0000 F5000
G1 X596.3263 Y873.0740 Z-1.0000 F5000
G1 X591.6841 Y872.2299 Z-1.0000 F5000
G1 X587.0052 Y873.3859 Z-1.0000 F5000
G1 X583.6841 Y876.1565 Z-1.0000 F5000
G1 X581.7208 Y879.4776 Z-1.0000 F5000
G1 X581.0603 Y882.3767 Z-1.0000 F5000
G1 X581.0603 Y889.5327 Z-1.0000 F5000
G1 X581.0603 Y882.3767 Z-1.0000 F5000
G1 X581.7208 Y879.4776 Z-1.0000 F5000
G1 X583.6841 Y876.1565 Z-1.0000 F5000
G1 X587.0052 Y873.3859 Z-1.0000 F5000
G1 X591.6841 Y872.2299 Z-1.0000 F5000
G1 X596.3263 Y873.0740 Z-1.0000 F5000
G1 X599.4823 Y875.2941 Z-1.0000 F5000
G1 X601.2988 Y878.5052 Z-1.0000 F5000
G1 X601.9043 Y882.3767 Z-1.0000 F5000
G1 X601.9043 Y889.5327 Z-1.0000 F5000
G1 X601.9043 Y889.5327 Z10.0000 F9999
G1 X583.6107 Y920.0648 Z10.0000 F9999
G1 X583.6107 Y920.0648 Z-1.0000 F2500
G1 X583.6107 Y905.6244 Z-1.0000 F5000
G1 X583.6107 Y920.0648 Z-1.0000 F5000
G1 X601.9043 Y920.0648 Z-1.0000 F5000
G1 X601.9043 Y904.9455 Z-1.0000 F5000
G1 X601.9043 Y920.0648 Z-1.0000 F5000
G1 X560.8034 Y920.0648 Z-1.0000 F5000
G1 X560.8034 Y920.0648 Z10.0000 F9999
G1 X394.7886 Y1559.8634 Z10.0000 F9999
G1 X394.7886 Y1559.8634 Z-1.0000 F2500
G1 X408.1097 Y1579.9001 Z-1.0000 F5000
G1 X390.8253 Y1579.9001 Z-1.0000 F5000
G1 X408.1097 Y1579.9001 Z-1.0000 F5000
G1 X394.7886 Y1559.8634 Z-1.0000 F5000
G1 X394.7886 Y1584.5239 Z-1.0000 F5000
G1 X394.7886 Y1584.5239 Z10.0000 F9999
G1 X376.0523 Y1579.7570 Z10.0000 F9999
G1 X376.0523 Y1579.7570 Z-1.0000 F2500
G1 X375.6010 Y1581.3643 Z-1.0000 F5000
G1 X374.5661 Y1582.9056 Z-1.0000 F5000
G1 X372.7936 Y1584.0726 Z-1.0000 F5000
G1 X370.0633 Y1584.5239 Z-1.0000 F5000
G1 X364.9551 Y1582.9496 Z-1.0000 F5000
G1 X363.0945 Y1578.1606 Z-1.0000 F5000
G1 X363.6230 Y1575.3203 Z-1.0000 F5000
G1 X365.0101 Y1573.3056 Z-1.0000 F5000
G1 X366.9367 Y1572.1056 Z-1.0000 F5000
G1 X369.0835 Y1571.6982 Z-1.0000 F5000
G1 X367.0028 Y1571.2579 Z-1.0000 F5000
G1 X365.2303 Y1569.9258 Z-1.0000 F5000
G1 X363.9753 Y1567.9001 Z-1.0000 F5000
G1 X363.5019 Y1565.3790 Z-1.0000 F5000
G1 X363.5097 Y1564.6633 Z-1.0000 F5000
G1 X363.5722 Y1563.9493 Z-1.0000 F5000
G1 X363.6890 Y1563.2432 Z-1.0000 F5000
G1 X364.1624 Y1562.0322 Z-1.0000 F5000
G1 X365.0762 Y1560.9313 Z-1.0000 F5000
G1 X366.6065 Y1560.1496 Z-1.0000 F5000
G1 X368.8523 Y1559.8634 Z-1.0000 F5000
G1 X372.0780 Y1560.3588 Z-1.0000 F5000
G1 X373.9386 Y1561.5698 Z-1.0000 F5000
G1 X374.8523 Y1563.1661 Z-1.0000 F5000
G1 X375.2046 Y1564.8065 Z-1.0000 F5000
G1 X374.8523 Y1563.1661 Z-1.0000 F5000
G1 X373.9386 Y1561.5698 Z-1.0000 F5000
G1 X372.0780 Y1560.3588 Z-1.0000 F5000
G1 X368.8523 Y1559.8634 Z-1.0000 F5000
G1 X366.6065 Y1560.1496 Z-1.0000 F5000
G1 X365.0762 Y1560.9313 Z-1.0000 F5000
G1 X364.1624 Y1562.0322 Z-1.0000 F5000
G1 X363.6890 Y1563.2432 Z-1.0000 F5000
G1 X363.5708 Y1563.9491 Z-1.0000 F5000
G1 X363.5082 Y1564.6633 Z-1.0000 F5000
G1 X363.5019 Y1565.3790 Z-1.0000 F5000
G1 X363.9753 Y1567.9001 Z-1.0000 F5000
G1 X365.2303 Y1569.9258 Z-1.0000 F5000
G1 X367.0028 Y1571.2579 Z-1.0000 F5000
G1 X369.0835 Y1571.6982 Z-1.0000 F5000
G1 X366.9367 Y1572.1056 Z-1.0000 F5000
G1 X365.0101 Y1573.3056 Z-1.0000 F5000
G1 X363.6230 Y1575.3203 Z-1.0000 F5000
G1 X363.0945 Y1578.1606 Z-1.0000 F5000
G1 X364.9551 Y1582.9496 Z-1.0000 F5000
G1 X370.0633 Y1584.5239 Z-1.0000 F5000
G1 X372.7936 Y1584.0726 Z-1.0000 F5000
G1 X374.5661 Y1582.9056 Z-1.0000 F5000
G1 X375.6010 Y1581.3643 Z-1.0000 F5000
G1 X375.6010 Y1581.3643 Z10.0000 F9999
G1 X425.2941 Y1584.5239 Z10.0000 F9999
G1 X425.2941 Y1584.5239 Z-1.0000 F2500
G1 X432.8684 Y1584.5239 Z-1.0000 F5000
G1 X432.8684 Y1559.8634 Z-1.0000 F5000
G1 X432.8684 Y1584.5239 Z-1.0000 F5000
G1 X432.8684 Y1584.5239 Z10.0000 F9999
G1 X509.1189 Y1691.3280 Z10.0000 F9999
G1 X509.1189 Y1691.3280 Z-1.0000 F2500
G1 X501.5446 Y1691.3280 Z-1.0000 F5000
G1 X501.5446 Y1715.9886 Z-1.0000 F5000
G1 X501.5446 Y1691.3280 Z-1.0000 F5000
G1 X501.5446 Y1691.3280 Z10.0000 F9999
G1 X539.6244 Y1715.9886 Z10.0000 F9999
G1 X539.6244 Y1715.9886 Z-1.0000 F2500
G1 X526.3033 Y1695.9519 Z-1.0000 F5000
G1 X543.5877 Y1695.9519 Z-1.0000 F5000
G1 X526.3033 Y1695.9519 Z-1.0000 F5000
G1 X539.6244 Y1715.9886 Z-1.0000 F5000
G1 X539.6244 Y1691.3280 Z-1.0000 F5000
G1 X539.6244 Y1691.3280 Z10.0000 F9999
G1 X558.3607 Y1696.0950 Z10.0000 F9999
G1 X558.3607 Y1696.0950 Z-1.0000 F2500
G1 X558.8121 Y1694.4877 Z-1.0000 F5000
G1 X559.8469 Y1692.9464 Z-1.0000 F5000
G1 X561.6194 Y1691.7794 Z-1.0000 F5000
G1 X564.3497 Y1691.3280 Z-1.0000 F5000
G1 X569.4579 Y1692.9023 Z-1.0000 F5000
G1 X571.3185 Y1697.6913 Z-1.0000 F5000
G1 X570.7900 Y1700.5317 Z-1.0000 F5000
G1 X569.4029 Y1702.5464 Z-1.0000 F5000
G1 X567.4763 Y1703.7464 Z-1.0000 F5000
G1 X565.3295 Y1704.1537 Z-1.0000 F5000
G1 X567.4102 Y1704.5941 Z-1.0000 F5000
G1 X569.1827 Y1705.9262 Z-1.0000 F5000
G1 X570.4377 Y1707.9519 Z-1.0000 F5000
G1 X570.9111 Y1710.4730 Z-1.0000 F5000
G1 X570.9034 Y1711.1886 Z-1.0000 F5000
G1 X570.8408 Y1711.9027 Z-1.0000 F5000
G1 X570.7240 Y1712.6088 Z-1.0000 F5000
G1 X570.2506 Y1713.8198 Z-1.0000 F5000
G1 X569.3368 Y1714.9207 Z-1.0000 F5000
G1 X567.8066 Y1715.7023 Z-1.0000 F5000
G1 X565.5607 Y1715.9886 Z-1.0000 F5000
G1 X562.3350 Y1715.4932 Z-1.0000 F5000
G1 X560.4744 Y1714.2822 Z-1.0000 F5000
G1 X559.5607 Y1712.6858 Z-1.0000 F5000
G1 X559.2084 Y1711.0455 Z-1.0000 F5000
G1 X559.5607 Y1712.6858 Z-1.0000 F5000
G1 X560.4744 Y1714.2822 Z-1.0000 F5000
G1 X562.3350 Y1715.4932 Z-1.0000 F5000
G1 X565.5607 Y1715.9886 Z-1.0000 F5000
G1 X567.8066 Y1715.7023 Z-1.0000 F5000
G1 X569.3368 Y1714.9207 Z-1.0000 F5000
G1 X570.2506 Y1713.8198 Z-1.0000 F5000
G1 X570.7240 Y1712.6088 Z-1.0000 F5000
G1 X570.8423 Y1711.9028 Z-1.0000 F5000
G1 X570.9048 Y1711.1887 Z-1.0000 F5000
G1 X570.9111 Y1710.4730 Z-1.0000 F5000
G1 X570.4377 Y1707.9519 Z-1.0000 F5000
G1 X569.1827 Y1705.9262 Z-1.0000 F5000
G1 X567.4102 Y1704.5941 Z-1.0000 F5000
G1 X565.3295 Y1704.1537 Z-1.0000 F5000
G1 X567.4763 Y1703.7464 Z-1.0000 F5000
G1 X569.4029 Y1702.5464 Z-1.0000 F5000
G1 X570.7900 Y1700.5317 Z-1.0000 F5000
G1 X571.3185 Y1697.6913 Z-1.0000 F5000
G1 X569.4579 Y1692.9023 Z-1.0000 F5000
G1 X564.3497 Y1691.3280 Z-1.0000 F5000
G1 X561.6194 Y1691.7794 Z-1.0000 F5000
G1 X559.8469 Y1692.9464 Z-1.0000 F5000
G1 X558.8121 Y1694.4877 Z-1.0000 F5000
G1 X558.8121 Y1694.4877 Z10.0000 F9999
G1 X600.8687 Y1951.2751 Z10.0000 F9999
G1 X600.8687 Y1951.2751 Z-1.0000 F2500
G1 X603.9145 Y1953.2200 Z-1.0000 F5000
G1 X605.9696 Y1955.6421 Z-1.0000 F5000
G1 X607.2173 Y1958.7613 Z-1.0000 F5000
G1 X607.6944 Y1962.8898 Z-1.0000 F5000
G1 X607.2356 Y1967.3852 Z-1.0000 F5000
G1 X605.4925 Y1971.2017 Z-1.0000 F5000
G1 X602.5017 Y1973.8806 Z-1.0000 F5000
G1 X598.3366 Y1974.9999 Z-1.0000 F5000
G1 X594.3366 Y1974.4677 Z-1.0000 F5000
G1 X591.6577 Y1972.9265 Z-1.0000 F5000
G1 X589.9696 Y1970.8898 Z-1.0000 F5000
G1 X588.8687 Y1968.9815 Z-1.0000 F5000
G1 X584.1347 Y1959.7888 Z-1.0000 F5000
G1 X582.7219 Y1957.4219 Z-1.0000 F5000
G1 X581.0705 Y1955.5687 Z-1.0000 F5000
G1 X578.8870 Y1954.3210 Z-1.0000 F5000
G1 X576.0063 Y1953.8072 Z-1.0000 F5000
G1 X572.7219 Y1954.3393 Z-1.0000 F5000
G1 X569.6944 Y1956.1742 Z-1.0000 F5000
G1 X567.4742 Y1959.3118 Z-1.0000 F5000
G1 X566.5934 Y1963.6788 Z-1.0000 F5000
G1 X567.2723 Y1967.9356 Z-1.0000 F5000
G1 X568.7402 Y1970.7797 Z-1.0000 F5000
G1 X570.8870 Y1972.8714 Z-1.0000 F5000
G1 X568.7402 Y1970.7797 Z-1.0000 F5000
G1 X567.2723 Y1967.9356 Z-1.0000 F5000
G1 X566.5934 Y1963.6788 Z-1.0000 F5000
G1 X567.4742 Y1959.3118 Z-1.0000 F5000
G1 X569.6944 Y1956.1742 Z-1.0000 F5000
G1 X572.7219 Y1954.3393 Z-1.0000 F5000
G1 X576.0063 Y1953.8072 Z-1.0000 F5000
G1 X578.8870 Y1954.3210 Z-1.0000 F5000
G1 X581.0705 Y1955.5687 Z-1.0000 F5000
G1 X582.7219 Y1957.4219 Z-1.0000 F5000
G1 X584.1347 Y1959.7888 Z-1.0000 F5000
G1 X588.8687 Y1968.9815 Z-1.0000 F5000
G1 X589.9696 Y1970.8898 Z-1.0000 F5000
G1 X591.6577 Y1972.9265 Z-1.0000 F5000
G1 X594.3366 Y1974.4677 Z-1.0000 F5000
G1 X598.3366 Y1974.9999 Z-1.0000 F5000
G1 X602.5017 Y1973.8806 Z-1.0000 F5000
G1 X605.4925 Y1971.2017 Z-1.0000 F5000
G1 X607.2356 Y1967.3852 Z-1.0000 F5000
G1 X607.6944 Y1962.8898 Z-1.0000 F5000
G1 X607.2173 Y1958.7613 Z-1.0000 F5000
G1 X605.9696 Y1955.6421 Z-1.0000 F5000
G1 X603.9145 Y1953.2200 Z-1.0000 F5000
G1 X603.9145 Y1953.2200 Z10.0000 F9999
G1 X600.8687 Y2027.6054 Z10.0000 F9999
G1 X600.8687 Y2027.6054 Z-1.0000 F2500
G1 X603.9145 Y2029.5503 Z-1.0000 F5000
G1 X605.9696 Y2031.9723 Z-1.0000 F5000
G1 X607.2173 Y2035.0916 Z-1.0000 F5000
G1 X607.6944 Y2039.2200 Z-1.0000 F5000
G1 X607.2356 Y2043.7155 Z-1.0000 F5000
G1 X605.4925 Y2047.5320 Z-1.0000 F5000
G1 X602.5017 Y2050.2109 Z-1.0000 F5000
G1 X598.3366 Y2051.3301 Z-1.0000 F5000
G1 X594.3366 Y2050.7980 Z-1.0000 F5000
G1 X591.6577 Y2049.2567 Z-1.0000 F5000
G1 X589.9696 Y2047.2200 Z-1.0000 F5000
G1 X588.8687 Y2045.3118 Z-1.0000 F5000
G1 X584.1347 Y2036.1191 Z-1.0000 F5000
G1 X582.7219 Y2033.7522 Z-1.0000 F5000
G1 X581.0705 Y2031.8989 Z-1.0000 F5000
G1 X578.8870 Y2030.6512 Z-1.0000 F5000
G1 X576.0063 Y2030.1375 Z-1.0000 F5000
G1 X572.7219 Y2030.6696 Z-1.0000 F5000
G1 X569.6944 Y2032.5044 Z-1.0000 F5000
G1 X567.4742 Y2035.6421 Z-1.0000 F5000
G1 X566.5934 Y2040.0090 Z-1.0000 F5000
G1 X567.2723 Y2044.2659 Z-1.0000 F5000
G1 X568.7402 Y2047.1099 Z-1.0000 F5000
G1 X570.8870 Y2049.2017 Z-1.0000 F5000
G1 X568.7402 Y2047.1099 Z-1.0000 F5000
G1 X567.2723 Y2044.2659 Z-1.0000 F5000
G1 X566.5934 Y2040.0090 Z-1.0000 F5000
G1 X567.4742 Y2035.6421 Z-1.0000 F5000
G1 X569.6944 Y2032.5044 Z-1.0000 F5000
G1 X572.7219 Y2030.6696 Z-1.0000 F5000
G1 X576.0063 Y2030.1375 Z-1.0000 F5000
G1 X578.8870 Y2030.6512 Z-1.0000 F5000
G1 X581.0705 Y2031.8989 Z-1.0000 F5000
G1 X582.7219 Y2033.7522 Z-1.0000 F5000
G1 X584.1347 Y2036.1191 Z-1.0000 F5000
G1 X588.8687 Y2045.3118 Z-1.0000 F5000
G1 X589.9696 Y2047.2200 Z-1.0000 F5000
G1 X591.6577 Y2049.2567 Z-1.0000 F5000
G1 X594.3366 Y2050.7980 Z-1.0000 F5000
G1 X598.3366 Y2051.3301 Z-1.0000 F5000
G1 X602.5017 Y2050.2109 Z-1.0000 F5000
G1 X605.4925 Y2047.5320 Z-1.0000 F5000
G1 X607.2356 Y2043.7155 Z-1.0000 F5000
G1 X607.6944 Y2039.2200 Z-1.0000 F5000
G1 X607.2173 Y2035.0916 Z-1.0000 F5000
G1 X605.9696 Y2031.9723 Z-1.0000 F5000
G1 X603.9145 Y2029.5503 Z-1.0000 F5000
G1 X603.9145 Y2029.5503 Z10.0000 F9999
G1 X557.1989 Y2016.8898 Z10.0000 F9999
G1 X557.1989 Y2016.8898 Z-1.0000 F2500
G1 X610.0430 Y1986.5044 Z-1.0000 F5000
G1 X557.1989 Y2016.8898 Z-1.0000 F5000
G1 X557.1989 Y2016.8898 Z10.0000 F9999
G1 X569.6842 Y2210.9122 Z10.0000 F9999
G1 X569.6842 Y2210.9122 Z-1.0000 F2500
G1 X583.0053 Y2230.9489 Z-1.0000 F5000
G1 X565.7209 Y2230.9489 Z-1.0000 F5000
G1 X583.0053 Y2230.9489 Z-1.0000 F5000
G1 X569.6842 Y2210.9122 Z-1.0000 F5000
G1 X569.6842 Y2235.5728 Z-1.0000 F5000
G1 X569.6842 Y2235.5728 Z10.0000 F9999
G1 X550.9479 Y2230.8058 Z10.0000 F9999
G1 X550.9479 Y2230.8058 Z-1.0000 F2500
G1 X550.4965 Y2232.4132 Z-1.0000 F5000
G1 X549.4617 Y2233.9545 Z-1.0000 F5000
G1 X547.6892 Y2235.1214 Z-1.0000 F5000
G1 X544.9589 Y2235.5728 Z-1.0000 F5000
G1 X539.8507 Y2233.9985 Z-1.0000 F5000
G1 X537.9901 Y2229.2095 Z-1.0000 F5000
G1 X538.5185 Y2226.3691 Z-1.0000 F5000
G1 X539.9057 Y2224.3545 Z-1.0000 F5000
G1 X541.8323 Y2223.1545 Z-1.0000 F5000
G1 X543.9791 Y2222.7471 Z-1.0000 F5000
G1 X541.8984 Y2222.3067 Z-1.0000 F5000
G1 X540.1259 Y2220.9746 Z-1.0000 F5000
G1 X538.8708 Y2218.9489 Z-1.0000 F5000
G1 X538.3974 Y2216.4278 Z-1.0000 F5000
G1 X538.4052 Y2215.7122 Z-1.0000 F5000
G1 X538.4678 Y2214.9982 Z-1.0000 F5000
G1 X538.5846 Y2214.2921 Z-1.0000 F5000
G1 X539.0580 Y2213.0811 Z-1.0000 F5000
G1 X539.9718 Y2211.9801 Z-1.0000 F5000
G1 X541.5020 Y2211.1985 Z-1.0000 F5000
G1 X543.7479 Y2210.9122 Z-1.0000 F5000
G1 X546.9736 Y2211.4077 Z-1.0000 F5000
G1 X548.8341 Y2212.6187 Z-1.0000 F5000
G1 X549.7479 Y2214.2150 Z-1.0000 F5000
G1 X550.1002 Y2215.8554 Z-1.0000 F5000
G1 X549.7479 Y2214.2150 Z-1.0000 F5000
G1 X548.8341 Y2212.6187 Z-1.0000 F5000
G1 X546.9736 Y2211.4077 Z-1.0000 F5000
G1 X543.7479 Y2210.9122 Z-1.0000 F5000
G1 X541.5020 Y2211.1985 Z-1.0000 F5000
G1 X539.9718 Y2211.9801 Z-1.0000 F5000
G1 X539.0580 Y2213.0811 Z-1.0000 F5000
G1 X538.5846 Y2214.2921 Z-1.0000 F5000
G1 X538.4663 Y2214.9980 Z-1.0000 F5000
G1 X538.4038 Y2215.7121 Z-1.0000 F5000
G1 X538.3974 Y2216.4278 Z-1.0000 F5000
G1 X538.8708 Y2218.9489 Z-1.0000 F5000
G1 X540.1259 Y2220.9746 Z-1.0000 F5000
G1 X541.8984 Y2222.3067 Z-1.0000 F5000
G1 X543.9791 Y2222.7471 Z-1.0000 F5000
G1 X541.8323 Y2223.1545 Z-1.0000 F5000
G1 X539.9057 Y2224.3545 Z-1.0000 F5000
G1 X538.5185 Y2226.3691 Z-1.0000 F5000
G1 X537.9901 Y2229.2095 Z-1.0000 F5000
G1 X539.8507 Y2233.9985 Z-1.0000 F5000
G1 X544.9589 Y2235.5728 Z-1.0000 F5000
G1 X547.6892 Y2235.1214 Z-1.0000 F5000
G1 X549.4617 Y2233.9545 Z-1.0000 F5000
G1 X550.4965 Y2232.4132 Z-1.0000 F5000
G1 X550.4965 Y2232.4132 Z10.0000 F9999
G1 X600.1897 Y2235.5728 Z10.0000 F9999
G1 X600.1897 Y2235.5728 Z-1.0000 F2500
G1 X607.7640 Y2235.5728 Z-1.0000 F5000
G1 X607.7640 Y2210.9122 Z-1.0000 F5000
G1 X607.7640 Y2235.5728 Z-1.0000 F5000
G1 X607.7640 Y2235.5728 Z10.0000 F9999
G1 X434.1440 Y2347.1439 Z10.0000 F9999
G1 X434.1440 Y2347.1439 Z-1.0000 F2500
G1 X434.5953 Y2345.5365 Z-1.0000 F5000
G1 X435.6302 Y2343.9952 Z-1.0000 F5000
G1 X437.4027 Y2342.8283 Z-1.0000 F5000
G1 X440.1330 Y2342.3769 Z-1.0000 F5000
G1 X445.2412 Y2343.9512 Z-1.0000 F5000
G1 X447.1018 Y2348.7402 Z-1.0000 F5000
G1 X446.5733 Y2351.5806 Z-1.0000 F5000
G1 X445.1862 Y2353.5952 Z-1.0000 F5000
G1 X443.2596 Y2354.7952 Z-1.0000 F5000
G1 X441.1128 Y2355.2026 Z-1.0000 F5000
G1 X443.1935 Y2355.6430 Z-1.0000 F5000
G1 X444.9660 Y2356.9751 Z-1.0000 F5000
G1 X446.2210 Y2359.0007 Z-1.0000 F5000
G1 X446.6944 Y2361.5218 Z-1.0000 F5000
G1 X446.6866 Y2362.2375 Z-1.0000 F5000
G1 X446.6241 Y2362.9515 Z-1.0000 F5000
G1 X446.5073 Y2363.6576 Z-1.0000 F5000
G1 X446.0339 Y2364.8686 Z-1.0000 F5000
G1 X445.1201 Y2365.9696 Z-1.0000 F5000
G1 X443.5898 Y2366.7512 Z-1.0000 F5000
G1 X441.3440 Y2367.0374 Z-1.0000 F5000
G1 X438.1183 Y2366.5420 Z-1.0000 F5000
G1 X436.2577 Y2365.3310 Z-1.0000 F5000
G1 X435.3440 Y2363.7347 Z-1.0000 F5000
G1 X434.9917 Y2362.0943 Z-1.0000 F5000
G1 X435.3440 Y2363.7347 Z-1.0000 F5000
G1 X436.2577 Y2365.3310 Z-1.0000 F5000
G1 X438.1183 Y2366.5420 Z-1.0000 F5000
G1 X441.3440 Y2367.0374 Z-1.0000 F5000
G1 X443.5898 Y2366.7512 Z-1.0000 F5000
G1 X445.1201 Y2365.9696 Z-1.0000 F5000
G1 X446.0339 Y2364.8686 Z-1.0000 F5000
G1 X446.5073 Y2363.6576 Z-1.0000 F5000
G1 X446.6255 Y2362.9517 Z-1.0000 F5000
G1 X446.6881 Y2362.2376 Z-1.0000 F5000
G1 X446.6944 Y2361.5218 Z-1.0000 F5000
G1 X446.2210 Y2359.0007 Z-1.0000 F5000
G1 X444.9660 Y2356.9751 Z-1.0000 F5000
G1 X443.1935 Y2355.6430 Z-1.0000 F5000
G1 X441.1128 Y2355.2026 Z-1.0000 F5000
G1 X443.2596 Y2354.7952 Z-1.0000 F5000
G1 X445.1862 Y2353.5952 Z-1.0000 F5000
G1 X446.5733 Y2351.5806 Z-1.0000 F5000
G1 X447.1018 Y2348.7402 Z-1.0000 F5000
G1 X445.2412 Y2343.9512 Z-1.0000 F5000
G1 X440.1330 Y2342.3769 Z-1.0000 F5000
G1 X437.4027 Y2342.8283 Z-1.0000 F5000
G1 X435.6302 Y2343.9952 Z-1.0000 F5000
G1 X434.5953 Y2345.5365 Z-1.0000 F5000
G1 X434.5953 Y2345.5365 Z10.0000 F9999
G1 X415.4077 Y2367.0374 Z10.0000 F9999
G1 X415.4077 Y2367.0374 Z-1.0000 F2500
G1 X402.0866 Y2347.0007 Z-1.0000 F5000
G1 X419.3710 Y2347.0007 Z-1.0000 F5000
G1 X402.0866 Y2347.0007 Z-1.0000 F5000
G1 X415.4077 Y2367.0374 Z-1.0000 F5000
G1 X415.4077 Y2342.3769 Z-1.0000 F5000
G1 X415.4077 Y2342.3769 Z10.0000 F9999
G1 X384.9022 Y2342.3769 Z10.0000 F9999
G1 X384.9022 Y2342.3769 Z-1.0000 F2500
G1 X377.3279 Y2342.3769 Z-1.0000 F5000
G1 X377.3279 Y2367.0374 Z-1.0000 F5000
G1 X377.3279 Y2342.3769 Z-1.0000 F5000
G1 X377.3279 Y2342.3769 Z10.0000 F9999
G1 X322.2282 Y2235.5728 Z10.0000 F9999
G1 X322.2282 Y2235.5728 Z-1.0000 F2500
G1 X329.8025 Y2235.5728 Z-1.0000 F5000
G1 X329.8025 Y2210.9122 Z-1.0000 F5000
G1 X329.8025 Y2235.5728 Z-1.0000 F5000
G1 X329.8025 Y2235.5728 Z10.0000 F9999
G1 X291.7227 Y2210.9122 Z10.0000 F9999
G1 X291.7227 Y2210.9122 Z-1.0000 F2500
G1 X305.0438 Y2230.9489 Z-1.0000 F5000
G1 X287.7594 Y2230.9489 Z-1.0000 F5000
G1 X305.0438 Y2230.9489 Z-1.0000 F5000
G1 X291.7227 Y2210.9122 Z-1.0000 F5000
G1 X291.7227 Y2235.5728 Z-1.0000 F5000
G1 X291.7227 Y2235.5728 Z10.0000 F9999
G1 X272.9864 Y2230.8058 Z10.0000 F9999
G1 X272.9864 Y2230.8058 Z-1.0000 F2500
G1 X272.5350 Y2232.4132 Z-1.0000 F5000
G1 X271.5001 Y2233.9545 Z-1.0000 F5000
G1 X269.7277 Y2235.1214 Z-1.0000 F5000
G1 X266.9974 Y2235.5728 Z-1.0000 F5000
G1 X261.8891 Y2233.9985 Z-1.0000 F5000
G1 X260.0286 Y2229.2095 Z-1.0000 F5000
G1 X260.5570 Y2226.3691 Z-1.0000 F5000
G1 X261.9442 Y2224.3545 Z-1.0000 F5000
G1 X263.8708 Y2223.1545 Z-1.0000 F5000
G1 X266.0176 Y2222.7471 Z-1.0000 F5000
G1 X263.9368 Y2222.3067 Z-1.0000 F5000
G1 X262.1644 Y2220.9746 Z-1.0000 F5000
G1 X260.9093 Y2218.9489 Z-1.0000 F5000
G1 X260.4359 Y2216.4278 Z-1.0000 F5000
G1 X260.4437 Y2215.7122 Z-1.0000 F5000
G1 X260.5063 Y2214.9982 Z-1.0000 F5000
G1 X260.6231 Y2214.2921 Z-1.0000 F5000
G1 X261.0965 Y2213.0811 Z-1.0000 F5000
G1 X262.0102 Y2211.9801 Z-1.0000 F5000
G1 X263.5405 Y2211.1985 Z-1.0000 F5000
G1 X265.7864 Y2210.9122 Z-1.0000 F5000
G1 X269.0121 Y2211.4077 Z-1.0000 F5000
G1 X270.8726 Y2212.6187 Z-1.0000 F5000
G1 X271.7864 Y2214.2150 Z-1.0000 F5000
G1 X272.1387 Y2215.8554 Z-1.0000 F5000
G1 X271.7864 Y2214.2150 Z-1.0000 F5000
G1 X270.8726 Y2212.6187 Z-1.0000 F5000
G1 X269.0121 Y2211.4077 Z-1.0000 F5000
G1 X265.7864 Y2210.9122 Z-1.0000 F5000
G1 X263.5405 Y2211.1985 Z-1.0000 F5000
G1 X262.0102 Y2211.9801 Z-1.0000 F5000
G1 X261.0965 Y2213.0811 Z-1.0000 F5000
G1 X260.6231 Y2214.2921 Z-1.0000 F5000
G1 X260.5048 Y2214.9980 Z-1.0000 F5000
G1 X260.4422 Y2215.7121 Z-1.0000 F5000
G1 X260.4359 Y2216.4278 Z-1.0000 F5000
G1 X260.9093 Y2218.9489 Z-1.0000 F5000
G1 X262.1644 Y2220.9746 Z-1.0000 F5000
G1 X263.9368 Y2222.3067 Z-1.0000 F5000
G1 X266.0176 Y2222.7471 Z-1.0000 F5000
G1 X263.8708 Y2223.1545 Z-1.0000 F5000
G1 X261.9442 Y2224.3545 Z-1.0000 F5000
G1 X260.5570 Y2226.3691 Z-1.0000 F5000
G1 X260.0286 Y2229.2095 Z-1.0000 F5000
G1 X261.8891 Y2233.9985 Z-1.0000 F5000
G1 X266.9974 Y2235.5728 Z-1.0000 F5000
G1 X269.7277 Y2235.1214 Z-1.0000 F5000
G1 X271.5001 Y2233.9545 Z-1.0000 F5000
G1 X272.5350 Y2232.4132 Z-1.0000 F5000
G1 X272.5350 Y2232.4132 Z10.0000 F9999
G1 X299.0139 Y2103.1319 Z10.0000 F9999
G1 X299.0139 Y2103.1319 Z-1.0000 F2500
G1 X268.6286 Y2050.2879 Z-1.0000 F5000
G1 X299.0139 Y2103.1319 Z-1.0000 F5000
G1 X299.0139 Y2103.1319 Z10.0000 F9999
G1 X309.7295 Y2059.4622 Z10.0000 F9999
G1 X309.7295 Y2059.4622 Z-1.0000 F2500
G1 X311.6744 Y2056.4163 Z-1.0000 F5000
G1 X314.0965 Y2054.3613 Z-1.0000 F5000
G1 X317.2157 Y2053.1136 Z-1.0000 F5000
G1 X321.3442 Y2052.6365 Z-1.0000 F5000
G1 X325.8396 Y2053.0952 Z-1.0000 F5000
G1 X329.6561 Y2054.8383 Z-1.0000 F5000
G1 X332.3350 Y2057.8292 Z-1.0000 F5000
G1 X333.4543 Y2061.9943 Z-1.0000 F5000
G1 X332.9221 Y2065.9943 Z-1.0000 F5000
G1 X331.3809 Y2068.6732 Z-1.0000 F5000
G1 X329.3442 Y2070.3613 Z-1.0000 F5000
G1 X327.4359 Y2071.4622 Z-1.0000 F5000
G1 X318.2432 Y2076.1961 Z-1.0000 F5000
G1 X315.8763 Y2077.6090 Z-1.0000 F5000
G1 X314.0231 Y2079.2604 Z-1.0000 F5000
G1 X312.7754 Y2081.4438 Z-1.0000 F5000
G1 X312.2616 Y2084.3246 Z-1.0000 F5000
G1 X312.7937 Y2087.6090 Z-1.0000 F5000
G1 X314.6286 Y2090.6365 Z-1.0000 F5000
G1 X317.7662 Y2092.8567 Z-1.0000 F5000
G1 X322.1332 Y2093.7374 Z-1.0000 F5000
G1 X326.3900 Y2093.0585 Z-1.0000 F5000
G1 X329.2341 Y2091.5906 Z-1.0000 F5000
G1 X331.3258 Y2089.4438 Z-1.0000 F5000
G1 X329.2341 Y2091.5906 Z-1.0000 F5000
G1 X326.3900 Y2093.0585 Z-1.0000 F5000
G1 X322.1332 Y2093.7374 Z-1.0000 F5000
G1 X317.7662 Y2092.8567 Z-1.0000 F5000
G1 X314.6286 Y2090.6365 Z-1.0000 F5000
G1 X312.7937 Y2087.6090 Z-1.0000 F5000
G1 X312.2616 Y2084.3246 Z-1.0000 F5000
G1 X312.7754 Y2081.4438 Z-1.0000 F5000
G1 X314.0231 Y2079.2604 Z-1.0000 F5000
G1 X315.8763 Y2077.6090 Z-1.0000 F5000
G1 X318.2432 Y2076.1961 Z-1.0000 F5000
G1 X327.4359 Y2071.4622 Z-1.0000 F5000
G1 X329.3442 Y2070.3613 Z-1.0000 F5000
G1 X331.3809 Y2068.6732 Z-1.0000 F5000
G1 X332.9221 Y2065.9943 Z-1.0000 F5000
G1 X333.4543 Y2061.9943 Z-1.0000 F5000
G1 X332.3350 Y2057.8292 Z-1.0000 F5000
G1 X329.6561 Y2054.8383 Z-1.0000 F5000
G1 X325.8396 Y2053.0952 Z-1.0000 F5000
G1 X321.3442 Y2052.6365 Z-1.0000 F5000
G1 X317.2157 Y2053.1136 Z-1.0000 F5000
G1 X314.0965 Y2054.3613 Z-1.0000 F5000
G1 X311.6744 Y2056.4163 Z-1.0000 F5000
G1 X311.6744 Y2056.4163 Z10.0000 F9999
G1 X233.3992 Y2059.4622 Z10.0000 F9999
G1 X233.3992 Y2059.4622 Z-1.0000 F2500
G1 X235.3442 Y2056.4163 Z-1.0000 F5000
G1 X237.7662 Y2054.3613 Z-1.0000 F5000
G1 X240.8854 Y2053.1136 Z-1.0000 F5000
G1 X245.0139 Y2052.6365 Z-1.0000 F5000
G1 X249.5093 Y2053.0952 Z-1.0000 F5000
G1 X253.3258 Y2054.8383 Z-1.0000 F5000
G1 X256.0047 Y2057.8292 Z-1.0000 F5000
G1 X257.1240 Y2061.9943 Z-1.0000 F5000
G1 X256.5919 Y2065.9943 Z-1.0000 F5000
G1 X255.0506 Y2068.6732 Z-1.0000 F5000
G1 X253.0139 Y2070.3613 Z-1.0000 F5000
G1 X251.1056 Y2071.4622 Z-1.0000 F5000
G1 X241.9130 Y2076.1961 Z-1.0000 F5000
G1 X239.5460 Y2077.6090 Z-1.0000 F5000
G1 X237.6928 Y2079.2604 Z-1.0000 F5000
G1 X236.4451 Y2081.4438 Z-1.0000 F5000
G1 X235.9313 Y2084.3246 Z-1.0000 F5000
G1 X236.4634 Y2087.6090 Z-1.0000 F5000
G1 X238.2983 Y2090.6365 Z-1.0000 F5000
G1 X241.4359 Y2092.8567 Z-1.0000 F5000
G1 X245.8029 Y2093.7374 Z-1.0000 F5000
G1 X250.0598 Y2093.0585 Z-1.0000 F5000
G1 X252.9038 Y2091.5906 Z-1.0000 F5000
G1 X254.9955 Y2089.4438 Z-1.0000 F5000
G1 X252.9038 Y2091.5906 Z-1.0000 F5000
G1 X250.0598 Y2093.0585 Z-1.0000 F5000
G1 X245.8029 Y2093.7374 Z-1.0000 F5000
G1 X241.4359 Y2092.8567 Z-1.0000 F5000
G1 X238.2983 Y2090.6365 Z-1.0000 F5000
G1 X236.4634 Y2087.6090 Z-1.0000 F5000
G1 X235.9313 Y2084.3246 Z-1.0000 F5000
G1 X236.4451 Y2081.4438 Z-1.0000 F5000
G1 X237.6928 Y2079.2604 Z-1.0000 F5000
G1 X239.5460 Y2077.6090 Z-1.0000 F5000
G1 X241.9130 Y2076.1961 Z-1.0000 F5000
G1 X251.1056 Y2071.4622 Z-1.0000 F5000
G1 X253.0139 Y2070.3613 Z-1.0000 F5000
G1 X255.0506 Y2068.6732 Z-1.0000 F5000
G1 X256.5919 Y2065.9943 Z-1.0000 F5000
G1 X257.1240 Y2061.9943 Z-1.0000 F5000
G1 X256.0047 Y2057.8292 Z-1.0000 F5000
G1 X253.3258 Y2054.8383 Z-1.0000 F5000
G1 X249.5093 Y2053.0952 Z-1.0000 F5000
G1 X245.0139 Y2052.6365 Z-1.0000 F5000
G1 X240.8854 Y2053.1136 Z-1.0000 F5000
G1 X237.7662 Y2054.3613 Z-1.0000 F5000
G1 X235.3442 Y2056.4163 Z-1.0000 F5000
G1 X235.3442 Y2056.4163 Z10.0000 F9999
G1 X300.7395 Y1923.6694 Z10.0000 F9999
G1 X300.7395 Y1923.6694 Z-1.0000 F2500
G1 X270.3542 Y1870.8254 Z-1.0000 F5000
G1 X300.7395 Y1923.6694 Z-1.0000 F5000
G1 X300.7395 Y1923.6694 Z10.0000 F9999
G1 X311.4551 Y1879.9997 Z10.0000 F9999
G1 X311.4551 Y1879.9997 Z-1.0000 F2500
G1 X313.4000 Y1876.9538 Z-1.0000 F5000
G1 X315.8221 Y1874.8988 Z-1.0000 F5000
G1 X318.9413 Y1873.6511 Z-1.0000 F5000
G1 X323.0698 Y1873.1740 Z-1.0000 F5000
G1 X327.5652 Y1873.6327 Z-1.0000 F5000
G1 X331.3817 Y1875.3758 Z-1.0000 F5000
G1 X334.0606 Y1878.3666 Z-1.0000 F5000
G1 X335.1799 Y1882.5318 Z-1.0000 F5000
G1 X334.6477 Y1886.5318 Z-1.0000 F5000
G1 X333.1065 Y1889.2107 Z-1.0000 F5000
G1 X331.0698 Y1890.8988 Z-1.0000 F5000
G1 X329.1615 Y1891.9997 Z-1.0000 F5000
G1 X319.9688 Y1896.7336 Z-1.0000 F5000
G1 X317.6019 Y1898.1465 Z-1.0000 F5000
G1 X315.7487 Y1899.7978 Z-1.0000 F5000
G1 X314.5010 Y1901.9813 Z-1.0000 F5000
G1 X313.9872 Y1904.8621 Z-1.0000 F5000
G1 X314.5193 Y1908.1465 Z-1.0000 F5000
G1 X316.3542 Y1911.1740 Z-1.0000 F5000
G1 X319.4918 Y1913.3942 Z-1.0000 F5000
G1 X323.8588 Y1914.2749 Z-1.0000 F5000
G1 X328.1156 Y1913.5960 Z-1.0000 F5000
G1 X330.9597 Y1912.1281 Z-1.0000 F5000
G1 X333.0514 Y1909.9813 Z-1.0000 F5000
G1 X330.9597 Y1912.1281 Z-1.0000 F5000
G1 X328.1156 Y1913.5960 Z-1.0000 F5000
G1 X323.8588 Y1914.2749 Z-1.0000 F5000
G1 X319.4918 Y1913.3942 Z-1.0000 F5000
G1 X316.3542 Y1911.1740 Z-1.0000 F5000
G1 X314.5193 Y1908.1465 Z-1.0000 F5000
G1 X313.9872 Y1904.8621 Z-1.0000 F5000
G1 X314.5010 Y1901.9813 Z-1.0000 F5000
G1 X315.7487 Y1899.7978 Z-1.0000 F5000
G1 X317.6019 Y1898.1465 Z-1.0000 F5000
G1 X319.9688 Y1896.7336 Z-1.0000 F5000
G1 X329.1615 Y1891.9997 Z-1.0000 F5000
G1 X331.0698 Y1890.8988 Z-1.0000 F5000
G1 X333.1065 Y1889.2107 Z-1.0000 F5000
G1 X334.6477 Y1886.5318 Z-1.0000 F5000
G1 X335.1799 Y1882.5318 Z-1.0000 F5000
G1 X334.0606 Y1878.3666 Z-1.0000 F5000
G1 X331.3817 Y1875.3758 Z-1.0000 F5000
G1 X327.5652 Y1873.6327 Z-1.0000 F5000
G1 X323.0698 Y1873.1740 Z-1.0000 F5000
G1 X318.9413 Y1873.6511 Z-1.0000 F5000
G1 X315.8221 Y1874.8988 Z-1.0000 F5000
G1 X313.4000 Y1876.9538 Z-1.0000 F5000
G1 X313.4000 Y1876.9538 Z10.0000 F9999
G1 X235.1248 Y1879.9997 Z10.0000 F9999
G1 X235.1248 Y1879.9997 Z-1.0000 F2500
G1 X237.0698 Y1876.9538 Z-1.0000 F5000
G1 X239.4918 Y1874.8988 Z-1.0000 F5000
G1 X242.6110 Y1873.6511 Z-1.0000 F5000
G1 X246.7395 Y1873.1740 Z-1.0000 F5000
G1 X251.2349 Y1873.6327 Z-1.0000 F5000
G1 X255.0514 Y1875.3758 Z-1.0000 F5000
G1 X257.7303 Y1878.3666 Z-1.0000 F5000
G1 X258.8496 Y1882.5318 Z-1.0000 F5000
G1 X258.3175 Y1886.5318 Z-1.0000 F5000
G1 X256.7762 Y1889.2107 Z-1.0000 F5000
G1 X254.7395 Y1890.8988 Z-1.0000 F5000
G1 X252.8312 Y1891.9997 Z-1.0000 F5000
G1 X243.6386 Y1896.7336 Z-1.0000 F5000
G1 X241.2716 Y1898.1465 Z-1.0000 F5000
G1 X239.4184 Y1899.7978 Z-1.0000 F5000
G1 X238.1707 Y1901.9813 Z-1.0000 F5000
G1 X237.6569 Y1904.8621 Z-1.0000 F5000
G1 X238.1890 Y1908.1465 Z-1.0000 F5000
G1 X240.0239 Y1911.1740 Z-1.0000 F5000
G1 X243.1615 Y1913.3942 Z-1.0000 F5000
G1 X247.5285 Y1914.2749 Z-1.0000 F5000
G1 X251.7854 Y1913.5960 Z-1.0000 F5000
G1 X254.6294 Y1912.1281 Z-1.0000 F5000
G1 X256.7211 Y1909.9813 Z-1.0000 F5000
G1 X254.6294 Y1912.1281 Z-1.0000 F5000
G1 X251.7854 Y1913.5960 Z-1.0000 F5000
G1 X247.5285 Y1914.2749 Z-1.0000 F5000
G1 X243.1615 Y1913.3942 Z-1.0000 F5000
G1 X240.0239 Y1911.1740 Z-1.0000 F5000
G1 X238.1890 Y1908.1465 Z-1.0000 F5000
G1 X237.6569 Y1904.8621 Z-1.0000 F5000
G1 X238.1707 Y1901.9813 Z-1.0000 F5000
G1 X239.4184 Y1899.7978 Z-1.0000 F5000
G1 X241.2716 Y1898.1465 Z-1.0000 F5000
G1 X243.6386 Y1896.7336 Z-1.0000 F5000
G1 X252.8312 Y1891.9997 Z-1.0000 F5000
G1 X254.7395 Y1890.8988 Z-1.0000 F5000
G1 X256.7762 Y1889.2107 Z-1.0000 F5000
G1 X258.3175 Y1886.5318 Z-1.0000 F5000
G1 X258.8496 Y1882.5318 Z-1.0000 F5000
G1 X257.7303 Y1878.3666 Z-1.0000 F5000
G1 X255.0514 Y1875.3758 Z-1.0000 F5000
G1 X251.2349 Y1873.6327 Z-1.0000 F5000
G1 X246.7395 Y1873.1740 Z-1.0000 F5000
G1 X242.6110 Y1873.6511 Z-1.0000 F5000
G1 X239.4918 Y1874.8988 Z-1.0000 F5000
G1 X237.0698 Y1876.9538 Z-1.0000 F5000
G1 X237.0698 Y1876.9538 Z10.0000 F9999
G1 X212.8200 Y1715.9886 Z10.0000 F9999
G1 X212.8200 Y1715.9886 Z-1.0000 F2500
G1 X199.4989 Y1695.9519 Z-1.0000 F5000
G1 X216.7833 Y1695.9519 Z-1.0000 F5000
G1 X199.4989 Y1695.9519 Z-1.0000 F5000
G1 X212.8200 Y1715.9886 Z-1.0000 F5000
G1 X212.8200 Y1691.3280 Z-1.0000 F5000
G1 X212.8200 Y1691.3280 Z10.0000 F9999
G1 X231.5563 Y1696.0950 Z10.0000 F9999
G1 X231.5563 Y1696.0950 Z-1.0000 F2500
G1 X232.0077 Y1694.4877 Z-1.0000 F5000
G1 X233.0425 Y1692.9464 Z-1.0000 F5000
G1 X234.8150 Y1691.7794 Z-1.0000 F5000
G1 X237.5453 Y1691.3280 Z-1.0000 F5000
G1 X242.6535 Y1692.9023 Z-1.0000 F5000
G1 X244.5141 Y1697.6913 Z-1.0000 F5000
G1 X243.9856 Y1700.5317 Z-1.0000 F5000
G1 X242.5985 Y1702.5464 Z-1.0000 F5000
G1 X240.6719 Y1703.7464 Z-1.0000 F5000
G1 X238.5251 Y1704.1537 Z-1.0000 F5000
G1 X240.6058 Y1704.5941 Z-1.0000 F5000
G1 X242.3783 Y1705.9262 Z-1.0000 F5000
G1 X243.6333 Y1707.9519 Z-1.0000 F5000
G1 X244.1067 Y1710.4730 Z-1.0000 F5000
G1 X244.0989 Y1711.1886 Z-1.0000 F5000
G1 X244.0364 Y1711.9027 Z-1.0000 F5000
G1 X243.9196 Y1712.6088 Z-1.0000 F5000
G1 X243.4462 Y1713.8198 Z-1.0000 F5000
G1 X242.5324 Y1714.9207 Z-1.0000 F5000
G1 X241.0021 Y1715.7023 Z-1.0000 F5000
G1 X238.7563 Y1715.9886 Z-1.0000 F5000
G1 X235.5306 Y1715.4932 Z-1.0000 F5000
G1 X233.6700 Y1714.2822 Z-1.0000 F5000
G1 X232.7563 Y1712.6858 Z-1.0000 F5000
G1 X232.4040 Y1711.0455 Z-1.0000 F5000
G1 X232.7563 Y1712.6858 Z-1.0000 F5000
G1 X233.6700 Y1714.2822 Z-1.0000 F5000
G1 X235.5306 Y1715.4932 Z-1.0000 F5000
G1 X238.7563 Y1715.9886 Z-1.0000 F5000
G1 X241.0021 Y1715.7023 Z-1.0000 F5000
G1 X242.5324 Y1714.9207 Z-1.0000 F5000
G1 X243.4462 Y1713.8198 Z-1.0000 F5000
G1 X243.9196 Y1712.6088 Z-1.0000 F5000
G1 X244.0378 Y1711.9028 Z-1.0000 F5000
G1 X244.1004 Y1711.1887 Z-1.0000 F5000
G1 X244.1067 Y1710.4730 Z-1.0000 F5000
G1 X243.6333 Y1707.9519 Z-1.0000 F5000
G1 X242.3783 Y1705.9262 Z-1.0000 F5000
G1 X240.6058 Y1704.5941 Z-1.0000 F5000
G1 X238.5251 Y1704.1537 Z-1.0000 F5000
G1 X240.6719 Y1703.7464 Z-1.0000 F5000
G1 X242.5985 Y1702.5464 Z-1.0000 F5000
G1 X243.9856 Y1700.5317 Z-1.0000 F5000
G1 X244.5141 Y1697.6913 Z-1.0000 F5000
G1 X242.6535 Y1692.9023 Z-1.0000 F5000
G1 X237.5453 Y1691.3280 Z-1.0000 F5000
G1 X234.8150 Y1691.7794 Z-1.0000 F5000
G1 X233.0425 Y1692.9464 Z-1.0000 F5000
G1 X232.0077 Y1694.4877 Z-1.0000 F5000
G1 X232.0077 Y1694.4877 Z10.0000 F9999
G1 X182.3145 Y1691.3280 Z10.0000 F9999
G1 X182.3145 Y1691.3280 Z-1.0000 F2500
G1 X174.7402 Y1691.3280 Z-1.0000 F5000
G1 X174.7402 Y1715.9886 Z-1.0000 F5000
G1 X174.7402 Y1691.3280 Z-1.0000 F5000
G1 X174.7402 Y1691.3280 Z10.0000 F9999
G1 X101.0795 Y2342.3769 Z10.0000 F9999
G1 X101.0795 Y2342.3769 Z-1.0000 F2500
G1 X93.5052 Y2342.3769 Z-1.0000 F5000
G1 X93.5052 Y2367.0374 Z-1.0000 F5000
G1 X93.5052 Y2342.3769 Z-1.0000 F5000
G1 X93.5052 Y2342.3769 Z10.0000 F9999
G1 X131.5850 Y2367.0374 Z10.0000 F9999
G1 X131.5850 Y2367.0374 Z-1.0000 F2500
G1 X118.2639 Y2347.0007 Z-1.0000 F5000
G1 X135.5483 Y2347.0007 Z-1.0000 F5000
G1 X118.2639 Y2347.0007 Z-1.0000 F5000
G1 X131.5850 Y2367.0374 Z-1.0000 F5000
G1 X131.5850 Y2342.3769 Z-1.0000 F5000
G1 X131.5850 Y2342.3769 Z10.0000 F9999
G1 X150.3213 Y2347.1439 Z10.0000 F9999
G1 X150.3213 Y2347.1439 Z-1.0000 F2500
G1 X150.7727 Y2345.5365 Z-1.0000 F5000
G1 X151.8075 Y2343.9952 Z-1.0000 F5000
G1 X153.5800 Y2342.8283 Z-1.0000 F5000
G1 X156.3103 Y2342.3769 Z-1.0000 F5000
G1 X161.4185 Y2343.9512 Z-1.0000 F5000
G1 X163.2791 Y2348.7402 Z-1.0000 F5000
G1 X162.7507 Y2351.5806 Z-1.0000 F5000
G1 X161.3635 Y2353.5952 Z-1.0000 F5000
G1 X159.4369 Y2354.7952 Z-1.0000 F5000
G1 X157.2901 Y2355.2026 Z-1.0000 F5000
G1 X159.3708 Y2355.6430 Z-1.0000 F5000
G1 X161.1433 Y2356.9751 Z-1.0000 F5000
G1 X162.3984 Y2359.0007 Z-1.0000 F5000
G1 X162.8718 Y2361.5218 Z-1.0000 F5000
G1 X162.8640 Y2362.2375 Z-1.0000 F5000
G1 X162.8014 Y2362.9515 Z-1.0000 F5000
G1 X162.6846 Y2363.6576 Z-1.0000 F5000
G1 X162.2112 Y2364.8686 Z-1.0000 F5000
G1 X161.2974 Y2365.9696 Z-1.0000 F5000
G1 X159.7672 Y2366.7512 Z-1.0000 F5000
G1 X157.5213 Y2367.0374 Z-1.0000 F5000
G1 X154.2956 Y2366.5420 Z-1.0000 F5000
G1 X152.4351 Y2365.3310 Z-1.0000 F5000
G1 X151.5213 Y2363.7347 Z-1.0000 F5000
G1 X151.1690 Y2362.0943 Z-1.0000 F5000
G1 X151.5213 Y2363.7347 Z-1.0000 F5000
G1 X152.4351 Y2365.3310 Z-1.0000 F5000
G1 X154.2956 Y2366.5420 Z-1.0000 F5000
G1 X157.5213 Y2367.0374 Z-1.0000 F5000
G1 X159.7672 Y2366.7512 Z-1.0000 F5000
G1 X161.2974 Y2365.9696 Z-1.0000 F5000
G1 X162.2112 Y2364.8686 Z-1.0000 F5000
G1 X162.6846 Y2363.6576 Z-1.0000 F5000
G1 X162.8029 Y2362.9517 Z-1.0000 F5000
G1 X162.8654 Y2362.2376 Z-1.0000 F5000
G1 X162.8718 Y2361.5218 Z-1.0000 F5000
G1 X162.3984 Y2359.0007 Z-1.0000 F5000
G1 X161.1433 Y2356.9751 Z-1.0000 F5000
G1 X159.3708 Y2355.6430 Z-1.0000 F5000
G1 X157.2901 Y2355.2026 Z-1.0000 F5000
G1 X159.4369 Y2354.7952 Z-1.0000 F5000
G1 X161.3635 Y2353.5952 Z-1.0000 F5000
G1 X162.7507 Y2351.5806 Z-1.0000 F5000
G1 X163.2791 Y2348.7402 Z-1.0000 F5000
G1 X161.4185 Y2343.9512 Z-1.0000 F5000
G1 X156.3103 Y2342.3769 Z-1.0000 F5000
G1 X153.5800 Y2342.8283 Z-1.0000 F5000
G1 X151.8075 Y2343.9952 Z-1.0000 F5000
G1 X150.7727 Y2345.5365 Z-1.0000 F5000
G1 X150.7727 Y2345.5365 Z10.0000 F9999
G1 X592.1429 Y85.4220 Z10.0000 F9999
G1 X592.1429 Y85.4220 Z-1.0000 F2500
G1 X591.3907 Y88.1009 Z-1.0000 F5000
G1 X589.6659 Y90.6697 Z-1.0000 F5000
G1 X586.7118 Y92.6147 Z-1.0000 F5000
G1 X582.1613 Y93.3670 Z-1.0000 F5000
G1 X573.6475 Y90.7431 Z-1.0000 F5000
G1 X570.5466 Y82.7615 Z-1.0000 F5000
G1 X571.4274 Y78.0275 Z-1.0000 F5000
G1 X573.7393 Y74.6697 Z-1.0000 F5000
G1 X576.9503 Y72.6697 Z-1.0000 F5000
G1 X580.5283 Y71.9908 Z-1.0000 F5000
G1 X577.0604 Y71.2569 Z-1.0000 F5000
G1 X574.1062 Y69.0367 Z-1.0000 F5000
G1 X572.0145 Y65.6606 Z-1.0000 F5000
G1 X571.2255 Y61.4587 Z-1.0000 F5000
G1 X571.2622 Y59.8807 Z-1.0000 F5000
G1 X571.5374 Y57.8991 Z-1.0000 F5000
G1 X572.3264 Y55.8807 Z-1.0000 F5000
G1 X573.8494 Y54.0459 Z-1.0000 F5000
G1 X576.3998 Y52.7431 Z-1.0000 F5000
G1 X580.1429 Y52.2661 Z-1.0000 F5000
G1 X585.5191 Y53.0917 Z-1.0000 F5000
G1 X588.6200 Y55.1101 Z-1.0000 F5000
G1 X590.1429 Y57.7706 Z-1.0000 F5000
G1 X590.7301 Y60.5046 Z-1.0000 F5000
G1 X590.1429 Y57.7706 Z-1.0000 F5000
G1 X588.6200 Y55.1101 Z-1.0000 F5000
G1 X585.5191 Y53.0917 Z-1.0000 F5000
G1 X580.1429 Y52.2661 Z-1.0000 F5000
G1 X576.3998 Y52.7431 Z-1.0000 F5000
G1 X573.8494 Y54.0459 Z-1.0000 F5000
G1 X572.3264 Y55.8807 Z-1.0000 F5000
G1 X571.5374 Y57.8991 Z-1.0000 F5000
G1 X571.2622 Y59.8440 Z-1.0000 F5000
G1 X571.2255 Y61.4587 Z-1.0000 F5000
G1 X572.0145 Y65.6606 Z-1.0000 F5000
G1 X574.1062 Y69.0367 Z-1.0000 F5000
G1 X577.0604 Y71.2569 Z-1.0000 F5000
G1 X580.5283 Y71.9908 Z-1.0000 F5000
G1 X576.9503 Y72.6697 Z-1.0000 F5000
G1 X573.7393 Y74.6697 Z-1.0000 F5000
G1 X571.4274 Y78.0275 Z-1.0000 F5000
G1 X570.5466 Y82.7615 Z-1.0000 F5000
G1 X573.6475 Y90.7431 Z-1.0000 F5000
G1 X582.1613 Y93.3670 Z-1.0000 F5000
G1 X586.7118 Y92.6147 Z-1.0000 F5000
G1 X589.6659 Y90.6697 Z-1.0000 F5000
G1 X591.3907 Y88.1009 Z-1.0000 F5000
G1 X591.3907 Y88.1009 Z10.0000 F9999
G1 X649.5191 Y93.3670 Z10.0000 F9999
G1 X649.5191 Y93.3670 Z-1.0000 F2500
G1 X633.5741 Y52.2661 Z-1.0000 F5000
G1 X617.6108 Y93.3670 Z-1.0000 F5000
G1 X604.5466 Y52.2661 Z-1.0000 F5000
G1 X617.6108 Y93.3670 Z-1.0000 F5000
G1 X633.5741 Y52.2661 Z-1.0000 F5000
G1 X649.5191 Y93.3670 Z-1.0000 F5000
G1 X662.6017 Y52.2661 Z-1.0000 F5000
G1 X662.6017 Y52.2661 Z10.0000 F9999
(Tool Number:1) (7.998 mm dia. slot drill)
M3 S9000
G1 X159.2801 Y2382.2709 Z10.0000 F9999
G1 X159.2801 Y2382.2709 Z0.0000 F2500
G1 X119.2816 Y2381.9218 Z-20.0000 F5000
G1 X49.6716 Y2381.9218 Z-20.0000 F5000
G1 X49.6716 Y2381.9218 Z-10.0000 F9999
G1 X36.6736 Y2381.9218 Z-10.0000 F5000
G1 X36.6736 Y2381.9218 Z-20.0000 F2500
G1 X17.8067 Y2381.9218 Z-20.0000 F5000
G1 X17.8067 Y2338.9238 Z-20.0000 F5000
G1 X76.3067 Y2338.9238 Z-20.0000 F5000
G1 X76.3067 Y2253.5487 Z-20.0000 F5000
G1 X92.1920 Y2253.5487 Z-20.0000 F5000
G1 X92.1920 Y2253.5487 Z-10.0000 F9999
G1 X105.1900 Y2253.5487 Z-10.0000 F5000
G1 X105.1900 Y2253.5487 Z-20.0000 F2500
G1 X118.0427 Y2253.5487 Z-20.0000 F5000
G1 X124.8931 Y2325.9238 Z-20.0000 F5000
G1 X148.7187 Y2325.9238 Z-20.0000 F5000
G1 X155.5690 Y2253.5487 Z-20.0000 F5000
G1 X197.3050 Y2253.5487 Z-20.0000 F5000
G1 X197.3050 Y2338.9238 Z-20.0000 F5000
G1 X255.8050 Y2338.9238 Z-20.0000 F5000
G1 X255.8050 Y2381.9218 Z-20.0000 F5000
G1 X201.8896 Y2381.9218 Z-20.0000 F5000
G1 X201.8896 Y2381.9218 Z-10.0000 F9999
G1 X188.8916 Y2381.9218 Z-10.0000 F5000
G1 X188.8916 Y2381.9218 Z-20.0000 F2500
G1 X119.2816 Y2381.9218 Z-20.0000 F5000
G1 X95.2816 Y2381.9218 Z-20.0000 F5000
G1 X55.2831 Y2382.2709 Z0.0000 F5000
G1 X55.2831 Y2382.2709 Z10.0000 F9999
G1 X443.1027 Y2382.2709 Z10.0000 F9999
G1 X443.1027 Y2382.2709 Z0.0000 F2500
G1 X403.1043 Y2381.9218 Z-20.0000 F5000
G1 X333.4943 Y2381.9218 Z-20.0000 F5000
G1 X333.4943 Y2381.9218 Z-10.0000 F9999
G1 X320.4963 Y2381.9218 Z-10.0000 F5000
G1 X320.4963 Y2381.9218 Z-20.0000 F2500
G1 X301.6294 Y2381.9218 Z-20.0000 F5000
G1 X301.6294 Y2338.9238 Z-20.0000 F5000
G1 X360.1294 Y2338.9238 Z-20.0000 F5000
G1 X360.1294 Y2253.5487 Z-20.0000 F5000
G1 X376.0147 Y2253.5487 Z-20.0000 F5000
G1 X376.0147 Y2253.5487 Z-10.0000 F9999
G1 X389.0127 Y2253.5487 Z-10.0000 F5000
G1 X389.0127 Y2253.5487 Z-20.0000 F2500
G1 X401.8654 Y2253.5487 Z-20.0000 F5000
G1 X408.7157 Y2325.9238 Z-20.0000 F5000
G1 X432.5414 Y2325.9238 Z-20.0000 F5000
G1 X439.3917 Y2253.5487 Z-20.0000 F5000
G1 X481.1277 Y2253.5487 Z-20.0000 F5000
G1 X481.1277 Y2338.9238 Z-20.0000 F5000
G1 X539.6277 Y2338.9238 Z-20.0000 F5000
G1 X539.6277 Y2381.9218 Z-20.0000 F5000
G1 X485.7123 Y2381.9218 Z-20.0000 F5000
G1 X485.7123 Y2381.9218 Z-10.0000 F9999
G1 X472.7143 Y2381.9218 Z-10.0000 F5000
G1 X472.7143 Y2381.9218 Z-20.0000 F2500
G1 X403.1043 Y2381.9218 Z-20.0000 F5000
G1 X379.1043 Y2381.9218 Z-20.0000 F5000
G1 X339.1058 Y2382.2709 Z0.0000 F5000
G1 X339.1058 Y2382.2709 Z10.0000 F9999
G1 X264.0276 Y2195.6788 Z10.0000 F9999
G1 X264.0276 Y2195.6788 Z0.0000 F2500
G1 X304.0261 Y2196.0279 Z-20.0000 F5000
G1 X373.6361 Y2196.0279 Z-20.0000 F5000
G1 X373.6361 Y2196.0279 Z-10.0000 F9999
G1 X386.6341 Y2196.0279 Z-10.0000 F5000
G1 X386.6341 Y2196.0279 Z-20.0000 F2500
G1 X405.5009 Y2196.0279 Z-20.0000 F5000
G1 X405.5009 Y2239.0259 Z-20.0000 F5000
G1 X347.0009 Y2239.0259 Z-20.0000 F5000
G1 X347.0009 Y2324.4010 Z-20.0000 F5000
G1 X331.1157 Y2324.4010 Z-20.0000 F5000
G1 X331.1157 Y2324.4010 Z-10.0000 F9999
G1 X318.1177 Y2324.4010 Z-10.0000 F5000
G1 X318.1177 Y2324.4010 Z-20.0000 F2500
G1 X305.2649 Y2324.4010 Z-20.0000 F5000
G1 X298.4146 Y2252.0259 Z-20.0000 F5000
G1 X274.5890 Y2252.0259 Z-20.0000 F5000
G1 X267.7386 Y2324.4010 Z-20.0000 F5000
G1 X226.0026 Y2324.4010 Z-20.0000 F5000
G1 X226.0026 Y2239.0259 Z-20.0000 F5000
G1 X167.5026 Y2239.0259 Z-20.0000 F5000
G1 X167.5026 Y2196.0279 Z-20.0000 F5000
G1 X221.4181 Y2196.0279 Z-20.0000 F5000
G1 X221.4181 Y2196.0279 Z-10.0000 F9999
G1 X234.4161 Y2196.0279 Z-10.0000 F5000
G1 X234.4161 Y2196.0279 Z-20.0000 F2500
G1 X304.0261 Y2196.0279 Z-20.0000 F5000
G1 X328.0261 Y2196.0279 Z-20.0000 F5000
G1 X368.0246 Y2195.6788 Z0.0000 F5000
G1 X368.0246 Y2195.6788 Z10.0000 F9999
G1 X541.9891 Y2195.6788 Z10.0000 F9999
G1 X541.9891 Y2195.6788 Z0.0000 F2500
G1 X581.9876 Y2196.0279 Z-20.0000 F5000
G1 X651.5976 Y2196.0279 Z-20.0000 F5000
G1 X651.5976 Y2196.0279 Z-10.0000 F9999
G1 X664.5956 Y2196.0279 Z-10.0000 F5000
G1 X664.5956 Y2196.0279 Z-20.0000 F2500
G1 X683.4625 Y2196.0279 Z-20.0000 F5000
G1 X683.4625 Y2239.0259 Z-20.0000 F5000
G1 X624.9625 Y2239.0259 Z-20.0000 F5000
G1 X624.9625 Y2324.4010 Z-20.0000 F5000
G1 X609.0772 Y2324.4010 Z-20.0000 F5000
G1 X609.0772 Y2324.4010 Z-10.0000 F9999
G1 X596.0792 Y2324.4010 Z-10.0000 F5000
G1 X596.0792 Y2324.4010 Z-20.0000 F2500
G1 X583.2265 Y2324.4010 Z-20.0000 F5000
G1 X576.3761 Y2252.0259 Z-20.0000 F5000
G1 X552.5505 Y2252.0259 Z-20.0000 F5000
G1 X545.7002 Y2324.4010 Z-20.0000 F5000
G1 X503.9642 Y2324.4010 Z-20.0000 F5000
G1 X503.9642 Y2239.0259 Z-20.0000 F5000
G1 X445.4642 Y2239.0259 Z-20.0000 F5000
G1 X445.4642 Y2196.0279 Z-20.0000 F5000
G1 X499.3796 Y2196.0279 Z-20.0000 F5000
G1 X499.3796 Y2196.0279 Z-10.0000 F9999
G1 X512.3776 Y2196.0279 Z-10.0000 F5000
G1 X512.3776 Y2196.0279 Z-20.0000 F2500
G1 X581.9876 Y2196.0279 Z-20.0000 F5000
G1 X605.9876 Y2196.0279 Z-20.0000 F5000
G1 X645.9861 Y2195.6788 Z0.0000 F5000
G1 X645.9861 Y2195.6788 Z10.0000 F9999
G1 X644.7184 Y1924.4073 Z10.0000 F9999
G1 X644.7184 Y1924.4073 Z0.0000 F2500
G1 X644.6015 Y1937.8027 Z-20.0000 F5000
G1 X644.6015 Y1975.3017 Z-20.0000 F5000
G1 X639.6015 Y1975.3017 Z-20.0000 F5000
G1 X639.6015 Y1977.3036 Z-20.0000 F5000
G1 X657.2590 Y1977.3036 Z-20.0000 F5000
G1 X662.6014 Y1982.6462 Z-20.0000 F5000
G1 X662.6014 Y1996.6595 Z-20.0000 F5000
G1 X662.6014 Y1996.6595 Z-10.0000 F9999
G1 X662.6014 Y2009.6575 Z-10.0000 F5000
G1 X662.6014 Y2009.6575 Z-20.0000 F2500
G1 X662.6014 Y2019.9590 Z-20.0000 F5000
G1 X657.2590 Y2025.3016 Z-20.0000 F5000
G1 X639.6015 Y2025.3016 Z-20.0000 F5000
G1 X639.6015 Y2027.3035 Z-20.0000 F5000
G1 X644.6015 Y2027.3035 Z-20.0000 F5000
G1 X644.6015 Y2102.3014 Z-20.0000 F5000
G1 X639.6015 Y2102.3014 Z-20.0000 F5000
G1 X639.6015 Y2104.3034 Z-20.0000 F5000
G1 X657.2590 Y2104.3034 Z-20.0000 F5000
G1 X662.6014 Y2109.6460 Z-20.0000 F5000
G1 X662.6014 Y2124.9588 Z-20.0000 F5000
G1 X657.2590 Y2130.3014 Z-20.0000 F5000
G1 X639.6015 Y2130.3014 Z-20.0000 F5000
G1 X639.6015 Y2132.3034 Z-20.0000 F5000
G1 X644.6015 Y2132.3034 Z-20.0000 F5000
G1 X644.6015 Y2148.3013 Z-20.0000 F5000
G1 X629.5192 Y2148.3013 Z-20.0000 F5000
G1 X629.5192 Y2148.3013 Z-10.0000 F9999
G1 X616.5212 Y2148.3013 Z-10.0000 F5000
G1 X616.5212 Y2148.3013 Z-20.0000 F2500
G1 X605.6036 Y2148.3013 Z-20.0000 F5000
G1 X605.6036 Y2107.3014 Z-20.0000 F5000
G1 X603.6016 Y2107.3014 Z-20.0000 F5000
G1 X603.6016 Y2112.3014 Z-20.0000 F5000
G1 X563.6037 Y2112.3014 Z-20.0000 F5000
G1 X563.6037 Y2107.3014 Z-20.0000 F5000
G1 X561.6017 Y2107.3014 Z-20.0000 F5000
G1 X561.6017 Y2148.3013 Z-20.0000 F5000
G1 X522.6037 Y2148.3013 Z-20.0000 F5000
G1 X522.6037 Y2132.3034 Z-20.0000 F5000
G1 X527.6037 Y2132.3034 Z-20.0000 F5000
G1 X527.6037 Y2130.3014 Z-20.0000 F5000
G1 X509.9463 Y2130.3014 Z-20.0000 F5000
G1 X504.6038 Y2124.9588 Z-20.0000 F5000
G1 X504.6038 Y2109.6460 Z-20.0000 F5000
G1 X509.9463 Y2104.3034 Z-20.0000 F5000
G1 X527.6037 Y2104.3034 Z-20.0000 F5000
G1 X527.6037 Y2102.3014 Z-20.0000 F5000
G1 X522.6037 Y2102.3014 Z-20.0000 F5000
G1 X522.6037 Y2027.3035 Z-20.0000 F5000
G1 X527.6037 Y2027.3035 Z-20.0000 F5000
G1 X527.6037 Y2025.3016 Z-20.0000 F5000
G1 X509.9463 Y2025.3016 Z-20.0000 F5000
G1 X504.6038 Y2019.9590 Z-20.0000 F5000
G1 X504.6038 Y2007.5005 Z-20.0000 F5000
G1 X504.6038 Y2007.5005 Z-10.0000 F9999
G1 X504.6038 Y1994.5025 Z-10.0000 F5000
G1 X504.6038 Y1994.5025 Z-20.0000 F2500
G1 X504.6038 Y1982.6462 Z-20.0000 F5000
G1 X509.9463 Y1977.3036 Z-20.0000 F5000
G1 X527.6037 Y1977.3036 Z-20.0000 F5000
G1 X527.6037 Y1975.3017 Z-20.0000 F5000
G1 X522.6037 Y1975.3017 Z-20.0000 F5000
G1 X522.6037 Y1900.3038 Z-20.0000 F5000
G1 X527.6037 Y1900.3038 Z-20.0000 F5000
G1 X527.6037 Y1898.3018 Z-20.0000 F5000
G1 X509.9463 Y1898.3018 Z-20.0000 F5000
G1 X504.6038 Y1892.9592 Z-20.0000 F5000
G1 X504.6038 Y1877.6464 Z-20.0000 F5000
G1 X509.9463 Y1872.3039 Z-20.0000 F5000
G1 X527.6037 Y1872.3039 Z-20.0000 F5000
G1 X527.6037 Y1870.3019 Z-20.0000 F5000
G1 X522.6037 Y1870.3019 Z-20.0000 F5000
G1 X522.6037 Y1854.3039 Z-20.0000 F5000
G1 X561.6017 Y1854.3039 Z-20.0000 F5000
G1 X561.6017 Y1895.3038 Z-20.0000 F5000
G1 X563.6037 Y1895.3038 Z-20.0000 F5000
G1 X563.6037 Y1890.3038 Z-20.0000 F5000
G1 X603.6016 Y1890.3038 Z-20.0000 F5000
G1 X603.6016 Y1895.3038 Z-20.0000 F5000
G1 X605.6036 Y1895.3038 Z-20.0000 F5000
G1 X605.6036 Y1854.3039 Z-20.0000 F5000
G1 X644.6015 Y1854.3039 Z-20.0000 F5000
G1 X644.6015 Y1870.3019 Z-20.0000 F5000
G1 X639.6015 Y1870.3019 Z-20.0000 F5000
G1 X639.6015 Y1872.3039 Z-20.0000 F5000
G1 X657.2590 Y1872.3039 Z-20.0000 F5000
G1 X662.6014 Y1877.6464 Z-20.0000 F5000
G1 X662.6014 Y1892.9592 Z-20.0000 F5000
G1 X657.2590 Y1898.3018 Z-20.0000 F5000
G1 X639.6015 Y1898.3018 Z-20.0000 F5000
G1 X639.6015 Y1900.3038 Z-20.0000 F5000
G1 X644.6015 Y1900.3038 Z-20.0000 F5000
G1 X644.6015 Y1937.8027 Z-20.0000 F5000
G1 X644.6015 Y1961.8027 Z-20.0000 F5000
G1 X644.7184 Y1975.1981 Z0.0000 F5000
G1 X644.7184 Y1975.1981 Z10.0000 F9999
G1 X567.3195 Y1731.2220 Z10.0000 F9999
G1 X567.3195 Y1731.2220 Z0.0000 F2500
G1 X527.3210 Y1730.8730 Z-20.0000 F5000
G1 X457.7110 Y1730.8730 Z-20.0000 F5000
G1 X457.7110 Y1730.8730 Z-10.0000 F9999
G1 X444.7130 Y1730.8730 Z-10.0000 F5000
G1 X444.7130 Y1730.8730 Z-20.0000 F2500
G1 X425.8461 Y1730.8730 Z-20.0000 F5000
G1 X425.8461 Y1687.8750 Z-20.0000 F5000
G1 X484.3461 Y1687.8750 Z-20.0000 F5000
G1 X484.3461 Y1602.4998 Z-20.0000 F5000
G1 X500.2314 Y1602.4998 Z-20.0000 F5000
G1 X500.2314 Y1602.4998 Z-10.0000 F9999
G1 X513.2294 Y1602.4998 Z-10.0000 F5000
G1 X513.2294 Y1602.4998 Z-20.0000 F2500
G1 X526.0821 Y1602.4998 Z-20.0000 F5000
G1 X532.9325 Y1674.8750 Z-20.0000 F5000
G1 X556.7581 Y1674.8750 Z-20.0000 F5000
G1 X563.6084 Y1602.4998 Z-20.0000 F5000
G1 X605.3444 Y1602.4998 Z-20.0000 F5000
G1 X605.3444 Y1687.8750 Z-20.0000 F5000
G1 X663.8444 Y1687.8750 Z-20.0000 F5000
G1 X663.8444 Y1730.8730 Z-20.0000 F5000
G1 X609.9290 Y1730.8730 Z-20.0000 F5000
G1 X609.9290 Y1730.8730 Z-10.0000 F9999
G1 X596.9310 Y1730.8730 Z-10.0000 F5000
G1 X596.9310 Y1730.8730 Z-20.0000 F2500
G1 X527.3210 Y1730.8730 Z-20.0000 F5000
G1 X503.3210 Y1730.8730 Z-20.0000 F5000
G1 X463.3225 Y1731.2220 Z0.0000 F5000
G1 X463.3225 Y1731.2220 Z10.0000 F9999
G1 X240.5150 Y1731.2220 Z10.0000 F9999
G1 X240.5150 Y1731.2220 Z0.0000 F2500
G1 X200.5166 Y1730.8730 Z-20.0000 F5000
G1 X130.9066 Y1730.8730 Z-20.0000 F5000
G1 X130.9066 Y1730.8730 Z-10.0000 F9999
G1 X117.9086 Y1730.8730 Z-10.0000 F5000
G1 X117.9086 Y1730.8730 Z-20.0000 F2500
G1 X99.0417 Y1730.8730 Z-20.0000 F5000
G1 X99.0417 Y1687.8750 Z-20.0000 F5000
G1 X157.5417 Y1687.8750 Z-20.0000 F5000
G1 X157.5417 Y1602.4998 Z-20.0000 F5000
G1 X173.4270 Y1602.4998 Z-20.0000 F5000
G1 X173.4270 Y1602.4998 Z-10.0000 F9999
G1 X186.4250 Y1602.4998 Z-10.0000 F5000
G1 X186.4250 Y1602.4998 Z-20.0000 F2500
G1 X199.2777 Y1602.4998 Z-20.0000 F5000
G1 X206.1281 Y1674.8750 Z-20.0000 F5000
G1 X229.9537 Y1674.8750 Z-20.0000 F5000
G1 X236.8040 Y1602.4998 Z-20.0000 F5000
G1 X278.5400 Y1602.4998 Z-20.0000 F5000
G1 X278.5400 Y1687.8750 Z-20.0000 F5000
G1 X337.0400 Y1687.8750 Z-20.0000 F5000
G1 X337.0400 Y1730.8730 Z-20.0000 F5000
G1 X283.1246 Y1730.8730 Z-20.0000 F5000
G1 X283.1246 Y1730.8730 Z-10.0000 F9999
G1 X270.1266 Y1730.8730 Z-10.0000 F5000
G1 X270.1266 Y1730.8730 Z-20.0000 F2500
G1 X200.5166 Y1730.8730 Z-20.0000 F5000
G1 X176.5166 Y1730.8730 Z-20.0000 F5000
G1 X136.5181 Y1731.2220 Z0.0000 F5000
G1 X136.5181 Y1731.2220 Z10.0000 F9999
G1 X367.0936 Y1544.6299 Z10.0000 F9999
G1 X367.0936 Y1544.6299 Z0.0000 F2500
G1 X407.0920 Y1544.9790 Z-20.0000 F5000
G1 X476.7020 Y1544.9790 Z-20.0000 F5000
G1 X476.7020 Y1544.9790 Z-10.0000 F9999
G1 X489.7000 Y1544.9790 Z-10.0000 F5000
G1 X489.7000 Y1544.9790 Z-20.0000 F2500
G1 X508.5669 Y1544.9790 Z-20.0000 F5000
G1 X508.5669 Y1587.9770 Z-20.0000 F5000
G1 X450.0669 Y1587.9770 Z-20.0000 F5000
G1 X450.0669 Y1673.3521 Z-20.0000 F5000
G1 X434.1816 Y1673.3521 Z-20.0000 F5000
G1 X434.1816 Y1673.3521 Z-10.0000 F9999
G1 X421.1836 Y1673.3521 Z-10.0000 F5000
G1 X421.1836 Y1673.3521 Z-20.0000 F2500
G1 X408.3309 Y1673.3521 Z-20.0000 F5000
G1 X401.4806 Y1600.9770 Z-20.0000 F5000
G1 X377.6549 Y1600.9770 Z-20.0000 F5000
G1 X370.8046 Y1673.3521 Z-20.0000 F5000
G1 X329.0686 Y1673.3521 Z-20.0000 F5000
G1 X329.0686 Y1587.9770 Z-20.0000 F5000
G1 X270.5686 Y1587.9770 Z-20.0000 F5000
G1 X270.5686 Y1544.9790 Z-20.0000 F5000
G1 X324.4840 Y1544.9790 Z-20.0000 F5000
G1 X324.4840 Y1544.9790 Z-10.0000 F9999
G1 X337.4820 Y1544.9790 Z-10.0000 F5000
G1 X337.4820 Y1544.9790 Z-20.0000 F2500
G1 X407.0920 Y1544.9790 Z-20.0000 F5000
G1 X431.0920 Y1544.9790 Z-20.0000 F5000
G1 X471.0905 Y1544.6299 Z0.0000 F5000
G1 X471.0905 Y1544.6299 Z10.0000 F9999
G1 X333.5312 Y2015.6125 Z10.0000 F9999
G1 X333.5312 Y2015.6125 Z0.0000 F2500
G1 X346.9266 Y2015.7294 Z-20.0000 F5000
G1 X384.4255 Y2015.7294 Z-20.0000 F5000
G1 X384.4255 Y2020.7294 Z-20.0000 F5000
G1 X386.4275 Y2020.7294 Z-20.0000 F5000
G1 X386.4275 Y2003.0719 Z-20.0000 F5000
G1 X391.7701 Y1997.7294 Z-20.0000 F5000
G1 X407.0829 Y1997.7294 Z-20.0000 F5000
G1 X412.4255 Y2003.0719 Z-20.0000 F5000
G1 X412.4255 Y2020.7294 Z-20.0000 F5000
G1 X414.4275 Y2020.7294 Z-20.0000 F5000
G1 X414.4275 Y2015.7294 Z-20.0000 F5000
G1 X430.4254 Y2015.7294 Z-20.0000 F5000
G1 X430.4254 Y2030.8117 Z-20.0000 F5000
G1 X430.4254 Y2030.8117 Z-10.0000 F9999
G1 X430.4254 Y2043.8097 Z-10.0000 F5000
G1 X430.4254 Y2043.8097 Z-20.0000 F2500
G1 X430.4254 Y2054.7273 Z-20.0000 F5000
G1 X389.4255 Y2054.7273 Z-20.0000 F5000
G1 X389.4255 Y2056.7293 Z-20.0000 F5000
G1 X394.4255 Y2056.7293 Z-20.0000 F5000
G1 X394.4255 Y2096.7272 Z-20.0000 F5000
G1 X389.4255 Y2096.7272 Z-20.0000 F5000
G1 X389.4255 Y2098.7292 Z-20.0000 F5000
G1 X430.4254 Y2098.7292 Z-20.0000 F5000
G1 X430.4254 Y2137.7271 Z-20.0000 F5000
G1 X414.4275 Y2137.7271 Z-20.0000 F5000
G1 X414.4275 Y2132.7271 Z-20.0000 F5000
G1 X412.4255 Y2132.7271 Z-20.0000 F5000
G1 X412.4255 Y2150.3846 Z-20.0000 F5000
G1 X407.0829 Y2155.7271 Z-20.0000 F5000
G1 X391.7701 Y2155.7271 Z-20.0000 F5000
G1 X386.4275 Y2150.3846 Z-20.0000 F5000
G1 X386.4275 Y2132.7271 Z-20.0000 F5000
G1 X384.4255 Y2132.7271 Z-20.0000 F5000
G1 X384.4255 Y2137.7271 Z-20.0000 F5000
G1 X309.4277 Y2137.7271 Z-20.0000 F5000
G1 X309.4277 Y2132.7271 Z-20.0000 F5000
G1 X307.4257 Y2132.7271 Z-20.0000 F5000
G1 X307.4257 Y2150.3846 Z-20.0000 F5000
G1 X302.0831 Y2155.7271 Z-20.0000 F5000
G1 X289.6246 Y2155.7271 Z-20.0000 F5000
G1 X289.6246 Y2155.7271 Z-10.0000 F9999
G1 X276.6266 Y2155.7271 Z-10.0000 F5000
G1 X276.6266 Y2155.7271 Z-20.0000 F2500
G1 X264.7703 Y2155.7271 Z-20.0000 F5000
G1 X259.4278 Y2150.3846 Z-20.0000 F5000
G1 X259.4278 Y2132.7271 Z-20.0000 F5000
G1 X257.4258 Y2132.7271 Z-20.0000 F5000
G1 X257.4258 Y2137.7271 Z-20.0000 F5000
G1 X182.4279 Y2137.7271 Z-20.0000 F5000
G1 X182.4279 Y2132.7271 Z-20.0000 F5000
G1 X180.4260 Y2132.7271 Z-20.0000 F5000
G1 X180.4260 Y2150.3846 Z-20.0000 F5000
G1 X175.0834 Y2155.7271 Z-20.0000 F5000
G1 X159.7706 Y2155.7271 Z-20.0000 F5000
G1 X154.4280 Y2150.3846 Z-20.0000 F5000
G1 X154.4280 Y2132.7271 Z-20.0000 F5000
G1 X152.4260 Y2132.7271 Z-20.0000 F5000
G1 X152.4260 Y2137.7271 Z-20.0000 F5000
G1 X136.4280 Y2137.7271 Z-20.0000 F5000
G1 X136.4280 Y2098.7292 Z-20.0000 F5000
G1 X177.4279 Y2098.7292 Z-20.0000 F5000
G1 X177.4279 Y2096.7272 Z-20.0000 F5000
G1 X172.4280 Y2096.7272 Z-20.0000 F5000
G1 X172.4280 Y2056.7293 Z-20.0000 F5000
G1 X177.4279 Y2056.7293 Z-20.0000 F5000
G1 X177.4279 Y2054.7273 Z-20.0000 F5000
G1 X136.4280 Y2054.7273 Z-20.0000 F5000
G1 X136.4280 Y2015.7294 Z-20.0000 F5000
G1 X152.4260 Y2015.7294 Z-20.0000 F5000
G1 X152.4260 Y2020.7294 Z-20.0000 F5000
G1 X154.4280 Y2020.7294 Z-20.0000 F5000
G1 X154.4280 Y2003.0719 Z-20.0000 F5000
G1 X159.7706 Y1997.7294 Z-20.0000 F5000
G1 X175.0834 Y1997.7294 Z-20.0000 F5000
G1 X180.4260 Y2003.0719 Z-20.0000 F5000
G1 X180.4260 Y2020.7294 Z-20.0000 F5000
G1 X182.4279 Y2020.7294 Z-20.0000 F5000
G1 X182.4279 Y2015.7294 Z-20.0000 F5000
G1 X257.4258 Y2015.7294 Z-20.0000 F5000
G1 X257.4258 Y2020.7294 Z-20.0000 F5000
G1 X259.4278 Y2020.7294 Z-20.0000 F5000
G1 X259.4278 Y2003.0719 Z-20.0000 F5000
G1 X264.7703 Y1997.7294 Z-20.0000 F5000
G1 X278.7836 Y1997.7294 Z-20.0000 F5000
G1 X278.7836 Y1997.7294 Z-10.0000 F9999
G1 X291.7816 Y1997.7294 Z-10.0000 F5000
G1 X291.7816 Y1997.7294 Z-20.0000 F2500
G1 X302.0831 Y1997.7294 Z-20.0000 F5000
G1 X307.4257 Y2003.0719 Z-20.0000 F5000
G1 X307.4257 Y2020.7294 Z-20.0000 F5000
G1 X309.4277 Y2020.7294 Z-20.0000 F5000
G1 X309.4277 Y2015.7294 Z-20.0000 F5000
G1 X346.9266 Y2015.7294 Z-20.0000 F5000
G1 X370.9266 Y2015.7294 Z-20.0000 F5000
G1 X384.3220 Y2015.6125 Z0.0000 F5000
G1 X384.3220 Y2015.6125 Z10.0000 F9999
G1 X335.2568 Y1836.1500 Z10.0000 F9999
G1 X335.2568 Y1836.1500 Z0.0000 F2500
G1 X348.6522 Y1836.2669 Z-20.0000 F5000
G1 X386.1511 Y1836.2669 Z-20.0000 F5000
G1 X386.1511 Y1841.2669 Z-20.0000 F5000
G1 X388.1531 Y1841.2669 Z-20.0000 F5000
G1 X388.1531 Y1823.6094 Z-20.0000 F5000
G1 X393.4957 Y1818.2669 Z-20.0000 F5000
G1 X408.8085 Y1818.2669 Z-20.0000 F5000
G1 X414.1511 Y1823.6094 Z-20.0000 F5000
G1 X414.1511 Y1841.2669 Z-20.0000 F5000
G1 X416.1531 Y1841.2669 Z-20.0000 F5000
G1 X416.1531 Y1836.2669 Z-20.0000 F5000
G1 X432.1510 Y1836.2669 Z-20.0000 F5000
G1 X432.1510 Y1851.3491 Z-20.0000 F5000
G1 X432.1510 Y1851.3491 Z-10.0000 F9999
G1 X432.1510 Y1864.3471 Z-10.0000 F5000
G1 X432.1510 Y1864.3471 Z-20.0000 F2500
G1 X432.1510 Y1875.2648 Z-20.0000 F5000
G1 X391.1511 Y1875.2648 Z-20.0000 F5000
G1 X391.1511 Y1877.2668 Z-20.0000 F5000
G1 X396.1511 Y1877.2668 Z-20.0000 F5000
G1 X396.1511 Y1917.2647 Z-20.0000 F5000
G1 X391.1511 Y1917.2647 Z-20.0000 F5000
G1 X391.1511 Y1919.2667 Z-20.0000 F5000
G1 X432.1510 Y1919.2667 Z-20.0000 F5000
G1 X432.1510 Y1958.2646 Z-20.0000 F5000
G1 X416.1531 Y1958.2646 Z-20.0000 F5000
G1 X416.1531 Y1953.2646 Z-20.0000 F5000
G1 X414.1511 Y1953.2646 Z-20.0000 F5000
G1 X414.1511 Y1970.9221 Z-20.0000 F5000
G1 X408.8085 Y1976.2645 Z-20.0000 F5000
G1 X393.4957 Y1976.2645 Z-20.0000 F5000
G1 X388.1531 Y1970.9221 Z-20.0000 F5000
G1 X388.1531 Y1953.2646 Z-20.0000 F5000
G1 X386.1511 Y1953.2646 Z-20.0000 F5000
G1 X386.1511 Y1958.2646 Z-20.0000 F5000
G1 X311.1533 Y1958.2646 Z-20.0000 F5000
G1 X311.1533 Y1953.2646 Z-20.0000 F5000
G1 X309.1513 Y1953.2646 Z-20.0000 F5000
G1 X309.1513 Y1970.9221 Z-20.0000 F5000
G1 X303.8087 Y1976.2645 Z-20.0000 F5000
G1 X291.3502 Y1976.2645 Z-20.0000 F5000
G1 X291.3502 Y1976.2645 Z-10.0000 F9999
G1 X278.3522 Y1976.2645 Z-10.0000 F5000
G1 X278.3522 Y1976.2645 Z-20.0000 F2500
G1 X266.4959 Y1976.2645 Z-20.0000 F5000
G1 X261.1534 Y1970.9221 Z-20.0000 F5000
G1 X261.1534 Y1953.2646 Z-20.0000 F5000
G1 X259.1514 Y1953.2646 Z-20.0000 F5000
G1 X259.1514 Y1958.2646 Z-20.0000 F5000
G1 X184.1535 Y1958.2646 Z-20.0000 F5000
G1 X184.1535 Y1953.2646 Z-20.0000 F5000
G1 X182.1516 Y1953.2646 Z-20.0000 F5000
G1 X182.1516 Y1970.9221 Z-20.0000 F5000
G1 X176.8090 Y1976.2645 Z-20.0000 F5000
G1 X161.4962 Y1976.2645 Z-20.0000 F5000
G1 X156.1536 Y1970.9221 Z-20.0000 F5000
G1 X156.1536 Y1953.2646 Z-20.0000 F5000
G1 X154.1516 Y1953.2646 Z-20.0000 F5000
G1 X154.1516 Y1958.2646 Z-20.0000 F5000
G1 X138.1536 Y1958.2646 Z-20.0000 F5000
G1 X138.1536 Y1919.2667 Z-20.0000 F5000
G1 X179.1535 Y1919.2667 Z-20.0000 F5000
G1 X179.1535 Y1917.2647 Z-20.0000 F5000
G1 X174.1536 Y1917.2647 Z-20.0000 F5000
G1 X174.1536 Y1877.2668 Z-20.0000 F5000
G1 X179.1535 Y1877.2668 Z-20.0000 F5000
G1 X179.1535 Y1875.2648 Z-20.0000 F5000
G1 X138.1536 Y1875.2648 Z-20.0000 F5000
G1 X138.1536 Y1836.2669 Z-20.0000 F5000
G1 X154.1516 Y1836.2669 Z-20.0000 F5000
G1 X154.1516 Y1841.2669 Z-20.0000 F5000
G1 X156.1536 Y1841.2669 Z-20.0000 F5000
G1 X156.1536 Y1823.6094 Z-20.0000 F5000
G1 X161.4962 Y1818.2669 Z-20.0000 F5000
G1 X176.8090 Y1818.2669 Z-20.0000 F5000
G1 X182.1516 Y1823.6094 Z-20.0000 F5000
G1 X182.1516 Y1841.2669 Z-20.0000 F5000
G1 X184.1535 Y1841.2669 Z-20.0000 F5000
G1 X184.1535 Y1836.2669 Z-20.0000 F5000
G1 X259.1514 Y1836.2669 Z-20.0000 F5000
G1 X259.1514 Y1841.2669 Z-20.0000 F5000
G1 X261.1534 Y1841.2669 Z-20.0000 F5000
G1 X261.1534 Y1823.6094 Z-20.0000 F5000
G1 X266.4959 Y1818.2669 Z-20.0000 F5000
G1 X280.5092 Y1818.2669 Z-20.0000 F5000
G1 X280.5092 Y1818.2669 Z-10.0000 F9999
G1 X293.5072 Y1818.2669 Z-10.0000 F5000
G1 X293.5072 Y1818.2669 Z-20.0000 F2500
G1 X303.8087 Y1818.2669 Z-20.0000 F5000
G1 X309.1513 Y1823.6094 Z-20.0000 F5000
G1 X309.1513 Y1841.2669 Z-20.0000 F5000
G1 X311.1533 Y1841.2669 Z-20.0000 F5000
G1 X311.1533 Y1836.2669 Z-20.0000 F5000
G1 X348.6522 Y1836.2669 Z-20.0000 F5000
G1 X372.6522 Y1836.2669 Z-20.0000 F5000
G1 X386.0476 Y1836.1500 Z0.0000 F5000
G1 X386.0476 Y1836.1500 Z10.0000 F9999
G1 X332.5645 Y653.3439 Z10.0000 F9999
G1 X332.5645 Y653.3439 Z0.0000 F2500
G1 X332.9135 Y613.3455 Z-20.0000 F5000
G1 X332.9135 Y499.3467 Z-20.0000 F5000
G1 X337.9135 Y499.3467 Z-20.0000 F5000
G1 X337.9135 Y497.3447 Z-20.0000 F5000
G1 X320.2561 Y497.3447 Z-20.0000 F5000
G1 X314.9136 Y492.0021 Z-20.0000 F5000
G1 X314.9136 Y468.3467 Z-20.0000 F5000
G1 X361.9115 Y468.3467 Z-20.0000 F5000
G1 X361.9115 Y473.3468 Z-20.0000 F5000
G1 X363.9135 Y473.3468 Z-20.0000 F5000
G1 X363.9135 Y453.3448 Z-20.0000 F5000
G1 X361.9115 Y453.3448 Z-20.0000 F5000
G1 X361.9115 Y458.3449 Z-20.0000 F5000
G1 X314.9136 Y458.3449 Z-20.0000 F5000
G1 X314.9136 Y434.6894 Z-20.0000 F5000
G1 X320.2561 Y429.3469 Z-20.0000 F5000
G1 X337.9135 Y429.3469 Z-20.0000 F5000
G1 X337.9135 Y427.3449 Z-20.0000 F5000
G1 X332.9135 Y427.3449 Z-20.0000 F5000
G1 X332.9135 Y199.3473 Z-20.0000 F5000
G1 X337.9135 Y199.3473 Z-20.0000 F5000
G1 X337.9135 Y197.3453 Z-20.0000 F5000
G1 X320.2561 Y197.3453 Z-20.0000 F5000
G1 X314.9136 Y192.0027 Z-20.0000 F5000
G1 X314.9136 Y159.8475 Z-20.0000 F5000
G1 X377.1296 Y159.8475 Z-20.0000 F5000
G1 X379.2802 Y160.1591 Z-20.0000 F5000
G1 X381.5887 Y161.2417 Z-20.0000 F5000
G1 X383.4719 Y162.9601 Z-20.0000 F5000
G1 X384.7321 Y165.0777 Z-20.0000 F5000
G1 X385.3387 Y167.4666 Z-20.0000 F5000
G1 X385.2219 Y170.0133 Z-20.0000 F5000
G1 X384.3553 Y172.4107 Z-20.0000 F5000
G1 X383.0551 Y174.1519 Z-20.0000 F5000
G1 X380.1261 Y177.0812 Z-20.0000 F5000
G1 X379.7091 Y177.6395 Z-20.0000 F5000
G1 X379.5728 Y177.9827 Z-20.0000 F5000
G1 X379.5272 Y178.3585 Z-20.0000 F5000
G1 X379.5788 Y178.7303 Z-20.0000 F5000
G1 X379.7187 Y179.0680 Z-20.0000 F5000
G1 X379.9451 Y179.3675 Z-20.0000 F5000
G1 X380.2431 Y179.6009 Z-20.0000 F5000
G1 X380.5822 Y179.7473 Z-20.0000 F5000
G1 X381.2717 Y179.8472 Z-20.0000 F5000
G1 X406.5532 Y179.8472 Z-20.0000 F5000
G1 X407.2427 Y179.7473 Z-20.0000 F5000
G1 X407.5817 Y179.6009 Z-20.0000 F5000
G1 X407.8798 Y179.3675 Z-20.0000 F5000
G1 X408.1062 Y179.0680 Z-20.0000 F5000
G1 X408.2460 Y178.7303 Z-20.0000 F5000
G1 X408.2977 Y178.3585 Z-20.0000 F5000
G1 X408.2520 Y177.9827 Z-20.0000 F5000
G1 X408.1157 Y177.6395 Z-20.0000 F5000
G1 X407.6988 Y177.0812 Z-20.0000 F5000
G1 X404.7697 Y174.1519 Z-20.0000 F5000
G1 X403.4696 Y172.4107 Z-20.0000 F5000
G1 X402.6029 Y170.0133 Z-20.0000 F5000
G1 X402.4862 Y167.4666 Z-20.0000 F5000
G1 X403.0928 Y165.0777 Z-20.0000 F5000
G1 X404.3529 Y162.9601 Z-20.0000 F5000
G1 X406.2361 Y161.2417 Z-20.0000 F5000
G1 X408.5447 Y160.1591 Z-20.0000 F5000
G1 X410.6953 Y159.8475 Z-20.0000 F5000
G1 X472.9112 Y159.8475 Z-20.0000 F5000
G1 X472.9112 Y192.0027 Z-20.0000 F5000
G1 X467.5688 Y197.3453 Z-20.0000 F5000
G1 X449.9113 Y197.3453 Z-20.0000 F5000
G1 X449.9113 Y199.3473 Z-20.0000 F5000
G1 X454.9113 Y199.3473 Z-20.0000 F5000
G1 X454.9113 Y427.3449 Z-20.0000 F5000
G1 X449.9113 Y427.3449 Z-20.0000 F5000
G1 X449.9113 Y429.3469 Z-20.0000 F5000
G1 X467.5688 Y429.3469 Z-20.0000 F5000
G1 X472.9112 Y434.6894 Z-20.0000 F5000
G1 X472.9112 Y458.3449 Z-20.0000 F5000
G1 X425.9134 Y458.3449 Z-20.0000 F5000
G1 X425.9134 Y453.3448 Z-20.0000 F5000
G1 X423.9114 Y453.3448 Z-20.0000 F5000
G1 X423.9114 Y473.3468 Z-20.0000 F5000
G1 X425.9134 Y473.3468 Z-20.0000 F5000
G1 X425.9134 Y468.3467 Z-20.0000 F5000
G1 X472.9112 Y468.3467 Z-20.0000 F5000
G1 X472.9112 Y492.0021 Z-20.0000 F5000
G1 X467.5688 Y497.3447 Z-20.0000 F5000
G1 X449.9113 Y497.3447 Z-20.0000 F5000
G1 X449.9113 Y499.3467 Z-20.0000 F5000
G1 X454.9113 Y499.3467 Z-20.0000 F5000
G1 X454.9113 Y727.3442 Z-20.0000 F5000
G1 X449.9113 Y727.3442 Z-20.0000 F5000
G1 X449.9113 Y729.3462 Z-20.0000 F5000
G1 X467.5688 Y729.3462 Z-20.0000 F5000
G1 X472.9112 Y734.6888 Z-20.0000 F5000
G1 X472.9112 Y792.0015 Z-20.0000 F5000
G1 X467.5688 Y797.3441 Z-20.0000 F5000
G1 X449.9113 Y797.3441 Z-20.0000 F5000
G1 X449.9113 Y799.3461 Z-20.0000 F5000
G1 X454.9113 Y799.3461 Z-20.0000 F5000
G1 X454.9113 Y917.3440 Z-20.0000 F5000
G1 X431.9114 Y917.3440 Z-20.0000 F5000
G1 X431.9114 Y919.3460 Z-20.0000 F5000
G1 X436.9114 Y919.3460 Z-20.0000 F5000
G1 X436.9114 Y1027.3436 Z-20.0000 F5000
G1 X431.9114 Y1027.3436 Z-20.0000 F5000
G1 X431.9114 Y1029.3456 Z-20.0000 F5000
G1 X467.5688 Y1029.3456 Z-20.0000 F5000
G1 X472.9112 Y1034.6882 Z-20.0000 F5000
G1 X472.9112 Y1092.0009 Z-20.0000 F5000
G1 X467.5688 Y1097.3435 Z-20.0000 F5000
G1 X431.9114 Y1097.3435 Z-20.0000 F5000
G1 X431.9114 Y1099.3455 Z-20.0000 F5000
G1 X436.9114 Y1099.3455 Z-20.0000 F5000
G1 X436.9114 Y1327.3430 Z-20.0000 F5000
G1 X431.9114 Y1327.3430 Z-20.0000 F5000
G1 X431.9114 Y1329.3450 Z-20.0000 F5000
G1 X467.5688 Y1329.3450 Z-20.0000 F5000
G1 X472.9112 Y1334.6876 Z-20.0000 F5000
G1 X472.9112 Y1356.7259 Z-20.0000 F5000
G1 X472.9112 Y1356.7259 Z-10.0000 F9999
G1 X472.9112 Y1369.7239 Z-10.0000 F5000
G1 X472.9112 Y1369.7239 Z-20.0000 F2500
G1 X472.9112 Y1392.0004 Z-20.0000 F5000
G1 X467.5688 Y1397.3430 Z-20.0000 F5000
G1 X431.9114 Y1397.3430 Z-20.0000 F5000
G1 X431.9114 Y1399.3449 Z-20.0000 F5000
G1 X436.9114 Y1399.3449 Z-20.0000 F5000
G1 X436.9114 Y1515.3428 Z-20.0000 F5000
G1 X350.9135 Y1515.3428 Z-20.0000 F5000
G1 X350.9135 Y1399.3449 Z-20.0000 F5000
G1 X355.9135 Y1399.3449 Z-20.0000 F5000
G1 X355.9135 Y1397.3430 Z-20.0000 F5000
G1 X320.2561 Y1397.3430 Z-20.0000 F5000
G1 X314.9136 Y1392.0004 Z-20.0000 F5000
G1 X314.9136 Y1370.1553 Z-20.0000 F5000
G1 X314.9136 Y1370.1553 Z-10.0000 F9999
G1 X314.9136 Y1357.1573 Z-10.0000 F5000
G1 X314.9136 Y1357.1573 Z-20.0000 F2500
G1 X314.9136 Y1334.6876 Z-20.0000 F5000
G1 X320.2561 Y1329.3450 Z-20.0000 F5000
G1 X355.9135 Y1329.3450 Z-20.0000 F5000
G1 X355.9135 Y1327.3430 Z-20.0000 F5000
G1 X350.9135 Y1327.3430 Z-20.0000 F5000
G1 X350.9135 Y1099.3455 Z-20.0000 F5000
G1 X355.9135 Y1099.3455 Z-20.0000 F5000
G1 X355.9135 Y1097.3435 Z-20.0000 F5000
G1 X320.2561 Y1097.3435 Z-20.0000 F5000
G1 X314.9136 Y1092.0009 Z-20.0000 F5000
G1 X314.9136 Y1034.6882 Z-20.0000 F5000
G1 X320.2561 Y1029.3456 Z-20.0000 F5000
G1 X355.9135 Y1029.3456 Z-20.0000 F5000
G1 X355.9135 Y1027.3436 Z-20.0000 F5000
G1 X350.9136 Y1027.3436 Z-20.0000 F5000
G1 X350.9111 Y919.3460 Z-20.0000 F5000
G1 X355.9112 Y919.3460 Z-20.0000 F5000
G1 X355.9112 Y917.3440 Z-20.0000 F5000
G1 X332.9135 Y917.3440 Z-20.0000 F5000
G1 X332.9135 Y799.3461 Z-20.0000 F5000
G1 X337.9135 Y799.3461 Z-20.0000 F5000
G1 X337.9135 Y797.3441 Z-20.0000 F5000
G1 X320.2561 Y797.3441 Z-20.0000 F5000
G1 X314.9136 Y792.0015 Z-20.0000 F5000
G1 X314.9136 Y734.6888 Z-20.0000 F5000
G1 X320.2561 Y729.3462 Z-20.0000 F5000
G1 X337.9135 Y729.3462 Z-20.0000 F5000
G1 X337.9135 Y727.3442 Z-20.0000 F5000
G1 X332.9135 Y727.3442 Z-20.0000 F5000
G1 X332.9135 Y613.3455 Z-20.0000 F5000
G1 X332.9135 Y589.3455 Z-20.0000 F5000
G1 X332.5645 Y549.3470 Z0.0000 F5000
G1 X332.5645 Y549.3470 Z10.0000 F9999
G1 X149.3856 Y653.6802 Z10.0000 F9999
G1 X149.3856 Y653.6802 Z0.0000 F2500
G1 X149.7347 Y613.6817 Z-20.0000 F5000
G1 X149.7347 Y499.6829 Z-20.0000 F5000
G1 X154.7347 Y499.6829 Z-20.0000 F5000
G1 X154.7347 Y497.6810 Z-20.0000 F5000
G1 X137.0772 Y497.6810 Z-20.0000 F5000
G1 X131.7347 Y492.3384 Z-20.0000 F5000
G1 X131.7347 Y468.6830 Z-20.0000 F5000
G1 X178.7326 Y468.6830 Z-20.0000 F5000
G1 X178.7326 Y473.6830 Z-20.0000 F5000
G1 X180.7346 Y473.6830 Z-20.0000 F5000
G1 X180.7346 Y453.6810 Z-20.0000 F5000
G1 X178.7326 Y453.6810 Z-20.0000 F5000
G1 X178.7326 Y458.6811 Z-20.0000 F5000
G1 X131.7347 Y458.6811 Z-20.0000 F5000
G1 X131.7347 Y435.0257 Z-20.0000 F5000
G1 X137.0772 Y429.6831 Z-20.0000 F5000
G1 X154.7347 Y429.6831 Z-20.0000 F5000
G1 X154.7347 Y427.6811 Z-20.0000 F5000
G1 X149.7347 Y427.6811 Z-20.0000 F5000
G1 X149.7347 Y199.6835 Z-20.0000 F5000
G1 X154.7347 Y199.6835 Z-20.0000 F5000
G1 X154.7347 Y197.6816 Z-20.0000 F5000
G1 X137.0772 Y197.6816 Z-20.0000 F5000
G1 X131.7347 Y192.3390 Z-20.0000 F5000
G1 X131.7347 Y160.1837 Z-20.0000 F5000
G1 X193.9507 Y160.1837 Z-20.0000 F5000
G1 X196.1013 Y160.4953 Z-20.0000 F5000
G1 X198.4099 Y161.5779 Z-20.0000 F5000
G1 X200.2931 Y163.2963 Z-20.0000 F5000
G1 X201.5532 Y165.4140 Z-20.0000 F5000
G1 X202.1598 Y167.8028 Z-20.0000 F5000
G1 X202.0430 Y170.3495 Z-20.0000 F5000
G1 X201.1764 Y172.7470 Z-20.0000 F5000
G1 X199.8762 Y174.4882 Z-20.0000 F5000
G1 X196.9472 Y177.4174 Z-20.0000 F5000
G1 X196.5302 Y177.9757 Z-20.0000 F5000
G1 X196.3940 Y178.3189 Z-20.0000 F5000
G1 X196.3483 Y178.6947 Z-20.0000 F5000
G1 X196.4000 Y179.0666 Z-20.0000 F5000
G1 X196.5398 Y179.4043 Z-20.0000 F5000
G1 X196.7662 Y179.7037 Z-20.0000 F5000
G1 X197.0643 Y179.9372 Z-20.0000 F5000
G1 X197.4033 Y180.0835 Z-20.0000 F5000
G1 X198.0928 Y180.1834 Z-20.0000 F5000
G1 X223.3743 Y180.1834 Z-20.0000 F5000
G1 X224.0638 Y180.0835 Z-20.0000 F5000
G1 X224.4029 Y179.9372 Z-20.0000 F5000
G1 X224.7009 Y179.7037 Z-20.0000 F5000
G1 X224.9273 Y179.4043 Z-20.0000 F5000
G1 X225.0671 Y179.0666 Z-20.0000 F5000
G1 X225.1188 Y178.6947 Z-20.0000 F5000
G1 X225.0731 Y178.3189 Z-20.0000 F5000
G1 X224.9369 Y177.9757 Z-20.0000 F5000
G1 X224.5199 Y177.4174 Z-20.0000 F5000
G1 X221.5909 Y174.4882 Z-20.0000 F5000
G1 X220.2907 Y172.7470 Z-20.0000 F5000
G1 X219.4241 Y170.3495 Z-20.0000 F5000
G1 X219.3073 Y167.8028 Z-20.0000 F5000
G1 X219.9139 Y165.4140 Z-20.0000 F5000
G1 X221.1740 Y163.2963 Z-20.0000 F5000
G1 X223.0572 Y161.5779 Z-20.0000 F5000
G1 X225.3658 Y160.4953 Z-20.0000 F5000
G1 X227.5164 Y160.1837 Z-20.0000 F5000
G1 X289.7324 Y160.1837 Z-20.0000 F5000
G1 X289.7324 Y192.3390 Z-20.0000 F5000
G1 X284.3899 Y197.6816 Z-20.0000 F5000
G1 X266.7324 Y197.6816 Z-20.0000 F5000
G1 X266.7324 Y199.6835 Z-20.0000 F5000
G1 X271.7324 Y199.6835 Z-20.0000 F5000
G1 X271.7324 Y427.6811 Z-20.0000 F5000
G1 X266.7324 Y427.6811 Z-20.0000 F5000
G1 X266.7324 Y429.6831 Z-20.0000 F5000
G1 X284.3899 Y429.6831 Z-20.0000 F5000
G1 X289.7324 Y435.0257 Z-20.0000 F5000
G1 X289.7324 Y458.6811 Z-20.0000 F5000
G1 X242.7345 Y458.6811 Z-20.0000 F5000
G1 X242.7345 Y453.6810 Z-20.0000 F5000
G1 X240.7325 Y453.6810 Z-20.0000 F5000
G1 X240.7325 Y473.6830 Z-20.0000 F5000
G1 X242.7345 Y473.6830 Z-20.0000 F5000
G1 X242.7345 Y468.6830 Z-20.0000 F5000
G1 X289.7324 Y468.6830 Z-20.0000 F5000
G1 X289.7324 Y492.3384 Z-20.0000 F5000
G1 X284.3899 Y497.6810 Z-20.0000 F5000
G1 X266.7324 Y497.6810 Z-20.0000 F5000
G1 X266.7324 Y499.6829 Z-20.0000 F5000
G1 X271.7324 Y499.6829 Z-20.0000 F5000
G1 X271.7324 Y727.6805 Z-20.0000 F5000
G1 X266.7324 Y727.6805 Z-20.0000 F5000
G1 X266.7324 Y729.6825 Z-20.0000 F5000
G1 X284.3899 Y729.6825 Z-20.0000 F5000
G1 X289.7324 Y735.0251 Z-20.0000 F5000
G1 X289.7324 Y792.3378 Z-20.0000 F5000
G1 X284.3899 Y797.6804 Z-20.0000 F5000
G1 X266.7324 Y797.6804 Z-20.0000 F5000
G1 X266.7324 Y799.6824 Z-20.0000 F5000
G1 X271.7324 Y799.6824 Z-20.0000 F5000
G1 X271.7324 Y917.6802 Z-20.0000 F5000
G1 X248.7325 Y917.6802 Z-20.0000 F5000
G1 X248.7325 Y919.6822 Z-20.0000 F5000
G1 X253.7325 Y919.6822 Z-20.0000 F5000
G1 X253.7325 Y1027.6799 Z-20.0000 F5000
G1 X248.7325 Y1027.6799 Z-20.0000 F5000
G1 X248.7325 Y1029.6819 Z-20.0000 F5000
G1 X284.3899 Y1029.6819 Z-20.0000 F5000
G1 X289.7324 Y1035.0245 Z-20.0000 F5000
G1 X289.7324 Y1092.3372 Z-20.0000 F5000
G1 X284.3899 Y1097.6798 Z-20.0000 F5000
G1 X248.7325 Y1097.6798 Z-20.0000 F5000
G1 X248.7325 Y1099.6818 Z-20.0000 F5000
G1 X253.7325 Y1099.6818 Z-20.0000 F5000
G1 X253.7325 Y1327.6793 Z-20.0000 F5000
G1 X248.7325 Y1327.6793 Z-20.0000 F5000
G1 X248.7325 Y1329.6813 Z-20.0000 F5000
G1 X284.3899 Y1329.6813 Z-20.0000 F5000
G1 X289.7324 Y1335.0238 Z-20.0000 F5000
G1 X289.7324 Y1392.3367 Z-20.0000 F5000
G1 X284.3899 Y1397.6793 Z-20.0000 F5000
G1 X248.7325 Y1397.6793 Z-20.0000 F5000
G1 X248.7325 Y1399.6811 Z-20.0000 F5000
G1 X253.7325 Y1399.6811 Z-20.0000 F5000
G1 X253.7325 Y1515.6790 Z-20.0000 F5000
G1 X167.7346 Y1515.6790 Z-20.0000 F5000
G1 X167.7346 Y1399.6811 Z-20.0000 F5000
G1 X172.7346 Y1399.6811 Z-20.0000 F5000
G1 X172.7346 Y1397.6793 Z-20.0000 F5000
G1 X137.0772 Y1397.6793 Z-20.0000 F5000
G1 X131.7347 Y1392.3367 Z-20.0000 F5000
G1 X131.7347 Y1335.0238 Z-20.0000 F5000
G1 X137.0772 Y1329.6813 Z-20.0000 F5000
G1 X172.7346 Y1329.6813 Z-20.0000 F5000
G1 X172.7346 Y1327.6793 Z-20.0000 F5000
G1 X167.7346 Y1327.6793 Z-20.0000 F5000
G1 X167.7346 Y1099.6818 Z-20.0000 F5000
G1 X172.7346 Y1099.6818 Z-20.0000 F5000
G1 X172.7346 Y1097.6798 Z-20.0000 F5000
G1 X137.0772 Y1097.6798 Z-20.0000 F5000
G1 X131.7347 Y1092.3372 Z-20.0000 F5000
G1 X131.7347 Y1035.0245 Z-20.0000 F5000
G1 X137.0772 Y1029.6819 Z-20.0000 F5000
G1 X172.7346 Y1029.6819 Z-20.0000 F5000
G1 X172.7346 Y1027.6799 Z-20.0000 F5000
G1 X167.7347 Y1027.6799 Z-20.0000 F5000
G1 X167.7322 Y919.6822 Z-20.0000 F5000
G1 X172.7323 Y919.6822 Z-20.0000 F5000
G1 X172.7323 Y917.6802 Z-20.0000 F5000
G1 X149.7347 Y917.6802 Z-20.0000 F5000
G1 X149.7347 Y799.6824 Z-20.0000 F5000
G1 X154.7347 Y799.6824 Z-20.0000 F5000
G1 X154.7347 Y797.6804 Z-20.0000 F5000
G1 X137.0772 Y797.6804 Z-20.0000 F5000
G1 X131.7347 Y792.3378 Z-20.0000 F5000
G1 X131.7347 Y735.0251 Z-20.0000 F5000
G1 X137.0772 Y729.6825 Z-20.0000 F5000
G1 X154.7347 Y729.6825 Z-20.0000 F5000
G1 X154.7347 Y727.6805 Z-20.0000 F5000
G1 X149.7347 Y727.6805 Z-20.0000 F5000
G1 X149.7347 Y613.6817 Z-20.0000 F5000
G1 X149.7347 Y589.6817 Z-20.0000 F5000
G1 X149.3856 Y549.6832 Z0.0000 F5000
G1 X149.3856 Y549.6832 Z10.0000 F9999
G1 X641.5169 Y272.8798 Z10.0000 F9999
G1 X641.5169 Y272.8798 Z0.0000 F2500
G1 X641.1678 Y312.8783 Z-20.0000 F5000
G1 X641.1678 Y426.8771 Z-20.0000 F5000
G1 X636.1678 Y426.8771 Z-20.0000 F5000
G1 X636.1678 Y428.8791 Z-20.0000 F5000
G1 X653.8253 Y428.8791 Z-20.0000 F5000
G1 X659.1678 Y434.2217 Z-20.0000 F5000
G1 X659.1678 Y457.8771 Z-20.0000 F5000
G1 X612.1699 Y457.8771 Z-20.0000 F5000
G1 X612.1699 Y452.8770 Z-20.0000 F5000
G1 X610.1679 Y452.8770 Z-20.0000 F5000
G1 X610.1679 Y472.8790 Z-20.0000 F5000
G1 X612.1699 Y472.8790 Z-20.0000 F5000
G1 X612.1699 Y467.8790 Z-20.0000 F5000
G1 X659.1678 Y467.8790 Z-20.0000 F5000
G1 X659.1678 Y491.5344 Z-20.0000 F5000
G1 X653.8253 Y496.8770 Z-20.0000 F5000
G1 X636.1678 Y496.8770 Z-20.0000 F5000
G1 X636.1678 Y498.8789 Z-20.0000 F5000
G1 X641.1678 Y498.8789 Z-20.0000 F5000
G1 X641.1678 Y726.8765 Z-20.0000 F5000
G1 X636.1678 Y726.8765 Z-20.0000 F5000
G1 X636.1678 Y728.8785 Z-20.0000 F5000
G1 X653.8253 Y728.8785 Z-20.0000 F5000
G1 X659.1678 Y734.2211 Z-20.0000 F5000
G1 X659.1678 Y791.5338 Z-20.0000 F5000
G1 X653.8253 Y796.8763 Z-20.0000 F5000
G1 X636.1678 Y796.8763 Z-20.0000 F5000
G1 X636.1678 Y798.8783 Z-20.0000 F5000
G1 X641.1678 Y798.8783 Z-20.0000 F5000
G1 X641.1678 Y916.8762 Z-20.0000 F5000
G1 X618.1679 Y916.8762 Z-20.0000 F5000
G1 X618.1679 Y918.8782 Z-20.0000 F5000
G1 X623.1679 Y918.8782 Z-20.0000 F5000
G1 X623.1679 Y1026.8759 Z-20.0000 F5000
G1 X618.1679 Y1026.8759 Z-20.0000 F5000
G1 X618.1679 Y1028.8779 Z-20.0000 F5000
G1 X653.8253 Y1028.8779 Z-20.0000 F5000
G1 X659.1678 Y1034.2204 Z-20.0000 F5000
G1 X659.1678 Y1091.5332 Z-20.0000 F5000
G1 X653.8253 Y1096.8757 Z-20.0000 F5000
G1 X618.1679 Y1096.8757 Z-20.0000 F5000
G1 X618.1679 Y1098.8777 Z-20.0000 F5000
G1 X623.1679 Y1098.8777 Z-20.0000 F5000
G1 X623.1679 Y1326.8752 Z-20.0000 F5000
G1 X618.1679 Y1326.8752 Z-20.0000 F5000
G1 X618.1679 Y1328.8772 Z-20.0000 F5000
G1 X653.8253 Y1328.8772 Z-20.0000 F5000
G1 X659.1678 Y1334.2198 Z-20.0000 F5000
G1 X659.1678 Y1391.5327 Z-20.0000 F5000
G1 X653.8253 Y1396.8752 Z-20.0000 F5000
G1 X618.1679 Y1396.8752 Z-20.0000 F5000
G1 X618.1679 Y1398.8771 Z-20.0000 F5000
G1 X623.1679 Y1398.8771 Z-20.0000 F5000
G1 X623.1679 Y1514.8750 Z-20.0000 F5000
G1 X537.1700 Y1514.8750 Z-20.0000 F5000
G1 X537.1700 Y1398.8771 Z-20.0000 F5000
G1 X542.1700 Y1398.8771 Z-20.0000 F5000
G1 X542.1700 Y1396.8752 Z-20.0000 F5000
G1 X506.5126 Y1396.8752 Z-20.0000 F5000
G1 X501.1701 Y1391.5327 Z-20.0000 F5000
G1 X501.1701 Y1334.2198 Z-20.0000 F5000
G1 X506.5126 Y1328.8772 Z-20.0000 F5000
G1 X542.1700 Y1328.8772 Z-20.0000 F5000
G1 X542.1700 Y1326.8752 Z-20.0000 F5000
G1 X537.1700 Y1326.8752 Z-20.0000 F5000
G1 X537.1700 Y1098.8777 Z-20.0000 F5000
G1 X542.1700 Y1098.8777 Z-20.0000 F5000
G1 X542.1700 Y1096.8757 Z-20.0000 F5000
G1 X506.5126 Y1096.8757 Z-20.0000 F5000
G1 X501.1701 Y1091.5332 Z-20.0000 F5000
G1 X501.1701 Y1034.2204 Z-20.0000 F5000
G1 X506.5126 Y1028.8779 Z-20.0000 F5000
G1 X542.1700 Y1028.8779 Z-20.0000 F5000
G1 X542.1700 Y1026.8759 Z-20.0000 F5000
G1 X537.1701 Y1026.8759 Z-20.0000 F5000
G1 X537.1676 Y918.8782 Z-20.0000 F5000
G1 X542.1677 Y918.8782 Z-20.0000 F5000
G1 X542.1677 Y916.8762 Z-20.0000 F5000
G1 X519.1701 Y916.8762 Z-20.0000 F5000
G1 X519.1701 Y798.8783 Z-20.0000 F5000
G1 X524.1701 Y798.8783 Z-20.0000 F5000
G1 X524.1701 Y796.8763 Z-20.0000 F5000
G1 X506.5126 Y796.8763 Z-20.0000 F5000
G1 X501.1701 Y791.5338 Z-20.0000 F5000
G1 X501.1701 Y734.2211 Z-20.0000 F5000
G1 X506.5126 Y728.8785 Z-20.0000 F5000
G1 X524.1701 Y728.8785 Z-20.0000 F5000
G1 X524.1701 Y726.8765 Z-20.0000 F5000
G1 X519.1701 Y726.8765 Z-20.0000 F5000
G1 X519.1701 Y498.8789 Z-20.0000 F5000
G1 X524.1701 Y498.8789 Z-20.0000 F5000
G1 X524.1701 Y496.8770 Z-20.0000 F5000
G1 X506.5126 Y496.8770 Z-20.0000 F5000
G1 X501.1701 Y491.5344 Z-20.0000 F5000
G1 X501.1701 Y467.8790 Z-20.0000 F5000
G1 X548.1680 Y467.8790 Z-20.0000 F5000
G1 X548.1680 Y472.8790 Z-20.0000 F5000
G1 X550.1700 Y472.8790 Z-20.0000 F5000
G1 X550.1700 Y452.8770 Z-20.0000 F5000
G1 X548.1680 Y452.8770 Z-20.0000 F5000
G1 X548.1680 Y457.8771 Z-20.0000 F5000
G1 X501.1701 Y457.8771 Z-20.0000 F5000
G1 X501.1701 Y434.2217 Z-20.0000 F5000
G1 X506.5126 Y428.8791 Z-20.0000 F5000
G1 X524.1701 Y428.8791 Z-20.0000 F5000
G1 X524.1701 Y426.8771 Z-20.0000 F5000
G1 X519.1701 Y426.8771 Z-20.0000 F5000
G1 X519.1701 Y198.8795 Z-20.0000 F5000
G1 X524.1701 Y198.8795 Z-20.0000 F5000
G1 X524.1701 Y196.8775 Z-20.0000 F5000
G1 X506.5126 Y196.8775 Z-20.0000 F5000
G1 X501.1701 Y191.5350 Z-20.0000 F5000
G1 X501.1701 Y159.3797 Z-20.0000 F5000
G1 X563.3861 Y159.3797 Z-20.0000 F5000
G1 X565.5367 Y159.6913 Z-20.0000 F5000
G1 X567.8453 Y160.7739 Z-20.0000 F5000
G1 X569.7285 Y162.4923 Z-20.0000 F5000
G1 X570.9886 Y164.6099 Z-20.0000 F5000
G1 X571.5952 Y166.9988 Z-20.0000 F5000
G1 X571.4784 Y169.5455 Z-20.0000 F5000
G1 X570.6118 Y171.9430 Z-20.0000 F5000
G1 X569.3116 Y173.6842 Z-20.0000 F5000
G1 X566.3826 Y176.6134 Z-20.0000 F5000
G1 X565.9656 Y177.1717 Z-20.0000 F5000
G1 X565.8294 Y177.5149 Z-20.0000 F5000
G1 X565.7837 Y177.8907 Z-20.0000 F5000
G1 X565.8354 Y178.2626 Z-20.0000 F5000
G1 X565.9752 Y178.6002 Z-20.0000 F5000
G1 X566.2016 Y178.8997 Z-20.0000 F5000
G1 X566.4996 Y179.1332 Z-20.0000 F5000
G1 X566.8387 Y179.2795 Z-20.0000 F5000
G1 X567.5282 Y179.3794 Z-20.0000 F5000
G1 X592.8097 Y179.3794 Z-20.0000 F5000
G1 X593.4992 Y179.2795 Z-20.0000 F5000
G1 X593.8383 Y179.1332 Z-20.0000 F5000
G1 X594.1363 Y178.8997 Z-20.0000 F5000
G1 X594.3627 Y178.6002 Z-20.0000 F5000
G1 X594.5025 Y178.2626 Z-20.0000 F5000
G1 X594.5542 Y177.8907 Z-20.0000 F5000
G1 X594.5085 Y177.5149 Z-20.0000 F5000
G1 X594.3723 Y177.1717 Z-20.0000 F5000
G1 X593.9553 Y176.6134 Z-20.0000 F5000
G1 X591.0263 Y173.6842 Z-20.0000 F5000
G1 X589.7261 Y171.9430 Z-20.0000 F5000
G1 X588.8595 Y169.5455 Z-20.0000 F5000
G1 X588.7427 Y166.9988 Z-20.0000 F5000
G1 X589.3493 Y164.6099 Z-20.0000 F5000
G1 X590.6094 Y162.4923 Z-20.0000 F5000
G1 X592.4926 Y160.7739 Z-20.0000 F5000
G1 X594.8012 Y159.6913 Z-20.0000 F5000
G1 X596.9518 Y159.3797 Z-20.0000 F5000
G1 X659.1678 Y159.3797 Z-20.0000 F5000
G1 X659.1678 Y191.5350 Z-20.0000 F5000
G1 X653.8253 Y196.8775 Z-20.0000 F5000
G1 X636.1678 Y196.8775 Z-20.0000 F5000
G1 X636.1678 Y198.8795 Z-20.0000 F5000
G1 X641.1678 Y198.8795 Z-20.0000 F5000
G1 X641.1678 Y312.8783 Z-20.0000 F5000
G1 X641.1678 Y336.8783 Z-20.0000 F5000
G1 X641.5169 Y376.8768 Z0.0000 F5000
G1 X641.5169 Y376.8768 Z10.0000 F9999
G1 X690.1830 Y1316.8824 Z10.0000 F9999
G1 X690.1830 Y1316.8824 Z0.0000 F2500
G1 X690.5321 Y1276.8840 Z-20.0000 F5000
G1 X690.5321 Y133.0028 Z-20.0000 F5000
G1 X773.5299 Y133.0028 Z-20.0000 F5000
G1 X773.5299 Y241.0000 Z-20.0000 F5000
G1 X732.5300 Y241.0000 Z-20.0000 F5000
G1 X732.5300 Y243.0015 Z-20.0000 F5000
G1 X737.5300 Y243.0015 Z-20.0000 F5000
G1 X737.5300 Y410.9992 Z-20.0000 F5000
G1 X732.5300 Y410.9992 Z-20.0000 F5000
G1 X732.5300 Y413.0020 Z-20.0000 F5000
G1 X773.5299 Y413.0020 Z-20.0000 F5000
G1 X773.5299 Y540.9996 Z-20.0000 F5000
G1 X732.5300 Y540.9996 Z-20.0000 F5000
G1 X732.5300 Y543.0009 Z-20.0000 F5000
G1 X737.5300 Y543.0009 Z-20.0000 F5000
G1 X737.5300 Y710.9990 Z-20.0000 F5000
G1 X732.5300 Y710.9990 Z-20.0000 F5000
G1 X732.5300 Y713.0016 Z-20.0000 F5000
G1 X773.5299 Y713.0016 Z-20.0000 F5000
G1 X773.5299 Y840.9992 Z-20.0000 F5000
G1 X750.5299 Y840.9992 Z-20.0000 F5000
G1 X750.5299 Y843.0005 Z-20.0000 F5000
G1 X755.5299 Y843.0005 Z-20.0000 F5000
G1 X755.5299 Y921.9982 Z-20.0000 F5000
G1 X726.5320 Y921.9982 Z-20.0000 F5000
G1 X726.5320 Y916.9984 Z-20.0000 F5000
G1 X724.5300 Y916.9984 Z-20.0000 F5000
G1 X724.5300 Y937.0002 Z-20.0000 F5000
G1 X726.5320 Y937.0002 Z-20.0000 F5000
G1 X726.5320 Y932.0005 Z-20.0000 F5000
G1 X755.5299 Y932.0005 Z-20.0000 F5000
G1 X755.5299 Y1010.9984 Z-20.0000 F5000
G1 X750.5299 Y1010.9984 Z-20.0000 F5000
G1 X750.5299 Y1013.0010 Z-20.0000 F5000
G1 X773.5299 Y1013.0010 Z-20.0000 F5000
G1 X773.5299 Y1171.0897 Z-20.0000 F5000
G1 X750.5299 Y1171.0897 Z-20.0000 F5000
G1 X750.5299 Y1173.0923 Z-20.0000 F5000
G1 X755.5299 Y1173.0923 Z-20.0000 F5000
G1 X755.5299 Y1341.0886 Z-20.0000 F5000
G1 X750.5299 Y1341.0886 Z-20.0000 F5000
G1 X750.5299 Y1343.0915 Z-20.0000 F5000
G1 X773.5299 Y1343.0915 Z-20.0000 F5000
G1 X773.5299 Y1501.1803 Z-20.0000 F5000
G1 X750.5299 Y1501.1803 Z-20.0000 F5000
G1 X750.5299 Y1503.1830 Z-20.0000 F5000
G1 X755.5299 Y1503.1830 Z-20.0000 F5000
G1 X755.5299 Y1582.1808 Z-20.0000 F5000
G1 X726.5320 Y1582.1808 Z-20.0000 F5000
G1 X726.5320 Y1577.1810 Z-20.0000 F5000
G1 X724.5300 Y1577.1810 Z-20.0000 F5000
G1 X724.5300 Y1597.1828 Z-20.0000 F5000
G1 X726.5320 Y1597.1828 Z-20.0000 F5000
G1 X726.5320 Y1592.1829 Z-20.0000 F5000
G1 X755.5299 Y1592.1829 Z-20.0000 F5000
G1 X755.5299 Y1671.1808 Z-20.0000 F5000
G1 X750.5299 Y1671.1808 Z-20.0000 F5000
G1 X750.5299 Y1673.1820 Z-20.0000 F5000
G1 X773.5299 Y1673.1820 Z-20.0000 F5000
G1 X773.5299 Y1801.1794 Z-20.0000 F5000
G1 X732.5300 Y1801.1794 Z-20.0000 F5000
G1 X732.5300 Y1803.1825 Z-20.0000 F5000
G1 X737.5300 Y1803.1825 Z-20.0000 F5000
G1 X737.5300 Y1971.1804 Z-20.0000 F5000
G1 X732.5300 Y1971.1804 Z-20.0000 F5000
G1 X732.5300 Y1973.1815 Z-20.0000 F5000
G1 X773.5299 Y1973.1815 Z-20.0000 F5000
G1 X773.5299 Y2101.1795 Z-20.0000 F5000
G1 X732.5300 Y2101.1795 Z-20.0000 F5000
G1 X732.5300 Y2103.1812 Z-20.0000 F5000
G1 X737.5300 Y2103.1812 Z-20.0000 F5000
G1 X737.5300 Y2271.1792 Z-20.0000 F5000
G1 X732.5300 Y2271.1792 Z-20.0000 F5000
G1 X732.5300 Y2273.1810 Z-20.0000 F5000
G1 X773.5299 Y2273.1810 Z-20.0000 F5000
G1 X773.5299 Y2420.7651 Z-20.0000 F5000
G1 X690.5321 Y2420.7651 Z-20.0000 F5000
G1 X690.5321 Y1276.8840 Z-20.0000 F5000
G1 X690.5321 Y1252.8840 Z-20.0000 F5000
G1 X690.1830 Y1212.8855 Z0.0000 F5000
G1 X690.1830 Y1212.8855 Z10.0000 F9999
G1 X802.6813 Y1316.8824 Z10.0000 F9999
G1 X802.6813 Y1316.8824 Z0.0000 F2500
G1 X803.0303 Y1276.8840 Z-20.0000 F5000
G1 X803.0303 Y133.0028 Z-20.0000 F5000
G1 X886.0282 Y133.0028 Z-20.0000 F5000
G1 X886.0282 Y241.0000 Z-20.0000 F5000
G1 X845.0283 Y241.0000 Z-20.0000 F5000
G1 X845.0283 Y243.0015 Z-20.0000 F5000
G1 X850.0283 Y243.0015 Z-20.0000 F5000
G1 X850.0283 Y410.9992 Z-20.0000 F5000
G1 X845.0283 Y410.9992 Z-20.0000 F5000
G1 X845.0283 Y413.0020 Z-20.0000 F5000
G1 X886.0282 Y413.0020 Z-20.0000 F5000
G1 X886.0282 Y540.9996 Z-20.0000 F5000
G1 X845.0283 Y540.9996 Z-20.0000 F5000
G1 X845.0283 Y543.0009 Z-20.0000 F5000
G1 X850.0283 Y543.0009 Z-20.0000 F5000
G1 X850.0283 Y710.9990 Z-20.0000 F5000
G1 X845.0283 Y710.9990 Z-20.0000 F5000
G1 X845.0283 Y713.0016 Z-20.0000 F5000
G1 X886.0282 Y713.0016 Z-20.0000 F5000
G1 X886.0282 Y840.9992 Z-20.0000 F5000
G1 X863.0282 Y840.9992 Z-20.0000 F5000
G1 X863.0282 Y843.0005 Z-20.0000 F5000
G1 X868.0282 Y843.0005 Z-20.0000 F5000
G1 X868.0282 Y921.9982 Z-20.0000 F5000
G1 X839.0303 Y921.9982 Z-20.0000 F5000
G1 X839.0303 Y916.9984 Z-20.0000 F5000
G1 X837.0283 Y916.9984 Z-20.0000 F5000
G1 X837.0283 Y937.0002 Z-20.0000 F5000
G1 X839.0303 Y937.0002 Z-20.0000 F5000
G1 X839.0303 Y932.0005 Z-20.0000 F5000
G1 X868.0282 Y932.0005 Z-20.0000 F5000
G1 X868.0282 Y1010.9984 Z-20.0000 F5000
G1 X863.0282 Y1010.9984 Z-20.0000 F5000
G1 X863.0282 Y1013.0010 Z-20.0000 F5000
G1 X886.0282 Y1013.0010 Z-20.0000 F5000
G1 X886.0282 Y1171.0897 Z-20.0000 F5000
G1 X863.0282 Y1171.0897 Z-20.0000 F5000
G1 X863.0282 Y1173.0923 Z-20.0000 F5000
G1 X868.0282 Y1173.0923 Z-20.0000 F5000
G1 X868.0282 Y1341.0886 Z-20.0000 F5000
G1 X863.0282 Y1341.0886 Z-20.0000 F5000
G1 X863.0282 Y1343.0915 Z-20.0000 F5000
G1 X886.0282 Y1343.0915 Z-20.0000 F5000
G1 X886.0282 Y1501.1803 Z-20.0000 F5000
G1 X863.0282 Y1501.1803 Z-20.0000 F5000
G1 X863.0282 Y1503.1830 Z-20.0000 F5000
G1 X868.0282 Y1503.1830 Z-20.0000 F5000
G1 X868.0282 Y1582.1808 Z-20.0000 F5000
G1 X839.0303 Y1582.1808 Z-20.0000 F5000
G1 X839.0303 Y1577.1810 Z-20.0000 F5000
G1 X837.0283 Y1577.1810 Z-20.0000 F5000
G1 X837.0283 Y1597.1828 Z-20.0000 F5000
G1 X839.0303 Y1597.1828 Z-20.0000 F5000
G1 X839.0303 Y1592.1829 Z-20.0000 F5000
G1 X868.0282 Y1592.1829 Z-20.0000 F5000
G1 X868.0282 Y1671.1808 Z-20.0000 F5000
G1 X863.0282 Y1671.1808 Z-20.0000 F5000
G1 X863.0282 Y1673.1820 Z-20.0000 F5000
G1 X886.0282 Y1673.1820 Z-20.0000 F5000
G1 X886.0282 Y1801.1794 Z-20.0000 F5000
G1 X845.0283 Y1801.1794 Z-20.0000 F5000
G1 X845.0283 Y1803.1825 Z-20.0000 F5000
G1 X850.0283 Y1803.1825 Z-20.0000 F5000
G1 X850.0283 Y1971.1804 Z-20.0000 F5000
G1 X845.0283 Y1971.1804 Z-20.0000 F5000
G1 X845.0283 Y1973.1815 Z-20.0000 F5000
G1 X886.0282 Y1973.1815 Z-20.0000 F5000
G1 X886.0282 Y2101.1795 Z-20.0000 F5000
G1 X845.0283 Y2101.1795 Z-20.0000 F5000
G1 X845.0283 Y2103.1812 Z-20.0000 F5000
G1 X850.0283 Y2103.1812 Z-20.0000 F5000
G1 X850.0283 Y2271.1792 Z-20.0000 F5000
G1 X845.0283 Y2271.1792 Z-20.0000 F5000
G1 X845.0283 Y2273.1810 Z-20.0000 F5000
G1 X886.0282 Y2273.1810 Z-20.0000 F5000
G1 X886.0282 Y2420.7651 Z-20.0000 F5000
G1 X803.0303 Y2420.7651 Z-20.0000 F5000
G1 X803.0303 Y1276.8840 Z-20.0000 F5000
G1 X803.0303 Y1252.8840 Z-20.0000 F5000
G1 X802.6813 Y1212.8855 Z0.0000 F5000
G1 X802.6813 Y1212.8855 Z10.0000 F9999
G1 X904.0828 Y1309.8730 Z10.0000 F9999
G1 X904.0828 Y1309.8730 Z0.0000 F2500
G1 X904.4319 Y1269.8746 Z-20.0000 F5000
G1 X904.4319 Y133.0028 Z-20.0000 F5000
G1 X969.4298 Y133.0028 Z-20.0000 F5000
G1 X969.4298 Y211.7507 Z-20.0000 F5000
G1 X964.4298 Y211.7507 Z-20.0000 F5000
G1 X964.4298 Y213.7527 Z-20.0000 F5000
G1 X987.4298 Y213.7527 Z-20.0000 F5000
G1 X987.4298 Y341.7505 Z-20.0000 F5000
G1 X964.4298 Y341.7505 Z-20.0000 F5000
G1 X964.4298 Y343.7524 Z-20.0000 F5000
G1 X969.4298 Y343.7524 Z-20.0000 F5000
