(plotsheet 2n3_nested_153 sheets_final v1_0_sheet 117 to 121a_S117.0_9 screws_CC8 - stepover 1mm)
(Material Size) (X=1220.000, Y=2440.000, Z=20.000)
(LinuxCNC_NoArcs_MM_TC_medium_50um_G1_verbose.con)
G90 G80 G21 G49
G64 P0.050
M6 T1
(Tool Number:1) (7.998 mm dia. slot drill)
G43 H1 G0Z80.0000
M3 S9000
G04 P10
G1 X370.1641 Y165.8133 Z10.0000 F9999
G1 X370.1641 Y165.8133 Z2.0000 F9999
G1 X370.1641 Y165.8133 Z-1.0000 F2500
G1 X370.1641 Y165.8133 Z10.0000 F9999
G1 X152.2308 Y418.3626 Z10.0000 F9999
G1 X152.2308 Y418.3626 Z2.0000 F9999
G1 X152.2308 Y418.3626 Z-1.0000 F2500
G1 X152.2308 Y418.3626 Z10.0000 F9999
G1 X141.1114 Y1065.3047 Z10.0000 F9999
G1 X141.1114 Y1065.3047 Z2.0000 F9999
G1 X141.1114 Y1065.3047 Z-1.0000 F2500
G1 X141.1114 Y1065.3047 Z10.0000 F9999
G1 X672.1443 Y1070.0283 Z10.0000 F9999
G1 X672.1443 Y1070.0283 Z2.0000 F9999
G1 X672.1443 Y1070.0283 Z-1.0000 F2500
G1 X672.1443 Y1070.0283 Z10.0000 F9999
G1 X848.1233 Y1386.3599 Z10.0000 F9999
G1 X848.1233 Y1386.3599 Z2.0000 F9999
G1 X848.1233 Y1386.3599 Z-1.0000 F2500
G1 X848.1233 Y1386.3599 Z10.0000 F9999
G1 X1058.0693 Y2036.3649 Z10.0000 F9999
G1 X1058.0693 Y2036.3649 Z2.0000 F9999
G1 X1058.0693 Y2036.3649 Z-1.0000 F2500
G1 X1058.0693 Y2036.3649 Z10.0000 F9999
G1 X147.0125 Y2273.6477 Z10.0000 F9999
G1 X147.0125 Y2273.6477 Z2.0000 F9999
G1 X147.0125 Y2273.6477 Z-1.0000 F2500
G1 X147.0125 Y2273.6477 Z10.0000 F9999
G1 X153.9149 Y1629.9985 Z10.0000 F9999
G1 X153.9149 Y1629.9985 Z2.0000 F9999
G1 X153.9149 Y1629.9985 Z-1.0000 F2500
G1 X153.9149 Y1629.9985 Z10.0000 F9999
G1 X846.4300 Y160.6365 Z10.0000 F9999
G1 X846.4300 Y160.6365 Z2.0000 F9999
G1 X846.4300 Y160.6365 Z-1.0000 F2500
G1 X846.4300 Y160.6365 Z10.0000 F9999
G1 X1900.0000 Y2800.0000 Z80.0000 F9999
G1 Z80.0000 F9999
G1 X1900.0000 Y2800.0000 F9999
M5
M30
