(plotsheet 2n3_nested_153 sheets_final v1_0_sheet 112a_S112.1_text_CC8 - stepover 1mm)
(Material Size) (X=1220.000, Y=2440.000, Z=21.000)
(LinuxCNC_NoArcs_MM_TC_medium_50um_G1_verbose.con)
G90 G80 G21 G49
G64 P0.050
M6 T1
(Tool Number:1) (7.998 mm dia. slot drill)
G43 H1 G0Z80.0000
M3 S9000
G04 P10
G1 X658.3729 Y196.0815 Z10.0000 F9999
G1 X658.3729 Y196.0815 Z-1.0000 F2500
G1 X650.4585 Y235.3940 Z-1.0000 F4000
G1 X630.0886 Y215.0242 Z-1.0000 F4000
G1 X650.4585 Y235.3940 Z-1.0000 F4000
G1 X658.3729 Y196.0815 Z-1.0000 F4000
G1 X629.3102 Y225.1442 Z-1.0000 F4000
G1 X629.3102 Y225.1442 Z10.0000 F9999
G1 X679.3396 Y242.9192 Z10.0000 F9999
G1 X679.3396 Y242.9192 Z-1.0000 F2500
G1 X669.1287 Y232.7083 Z-1.0000 F4000
G1 X679.3396 Y242.9192 Z-1.0000 F4000
G1 X692.2751 Y229.9837 Z-1.0000 F4000
G1 X681.5842 Y219.2928 Z-1.0000 F4000
G1 X692.2751 Y229.9837 Z-1.0000 F4000
G1 X663.2124 Y259.0464 Z-1.0000 F4000
G1 X663.2124 Y259.0464 Z10.0000 F9999
G1 X709.8814 Y234.3042 Z10.0000 F9999
G1 X709.8814 Y234.3042 Z-1.0000 F2500
G1 X694.0007 Y293.1562 Z-1.0000 F4000
G1 X709.8814 Y234.3042 Z-1.0000 F4000
G1 X709.8814 Y234.3042 Z10.0000 F9999
G1 X744.1210 Y281.8295 Z10.0000 F9999
G1 X744.1210 Y281.8295 Z-1.0000 F2500
G1 X703.7056 Y299.5396 Z-1.0000 F4000
G1 X744.1210 Y281.8295 Z-1.0000 F4000
G1 X726.3849 Y322.2190 Z-1.0000 F4000
G1 X726.3849 Y322.2190 Z10.0000 F9999
G1 X751.3737 Y312.3324 Z10.0000 F9999
G1 X751.3737 Y312.3324 Z-1.0000 F2500
G1 X772.0549 Y333.0137 Z-1.0000 F4000
G1 X751.3737 Y312.3324 Z-1.0000 F4000
G1 X751.3737 Y312.3324 Z10.0000 F9999
G1 X718.1591 Y293.2081 Z10.0000 F9999
G1 X718.1591 Y293.2081 Z-1.0000 F2500
G1 X732.7943 Y307.8433 Z-1.0000 F4000
G1 X718.1591 Y293.2081 Z-1.0000 F4000
G1 X718.1591 Y293.2081 Z10.0000 F9999
G1 X777.1150 Y352.1640 Z10.0000 F9999
G1 X777.1150 Y352.1640 Z-1.0000 F2500
G1 X791.7501 Y366.7991 Z-1.0000 F4000
G1 X777.1150 Y352.1640 Z-1.0000 F4000
G1 X777.1150 Y352.1640 Z10.0000 F9999
G1 X803.0768 Y340.7854 Z10.0000 F9999
G1 X803.0768 Y340.7854 Z-1.0000 F2500
G1 X762.6614 Y358.4955 Z-1.0000 F4000
G1 X803.0768 Y340.7854 Z-1.0000 F4000
G1 X785.3407 Y381.1748 Z-1.0000 F4000
G1 X785.3407 Y381.1748 Z10.0000 F9999
G1 X792.8919 Y388.7259 Z10.0000 F9999
G1 X792.8919 Y388.7259 Z-1.0000 F2500
G1 X816.4924 Y383.8346 Z-1.0000 F4000
G1 X792.8919 Y388.7259 Z-1.0000 F4000
G1 X792.8919 Y388.7259 Z10.0000 F9999
G1 X805.2046 Y401.0387 Z10.0000 F9999
G1 X805.2046 Y401.0387 Z-1.0000 F2500
G1 X834.2673 Y371.9759 Z-1.0000 F4000
G1 X829.2073 Y366.9159 Z-1.0000 F4000
G1 X826.0416 Y364.6064 Z-1.0000 F4000
G1 X822.4866 Y363.6204 Z-1.0000 F4000
G1 X818.6850 Y364.2821 Z-1.0000 F4000
G1 X814.8057 Y366.9678 Z-1.0000 F4000
G1 X812.3146 Y371.0937 Z-1.0000 F4000
G1 X811.9254 Y375.4012 Z-1.0000 F4000
G1 X812.8855 Y379.1378 Z-1.0000 F4000
G1 X814.4684 Y381.6549 Z-1.0000 F4000
G1 X819.5284 Y386.7149 Z-1.0000 F4000
G1 X814.4684 Y381.6549 Z-1.0000 F4000
G1 X812.8855 Y379.1378 Z-1.0000 F4000
G1 X811.9254 Y375.4012 Z-1.0000 F4000
G1 X812.3146 Y371.0937 Z-1.0000 F4000
G1 X814.8057 Y366.9678 Z-1.0000 F4000
G1 X818.6850 Y364.2821 Z-1.0000 F4000
G1 X822.4866 Y363.6204 Z-1.0000 F4000
G1 X826.0416 Y364.6064 Z-1.0000 F4000
G1 X829.2073 Y366.9159 Z-1.0000 F4000
G1 X834.2673 Y371.9759 Z-1.0000 F4000
G1 X834.2673 Y371.9759 Z10.0000 F9999
G1 X842.9213 Y406.5009 Z10.0000 F9999
G1 X842.9213 Y406.5009 Z-1.0000 F2500
G1 X832.7104 Y396.2900 Z-1.0000 F4000
G1 X842.9213 Y406.5009 Z-1.0000 F4000
G1 X855.8568 Y393.5654 Z-1.0000 F4000
G1 X845.1659 Y382.8744 Z-1.0000 F4000
G1 X855.8568 Y393.5654 Z-1.0000 F4000
G1 X826.7941 Y422.6281 Z-1.0000 F4000
G1 X826.7941 Y422.6281 Z10.0000 F9999
G1 X333.1841 Y973.2799 Z10.0000 F9999
G1 X333.1841 Y973.2799 Z-1.0000 F2500
G1 X304.1214 Y1002.3426 Z-1.0000 F4000
G1 X309.1814 Y1007.4026 Z-1.0000 F4000
G1 X312.3472 Y1009.7121 Z-1.0000 F4000
G1 X315.9022 Y1010.6981 Z-1.0000 F4000
G1 X319.7037 Y1010.0364 Z-1.0000 F4000
G1 X323.5831 Y1007.3507 Z-1.0000 F4000
G1 X326.0741 Y1003.2249 Z-1.0000 F4000
G1 X326.4634 Y998.9173 Z-1.0000 F4000
G1 X325.5033 Y995.1807 Z-1.0000 F4000
G1 X323.9204 Y992.6637 Z-1.0000 F4000
G1 X318.8604 Y987.6036 Z-1.0000 F4000
G1 X323.9204 Y992.6637 Z-1.0000 F4000
G1 X325.5033 Y995.1807 Z-1.0000 F4000
G1 X326.4634 Y998.9173 Z-1.0000 F4000
G1 X326.0741 Y1003.2249 Z-1.0000 F4000
G1 X323.5831 Y1007.3507 Z-1.0000 F4000
G1 X319.7037 Y1010.0364 Z-1.0000 F4000
G1 X315.9022 Y1010.6981 Z-1.0000 F4000
G1 X312.3472 Y1009.7121 Z-1.0000 F4000
G1 X309.1814 Y1007.4026 Z-1.0000 F4000
G1 X304.1214 Y1002.3426 Z-1.0000 F4000
G1 X304.1214 Y1002.3426 Z10.0000 F9999
G1 X295.4675 Y967.8176 Z10.0000 F9999
G1 X295.4675 Y967.8176 Z-1.0000 F2500
G1 X305.6783 Y978.0285 Z-1.0000 F4000
G1 X295.4675 Y967.8176 Z-1.0000 F4000
G1 X282.5319 Y980.7531 Z-1.0000 F4000
G1 X293.2229 Y991.4441 Z-1.0000 F4000
G1 X282.5319 Y980.7531 Z-1.0000 F4000
G1 X311.5947 Y951.6904 Z-1.0000 F4000
G1 X311.5947 Y951.6904 Z10.0000 F9999
G1 X345.4969 Y985.5926 Z10.0000 F9999
G1 X345.4969 Y985.5926 Z-1.0000 F2500
G1 X321.8964 Y990.4840 Z-1.0000 F4000
G1 X345.4969 Y985.5926 Z-1.0000 F4000
G1 X345.4969 Y985.5926 Z10.0000 F9999
G1 X361.2738 Y1022.1546 Z10.0000 F9999
G1 X361.2738 Y1022.1546 Z-1.0000 F2500
G1 X346.6386 Y1007.5194 Z-1.0000 F4000
G1 X361.2738 Y1022.1546 Z-1.0000 F4000
G1 X361.2738 Y1022.1546 Z10.0000 F9999
G1 X335.3119 Y1033.5331 Z10.0000 F9999
G1 X335.3119 Y1033.5331 Z-1.0000 F2500
G1 X375.7273 Y1015.8230 Z-1.0000 F4000
G1 X335.3119 Y1033.5331 Z-1.0000 F4000
G1 X353.0480 Y993.1437 Z-1.0000 F4000
G1 X353.0480 Y993.1437 Z10.0000 F9999
G1 X387.0151 Y1061.9861 Z10.0000 F9999
G1 X387.0151 Y1061.9861 Z-1.0000 F2500
G1 X366.3338 Y1041.3048 Z-1.0000 F4000
G1 X387.0151 Y1061.9861 Z-1.0000 F4000
G1 X387.0151 Y1061.9861 Z10.0000 F9999
G1 X394.2678 Y1092.4890 Z10.0000 F9999
G1 X394.2678 Y1092.4890 Z-1.0000 F2500
G1 X434.6832 Y1074.7789 Z-1.0000 F4000
G1 X394.2678 Y1092.4890 Z-1.0000 F4000
G1 X412.0038 Y1052.0996 Z-1.0000 F4000
G1 X412.0038 Y1052.0996 Z10.0000 F9999
G1 X420.2296 Y1081.1104 Z10.0000 F9999
G1 X420.2296 Y1081.1104 Z-1.0000 F2500
G1 X405.5945 Y1066.4752 Z-1.0000 F4000
G1 X420.2296 Y1081.1104 Z-1.0000 F4000
G1 X420.2296 Y1081.1104 Z10.0000 F9999
G1 X428.5073 Y1140.0143 Z10.0000 F9999
G1 X428.5073 Y1140.0143 Z-1.0000 F2500
G1 X444.3880 Y1081.1623 Z-1.0000 F4000
G1 X428.5073 Y1140.0143 Z-1.0000 F4000
G1 X428.5073 Y1140.0143 Z10.0000 F9999
G1 X459.0491 Y1131.3993 Z10.0000 F9999
G1 X459.0491 Y1131.3993 Z-1.0000 F2500
G1 X469.2600 Y1141.6102 Z-1.0000 F4000
G1 X459.0491 Y1131.3993 Z-1.0000 F4000
G1 X446.1136 Y1144.3348 Z-1.0000 F4000
G1 X456.8046 Y1155.0258 Z-1.0000 F4000
G1 X446.1136 Y1144.3348 Z-1.0000 F4000
G1 X475.1764 Y1115.2721 Z-1.0000 F4000
G1 X475.1764 Y1115.2721 Z10.0000 F9999
G1 X480.0158 Y1178.2370 Z10.0000 F9999
G1 X480.0158 Y1178.2370 Z-1.0000 F2500
G1 X487.9302 Y1138.9245 Z-1.0000 F4000
G1 X508.3001 Y1159.2944 Z-1.0000 F4000
G1 X487.9302 Y1138.9245 Z-1.0000 F4000
G1 X480.0158 Y1178.2370 Z-1.0000 F4000
G1 X509.0786 Y1149.1743 Z-1.0000 F4000
G1 X509.0786 Y1149.1743 Z10.0000 F9999
G1 X658.3729 Y1461.5193 Z10.0000 F9999
G1 X658.3729 Y1461.5193 Z-1.0000 F2500
G1 X650.4585 Y1500.8318 Z-1.0000 F4000
G1 X630.0886 Y1480.4620 Z-1.0000 F4000
G1 X650.4585 Y1500.8318 Z-1.0000 F4000
G1 X658.3729 Y1461.5193 Z-1.0000 F4000
G1 X629.3102 Y1490.5820 Z-1.0000 F4000
G1 X629.3102 Y1490.5820 Z10.0000 F9999
G1 X679.3396 Y1508.3570 Z10.0000 F9999
G1 X679.3396 Y1508.3570 Z-1.0000 F2500
G1 X669.1287 Y1498.1461 Z-1.0000 F4000
G1 X679.3396 Y1508.3570 Z-1.0000 F4000
G1 X692.2751 Y1495.4215 Z-1.0000 F4000
G1 X681.5842 Y1484.7306 Z-1.0000 F4000
G1 X692.2751 Y1495.4215 Z-1.0000 F4000
G1 X663.2124 Y1524.4842 Z-1.0000 F4000
G1 X663.2124 Y1524.4842 Z10.0000 F9999
G1 X709.8814 Y1499.7420 Z10.0000 F9999
G1 X709.8814 Y1499.7420 Z-1.0000 F2500
G1 X694.0007 Y1558.5940 Z-1.0000 F4000
G1 X709.8814 Y1499.7420 Z-1.0000 F4000
G1 X709.8814 Y1499.7420 Z10.0000 F9999
G1 X744.1210 Y1547.2673 Z10.0000 F9999
G1 X744.1210 Y1547.2673 Z-1.0000 F2500
G1 X703.7056 Y1564.9774 Z-1.0000 F4000
G1 X744.1210 Y1547.2673 Z-1.0000 F4000
G1 X726.3849 Y1587.6568 Z-1.0000 F4000
G1 X726.3849 Y1587.6568 Z10.0000 F9999
G1 X751.3737 Y1577.7702 Z10.0000 F9999
G1 X751.3737 Y1577.7702 Z-1.0000 F2500
G1 X772.0549 Y1598.4515 Z-1.0000 F4000
G1 X751.3737 Y1577.7702 Z-1.0000 F4000
G1 X751.3737 Y1577.7702 Z10.0000 F9999
G1 X718.1591 Y1558.6459 Z10.0000 F9999
G1 X718.1591 Y1558.6459 Z-1.0000 F2500
G1 X732.7943 Y1573.2811 Z-1.0000 F4000
G1 X718.1591 Y1558.6459 Z-1.0000 F4000
G1 X718.1591 Y1558.6459 Z10.0000 F9999
G1 X777.1150 Y1617.6018 Z10.0000 F9999
G1 X777.1150 Y1617.6018 Z-1.0000 F2500
G1 X791.7501 Y1632.2369 Z-1.0000 F4000
G1 X777.1150 Y1617.6018 Z-1.0000 F4000
G1 X777.1150 Y1617.6018 Z10.0000 F9999
G1 X803.0768 Y1606.2232 Z10.0000 F9999
G1 X803.0768 Y1606.2232 Z-1.0000 F2500
G1 X762.6614 Y1623.9333 Z-1.0000 F4000
G1 X803.0768 Y1606.2232 Z-1.0000 F4000
G1 X785.3407 Y1646.6126 Z-1.0000 F4000
G1 X785.3407 Y1646.6126 Z10.0000 F9999
G1 X792.8919 Y1654.1637 Z10.0000 F9999
G1 X792.8919 Y1654.1637 Z-1.0000 F2500
G1 X816.4924 Y1649.2724 Z-1.0000 F4000
G1 X792.8919 Y1654.1637 Z-1.0000 F4000
G1 X792.8919 Y1654.1637 Z10.0000 F9999
G1 X805.2046 Y1666.4765 Z10.0000 F9999
G1 X805.2046 Y1666.4765 Z-1.0000 F2500
G1 X834.2673 Y1637.4137 Z-1.0000 F4000
G1 X829.2073 Y1632.3537 Z-1.0000 F4000
G1 X826.0416 Y1630.0442 Z-1.0000 F4000
G1 X822.4866 Y1629.0582 Z-1.0000 F4000
G1 X818.6850 Y1629.7199 Z-1.0000 F4000
G1 X814.8057 Y1632.4056 Z-1.0000 F4000
G1 X812.3146 Y1636.5315 Z-1.0000 F4000
G1 X811.9254 Y1640.8390 Z-1.0000 F4000
G1 X812.8855 Y1644.5756 Z-1.0000 F4000
G1 X814.4684 Y1647.0926 Z-1.0000 F4000
G1 X819.5284 Y1652.1527 Z-1.0000 F4000
G1 X814.4684 Y1647.0926 Z-1.0000 F4000
G1 X812.8855 Y1644.5756 Z-1.0000 F4000
G1 X811.9254 Y1640.8390 Z-1.0000 F4000
G1 X812.3146 Y1636.5315 Z-1.0000 F4000
G1 X814.8057 Y1632.4056 Z-1.0000 F4000
G1 X818.6850 Y1629.7199 Z-1.0000 F4000
G1 X822.4866 Y1629.0582 Z-1.0000 F4000
G1 X826.0416 Y1630.0442 Z-1.0000 F4000
G1 X829.2073 Y1632.3537 Z-1.0000 F4000
G1 X834.2673 Y1637.4137 Z-1.0000 F4000
G1 X834.2673 Y1637.4137 Z10.0000 F9999
G1 X842.9213 Y1671.9387 Z10.0000 F9999
G1 X842.9213 Y1671.9387 Z-1.0000 F2500
G1 X832.7104 Y1661.7278 Z-1.0000 F4000
G1 X842.9213 Y1671.9387 Z-1.0000 F4000
G1 X855.8568 Y1659.0032 Z-1.0000 F4000
G1 X845.1659 Y1648.3122 Z-1.0000 F4000
G1 X855.8568 Y1659.0032 Z-1.0000 F4000
G1 X826.7941 Y1688.0659 Z-1.0000 F4000
G1 X826.7941 Y1688.0659 Z10.0000 F9999
(Tool Number:1) (7.998 mm dia. slot drill)
M3 S9000
G1 X232.5210 Y43.8904 Z10.0000 F9999
G1 X232.5210 Y43.8904 Z1.0000 F2500
G1 X201.7810 Y39.8808 Z-7.3524 F2500
G1 X207.7303 Y40.6588 Z-8.9690 F2500
G1 X207.4754 Y42.6130 Z-9.5000 F2500
G1 X207.7303 Y40.6588 Z-10.0310 F2500
G1 X201.7810 Y39.8808 Z-11.6476 F2500
G1 X232.5210 Y43.8904 Z-20.0000 F2500
G1 X201.7810 Y39.8808 Z-20.0000 F4000
G1 X207.7303 Y40.6588 Z-20.0000 F4000
G1 X205.6609 Y56.5244 Z-20.0000 F4000
G1 X206.4389 Y50.5750 Z-20.0000 F4000
G1 X257.9999 Y57.3004 Z-20.0000 F4000
G1 X257.2239 Y63.2500 Z-20.0000 F4000
G1 X259.2953 Y47.3847 Z-20.0000 F4000
G1 X265.2449 Y48.1607 Z-20.0000 F4000
G1 X248.8840 Y46.0174 Z-20.0000 F4000
G1 X232.5210 Y43.8904 Z-20.0000 F4000
G1 X232.5210 Y43.8904 Z10.0000 F9999
G1 X203.2052 Y284.1180 Z10.0000 F9999
G1 X203.2052 Y284.1180 Z1.0000 F2500
G1 X233.9452 Y288.1275 Z-7.3524 F2500
G1 X227.9959 Y287.3495 Z-8.9690 F2500
G1 X228.2508 Y285.3953 Z-9.5000 F2500
G1 X227.9959 Y287.3495 Z-10.0310 F2500
G1 X233.9452 Y288.1275 Z-11.6476 F2500
G1 X203.2052 Y284.1180 Z-20.0000 F2500
G1 X233.9452 Y288.1275 Z-20.0000 F4000
G1 X227.9959 Y287.3495 Z-20.0000 F4000
G1 X230.0653 Y271.4839 Z-20.0000 F4000
G1 X229.2873 Y277.4333 Z-20.0000 F4000
G1 X177.7263 Y270.7079 Z-20.0000 F4000
G1 X178.5023 Y264.7583 Z-20.0000 F4000
G1 X176.4309 Y280.6236 Z-20.0000 F4000
G1 X170.4813 Y279.8476 Z-20.0000 F4000
G1 X186.8422 Y281.9910 Z-20.0000 F4000
G1 X203.2052 Y284.1180 Z-20.0000 F4000
G1 X203.2052 Y284.1180 Z10.0000 F9999
G1 X128.1083 Y554.3953 Z10.0000 F9999
G1 X128.1083 Y554.3953 Z1.0000 F2500
G1 X132.1179 Y585.1353 Z-7.3524 F2500
G1 X131.3439 Y579.1854 Z-8.9690 F2500
G1 X133.2981 Y578.9305 Z-9.5000 F2500
G1 X131.3439 Y579.1854 Z-10.0310 F2500
G1 X132.1179 Y585.1353 Z-11.6476 F2500
G1 X128.1083 Y554.3953 Z-20.0000 F2500
G1 X132.1179 Y585.1353 Z-20.0000 F4000
G1 X131.3439 Y579.1854 Z-20.0000 F4000
G1 X147.2094 Y577.1160 Z-20.0000 F4000
G1 X141.2596 Y577.8900 Z-20.0000 F4000
G1 X134.5341 Y526.3290 Z-20.0000 F4000
G1 X140.4837 Y525.5530 Z-20.0000 F4000
G1 X124.6179 Y527.6205 Z-20.0000 F4000
G1 X123.8418 Y521.6709 Z-20.0000 F4000
G1 X125.9669 Y538.0342 Z-20.0000 F4000
G1 X128.1083 Y554.3953 Z-20.0000 F4000
G1 X128.1083 Y554.3953 Z10.0000 F9999
G1 X367.8180 Y521.1096 Z10.0000 F9999
G1 X367.8180 Y521.1096 Z1.0000 F2500
G1 X363.8085 Y490.3697 Z-7.3524 F2500
G1 X364.5825 Y496.3195 Z-8.9690 F2500
G1 X362.6283 Y496.5744 Z-9.5000 F2500
G1 X364.5825 Y496.3195 Z-10.0310 F2500
G1 X363.8085 Y490.3697 Z-11.6476 F2500
G1 X367.8180 Y521.1096 Z-20.0000 F2500
G1 X363.8085 Y490.3697 Z-20.0000 F4000
G1 X364.5825 Y496.3195 Z-20.0000 F4000
G1 X348.7169 Y498.3889 Z-20.0000 F4000
G1 X354.6668 Y497.6149 Z-20.0000 F4000
G1 X361.3921 Y549.1759 Z-20.0000 F4000
G1 X355.4425 Y549.9519 Z-20.0000 F4000
G1 X371.3084 Y547.8845 Z-20.0000 F4000
G1 X372.0844 Y553.8341 Z-20.0000 F4000
G1 X369.9594 Y537.4708 Z-20.0000 F4000
G1 X367.8180 Y521.1096 Z-20.0000 F4000
G1 X367.8180 Y521.1096 Z10.0000 F9999
G1 X500.6855 Y322.9192 Z10.0000 F9999
G1 X500.6855 Y322.9192 Z1.0000 F2500
G1 X531.4255 Y326.9288 Z-7.3524 F2500
G1 X525.4762 Y326.1508 Z-8.9690 F2500
G1 X525.7311 Y324.1966 Z-9.5000 F2500
G1 X525.4762 Y326.1508 Z-10.0310 F2500
G1 X531.4255 Y326.9288 Z-11.6476 F2500
G1 X500.6855 Y322.9192 Z-20.0000 F2500
G1 X531.4255 Y326.9288 Z-20.0000 F4000
G1 X525.4762 Y326.1508 Z-20.0000 F4000
G1 X527.5456 Y310.2852 Z-20.0000 F4000
G1 X526.7676 Y316.2346 Z-20.0000 F4000
G1 X475.2066 Y309.5092 Z-20.0000 F4000
G1 X475.9826 Y303.5596 Z-20.0000 F4000
G1 X473.9112 Y319.4249 Z-20.0000 F4000
G1 X467.9616 Y318.6489 Z-20.0000 F4000
G1 X484.3225 Y320.7922 Z-20.0000 F4000
G1 X500.6855 Y322.9192 Z-20.0000 F4000
G1 X500.6855 Y322.9192 Z10.0000 F9999
G1 X530.0013 Y82.6916 Z10.0000 F9999
G1 X530.0013 Y82.6916 Z1.0000 F2500
G1 X499.2613 Y78.6821 Z-7.3524 F2500
G1 X505.2107 Y79.4601 Z-8.9690 F2500
G1 X504.9558 Y81.4143 Z-9.5000 F2500
G1 X505.2107 Y79.4601 Z-10.0310 F2500
G1 X499.2613 Y78.6821 Z-11.6476 F2500
G1 X530.0013 Y82.6916 Z-20.0000 F2500
G1 X499.2613 Y78.6821 Z-20.0000 F4000
G1 X505.2107 Y79.4601 Z-20.0000 F4000
G1 X503.1412 Y95.3257 Z-20.0000 F4000
G1 X503.9192 Y89.3763 Z-20.0000 F4000
G1 X555.4802 Y96.1017 Z-20.0000 F4000
G1 X554.7042 Y102.0513 Z-20.0000 F4000
G1 X556.7756 Y86.1860 Z-20.0000 F4000
G1 X562.7252 Y86.9620 Z-20.0000 F4000
G1 X546.3643 Y84.8186 Z-20.0000 F4000
G1 X530.0013 Y82.6916 Z-20.0000 F4000
G1 X530.0013 Y82.6916 Z10.0000 F9999
G1 X731.7694 Y555.7293 Z10.0000 F9999
G1 X731.7694 Y555.7293 Z1.0000 F2500
G1 X735.7789 Y586.4693 Z-7.3524 F2500
G1 X735.0049 Y580.5195 Z-8.9690 F2500
G1 X736.9591 Y580.2646 Z-9.5000 F2500
G1 X735.0049 Y580.5195 Z-10.0310 F2500
G1 X735.7789 Y586.4693 Z-11.6476 F2500
G1 X731.7694 Y555.7293 Z-20.0000 F2500
G1 X735.7789 Y586.4693 Z-20.0000 F4000
G1 X735.0049 Y580.5195 Z-20.0000 F4000
G1 X750.8705 Y578.4501 Z-20.0000 F4000
G1 X744.9206 Y579.2241 Z-20.0000 F4000
G1 X738.1953 Y527.6631 Z-20.0000 F4000
G1 X744.1449 Y526.8871 Z-20.0000 F4000
G1 X728.2790 Y528.9545 Z-20.0000 F4000
G1 X727.5030 Y523.0049 Z-20.0000 F4000
G1 X729.6280 Y539.3682 Z-20.0000 F4000
G1 X731.7694 Y555.7293 Z-20.0000 F4000
G1 X731.7694 Y555.7293 Z10.0000 F9999
G1 X971.4791 Y522.4437 Z10.0000 F9999
G1 X971.4791 Y522.4437 Z1.0000 F2500
G1 X967.4695 Y491.7037 Z-7.3524 F2500
G1 X968.2435 Y497.6536 Z-8.9690 F2500
G1 X966.2893 Y497.9085 Z-9.5000 F2500
G1 X968.2435 Y497.6536 Z-10.0310 F2500
G1 X967.4695 Y491.7037 Z-11.6476 F2500
G1 X971.4791 Y522.4437 Z-20.0000 F2500
G1 X967.4695 Y491.7037 Z-20.0000 F4000
G1 X968.2435 Y497.6536 Z-20.0000 F4000
G1 X952.3780 Y499.7230 Z-20.0000 F4000
G1 X958.3278 Y498.9490 Z-20.0000 F4000
G1 X965.0533 Y550.5099 Z-20.0000 F4000
G1 X959.1037 Y551.2860 Z-20.0000 F4000
G1 X974.9695 Y549.2185 Z-20.0000 F4000
G1 X975.7456 Y555.1681 Z-20.0000 F4000
G1 X973.6205 Y538.8048 Z-20.0000 F4000
G1 X971.4791 Y522.4437 Z-20.0000 F4000
G1 X971.4791 Y522.4437 Z10.0000 F9999
G1 X1010.2805 Y819.9232 Z10.0000 F9999
G1 X1010.2805 Y819.9232 Z1.0000 F2500
G1 X1006.2708 Y789.1832 Z-7.3524 F2500
G1 X1007.0449 Y795.1331 Z-8.9690 F2500
G1 X1005.0907 Y795.3880 Z-9.5000 F2500
G1 X1007.0449 Y795.1331 Z-10.0310 F2500
G1 X1006.2708 Y789.1832 Z-11.6476 F2500
G1 X1010.2805 Y819.9232 Z-20.0000 F2500
G1 X1006.2708 Y789.1832 Z-20.0000 F4000
G1 X1007.0449 Y795.1331 Z-20.0000 F4000
G1 X991.1793 Y797.2026 Z-20.0000 F4000
G1 X997.1292 Y796.4285 Z-20.0000 F4000
G1 X1003.8547 Y847.9895 Z-20.0000 F4000
G1 X997.9051 Y848.7655 Z-20.0000 F4000
G1 X1013.7709 Y846.6980 Z-20.0000 F4000
G1 X1014.5469 Y852.6476 Z-20.0000 F4000
G1 X1012.4219 Y836.2844 Z-20.0000 F4000
G1 X1010.2805 Y819.9232 Z-20.0000 F4000
G1 X1010.2805 Y819.9232 Z10.0000 F9999
G1 X770.5707 Y853.2089 Z10.0000 F9999
G1 X770.5707 Y853.2089 Z1.0000 F2500
G1 X774.5803 Y883.9489 Z-7.3524 F2500
G1 X773.8062 Y877.9990 Z-8.9690 F2500
G1 X775.7605 Y877.7441 Z-9.5000 F2500
G1 X773.8062 Y877.9990 Z-10.0310 F2500
G1 X774.5803 Y883.9489 Z-11.6476 F2500
G1 X770.5707 Y853.2089 Z-20.0000 F2500
G1 X774.5803 Y883.9489 Z-20.0000 F4000
G1 X773.8062 Y877.9990 Z-20.0000 F4000
G1 X789.6718 Y875.9296 Z-20.0000 F4000
G1 X783.7220 Y876.7036 Z-20.0000 F4000
G1 X776.9966 Y825.1426 Z-20.0000 F4000
G1 X782.9462 Y824.3666 Z-20.0000 F4000
G1 X767.0804 Y826.4340 Z-20.0000 F4000
G1 X766.3043 Y820.4844 Z-20.0000 F4000
G1 X768.4294 Y836.8477 Z-20.0000 F4000
G1 X770.5707 Y853.2089 Z-20.0000 F4000
G1 X770.5707 Y853.2089 Z10.0000 F9999
G1 X637.7032 Y1051.3993 Z10.0000 F9999
G1 X637.7032 Y1051.3993 Z1.0000 F2500
G1 X606.9632 Y1047.3897 Z-7.3524 F2500
G1 X612.9126 Y1048.1677 Z-8.9690 F2500
G1 X612.6577 Y1050.1219 Z-9.5000 F2500
G1 X612.9126 Y1048.1677 Z-10.0310 F2500
G1 X606.9632 Y1047.3897 Z-11.6476 F2500
G1 X637.7032 Y1051.3993 Z-20.0000 F2500
G1 X606.9632 Y1047.3897 Z-20.0000 F4000
G1 X612.9126 Y1048.1677 Z-20.0000 F4000
G1 X610.8432 Y1064.0333 Z-20.0000 F4000
G1 X611.6212 Y1058.0840 Z-20.0000 F4000
G1 X663.1822 Y1064.8093 Z-20.0000 F4000
G1 X662.4061 Y1070.7589 Z-20.0000 F4000
G1 X664.4775 Y1054.8936 Z-20.0000 F4000
G1 X670.4271 Y1055.6696 Z-20.0000 F4000
G1 X654.0663 Y1053.5263 Z-20.0000 F4000
G1 X637.7032 Y1051.3993 Z-20.0000 F4000
G1 X637.7032 Y1051.3993 Z10.0000 F9999
G1 X608.3875 Y1291.6269 Z10.0000 F9999
G1 X608.3875 Y1291.6269 Z1.0000 F2500
G1 X639.1274 Y1295.6365 Z-7.3524 F2500
G1 X633.1781 Y1294.8584 Z-8.9690 F2500
G1 X633.4330 Y1292.9042 Z-9.5000 F2500
G1 X633.1781 Y1294.8584 Z-10.0310 F2500
G1 X639.1274 Y1295.6365 Z-11.6476 F2500
G1 X608.3875 Y1291.6269 Z-20.0000 F2500
G1 X639.1274 Y1295.6365 Z-20.0000 F4000
G1 X633.1781 Y1294.8584 Z-20.0000 F4000
G1 X635.2475 Y1278.9929 Z-20.0000 F4000
G1 X634.4695 Y1284.9422 Z-20.0000 F4000
G1 X582.9085 Y1278.2168 Z-20.0000 F4000
G1 X583.6845 Y1272.2672 Z-20.0000 F4000
G1 X581.6131 Y1288.1326 Z-20.0000 F4000
G1 X575.6635 Y1287.3565 Z-20.0000 F4000
G1 X592.0244 Y1289.4999 Z-20.0000 F4000
G1 X608.3875 Y1291.6269 Z-20.0000 F4000
G1 X608.3875 Y1291.6269 Z10.0000 F9999
G1 X530.0013 Y1348.1294 Z10.0000 F9999
G1 X530.0013 Y1348.1294 Z1.0000 F2500
G1 X499.2613 Y1344.1199 Z-7.3524 F2500
G1 X505.2107 Y1344.8979 Z-8.9690 F2500
G1 X504.9558 Y1346.8521 Z-9.5000 F2500
G1 X505.2107 Y1344.8979 Z-10.0310 F2500
G1 X499.2613 Y1344.1199 Z-11.6476 F2500
G1 X530.0013 Y1348.1294 Z-20.0000 F2500
G1 X499.2613 Y1344.1199 Z-20.0000 F4000
G1 X505.2107 Y1344.8979 Z-20.0000 F4000
G1 X503.1412 Y1360.7634 Z-20.0000 F4000
G1 X503.9192 Y1354.8141 Z-20.0000 F4000
G1 X555.4802 Y1361.5395 Z-20.0000 F4000
G1 X554.7042 Y1367.4891 Z-20.0000 F4000
G1 X556.7756 Y1351.6238 Z-20.0000 F4000
G1 X562.7252 Y1352.3998 Z-20.0000 F4000
G1 X546.3643 Y1350.2564 Z-20.0000 F4000
G1 X530.0013 Y1348.1294 Z-20.0000 F4000
G1 X530.0013 Y1348.1294 Z10.0000 F9999
G1 X500.6855 Y1588.3570 Z10.0000 F9999
G1 X500.6855 Y1588.3570 Z1.0000 F2500
G1 X531.4255 Y1592.3666 Z-7.3524 F2500
G1 X525.4762 Y1591.5886 Z-8.9690 F2500
G1 X525.7311 Y1589.6344 Z-9.5000 F2500
G1 X525.4762 Y1591.5886 Z-10.0310 F2500
G1 X531.4255 Y1592.3666 Z-11.6476 F2500
G1 X500.6855 Y1588.3570 Z-20.0000 F2500
G1 X531.4255 Y1592.3666 Z-20.0000 F4000
G1 X525.4762 Y1591.5886 Z-20.0000 F4000
G1 X527.5456 Y1575.7230 Z-20.0000 F4000
G1 X526.7676 Y1581.6724 Z-20.0000 F4000
G1 X475.2066 Y1574.9470 Z-20.0000 F4000
G1 X475.9826 Y1568.9974 Z-20.0000 F4000
G1 X473.9112 Y1584.8627 Z-20.0000 F4000
G1 X467.9616 Y1584.0867 Z-20.0000 F4000
G1 X484.3225 Y1586.2300 Z-20.0000 F4000
G1 X500.6855 Y1588.3570 Z-20.0000 F4000
G1 X500.6855 Y1588.3570 Z10.0000 F9999
G1 X203.2052 Y1549.5558 Z10.0000 F9999
G1 X203.2052 Y1549.5558 Z1.0000 F2500
G1 X233.9452 Y1553.5653 Z-7.3524 F2500
G1 X227.9959 Y1552.7873 Z-8.9690 F2500
G1 X228.2508 Y1550.8331 Z-9.5000 F2500
G1 X227.9959 Y1552.7873 Z-10.0310 F2500
G1 X233.9452 Y1553.5653 Z-11.6476 F2500
G1 X203.2052 Y1549.5558 Z-20.0000 F2500
G1 X233.9452 Y1553.5653 Z-20.0000 F4000
G1 X227.9959 Y1552.7873 Z-20.0000 F4000
G1 X230.0653 Y1536.9217 Z-20.0000 F4000
G1 X229.2873 Y1542.8711 Z-20.0000 F4000
G1 X177.7263 Y1536.1457 Z-20.0000 F4000
G1 X178.5023 Y1530.1961 Z-20.0000 F4000
G1 X176.4309 Y1546.0614 Z-20.0000 F4000
G1 X170.4813 Y1545.2854 Z-20.0000 F4000
G1 X186.8422 Y1547.4288 Z-20.0000 F4000
G1 X203.2052 Y1549.5558 Z-20.0000 F4000
G1 X203.2052 Y1549.5558 Z10.0000 F9999
G1 X232.5210 Y1309.3281 Z10.0000 F9999
G1 X232.5210 Y1309.3281 Z1.0000 F2500
G1 X201.7810 Y1305.3186 Z-7.3524 F2500
G1 X207.7303 Y1306.0966 Z-8.9690 F2500
G1 X207.4754 Y1308.0508 Z-9.5000 F2500
G1 X207.7303 Y1306.0966 Z-10.0310 F2500
G1 X201.7810 Y1305.3186 Z-11.6476 F2500
G1 X232.5210 Y1309.3281 Z-20.0000 F2500
G1 X201.7810 Y1305.3186 Z-20.0000 F4000
G1 X207.7303 Y1306.0966 Z-20.0000 F4000
G1 X205.6609 Y1321.9622 Z-20.0000 F4000
G1 X206.4389 Y1316.0128 Z-20.0000 F4000
G1 X257.9999 Y1322.7382 Z-20.0000 F4000
G1 X257.2239 Y1328.6878 Z-20.0000 F4000
G1 X259.2953 Y1312.8225 Z-20.0000 F4000
G1 X265.2449 Y1313.5985 Z-20.0000 F4000
G1 X248.8840 Y1311.4552 Z-20.0000 F4000
G1 X232.5210 Y1309.3281 Z-20.0000 F4000
G1 X232.5210 Y1309.3281 Z10.0000 F9999
G1 X166.9096 Y851.8748 Z10.0000 F9999
G1 X166.9096 Y851.8748 Z1.0000 F2500
G1 X170.9193 Y882.6148 Z-7.3524 F2500
G1 X170.1452 Y876.6649 Z-8.9690 F2500
G1 X172.0994 Y876.4100 Z-9.5000 F2500
G1 X170.1452 Y876.6649 Z-10.0310 F2500
G1 X170.9193 Y882.6148 Z-11.6476 F2500
G1 X166.9096 Y851.8748 Z-20.0000 F2500
G1 X170.9193 Y882.6148 Z-20.0000 F4000
G1 X170.1452 Y876.6649 Z-20.0000 F4000
G1 X186.0108 Y874.5955 Z-20.0000 F4000
G1 X180.0609 Y875.3696 Z-20.0000 F4000
G1 X173.3355 Y823.8086 Z-20.0000 F4000
G1 X179.2851 Y823.0325 Z-20.0000 F4000
G1 X163.4192 Y825.1000 Z-20.0000 F4000
G1 X162.6432 Y819.1504 Z-20.0000 F4000
G1 X164.7682 Y835.5137 Z-20.0000 F4000
G1 X166.9096 Y851.8748 Z-20.0000 F4000
G1 X166.9096 Y851.8748 Z10.0000 F9999
G1 X406.6194 Y818.5892 Z10.0000 F9999
G1 X406.6194 Y818.5892 Z1.0000 F2500
G1 X402.6098 Y787.8492 Z-7.3524 F2500
G1 X403.3839 Y793.7990 Z-8.9690 F2500
G1 X401.4297 Y794.0539 Z-9.5000 F2500
G1 X403.3839 Y793.7990 Z-10.0310 F2500
G1 X402.6098 Y787.8492 Z-11.6476 F2500
G1 X406.6194 Y818.5892 Z-20.0000 F2500
G1 X402.6098 Y787.8492 Z-20.0000 F4000
G1 X403.3839 Y793.7990 Z-20.0000 F4000
G1 X387.5183 Y795.8685 Z-20.0000 F4000
G1 X393.4682 Y795.0944 Z-20.0000 F4000
G1 X400.1935 Y846.6554 Z-20.0000 F4000
G1 X394.2439 Y847.4314 Z-20.0000 F4000
G1 X410.1097 Y845.3640 Z-20.0000 F4000
G1 X410.8858 Y851.3136 Z-20.0000 F4000
G1 X408.7607 Y834.9503 Z-20.0000 F4000
G1 X406.6194 Y818.5892 Z-20.0000 F4000
G1 X406.6194 Y818.5892 Z10.0000 F9999
G1 X935.1835 Y1090.2006 Z10.0000 F9999
G1 X935.1835 Y1090.2006 Z1.0000 F2500
G1 X904.4435 Y1086.1910 Z-7.3524 F2500
G1 X910.3929 Y1086.9690 Z-8.9690 F2500
G1 X910.1380 Y1088.9232 Z-9.5000 F2500
G1 X910.3929 Y1086.9690 Z-10.0310 F2500
G1 X904.4435 Y1086.1910 Z-11.6476 F2500
G1 X935.1835 Y1090.2006 Z-20.0000 F2500
G1 X904.4435 Y1086.1910 Z-20.0000 F4000
G1 X910.3929 Y1086.9690 Z-20.0000 F4000
G1 X908.3235 Y1102.8346 Z-20.0000 F4000
G1 X909.1015 Y1096.8852 Z-20.0000 F4000
G1 X960.6625 Y1103.6106 Z-20.0000 F4000
G1 X959.8864 Y1109.5602 Z-20.0000 F4000
G1 X961.9579 Y1093.6949 Z-20.0000 F4000
G1 X967.9075 Y1094.4709 Z-20.0000 F4000
G1 X951.5466 Y1092.3276 Z-20.0000 F4000
G1 X935.1835 Y1090.2006 Z-20.0000 F4000
G1 X935.1835 Y1090.2006 Z10.0000 F9999
G1 X905.8678 Y1330.4282 Z10.0000 F9999
G1 X905.8678 Y1330.4282 Z1.0000 F2500
G1 X936.6077 Y1334.4377 Z-7.3524 F2500
G1 X930.6584 Y1333.6597 Z-8.9690 F2500
G1 X930.9133 Y1331.7055 Z-9.5000 F2500
G1 X930.6584 Y1333.6597 Z-10.0310 F2500
G1 X936.6077 Y1334.4377 Z-11.6476 F2500
G1 X905.8678 Y1330.4282 Z-20.0000 F2500
G1 X936.6077 Y1334.4377 Z-20.0000 F4000
G1 X930.6584 Y1333.6597 Z-20.0000 F4000
G1 X932.7278 Y1317.7941 Z-20.0000 F4000
G1 X931.9498 Y1323.7435 Z-20.0000 F4000
G1 X880.3888 Y1317.0181 Z-20.0000 F4000
G1 X881.1649 Y1311.0685 Z-20.0000 F4000
G1 X879.0934 Y1326.9338 Z-20.0000 F4000
G1 X873.1438 Y1326.1578 Z-20.0000 F4000
G1 X889.5047 Y1328.3012 Z-20.0000 F4000
G1 X905.8678 Y1330.4282 Z-20.0000 F4000
G1 X905.8678 Y1330.4282 Z10.0000 F9999
G1 X971.4791 Y1787.8815 Z10.0000 F9999
G1 X971.4791 Y1787.8815 Z1.0000 F2500
G1 X967.4695 Y1757.1415 Z-7.3524 F2500
G1 X968.2435 Y1763.0914 Z-8.9690 F2500
G1 X966.2893 Y1763.3463 Z-9.5000 F2500
G1 X968.2435 Y1763.0914 Z-10.0310 F2500
G1 X967.4695 Y1757.1415 Z-11.6476 F2500
G1 X971.4791 Y1787.8815 Z-20.0000 F2500
G1 X967.4695 Y1757.1415 Z-20.0000 F4000
G1 X968.2435 Y1763.0914 Z-20.0000 F4000
G1 X952.3780 Y1765.1608 Z-20.0000 F4000
G1 X958.3278 Y1764.3868 Z-20.0000 F4000
G1 X965.0533 Y1815.9477 Z-20.0000 F4000
G1 X959.1037 Y1816.7238 Z-20.0000 F4000
G1 X974.9695 Y1814.6563 Z-20.0000 F4000
G1 X975.7456 Y1820.6059 Z-20.0000 F4000
G1 X973.6205 Y1804.2426 Z-20.0000 F4000
G1 X971.4791 Y1787.8815 Z-20.0000 F4000
G1 X971.4791 Y1787.8815 Z10.0000 F9999
G1 X731.7694 Y1821.1671 Z10.0000 F9999
G1 X731.7694 Y1821.1671 Z1.0000 F2500
G1 X735.7789 Y1851.9071 Z-7.3524 F2500
G1 X735.0049 Y1845.9573 Z-8.9690 F2500
G1 X736.9591 Y1845.7024 Z-9.5000 F2500
G1 X735.0049 Y1845.9573 Z-10.0310 F2500
G1 X735.7789 Y1851.9071 Z-11.6476 F2500
G1 X731.7694 Y1821.1671 Z-20.0000 F2500
G1 X735.7789 Y1851.9071 Z-20.0000 F4000
G1 X735.0049 Y1845.9573 Z-20.0000 F4000
G1 X750.8705 Y1843.8878 Z-20.0000 F4000
G1 X744.9206 Y1844.6619 Z-20.0000 F4000
G1 X738.1953 Y1793.1009 Z-20.0000 F4000
G1 X744.1449 Y1792.3249 Z-20.0000 F4000
G1 X728.2790 Y1794.3923 Z-20.0000 F4000
G1 X727.5030 Y1788.4427 Z-20.0000 F4000
G1 X729.6280 Y1804.8060 Z-20.0000 F4000
G1 X731.7694 Y1821.1671 Z-20.0000 F4000
G1 X731.7694 Y1821.1671 Z10.0000 F9999
G1 X770.5707 Y2118.6467 Z10.0000 F9999
G1 X770.5707 Y2118.6467 Z1.0000 F2500
G1 X774.5803 Y2149.3867 Z-7.3524 F2500
G1 X773.8062 Y2143.4368 Z-8.9690 F2500
G1 X775.7605 Y2143.1819 Z-9.5000 F2500
G1 X773.8062 Y2143.4368 Z-10.0310 F2500
G1 X774.5803 Y2149.3867 Z-11.6476 F2500
G1 X770.5707 Y2118.6467 Z-20.0000 F2500
G1 X774.5803 Y2149.3867 Z-20.0000 F4000
G1 X773.8062 Y2143.4368 Z-20.0000 F4000
G1 X789.6718 Y2141.3674 Z-20.0000 F4000
G1 X783.7220 Y2142.1414 Z-20.0000 F4000
G1 X776.9966 Y2090.5804 Z-20.0000 F4000
G1 X782.9462 Y2089.8044 Z-20.0000 F4000
G1 X767.0804 Y2091.8718 Z-20.0000 F4000
G1 X766.3043 Y2085.9222 Z-20.0000 F4000
G1 X768.4294 Y2102.2855 Z-20.0000 F4000
G1 X770.5707 Y2118.6467 Z-20.0000 F4000
G1 X770.5707 Y2118.6467 Z10.0000 F9999
G1 X1010.2805 Y2085.3610 Z10.0000 F9999
G1 X1010.2805 Y2085.3610 Z1.0000 F2500
G1 X1006.2708 Y2054.6210 Z-7.3524 F2500
G1 X1007.0449 Y2060.5709 Z-8.9690 F2500
G1 X1005.0907 Y2060.8258 Z-9.5000 F2500
G1 X1007.0449 Y2060.5709 Z-10.0310 F2500
G1 X1006.2708 Y2054.6210 Z-11.6476 F2500
G1 X1010.2805 Y2085.3610 Z-20.0000 F2500
G1 X1006.2708 Y2054.6210 Z-20.0000 F4000
G1 X1007.0449 Y2060.5709 Z-20.0000 F4000
G1 X991.1793 Y2062.6404 Z-20.0000 F4000
G1 X997.1292 Y2061.8663 Z-20.0000 F4000
G1 X1003.8547 Y2113.4273 Z-20.0000 F4000
G1 X997.9051 Y2114.2033 Z-20.0000 F4000
G1 X1013.7709 Y2112.1358 Z-20.0000 F4000
G1 X1014.5469 Y2118.0854 Z-20.0000 F4000
G1 X1012.4219 Y2101.7222 Z-20.0000 F4000
G1 X1010.2805 Y2085.3610 Z-20.0000 F4000
G1 X1010.2805 Y2085.3610 Z10.0000 F9999
(Tool Number:1) (7.998 mm dia. slot drill)
M3 S9000
G1 X190.4684 Y1094.3229 Z10.0000 F9999
G1 X190.4684 Y1094.3229 Z1.0000 F2500
G1 X185.4277 Y1055.6791 Z-9.5000 F2500
G1 X190.4684 Y1094.3229 Z-20.0000 F2500
G1 X171.2660 Y947.1113 Z-20.0000 F4000
G1 X176.2240 Y946.4646 Z-20.0000 F4000
G1 X175.9651 Y944.4794 Z-20.0000 F4000
G1 X153.1582 Y947.4543 Z-20.0000 F4000
G1 X128.8429 Y761.0357 Z-20.0000 F4000
G1 X151.6496 Y758.0610 Z-20.0000 F4000
G1 X151.3906 Y756.0758 Z-20.0000 F4000
G1 X146.4327 Y756.7226 Z-20.0000 F4000
G1 X132.4646 Y649.6315 Z-20.0000 F4000
G1 X137.4226 Y648.9847 Z-20.0000 F4000
G1 X137.1636 Y646.9997 Z-20.0000 F4000
G1 X114.3569 Y649.9744 Z-20.0000 F4000
G1 X90.0416 Y463.5559 Z-20.0000 F4000
G1 X112.8484 Y460.5810 Z-20.0000 F4000
G1 X112.5894 Y458.5959 Z-20.0000 F4000
G1 X107.6313 Y459.2426 Z-20.0000 F4000
G1 X94.6009 Y359.3410 Z-20.0000 F4000
G1 X138.8531 Y353.5690 Z-20.0000 F4000
G1 X143.7654 Y353.8582 Z-20.0000 F4000
G1 X148.8759 Y356.3361 Z-20.0000 F4000
G1 X152.5819 Y360.6402 Z-20.0000 F4000
G1 X154.1213 Y365.3139 Z-20.0000 F4000
G1 X162.5282 Y429.7679 Z-20.0000 F4000
G1 X163.3333 Y432.2124 Z-20.0000 F4000
G1 X164.9206 Y434.0556 Z-20.0000 F4000
G1 X167.1095 Y435.1169 Z-20.0000 F4000
G1 X169.6787 Y435.2682 Z-20.0000 F4000
G1 X198.1811 Y431.5507 Z-20.0000 F4000
G1 X200.6257 Y430.7454 Z-20.0000 F4000
G1 X202.4691 Y429.1581 Z-20.0000 F4000
G1 X203.5303 Y426.9694 Z-20.0000 F4000
G1 X203.6815 Y424.4001 Z-20.0000 F4000
G1 X195.2744 Y359.9461 Z-20.0000 F4000
G1 X195.5636 Y355.0340 Z-20.0000 F4000
G1 X198.0417 Y349.9234 Z-20.0000 F4000
G1 X202.3458 Y346.2173 Z-20.0000 F4000
G1 X207.0195 Y344.6778 Z-20.0000 F4000
G1 X238.0128 Y340.6354 Z-20.0000 F4000
G1 X242.9250 Y340.9244 Z-20.0000 F4000
G1 X248.0355 Y343.4025 Z-20.0000 F4000
G1 X251.7418 Y347.7063 Z-20.0000 F4000
G1 X253.2811 Y352.3804 Z-20.0000 F4000
G1 X261.6881 Y416.8341 Z-20.0000 F4000
G1 X262.4933 Y419.2786 Z-20.0000 F4000
G1 X264.0806 Y421.1219 Z-20.0000 F4000
G1 X266.2691 Y422.1832 Z-20.0000 F4000
G1 X268.8385 Y422.3344 Z-20.0000 F4000
G1 X297.3410 Y418.6168 Z-20.0000 F4000
G1 X299.7856 Y417.8115 Z-20.0000 F4000
G1 X301.6290 Y416.2243 Z-20.0000 F4000
G1 X302.6902 Y414.0357 Z-20.0000 F4000
G1 X302.8414 Y411.4663 Z-20.0000 F4000
G1 X294.4343 Y347.0123 Z-20.0000 F4000
G1 X294.7236 Y342.1003 Z-20.0000 F4000
G1 X297.2015 Y336.9896 Z-20.0000 F4000
G1 X301.5057 Y333.2835 Z-20.0000 F4000
G1 X306.1794 Y331.7441 Z-20.0000 F4000
G1 X350.4314 Y325.9723 Z-20.0000 F4000
G1 X363.4619 Y425.8738 Z-20.0000 F4000
G1 X358.5039 Y426.5205 Z-20.0000 F4000
G1 X358.7628 Y428.5057 Z-20.0000 F4000
G1 X381.5697 Y425.5307 Z-20.0000 F4000
G1 X405.8848 Y611.9494 Z-20.0000 F4000
G1 X383.0781 Y614.9242 Z-20.0000 F4000
G1 X383.3370 Y616.9093 Z-20.0000 F4000
G1 X388.2950 Y616.2627 Z-20.0000 F4000
G1 X402.2630 Y723.3535 Z-20.0000 F4000
G1 X397.3052 Y724.0000 Z-20.0000 F4000
G1 X397.5641 Y725.9851 Z-20.0000 F4000
G1 X420.3708 Y723.0104 Z-20.0000 F4000
G1 X444.6864 Y909.4288 Z-20.0000 F4000
G1 X421.8795 Y912.4037 Z-20.0000 F4000
G1 X422.1385 Y914.3888 Z-20.0000 F4000
G1 X427.0963 Y913.7423 Z-20.0000 F4000
G1 X440.6478 Y1017.6302 Z-20.0000 F4000
G1 X544.5354 Y1031.1812 Z-20.0000 F4000
G1 X543.8886 Y1036.1393 Z-20.0000 F4000
G1 X545.8737 Y1036.3982 Z-20.0000 F4000
G1 X548.8486 Y1013.5914 Z-20.0000 F4000
G1 X735.2672 Y1037.9068 Z-20.0000 F4000
G1 X732.2923 Y1060.7136 Z-20.0000 F4000
G1 X734.2775 Y1060.9726 Z-20.0000 F4000
G1 X734.9242 Y1056.0145 Z-20.0000 F4000
G1 X842.0156 Y1069.9826 Z-20.0000 F4000
G1 X841.3689 Y1074.9406 Z-20.0000 F4000
G1 X843.3541 Y1075.1995 Z-20.0000 F4000
G1 X846.3288 Y1052.3928 Z-20.0000 F4000
G1 X1003.6395 Y1072.9112 Z-20.0000 F4000
G1 X1003.6395 Y1072.9112 Z-10.0000 F9999
G1 X1019.5031 Y1074.9804 Z-10.0000 F4000
G1 X1019.5031 Y1074.9804 Z-20.0000 F2500
G1 X1032.7475 Y1076.7079 Z-20.0000 F4000
G1 X1029.7726 Y1099.5147 Z-20.0000 F4000
G1 X1031.7578 Y1099.7737 Z-20.0000 F4000
G1 X1032.4045 Y1094.8156 Z-20.0000 F4000
G1 X1132.3062 Y1107.8461 Z-20.0000 F4000
G1 X1126.5342 Y1152.0982 Z-20.0000 F4000
G1 X1124.9947 Y1156.7719 Z-20.0000 F4000
G1 X1121.2887 Y1161.0760 Z-20.0000 F4000
G1 X1116.1780 Y1163.5541 Z-20.0000 F4000
G1 X1111.2658 Y1163.8431 Z-20.0000 F4000
G1 X1046.8120 Y1155.4361 Z-20.0000 F4000
G1 X1044.2426 Y1155.5873 Z-20.0000 F4000
G1 X1042.0539 Y1156.6486 Z-20.0000 F4000
G1 X1040.4667 Y1158.4919 Z-20.0000 F4000
G1 X1039.6615 Y1160.9366 Z-20.0000 F4000
G1 X1035.9438 Y1189.4390 Z-20.0000 F4000
G1 X1036.0952 Y1192.0084 Z-20.0000 F4000
G1 X1037.1564 Y1194.1972 Z-20.0000 F4000
G1 X1038.9995 Y1195.7843 Z-20.0000 F4000
G1 X1041.4441 Y1196.5895 Z-20.0000 F4000
G1 X1105.8982 Y1204.9963 Z-20.0000 F4000
G1 X1110.5718 Y1206.5357 Z-20.0000 F4000
G1 X1114.8759 Y1210.2417 Z-20.0000 F4000
G1 X1117.3540 Y1215.3523 Z-20.0000 F4000
G1 X1117.6430 Y1220.2646 Z-20.0000 F4000
G1 X1113.6004 Y1251.2581 Z-20.0000 F4000
G1 X1112.0609 Y1255.9318 Z-20.0000 F4000
G1 X1108.3548 Y1260.2359 Z-20.0000 F4000
G1 X1103.2444 Y1262.7138 Z-20.0000 F4000
G1 X1098.3322 Y1263.0029 Z-20.0000 F4000
G1 X1033.8782 Y1254.5960 Z-20.0000 F4000
G1 X1031.3088 Y1254.7472 Z-20.0000 F4000
G1 X1029.1202 Y1255.8085 Z-20.0000 F4000
G1 X1027.5331 Y1257.6516 Z-20.0000 F4000
G1 X1026.7278 Y1260.0963 Z-20.0000 F4000
G1 X1023.0102 Y1288.5988 Z-20.0000 F4000
G1 X1023.1614 Y1291.1682 Z-20.0000 F4000
G1 X1024.2227 Y1293.3570 Z-20.0000 F4000
G1 X1026.0657 Y1294.9441 Z-20.0000 F4000
G1 X1028.5104 Y1295.7492 Z-20.0000 F4000
G1 X1092.9644 Y1304.1562 Z-20.0000 F4000
G1 X1097.6381 Y1305.6956 Z-20.0000 F4000
G1 X1101.9421 Y1309.4016 Z-20.0000 F4000
G1 X1104.4201 Y1314.5122 Z-20.0000 F4000
G1 X1104.7093 Y1319.4245 Z-20.0000 F4000
G1 X1098.9372 Y1363.6766 Z-20.0000 F4000
G1 X999.0357 Y1350.6460 Z-20.0000 F4000
G1 X999.6824 Y1345.6880 Z-20.0000 F4000
G1 X997.6972 Y1345.4291 Z-20.0000 F4000
G1 X994.7223 Y1368.2360 Z-20.0000 F4000
G1 X981.1457 Y1366.4651 Z-20.0000 F4000
G1 X981.1457 Y1366.4651 Z-10.0000 F9999
G1 X965.2821 Y1364.3960 Z-10.0000 F4000
G1 X965.2821 Y1364.3960 Z-20.0000 F2500
G1 X808.3039 Y1343.9207 Z-20.0000 F4000
G1 X811.2786 Y1321.1140 Z-20.0000 F4000
G1 X809.2934 Y1320.8551 Z-20.0000 F4000
G1 X808.6469 Y1325.8129 Z-20.0000 F4000
G1 X701.5551 Y1311.8449 Z-20.0000 F4000
G1 X702.2018 Y1306.8869 Z-20.0000 F4000
G1 X700.2166 Y1306.6280 Z-20.0000 F4000
G1 X697.2417 Y1329.4349 Z-20.0000 F4000
G1 X510.8232 Y1305.1193 Z-20.0000 F4000
G1 X513.7980 Y1282.3126 Z-20.0000 F4000
G1 X511.8128 Y1282.0536 Z-20.0000 F4000
G1 X511.1659 Y1287.0118 Z-20.0000 F4000
G1 X216.7435 Y1248.6071 Z-20.0000 F4000
G1 X250.0615 Y1215.2889 Z-20.0000 F4000
G1 X253.5969 Y1218.8243 Z-20.0000 F4000
G1 X255.0126 Y1217.4087 Z-20.0000 F4000
G1 X240.8692 Y1203.2653 Z-20.0000 F4000
G1 X239.4536 Y1204.6809 Z-20.0000 F4000
G1 X242.9890 Y1208.2164 Z-20.0000 F4000
G1 X209.6709 Y1241.5345 Z-20.0000 F4000
G1 X190.4684 Y1094.3229 Z-20.0000 F4000
G1 X190.4684 Y1094.3229 Z10.0000 F9999
G1 X947.9203 Y279.9956 Z10.0000 F9999
G1 X947.9203 Y279.9956 Z1.0000 F2500
G1 X952.9611 Y318.6394 Z-9.5000 F2500
G1 X947.9203 Y279.9956 Z-20.0000 F2500
G1 X967.1228 Y427.2072 Z-20.0000 F4000
G1 X962.1647 Y427.8539 Z-20.0000 F4000
G1 X962.4237 Y429.8391 Z-20.0000 F4000
G1 X985.2306 Y426.8643 Z-20.0000 F4000
G1 X1009.5459 Y613.2828 Z-20.0000 F4000
G1 X986.7392 Y616.2575 Z-20.0000 F4000
G1 X986.9981 Y618.2427 Z-20.0000 F4000
G1 X991.9561 Y617.5959 Z-20.0000 F4000
G1 X1005.9241 Y724.6871 Z-20.0000 F4000
G1 X1000.9662 Y725.3338 Z-20.0000 F4000
G1 X1001.2251 Y727.3189 Z-20.0000 F4000
G1 X1024.0319 Y724.3441 Z-20.0000 F4000
G1 X1048.3472 Y910.7626 Z-20.0000 F4000
G1 X1025.5404 Y913.7375 Z-20.0000 F4000
G1 X1025.7993 Y915.7226 Z-20.0000 F4000
G1 X1030.7574 Y915.0759 Z-20.0000 F4000
G1 X1043.7878 Y1014.9775 Z-20.0000 F4000
G1 X999.5357 Y1020.7495 Z-20.0000 F4000
G1 X994.6234 Y1020.4604 Z-20.0000 F4000
G1 X989.5128 Y1017.9824 Z-20.0000 F4000
G1 X985.8069 Y1013.6784 Z-20.0000 F4000
G1 X984.2674 Y1009.0047 Z-20.0000 F4000
G1 X975.8606 Y944.5506 Z-20.0000 F4000
G1 X975.0554 Y942.1062 Z-20.0000 F4000
G1 X973.4681 Y940.2629 Z-20.0000 F4000
G1 X971.2793 Y939.2016 Z-20.0000 F4000
G1 X968.7101 Y939.0503 Z-20.0000 F4000
G1 X940.2076 Y942.7679 Z-20.0000 F4000
G1 X937.7631 Y943.5732 Z-20.0000 F4000
G1 X935.9196 Y945.1604 Z-20.0000 F4000
G1 X934.8584 Y947.3491 Z-20.0000 F4000
G1 X934.7072 Y949.9184 Z-20.0000 F4000
G1 X943.1143 Y1014.3724 Z-20.0000 F4000
G1 X942.8252 Y1019.2846 Z-20.0000 F4000
G1 X940.3471 Y1024.3952 Z-20.0000 F4000
G1 X936.0430 Y1028.1012 Z-20.0000 F4000
G1 X931.3693 Y1029.6407 Z-20.0000 F4000
G1 X900.3760 Y1033.6831 Z-20.0000 F4000
G1 X895.4638 Y1033.3941 Z-20.0000 F4000
G1 X890.3532 Y1030.9161 Z-20.0000 F4000
G1 X886.6469 Y1026.6122 Z-20.0000 F4000
G1 X885.1077 Y1021.9382 Z-20.0000 F4000
G1 X876.7007 Y957.4844 Z-20.0000 F4000
G1 X875.8955 Y955.0399 Z-20.0000 F4000
G1 X874.3082 Y953.1966 Z-20.0000 F4000
G1 X872.1196 Y952.1353 Z-20.0000 F4000
G1 X869.5502 Y951.9841 Z-20.0000 F4000
G1 X841.0478 Y955.7017 Z-20.0000 F4000
G1 X838.6031 Y956.5070 Z-20.0000 F4000
G1 X836.7597 Y958.0942 Z-20.0000 F4000
G1 X835.6985 Y960.2829 Z-20.0000 F4000
G1 X835.5473 Y962.8522 Z-20.0000 F4000
G1 X843.9544 Y1027.3063 Z-20.0000 F4000
G1 X843.6651 Y1032.2182 Z-20.0000 F4000
G1 X841.1872 Y1037.3289 Z-20.0000 F4000
G1 X836.8831 Y1041.0350 Z-20.0000 F4000
G1 X832.2094 Y1042.5745 Z-20.0000 F4000
G1 X787.9574 Y1048.3462 Z-20.0000 F4000
G1 X774.9268 Y948.4448 Z-20.0000 F4000
G1 X779.8848 Y947.7981 Z-20.0000 F4000
G1 X779.6259 Y945.8129 Z-20.0000 F4000
G1 X756.8191 Y948.7878 Z-20.0000 F4000
G1 X732.5039 Y762.3691 Z-20.0000 F4000
G1 X755.3107 Y759.3943 Z-20.0000 F4000
G1 X755.0518 Y757.4092 Z-20.0000 F4000
G1 X750.0938 Y758.0559 Z-20.0000 F4000
G1 X736.1257 Y650.9650 Z-20.0000 F4000
G1 X741.0836 Y650.3185 Z-20.0000 F4000
G1 X740.8246 Y648.3334 Z-20.0000 F4000
G1 X718.0180 Y651.3081 Z-20.0000 F4000
G1 X693.7024 Y464.8897 Z-20.0000 F4000
G1 X716.5092 Y461.9148 Z-20.0000 F4000
G1 X716.2503 Y459.9297 Z-20.0000 F4000
G1 X711.2924 Y460.5762 Z-20.0000 F4000
G1 X697.7410 Y356.6883 Z-20.0000 F4000
G1 X593.8534 Y343.1373 Z-20.0000 F4000
G1 X594.5001 Y338.1793 Z-20.0000 F4000
G1 X592.5150 Y337.9203 Z-20.0000 F4000
G1 X589.5401 Y360.7271 Z-20.0000 F4000
G1 X403.1215 Y336.4117 Z-20.0000 F4000
G1 X406.0965 Y313.6049 Z-20.0000 F4000
G1 X404.1112 Y313.3460 Z-20.0000 F4000
G1 X403.4645 Y318.3040 Z-20.0000 F4000
G1 X296.3731 Y304.3360 Z-20.0000 F4000
G1 X297.0198 Y299.3780 Z-20.0000 F4000
G1 X295.0347 Y299.1190 Z-20.0000 F4000
G1 X292.0599 Y321.9257 Z-20.0000 F4000
G1 X105.6412 Y297.6106 Z-20.0000 F4000
G1 X108.6161 Y274.8038 Z-20.0000 F4000
G1 X106.6309 Y274.5448 Z-20.0000 F4000
G1 X105.9842 Y279.5029 Z-20.0000 F4000
G1 X6.0825 Y266.4724 Z-20.0000 F4000
G1 X11.8545 Y222.2203 Z-20.0000 F4000
G1 X13.3940 Y217.5466 Z-20.0000 F4000
G1 X17.1001 Y213.2425 Z-20.0000 F4000
G1 X22.2107 Y210.7644 Z-20.0000 F4000
G1 X27.1229 Y210.4754 Z-20.0000 F4000
G1 X91.5768 Y218.8824 Z-20.0000 F4000
G1 X94.1461 Y218.7312 Z-20.0000 F4000
G1 X96.3348 Y217.6699 Z-20.0000 F4000
G1 X97.9220 Y215.8266 Z-20.0000 F4000
G1 X98.7273 Y213.3819 Z-20.0000 F4000
G1 X102.4449 Y184.8795 Z-20.0000 F4000
G1 X102.2936 Y182.3102 Z-20.0000 F4000
G1 X101.2324 Y180.1213 Z-20.0000 F4000
G1 X99.3892 Y178.5343 Z-20.0000 F4000
G1 X96.9446 Y177.7290 Z-20.0000 F4000
G1 X32.4906 Y169.3222 Z-20.0000 F4000
G1 X27.8169 Y167.7828 Z-20.0000 F4000
G1 X23.5129 Y164.0768 Z-20.0000 F4000
G1 X21.0348 Y158.9662 Z-20.0000 F4000
G1 X20.7457 Y154.0539 Z-20.0000 F4000
G1 X24.7883 Y123.0604 Z-20.0000 F4000
G1 X26.3278 Y118.3867 Z-20.0000 F4000
G1 X30.0339 Y114.0826 Z-20.0000 F4000
G1 X35.1444 Y111.6047 Z-20.0000 F4000
G1 X40.0565 Y111.3157 Z-20.0000 F4000
G1 X104.5106 Y119.7225 Z-20.0000 F4000
G1 X107.0799 Y119.5713 Z-20.0000 F4000
G1 X109.2686 Y118.5100 Z-20.0000 F4000
G1 X110.8557 Y116.6669 Z-20.0000 F4000
G1 X111.6609 Y114.2222 Z-20.0000 F4000
G1 X115.3786 Y85.7197 Z-20.0000 F4000
G1 X115.2274 Y83.1503 Z-20.0000 F4000
G1 X114.1661 Y80.9616 Z-20.0000 F4000
G1 X112.3230 Y79.3744 Z-20.0000 F4000
G1 X109.8783 Y78.5693 Z-20.0000 F4000
G1 X45.4243 Y70.1623 Z-20.0000 F4000
G1 X40.7507 Y68.6229 Z-20.0000 F4000
G1 X36.4466 Y64.9169 Z-20.0000 F4000
G1 X33.9686 Y59.8063 Z-20.0000 F4000
G1 X33.6795 Y54.8940 Z-20.0000 F4000
G1 X39.4515 Y10.6419 Z-20.0000 F4000
G1 X139.3531 Y23.6725 Z-20.0000 F4000
G1 X138.7063 Y28.6305 Z-20.0000 F4000
G1 X140.6915 Y28.8894 Z-20.0000 F4000
G1 X143.6664 Y6.0825 Z-20.0000 F4000
G1 X330.0849 Y30.3978 Z-20.0000 F4000
G1 X327.1102 Y53.2045 Z-20.0000 F4000
G1 X329.0953 Y53.4634 Z-20.0000 F4000
G1 X329.7418 Y48.5056 Z-20.0000 F4000
G1 X436.8337 Y62.4736 Z-20.0000 F4000
G1 X436.1870 Y67.4316 Z-20.0000 F4000
G1 X438.1722 Y67.6905 Z-20.0000 F4000
G1 X441.1471 Y44.8836 Z-20.0000 F4000
G1 X627.5655 Y69.1992 Z-20.0000 F4000
G1 X624.5908 Y92.0060 Z-20.0000 F4000
G1 X626.5759 Y92.2649 Z-20.0000 F4000
G1 X627.2228 Y87.3068 Z-20.0000 F4000
G1 X921.6452 Y125.7114 Z-20.0000 F4000
G1 X888.3272 Y159.0296 Z-20.0000 F4000
G1 X884.7918 Y155.4942 Z-20.0000 F4000
G1 X883.3762 Y156.9098 Z-20.0000 F4000
G1 X897.5196 Y171.0532 Z-20.0000 F4000
G1 X898.9352 Y169.6376 Z-20.0000 F4000
G1 X895.3998 Y166.1022 Z-20.0000 F4000
G1 X928.7178 Y132.7841 Z-20.0000 F4000
G1 X947.9203 Y279.9956 Z-20.0000 F4000
G1 X947.9203 Y279.9956 Z10.0000 F9999
G1 X947.9203 Y1545.4334 Z10.0000 F9999
G1 X947.9203 Y1545.4334 Z1.0000 F2500
G1 X952.9611 Y1584.0772 Z-9.5000 F2500
G1 X947.9203 Y1545.4334 Z-20.0000 F2500
G1 X967.1228 Y1692.6450 Z-20.0000 F4000
G1 X962.1647 Y1693.2917 Z-20.0000 F4000
G1 X962.4237 Y1695.2769 Z-20.0000 F4000
G1 X985.2306 Y1692.3021 Z-20.0000 F4000
G1 X1009.5459 Y1878.7206 Z-20.0000 F4000
G1 X986.7392 Y1881.6953 Z-20.0000 F4000
G1 X986.9981 Y1883.6805 Z-20.0000 F4000
G1 X991.9561 Y1883.0337 Z-20.0000 F4000
G1 X1005.9241 Y1990.1248 Z-20.0000 F4000
G1 X1000.9662 Y1990.7716 Z-20.0000 F4000
G1 X1001.2251 Y1992.7566 Z-20.0000 F4000
G1 X1024.0319 Y1989.7819 Z-20.0000 F4000
G1 X1048.3472 Y2176.2004 Z-20.0000 F4000
G1 X1025.5404 Y2179.1753 Z-20.0000 F4000
G1 X1025.7993 Y2181.1604 Z-20.0000 F4000
G1 X1030.7574 Y2180.5137 Z-20.0000 F4000
G1 X1043.7878 Y2280.4153 Z-20.0000 F4000
G1 X999.5357 Y2286.1873 Z-20.0000 F4000
G1 X994.6234 Y2285.8982 Z-20.0000 F4000
G1 X989.5128 Y2283.4202 Z-20.0000 F4000
G1 X985.8069 Y2279.1162 Z-20.0000 F4000
G1 X984.2674 Y2274.4425 Z-20.0000 F4000
G1 X975.8606 Y2209.9884 Z-20.0000 F4000
G1 X975.0554 Y2207.5440 Z-20.0000 F4000
G1 X973.4681 Y2205.7007 Z-20.0000 F4000
G1 X971.2793 Y2204.6394 Z-20.0000 F4000
G1 X968.7101 Y2204.4881 Z-20.0000 F4000
G1 X940.2076 Y2208.2057 Z-20.0000 F4000
G1 X937.7631 Y2209.0110 Z-20.0000 F4000
G1 X935.9196 Y2210.5982 Z-20.0000 F4000
G1 X934.8584 Y2212.7869 Z-20.0000 F4000
G1 X934.7072 Y2215.3562 Z-20.0000 F4000
G1 X943.1143 Y2279.8102 Z-20.0000 F4000
G1 X942.8252 Y2284.7223 Z-20.0000 F4000
G1 X940.3471 Y2289.8329 Z-20.0000 F4000
G1 X936.0430 Y2293.5390 Z-20.0000 F4000
G1 X931.3693 Y2295.0785 Z-20.0000 F4000
G1 X900.3760 Y2299.1209 Z-20.0000 F4000
G1 X895.4638 Y2298.8319 Z-20.0000 F4000
G1 X890.3532 Y2296.3538 Z-20.0000 F4000
G1 X886.6469 Y2292.0500 Z-20.0000 F4000
G1 X885.1077 Y2287.3760 Z-20.0000 F4000
G1 X876.7007 Y2222.9222 Z-20.0000 F4000
G1 X875.8955 Y2220.4777 Z-20.0000 F4000
G1 X874.3082 Y2218.6344 Z-20.0000 F4000
G1 X872.1196 Y2217.5731 Z-20.0000 F4000
G1 X869.5502 Y2217.4219 Z-20.0000 F4000
G1 X841.0478 Y2221.1395 Z-20.0000 F4000
G1 X838.6031 Y2221.9448 Z-20.0000 F4000
G1 X836.7597 Y2223.5320 Z-20.0000 F4000
G1 X835.6985 Y2225.7207 Z-20.0000 F4000
G1 X835.5473 Y2228.2900 Z-20.0000 F4000
G1 X843.9544 Y2292.7440 Z-20.0000 F4000
G1 X843.6651 Y2297.6560 Z-20.0000 F4000
G1 X841.1872 Y2302.7667 Z-20.0000 F4000
G1 X836.8831 Y2306.4728 Z-20.0000 F4000
G1 X832.2094 Y2308.0123 Z-20.0000 F4000
G1 X787.9574 Y2313.7840 Z-20.0000 F4000
G1 X774.9268 Y2213.8825 Z-20.0000 F4000
G1 X779.8848 Y2213.2359 Z-20.0000 F4000
G1 X779.6259 Y2211.2507 Z-20.0000 F4000
G1 X756.8191 Y2214.2256 Z-20.0000 F4000
G1 X732.5039 Y2027.8069 Z-20.0000 F4000
G1 X755.3107 Y2024.8321 Z-20.0000 F4000
G1 X755.0518 Y2022.8470 Z-20.0000 F4000
G1 X750.0938 Y2023.4937 Z-20.0000 F4000
G1 X736.1257 Y1916.4028 Z-20.0000 F4000
G1 X741.0836 Y1915.7563 Z-20.0000 F4000
G1 X740.8246 Y1913.7712 Z-20.0000 F4000
G1 X718.0180 Y1916.7459 Z-20.0000 F4000
G1 X693.7024 Y1730.3275 Z-20.0000 F4000
G1 X716.5092 Y1727.3526 Z-20.0000 F4000
G1 X716.2503 Y1725.3675 Z-20.0000 F4000
G1 X711.2924 Y1726.0140 Z-20.0000 F4000
G1 X697.7410 Y1622.1261 Z-20.0000 F4000
G1 X593.8534 Y1608.5751 Z-20.0000 F4000
G1 X594.5001 Y1603.6171 Z-20.0000 F4000
G1 X592.5150 Y1603.3581 Z-20.0000 F4000
G1 X589.5401 Y1626.1649 Z-20.0000 F4000
G1 X403.1215 Y1601.8495 Z-20.0000 F4000
G1 X406.0965 Y1579.0427 Z-20.0000 F4000
G1 X404.1112 Y1578.7838 Z-20.0000 F4000
G1 X403.4645 Y1583.7418 Z-20.0000 F4000
G1 X296.3731 Y1569.7738 Z-20.0000 F4000
G1 X297.0198 Y1564.8157 Z-20.0000 F4000
G1 X295.0347 Y1564.5568 Z-20.0000 F4000
G1 X292.0599 Y1587.3635 Z-20.0000 F4000
G1 X105.6412 Y1563.0484 Z-20.0000 F4000
G1 X108.6161 Y1540.2416 Z-20.0000 F4000
G1 X106.6309 Y1539.9826 Z-20.0000 F4000
G1 X105.9842 Y1544.9407 Z-20.0000 F4000
G1 X6.0825 Y1531.9102 Z-20.0000 F4000
G1 X11.8545 Y1487.6581 Z-20.0000 F4000
G1 X13.3940 Y1482.9844 Z-20.0000 F4000
G1 X17.1001 Y1478.6803 Z-20.0000 F4000
G1 X22.2107 Y1476.2022 Z-20.0000 F4000
G1 X27.1229 Y1475.9132 Z-20.0000 F4000
G1 X91.5768 Y1484.3202 Z-20.0000 F4000
G1 X94.1461 Y1484.1690 Z-20.0000 F4000
G1 X96.3348 Y1483.1077 Z-20.0000 F4000
G1 X97.9220 Y1481.2644 Z-20.0000 F4000
G1 X98.7273 Y1478.8197 Z-20.0000 F4000
G1 X102.4449 Y1450.3173 Z-20.0000 F4000
G1 X102.2936 Y1447.7480 Z-20.0000 F4000
G1 X101.2324 Y1445.5591 Z-20.0000 F4000
G1 X99.3892 Y1443.9721 Z-20.0000 F4000
G1 X96.9446 Y1443.1668 Z-20.0000 F4000
G1 X32.4906 Y1434.7600 Z-20.0000 F4000
G1 X27.8169 Y1433.2206 Z-20.0000 F4000
G1 X23.5129 Y1429.5146 Z-20.0000 F4000
G1 X21.0348 Y1424.4040 Z-20.0000 F4000
G1 X20.7457 Y1419.4917 Z-20.0000 F4000
G1 X24.7883 Y1388.4982 Z-20.0000 F4000
G1 X26.3278 Y1383.8245 Z-20.0000 F4000
G1 X30.0339 Y1379.5204 Z-20.0000 F4000
G1 X35.1444 Y1377.0425 Z-20.0000 F4000
G1 X40.0565 Y1376.7534 Z-20.0000 F4000
G1 X104.5106 Y1385.1603 Z-20.0000 F4000
G1 X107.0799 Y1385.0091 Z-20.0000 F4000
G1 X109.2686 Y1383.9478 Z-20.0000 F4000
G1 X110.8557 Y1382.1047 Z-20.0000 F4000
G1 X111.6609 Y1379.6600 Z-20.0000 F4000
G1 X115.3786 Y1351.1575 Z-20.0000 F4000
G1 X115.2274 Y1348.5881 Z-20.0000 F4000
G1 X114.1661 Y1346.3994 Z-20.0000 F4000
G1 X112.3230 Y1344.8122 Z-20.0000 F4000
G1 X109.8783 Y1344.0071 Z-20.0000 F4000
G1 X45.4243 Y1335.6001 Z-20.0000 F4000
G1 X40.7507 Y1334.0607 Z-20.0000 F4000
G1 X36.4466 Y1330.3547 Z-20.0000 F4000
G1 X33.9686 Y1325.2441 Z-20.0000 F4000
G1 X33.6795 Y1320.3318 Z-20.0000 F4000
G1 X39.4515 Y1276.0797 Z-20.0000 F4000
G1 X139.3531 Y1289.1103 Z-20.0000 F4000
G1 X138.7063 Y1294.0683 Z-20.0000 F4000
G1 X140.6915 Y1294.3272 Z-20.0000 F4000
G1 X143.6664 Y1271.5203 Z-20.0000 F4000
G1 X330.0849 Y1295.8356 Z-20.0000 F4000
G1 X327.1102 Y1318.6423 Z-20.0000 F4000
G1 X329.0953 Y1318.9012 Z-20.0000 F4000
G1 X329.7418 Y1313.9434 Z-20.0000 F4000
G1 X436.8337 Y1327.9114 Z-20.0000 F4000
G1 X436.1870 Y1332.8694 Z-20.0000 F4000
G1 X438.1722 Y1333.1283 Z-20.0000 F4000
G1 X441.1471 Y1310.3214 Z-20.0000 F4000
G1 X627.5655 Y1334.6370 Z-20.0000 F4000
G1 X624.5908 Y1357.4438 Z-20.0000 F4000
G1 X626.5759 Y1357.7027 Z-20.0000 F4000
G1 X627.2228 Y1352.7446 Z-20.0000 F4000
G1 X921.6452 Y1391.1492 Z-20.0000 F4000
G1 X888.3272 Y1424.4674 Z-20.0000 F4000
G1 X884.7918 Y1420.9320 Z-20.0000 F4000
G1 X883.3762 Y1422.3476 Z-20.0000 F4000
G1 X897.5196 Y1436.4910 Z-20.0000 F4000
G1 X898.9352 Y1435.0754 Z-20.0000 F4000
G1 X895.3998 Y1431.5399 Z-20.0000 F4000
G1 X928.7178 Y1398.2219 Z-20.0000 F4000
G1 X947.9203 Y1545.4334 Z-20.0000 F4000
G1 X947.9203 Y1545.4334 Z10.0000 F9999
G1 X1900.0000 Y2800.0000 Z80.0000 F9999
G1 Z80.0000 F9999
G1 X1900.0000 Y2800.0000 F9999
M5
M30
