(plotsheet 2n3_nested_153 sheets_final v1_0_sheet 146a_S146.1_text_CC8 - stepover 1mm)
(Material Size) (X=1220.000, Y=2440.000, Z=20.000)
(LinuxCNC_NoArcs_MM_TC_medium_50um_G1_verbose.con)
G90 G80 G21 G49
G64 P0.050
M6 T1
(Tool Number:1) (7.998 mm dia. slot drill)
G43 H1 G0Z80.0000
M3 S18000
G04 P10
G1 X83.5226 Y424.7577 Z10.0000 F9999
G1 X83.5226 Y424.7577 Z-1.0000 F2500
G1 X83.5226 Y439.1981 Z-1.0000 F5000
G1 X83.5226 Y424.7577 Z-1.0000 F5000
G1 X65.2290 Y424.7577 Z-1.0000 F5000
G1 X65.2290 Y439.8770 Z-1.0000 F5000
G1 X65.2290 Y424.7577 Z-1.0000 F5000
G1 X106.3299 Y424.7577 Z-1.0000 F5000
G1 X106.3299 Y424.7577 Z10.0000 F9999
G1 X106.3299 Y455.2898 Z10.0000 F9999
G1 X106.3299 Y455.2898 Z-1.0000 F2500
G1 X65.2290 Y455.2898 Z-1.0000 F5000
G1 X65.2290 Y462.4458 Z-1.0000 F5000
G1 X65.8345 Y466.3173 Z-1.0000 F5000
G1 X67.6510 Y469.5283 Z-1.0000 F5000
G1 X70.8070 Y471.7485 Z-1.0000 F5000
G1 X75.4492 Y472.5926 Z-1.0000 F5000
G1 X80.1281 Y471.4366 Z-1.0000 F5000
G1 X83.4492 Y468.6660 Z-1.0000 F5000
G1 X85.4125 Y465.3449 Z-1.0000 F5000
G1 X86.0730 Y462.4458 Z-1.0000 F5000
G1 X86.0730 Y455.2898 Z-1.0000 F5000
G1 X86.0730 Y462.4458 Z-1.0000 F5000
G1 X85.4125 Y465.3449 Z-1.0000 F5000
G1 X83.4492 Y468.6660 Z-1.0000 F5000
G1 X80.1281 Y471.4366 Z-1.0000 F5000
G1 X75.4492 Y472.5926 Z-1.0000 F5000
G1 X70.8070 Y471.7485 Z-1.0000 F5000
G1 X67.6510 Y469.5283 Z-1.0000 F5000
G1 X65.8345 Y466.3173 Z-1.0000 F5000
G1 X65.2290 Y462.4458 Z-1.0000 F5000
G1 X65.2290 Y455.2898 Z-1.0000 F5000
G1 X65.2290 Y455.2898 Z10.0000 F9999
G1 X65.2290 Y499.3999 Z10.0000 F9999
G1 X65.2290 Y499.3999 Z-1.0000 F2500
G1 X106.3299 Y515.4549 Z-1.0000 F5000
G1 X65.2290 Y499.3999 Z-1.0000 F5000
G1 X106.3299 Y483.3816 Z-1.0000 F5000
G1 X106.3299 Y483.3816 Z10.0000 F9999
G1 X106.3299 Y472.7027 Z10.0000 F9999
G1 X106.3299 Y472.7027 Z-1.0000 F2500
G1 X86.1831 Y459.4733 Z-1.0000 F5000
G1 X106.3299 Y472.7027 Z-1.0000 F5000
G1 X106.3299 Y472.7027 Z10.0000 F9999
G1 X91.6327 Y509.7118 Z10.0000 F9999
G1 X91.6327 Y509.7118 Z-1.0000 F2500
G1 X91.6327 Y489.0146 Z-1.0000 F5000
G1 X91.6327 Y509.7118 Z-1.0000 F5000
G1 X91.6327 Y509.7118 Z10.0000 F9999
G1 X81.6694 Y556.0788 Z10.0000 F9999
G1 X81.6694 Y556.0788 Z-1.0000 F2500
G1 X81.6694 Y526.8311 Z-1.0000 F5000
G1 X81.6694 Y556.0788 Z-1.0000 F5000
G1 X81.6694 Y556.0788 Z10.0000 F9999
G1 X65.2290 Y582.7760 Z10.0000 F9999
G1 X65.2290 Y582.7760 Z-1.0000 F2500
G1 X106.3299 Y598.8311 Z-1.0000 F5000
G1 X65.2290 Y582.7760 Z-1.0000 F5000
G1 X106.3299 Y566.7577 Z-1.0000 F5000
G1 X106.3299 Y566.7577 Z10.0000 F9999
G1 X91.6327 Y593.0880 Z10.0000 F9999
G1 X91.6327 Y593.0880 Z-1.0000 F2500
G1 X91.6327 Y572.3907 Z-1.0000 F5000
G1 X91.6327 Y593.0880 Z-1.0000 F5000
G1 X91.6327 Y593.0880 Z10.0000 F9999
G1 X99.5042 Y651.3082 Z10.0000 F9999
G1 X99.5042 Y651.3082 Z-1.0000 F2500
G1 X102.5501 Y653.2531 Z-1.0000 F5000
G1 X104.6052 Y655.6751 Z-1.0000 F5000
G1 X105.8529 Y658.7944 Z-1.0000 F5000
G1 X106.3299 Y662.9228 Z-1.0000 F5000
G1 X105.8712 Y667.4182 Z-1.0000 F5000
G1 X104.1281 Y671.2348 Z-1.0000 F5000
G1 X101.1373 Y673.9137 Z-1.0000 F5000
G1 X96.9721 Y675.0329 Z-1.0000 F5000
G1 X92.9721 Y674.5008 Z-1.0000 F5000
G1 X90.2932 Y672.9595 Z-1.0000 F5000
G1 X88.6052 Y670.9228 Z-1.0000 F5000
G1 X87.5042 Y669.0146 Z-1.0000 F5000
G1 X82.7703 Y659.8219 Z-1.0000 F5000
G1 X81.3575 Y657.4549 Z-1.0000 F5000
G1 X79.7061 Y655.6017 Z-1.0000 F5000
G1 X77.5226 Y654.3540 Z-1.0000 F5000
G1 X74.6419 Y653.8403 Z-1.0000 F5000
G1 X71.3575 Y654.3724 Z-1.0000 F5000
G1 X68.3299 Y656.2072 Z-1.0000 F5000
G1 X66.1097 Y659.3449 Z-1.0000 F5000
G1 X65.2290 Y663.7118 Z-1.0000 F5000
G1 X65.9079 Y667.9687 Z-1.0000 F5000
G1 X67.3758 Y670.8127 Z-1.0000 F5000
G1 X69.5226 Y672.9045 Z-1.0000 F5000
G1 X67.3758 Y670.8127 Z-1.0000 F5000
G1 X65.9079 Y667.9687 Z-1.0000 F5000
G1 X65.2290 Y663.7118 Z-1.0000 F5000
G1 X66.1097 Y659.3449 Z-1.0000 F5000
G1 X68.3299 Y656.2072 Z-1.0000 F5000
G1 X71.3575 Y654.3724 Z-1.0000 F5000
G1 X74.6419 Y653.8403 Z-1.0000 F5000
G1 X77.5226 Y654.3540 Z-1.0000 F5000
G1 X79.7061 Y655.6017 Z-1.0000 F5000
G1 X81.3575 Y657.4549 Z-1.0000 F5000
G1 X82.7703 Y659.8219 Z-1.0000 F5000
G1 X87.5042 Y669.0146 Z-1.0000 F5000
G1 X88.6052 Y670.9228 Z-1.0000 F5000
G1 X90.2932 Y672.9595 Z-1.0000 F5000
G1 X92.9721 Y674.5008 Z-1.0000 F5000
G1 X96.9721 Y675.0329 Z-1.0000 F5000
G1 X101.1373 Y673.9137 Z-1.0000 F5000
G1 X104.1281 Y671.2348 Z-1.0000 F5000
G1 X105.8712 Y667.4182 Z-1.0000 F5000
G1 X106.3299 Y662.9228 Z-1.0000 F5000
G1 X105.8529 Y658.7944 Z-1.0000 F5000
G1 X104.6052 Y655.6751 Z-1.0000 F5000
G1 X102.5501 Y653.2531 Z-1.0000 F5000
G1 X102.5501 Y653.2531 Z10.0000 F9999
G1 X55.8345 Y640.5926 Z10.0000 F9999
G1 X55.8345 Y640.5926 Z-1.0000 F2500
G1 X108.6786 Y610.2072 Z-1.0000 F5000
G1 X55.8345 Y640.5926 Z-1.0000 F5000
G1 X55.8345 Y640.5926 Z10.0000 F9999
G1 X65.2290 Y708.7393 Z10.0000 F9999
G1 X65.2290 Y708.7393 Z-1.0000 F2500
G1 X98.6235 Y686.5375 Z-1.0000 F5000
G1 X98.6235 Y715.3449 Z-1.0000 F5000
G1 X98.6235 Y686.5375 Z-1.0000 F5000
G1 X65.2290 Y708.7393 Z-1.0000 F5000
G1 X106.3299 Y708.7393 Z-1.0000 F5000
G1 X106.3299 Y708.7393 Z10.0000 F9999
G1 X106.3299 Y772.3540 Z10.0000 F9999
G1 X106.3299 Y772.3540 Z-1.0000 F2500
G1 X83.5226 Y772.3540 Z-1.0000 F5000
G1 X83.5226 Y788.8127 Z-1.0000 F5000
G1 X83.5226 Y772.3540 Z-1.0000 F5000
G1 X65.2290 Y772.3540 Z-1.0000 F5000
G1 X65.2290 Y790.1155 Z-1.0000 F5000
G1 X65.2290 Y772.3540 Z-1.0000 F5000
G1 X106.3299 Y772.3540 Z-1.0000 F5000
G1 X106.3299 Y790.1155 Z-1.0000 F5000
G1 X106.3299 Y790.1155 Z10.0000 F9999
G1 X85.1189 Y812.5192 Z10.0000 F9999
G1 X85.1189 Y812.5192 Z-1.0000 F2500
G1 X106.3299 Y824.4641 Z-1.0000 F5000
G1 X85.1189 Y812.5192 Z-1.0000 F5000
G1 X65.2290 Y824.4641 Z-1.0000 F5000
G1 X85.1189 Y812.5192 Z-1.0000 F5000
G1 X65.2290 Y800.4458 Z-1.0000 F5000
G1 X85.1189 Y812.5192 Z-1.0000 F5000
G1 X106.3299 Y800.4458 Z-1.0000 F5000
G1 X106.3299 Y800.4458 Z10.0000 F9999
G1 X55.8345 Y756.8494 Z10.0000 F9999
G1 X55.8345 Y756.8494 Z-1.0000 F2500
G1 X108.6786 Y726.4641 Z-1.0000 F5000
G1 X55.8345 Y756.8494 Z-1.0000 F5000
G1 X55.8345 Y756.8494 Z10.0000 F9999
G1 X225.9973 Y756.8494 Z10.0000 F9999
G1 X225.9973 Y756.8494 Z-1.0000 F2500
G1 X278.8413 Y726.4641 Z-1.0000 F5000
G1 X225.9973 Y756.8494 Z-1.0000 F5000
G1 X225.9973 Y756.8494 Z10.0000 F9999
G1 X235.3917 Y708.7393 Z10.0000 F9999
G1 X235.3917 Y708.7393 Z-1.0000 F2500
G1 X268.7862 Y686.5375 Z-1.0000 F5000
G1 X268.7862 Y715.3449 Z-1.0000 F5000
G1 X268.7862 Y686.5375 Z-1.0000 F5000
G1 X235.3917 Y708.7393 Z-1.0000 F5000
G1 X276.4927 Y708.7393 Z-1.0000 F5000
G1 X276.4927 Y708.7393 Z10.0000 F9999
G1 X269.6670 Y651.3082 Z10.0000 F9999
G1 X269.6670 Y651.3082 Z-1.0000 F2500
G1 X272.7128 Y653.2531 Z-1.0000 F5000
G1 X274.7679 Y655.6751 Z-1.0000 F5000
G1 X276.0156 Y658.7944 Z-1.0000 F5000
G1 X276.4927 Y662.9228 Z-1.0000 F5000
G1 X276.0339 Y667.4182 Z-1.0000 F5000
G1 X274.2908 Y671.2348 Z-1.0000 F5000
G1 X271.3000 Y673.9137 Z-1.0000 F5000
G1 X267.1349 Y675.0329 Z-1.0000 F5000
G1 X263.1349 Y674.5008 Z-1.0000 F5000
G1 X260.4560 Y672.9595 Z-1.0000 F5000
G1 X258.7679 Y670.9228 Z-1.0000 F5000
G1 X257.6670 Y669.0146 Z-1.0000 F5000
G1 X252.9330 Y659.8219 Z-1.0000 F5000
G1 X251.5202 Y657.4549 Z-1.0000 F5000
G1 X249.8688 Y655.6017 Z-1.0000 F5000
G1 X247.6853 Y654.3540 Z-1.0000 F5000
G1 X244.8046 Y653.8403 Z-1.0000 F5000
G1 X241.5202 Y654.3724 Z-1.0000 F5000
G1 X238.4927 Y656.2072 Z-1.0000 F5000
G1 X236.2725 Y659.3449 Z-1.0000 F5000
G1 X235.3917 Y663.7118 Z-1.0000 F5000
G1 X236.0706 Y667.9687 Z-1.0000 F5000
G1 X237.5385 Y670.8127 Z-1.0000 F5000
G1 X239.6853 Y672.9045 Z-1.0000 F5000
G1 X237.5385 Y670.8127 Z-1.0000 F5000
G1 X236.0706 Y667.9687 Z-1.0000 F5000
G1 X235.3917 Y663.7118 Z-1.0000 F5000
G1 X236.2725 Y659.3449 Z-1.0000 F5000
G1 X238.4927 Y656.2072 Z-1.0000 F5000
G1 X241.5202 Y654.3724 Z-1.0000 F5000
G1 X244.8046 Y653.8403 Z-1.0000 F5000
G1 X247.6853 Y654.3540 Z-1.0000 F5000
G1 X249.8688 Y655.6017 Z-1.0000 F5000
G1 X251.5202 Y657.4549 Z-1.0000 F5000
G1 X252.9330 Y659.8219 Z-1.0000 F5000
G1 X257.6670 Y669.0146 Z-1.0000 F5000
G1 X258.7679 Y670.9228 Z-1.0000 F5000
G1 X260.4560 Y672.9595 Z-1.0000 F5000
G1 X263.1349 Y674.5008 Z-1.0000 F5000
G1 X267.1349 Y675.0329 Z-1.0000 F5000
G1 X271.3000 Y673.9137 Z-1.0000 F5000
G1 X274.2908 Y671.2348 Z-1.0000 F5000
G1 X276.0339 Y667.4182 Z-1.0000 F5000
G1 X276.4927 Y662.9228 Z-1.0000 F5000
G1 X276.0156 Y658.7944 Z-1.0000 F5000
G1 X274.7679 Y655.6751 Z-1.0000 F5000
G1 X272.7128 Y653.2531 Z-1.0000 F5000
G1 X272.7128 Y653.2531 Z10.0000 F9999
G1 X225.9973 Y640.5926 Z10.0000 F9999
G1 X225.9973 Y640.5926 Z-1.0000 F2500
G1 X278.8413 Y610.2072 Z-1.0000 F5000
G1 X225.9973 Y640.5926 Z-1.0000 F5000
G1 X225.9973 Y640.5926 Z10.0000 F9999
G1 X235.3917 Y582.7760 Z10.0000 F9999
G1 X235.3917 Y582.7760 Z-1.0000 F2500
G1 X276.4927 Y598.8311 Z-1.0000 F5000
G1 X235.3917 Y582.7760 Z-1.0000 F5000
G1 X276.4927 Y566.7577 Z-1.0000 F5000
G1 X276.4927 Y566.7577 Z10.0000 F9999
G1 X251.8321 Y556.0788 Z10.0000 F9999
G1 X251.8321 Y556.0788 Z-1.0000 F2500
G1 X251.8321 Y526.8311 Z-1.0000 F5000
G1 X251.8321 Y556.0788 Z-1.0000 F5000
G1 X251.8321 Y556.0788 Z10.0000 F9999
G1 X261.7954 Y593.0880 Z10.0000 F9999
G1 X261.7954 Y593.0880 Z-1.0000 F2500
G1 X261.7954 Y572.3907 Z-1.0000 F5000
G1 X261.7954 Y593.0880 Z-1.0000 F5000
G1 X261.7954 Y593.0880 Z10.0000 F9999
G1 X261.7954 Y509.7118 Z10.0000 F9999
G1 X261.7954 Y509.7118 Z-1.0000 F2500
G1 X261.7954 Y489.0146 Z-1.0000 F5000
G1 X261.7954 Y509.7118 Z-1.0000 F5000
G1 X261.7954 Y509.7118 Z10.0000 F9999
G1 X235.3917 Y499.3999 Z10.0000 F9999
G1 X235.3917 Y499.3999 Z-1.0000 F2500
G1 X276.4927 Y515.4549 Z-1.0000 F5000
G1 X235.3917 Y499.3999 Z-1.0000 F5000
G1 X276.4927 Y483.3816 Z-1.0000 F5000
G1 X276.4927 Y483.3816 Z10.0000 F9999
G1 X276.4927 Y472.7027 Z10.0000 F9999
G1 X276.4927 Y472.7027 Z-1.0000 F2500
G1 X256.3459 Y459.4733 Z-1.0000 F5000
G1 X276.4927 Y472.7027 Z-1.0000 F5000
G1 X276.4927 Y472.7027 Z10.0000 F9999
G1 X276.4927 Y455.2898 Z10.0000 F9999
G1 X276.4927 Y455.2898 Z-1.0000 F2500
G1 X235.3917 Y455.2898 Z-1.0000 F5000
G1 X235.3917 Y462.4458 Z-1.0000 F5000
G1 X235.9973 Y466.3173 Z-1.0000 F5000
G1 X237.8138 Y469.5283 Z-1.0000 F5000
G1 X240.9697 Y471.7485 Z-1.0000 F5000
G1 X245.6119 Y472.5926 Z-1.0000 F5000
G1 X250.2908 Y471.4366 Z-1.0000 F5000
G1 X253.6119 Y468.6660 Z-1.0000 F5000
G1 X255.5752 Y465.3449 Z-1.0000 F5000
G1 X256.2358 Y462.4458 Z-1.0000 F5000
G1 X256.2358 Y455.2898 Z-1.0000 F5000
G1 X256.2358 Y462.4458 Z-1.0000 F5000
G1 X255.5752 Y465.3449 Z-1.0000 F5000
G1 X253.6119 Y468.6660 Z-1.0000 F5000
G1 X250.2908 Y471.4366 Z-1.0000 F5000
G1 X245.6119 Y472.5926 Z-1.0000 F5000
G1 X240.9697 Y471.7485 Z-1.0000 F5000
G1 X237.8138 Y469.5283 Z-1.0000 F5000
G1 X235.9973 Y466.3173 Z-1.0000 F5000
G1 X235.3917 Y462.4458 Z-1.0000 F5000
G1 X235.3917 Y455.2898 Z-1.0000 F5000
G1 X235.3917 Y455.2898 Z10.0000 F9999
G1 X253.6853 Y424.7577 Z10.0000 F9999
G1 X253.6853 Y424.7577 Z-1.0000 F2500
G1 X253.6853 Y439.1981 Z-1.0000 F5000
G1 X253.6853 Y424.7577 Z-1.0000 F5000
G1 X235.3917 Y424.7577 Z-1.0000 F5000
G1 X235.3917 Y439.8770 Z-1.0000 F5000
G1 X235.3917 Y424.7577 Z-1.0000 F5000
G1 X276.4927 Y424.7577 Z-1.0000 F5000
G1 X276.4927 Y424.7577 Z10.0000 F9999
G1 X426.4880 Y424.7577 Z10.0000 F9999
G1 X426.4880 Y424.7577 Z-1.0000 F2500
G1 X426.4880 Y439.1981 Z-1.0000 F5000
G1 X426.4880 Y424.7577 Z-1.0000 F5000
G1 X408.1944 Y424.7577 Z-1.0000 F5000
G1 X408.1944 Y439.8770 Z-1.0000 F5000
G1 X408.1944 Y424.7577 Z-1.0000 F5000
G1 X449.2953 Y424.7577 Z-1.0000 F5000
G1 X449.2953 Y424.7577 Z10.0000 F9999
G1 X449.2953 Y455.2898 Z10.0000 F9999
G1 X449.2953 Y455.2898 Z-1.0000 F2500
G1 X408.1944 Y455.2898 Z-1.0000 F5000
G1 X408.1944 Y462.4458 Z-1.0000 F5000
G1 X408.7999 Y466.3173 Z-1.0000 F5000
G1 X410.6164 Y469.5283 Z-1.0000 F5000
G1 X413.7724 Y471.7485 Z-1.0000 F5000
G1 X418.4146 Y472.5926 Z-1.0000 F5000
G1 X423.0935 Y471.4366 Z-1.0000 F5000
G1 X426.4146 Y468.6660 Z-1.0000 F5000
G1 X428.3779 Y465.3449 Z-1.0000 F5000
G1 X429.0384 Y462.4458 Z-1.0000 F5000
G1 X429.0384 Y455.2898 Z-1.0000 F5000
G1 X429.0384 Y462.4458 Z-1.0000 F5000
G1 X428.3779 Y465.3449 Z-1.0000 F5000
G1 X426.4146 Y468.6660 Z-1.0000 F5000
G1 X423.0935 Y471.4366 Z-1.0000 F5000
G1 X418.4146 Y472.5926 Z-1.0000 F5000
G1 X413.7724 Y471.7485 Z-1.0000 F5000
G1 X410.6164 Y469.5283 Z-1.0000 F5000
G1 X408.7999 Y466.3173 Z-1.0000 F5000
G1 X408.1944 Y462.4458 Z-1.0000 F5000
G1 X408.1944 Y455.2898 Z-1.0000 F5000
G1 X408.1944 Y455.2898 Z10.0000 F9999
G1 X408.1944 Y499.3999 Z10.0000 F9999
G1 X408.1944 Y499.3999 Z-1.0000 F2500
G1 X449.2953 Y515.4549 Z-1.0000 F5000
G1 X408.1944 Y499.3999 Z-1.0000 F5000
G1 X449.2953 Y483.3816 Z-1.0000 F5000
G1 X449.2953 Y483.3816 Z10.0000 F9999
G1 X449.2953 Y472.7027 Z10.0000 F9999
G1 X449.2953 Y472.7027 Z-1.0000 F2500
G1 X429.1485 Y459.4733 Z-1.0000 F5000
G1 X449.2953 Y472.7027 Z-1.0000 F5000
G1 X449.2953 Y472.7027 Z10.0000 F9999
G1 X434.5981 Y509.7118 Z10.0000 F9999
G1 X434.5981 Y509.7118 Z-1.0000 F2500
G1 X434.5981 Y489.0146 Z-1.0000 F5000
G1 X434.5981 Y509.7118 Z-1.0000 F5000
G1 X434.5981 Y509.7118 Z10.0000 F9999
G1 X424.6348 Y556.0788 Z10.0000 F9999
G1 X424.6348 Y556.0788 Z-1.0000 F2500
G1 X424.6348 Y526.8311 Z-1.0000 F5000
G1 X424.6348 Y556.0788 Z-1.0000 F5000
G1 X424.6348 Y556.0788 Z10.0000 F9999
G1 X408.1944 Y582.7760 Z10.0000 F9999
G1 X408.1944 Y582.7760 Z-1.0000 F2500
G1 X449.2953 Y598.8311 Z-1.0000 F5000
G1 X408.1944 Y582.7760 Z-1.0000 F5000
G1 X449.2953 Y566.7577 Z-1.0000 F5000
G1 X449.2953 Y566.7577 Z10.0000 F9999
G1 X434.5981 Y593.0880 Z10.0000 F9999
G1 X434.5981 Y593.0880 Z-1.0000 F2500
G1 X434.5981 Y572.3907 Z-1.0000 F5000
G1 X434.5981 Y593.0880 Z-1.0000 F5000
G1 X434.5981 Y593.0880 Z10.0000 F9999
G1 X442.4696 Y651.3082 Z10.0000 F9999
G1 X442.4696 Y651.3082 Z-1.0000 F2500
G1 X445.5155 Y653.2531 Z-1.0000 F5000
G1 X447.5705 Y655.6751 Z-1.0000 F5000
G1 X448.8182 Y658.7944 Z-1.0000 F5000
G1 X449.2953 Y662.9228 Z-1.0000 F5000
G1 X448.8366 Y667.4182 Z-1.0000 F5000
G1 X447.0935 Y671.2348 Z-1.0000 F5000
G1 X444.1026 Y673.9137 Z-1.0000 F5000
G1 X439.9375 Y675.0329 Z-1.0000 F5000
G1 X435.9375 Y674.5008 Z-1.0000 F5000
G1 X433.2586 Y672.9595 Z-1.0000 F5000
G1 X431.5705 Y670.9228 Z-1.0000 F5000
G1 X430.4696 Y669.0146 Z-1.0000 F5000
G1 X425.7357 Y659.8219 Z-1.0000 F5000
G1 X424.3228 Y657.4549 Z-1.0000 F5000
G1 X422.6714 Y655.6017 Z-1.0000 F5000
G1 X420.4880 Y654.3540 Z-1.0000 F5000
G1 X417.6072 Y653.8403 Z-1.0000 F5000
G1 X414.3228 Y654.3724 Z-1.0000 F5000
G1 X411.2953 Y656.2072 Z-1.0000 F5000
G1 X409.0751 Y659.3449 Z-1.0000 F5000
G1 X408.1944 Y663.7118 Z-1.0000 F5000
G1 X408.8733 Y667.9687 Z-1.0000 F5000
G1 X410.3412 Y670.8127 Z-1.0000 F5000
G1 X412.4880 Y672.9045 Z-1.0000 F5000
G1 X410.3412 Y670.8127 Z-1.0000 F5000
G1 X408.8733 Y667.9687 Z-1.0000 F5000
G1 X408.1944 Y663.7118 Z-1.0000 F5000
G1 X409.0751 Y659.3449 Z-1.0000 F5000
G1 X411.2953 Y656.2072 Z-1.0000 F5000
G1 X414.3228 Y654.3724 Z-1.0000 F5000
G1 X417.6072 Y653.8403 Z-1.0000 F5000
G1 X420.4880 Y654.3540 Z-1.0000 F5000
G1 X422.6714 Y655.6017 Z-1.0000 F5000
G1 X424.3228 Y657.4549 Z-1.0000 F5000
G1 X425.7357 Y659.8219 Z-1.0000 F5000
G1 X430.4696 Y669.0146 Z-1.0000 F5000
G1 X431.5705 Y670.9228 Z-1.0000 F5000
G1 X433.2586 Y672.9595 Z-1.0000 F5000
G1 X435.9375 Y674.5008 Z-1.0000 F5000
G1 X439.9375 Y675.0329 Z-1.0000 F5000
G1 X444.1026 Y673.9137 Z-1.0000 F5000
G1 X447.0935 Y671.2348 Z-1.0000 F5000
G1 X448.8366 Y667.4182 Z-1.0000 F5000
G1 X449.2953 Y662.9228 Z-1.0000 F5000
G1 X448.8182 Y658.7944 Z-1.0000 F5000
G1 X447.5705 Y655.6751 Z-1.0000 F5000
G1 X445.5155 Y653.2531 Z-1.0000 F5000
G1 X445.5155 Y653.2531 Z10.0000 F9999
G1 X398.7999 Y640.5926 Z10.0000 F9999
G1 X398.7999 Y640.5926 Z-1.0000 F2500
G1 X451.6439 Y610.2072 Z-1.0000 F5000
G1 X398.7999 Y640.5926 Z-1.0000 F5000
G1 X398.7999 Y640.5926 Z10.0000 F9999
G1 X408.1944 Y708.7393 Z10.0000 F9999
G1 X408.1944 Y708.7393 Z-1.0000 F2500
G1 X441.5889 Y686.5375 Z-1.0000 F5000
G1 X441.5889 Y715.3449 Z-1.0000 F5000
G1 X441.5889 Y686.5375 Z-1.0000 F5000
G1 X408.1944 Y708.7393 Z-1.0000 F5000
G1 X449.2953 Y708.7393 Z-1.0000 F5000
G1 X449.2953 Y708.7393 Z10.0000 F9999
G1 X449.2953 Y772.3540 Z10.0000 F9999
G1 X449.2953 Y772.3540 Z-1.0000 F2500
G1 X426.4880 Y772.3540 Z-1.0000 F5000
G1 X426.4880 Y788.8127 Z-1.0000 F5000
G1 X426.4880 Y772.3540 Z-1.0000 F5000
G1 X408.1944 Y772.3540 Z-1.0000 F5000
G1 X408.1944 Y790.1155 Z-1.0000 F5000
G1 X408.1944 Y772.3540 Z-1.0000 F5000
G1 X449.2953 Y772.3540 Z-1.0000 F5000
G1 X449.2953 Y790.1155 Z-1.0000 F5000
G1 X449.2953 Y790.1155 Z10.0000 F9999
G1 X428.0843 Y812.5192 Z10.0000 F9999
G1 X428.0843 Y812.5192 Z-1.0000 F2500
G1 X449.2953 Y824.4641 Z-1.0000 F5000
G1 X428.0843 Y812.5192 Z-1.0000 F5000
G1 X408.1944 Y824.4641 Z-1.0000 F5000
G1 X428.0843 Y812.5192 Z-1.0000 F5000
G1 X408.1944 Y800.4458 Z-1.0000 F5000
G1 X428.0843 Y812.5192 Z-1.0000 F5000
G1 X449.2953 Y800.4458 Z-1.0000 F5000
G1 X449.2953 Y800.4458 Z10.0000 F9999
G1 X398.7999 Y756.8494 Z10.0000 F9999
G1 X398.7999 Y756.8494 Z-1.0000 F2500
G1 X451.6439 Y726.4641 Z-1.0000 F5000
G1 X398.7999 Y756.8494 Z-1.0000 F5000
G1 X398.7999 Y756.8494 Z10.0000 F9999
G1 X276.4927 Y772.3540 Z10.0000 F9999
G1 X276.4927 Y772.3540 Z-1.0000 F2500
G1 X253.6853 Y772.3540 Z-1.0000 F5000
G1 X253.6853 Y788.8127 Z-1.0000 F5000
G1 X253.6853 Y772.3540 Z-1.0000 F5000
G1 X235.3917 Y772.3540 Z-1.0000 F5000
G1 X235.3917 Y790.1155 Z-1.0000 F5000
G1 X235.3917 Y772.3540 Z-1.0000 F5000
G1 X276.4927 Y772.3540 Z-1.0000 F5000
G1 X276.4927 Y790.1155 Z-1.0000 F5000
G1 X276.4927 Y790.1155 Z10.0000 F9999
G1 X255.2817 Y812.5192 Z10.0000 F9999
G1 X255.2817 Y812.5192 Z-1.0000 F2500
G1 X276.4927 Y824.4641 Z-1.0000 F5000
G1 X255.2817 Y812.5192 Z-1.0000 F5000
G1 X235.3917 Y824.4641 Z-1.0000 F5000
G1 X255.2817 Y812.5192 Z-1.0000 F5000
G1 X235.3917 Y800.4458 Z-1.0000 F5000
G1 X255.2817 Y812.5192 Z-1.0000 F5000
G1 X276.4927 Y800.4458 Z-1.0000 F5000
G1 X276.4927 Y800.4458 Z10.0000 F9999
G1 X572.1325 Y756.8494 Z10.0000 F9999
G1 X572.1325 Y756.8494 Z-1.0000 F2500
G1 X624.9765 Y726.4641 Z-1.0000 F5000
G1 X572.1325 Y756.8494 Z-1.0000 F5000
G1 X572.1325 Y756.8494 Z10.0000 F9999
G1 X581.5270 Y708.7393 Z10.0000 F9999
G1 X581.5270 Y708.7393 Z-1.0000 F2500
G1 X614.9215 Y686.5375 Z-1.0000 F5000
G1 X614.9215 Y715.3449 Z-1.0000 F5000
G1 X614.9215 Y686.5375 Z-1.0000 F5000
G1 X581.5270 Y708.7393 Z-1.0000 F5000
G1 X622.6279 Y708.7393 Z-1.0000 F5000
G1 X622.6279 Y708.7393 Z10.0000 F9999
G1 X615.8022 Y651.3082 Z10.0000 F9999
G1 X615.8022 Y651.3082 Z-1.0000 F2500
G1 X618.8481 Y653.2531 Z-1.0000 F5000
G1 X620.9031 Y655.6751 Z-1.0000 F5000
G1 X622.1508 Y658.7944 Z-1.0000 F5000
G1 X622.6279 Y662.9228 Z-1.0000 F5000
G1 X622.1692 Y667.4182 Z-1.0000 F5000
G1 X620.4261 Y671.2348 Z-1.0000 F5000
G1 X617.4352 Y673.9137 Z-1.0000 F5000
G1 X613.2701 Y675.0329 Z-1.0000 F5000
G1 X609.2701 Y674.5008 Z-1.0000 F5000
G1 X606.5912 Y672.9595 Z-1.0000 F5000
G1 X604.9031 Y670.9228 Z-1.0000 F5000
G1 X603.8022 Y669.0146 Z-1.0000 F5000
G1 X599.0683 Y659.8219 Z-1.0000 F5000
G1 X597.6554 Y657.4549 Z-1.0000 F5000
G1 X596.0040 Y655.6017 Z-1.0000 F5000
G1 X593.8206 Y654.3540 Z-1.0000 F5000
G1 X590.9398 Y653.8403 Z-1.0000 F5000
G1 X587.6554 Y654.3724 Z-1.0000 F5000
G1 X584.6279 Y656.2072 Z-1.0000 F5000
G1 X582.4077 Y659.3449 Z-1.0000 F5000
G1 X581.5270 Y663.7118 Z-1.0000 F5000
G1 X582.2059 Y667.9687 Z-1.0000 F5000
G1 X583.6738 Y670.8127 Z-1.0000 F5000
G1 X585.8206 Y672.9045 Z-1.0000 F5000
G1 X583.6738 Y670.8127 Z-1.0000 F5000
G1 X582.2059 Y667.9687 Z-1.0000 F5000
G1 X581.5270 Y663.7118 Z-1.0000 F5000
G1 X582.4077 Y659.3449 Z-1.0000 F5000
G1 X584.6279 Y656.2072 Z-1.0000 F5000
G1 X587.6554 Y654.3724 Z-1.0000 F5000
G1 X590.9398 Y653.8403 Z-1.0000 F5000
G1 X593.8206 Y654.3540 Z-1.0000 F5000
G1 X596.0040 Y655.6017 Z-1.0000 F5000
G1 X597.6554 Y657.4549 Z-1.0000 F5000
G1 X599.0683 Y659.8219 Z-1.0000 F5000
G1 X603.8022 Y669.0146 Z-1.0000 F5000
G1 X604.9031 Y670.9228 Z-1.0000 F5000
G1 X606.5912 Y672.9595 Z-1.0000 F5000
G1 X609.2701 Y674.5008 Z-1.0000 F5000
G1 X613.2701 Y675.0329 Z-1.0000 F5000
G1 X617.4352 Y673.9137 Z-1.0000 F5000
G1 X620.4261 Y671.2348 Z-1.0000 F5000
G1 X622.1692 Y667.4182 Z-1.0000 F5000
G1 X622.6279 Y662.9228 Z-1.0000 F5000
G1 X622.1508 Y658.7944 Z-1.0000 F5000
G1 X620.9031 Y655.6751 Z-1.0000 F5000
G1 X618.8481 Y653.2531 Z-1.0000 F5000
G1 X618.8481 Y653.2531 Z10.0000 F9999
G1 X572.1325 Y640.5926 Z10.0000 F9999
G1 X572.1325 Y640.5926 Z-1.0000 F2500
G1 X624.9765 Y610.2072 Z-1.0000 F5000
G1 X572.1325 Y640.5926 Z-1.0000 F5000
G1 X572.1325 Y640.5926 Z10.0000 F9999
G1 X581.5270 Y582.7760 Z10.0000 F9999
G1 X581.5270 Y582.7760 Z-1.0000 F2500
G1 X622.6279 Y598.8311 Z-1.0000 F5000
G1 X581.5270 Y582.7760 Z-1.0000 F5000
G1 X622.6279 Y566.7577 Z-1.0000 F5000
G1 X622.6279 Y566.7577 Z10.0000 F9999
G1 X597.9673 Y556.0788 Z10.0000 F9999
G1 X597.9673 Y556.0788 Z-1.0000 F2500
G1 X597.9673 Y526.8311 Z-1.0000 F5000
G1 X597.9673 Y556.0788 Z-1.0000 F5000
G1 X597.9673 Y556.0788 Z10.0000 F9999
G1 X607.9306 Y593.0880 Z10.0000 F9999
G1 X607.9306 Y593.0880 Z-1.0000 F2500
G1 X607.9306 Y572.3907 Z-1.0000 F5000
G1 X607.9306 Y593.0880 Z-1.0000 F5000
G1 X607.9306 Y593.0880 Z10.0000 F9999
G1 X607.9306 Y509.7118 Z10.0000 F9999
G1 X607.9306 Y509.7118 Z-1.0000 F2500
G1 X607.9306 Y489.0146 Z-1.0000 F5000
G1 X607.9306 Y509.7118 Z-1.0000 F5000
G1 X607.9306 Y509.7118 Z10.0000 F9999
G1 X581.5270 Y499.3999 Z10.0000 F9999
G1 X581.5270 Y499.3999 Z-1.0000 F2500
G1 X622.6279 Y515.4549 Z-1.0000 F5000
G1 X581.5270 Y499.3999 Z-1.0000 F5000
G1 X622.6279 Y483.3816 Z-1.0000 F5000
G1 X622.6279 Y483.3816 Z10.0000 F9999
G1 X622.6279 Y472.7027 Z10.0000 F9999
G1 X622.6279 Y472.7027 Z-1.0000 F2500
G1 X602.4811 Y459.4733 Z-1.0000 F5000
G1 X622.6279 Y472.7027 Z-1.0000 F5000
G1 X622.6279 Y472.7027 Z10.0000 F9999
G1 X622.6279 Y455.2898 Z10.0000 F9999
G1 X622.6279 Y455.2898 Z-1.0000 F2500
G1 X581.5270 Y455.2898 Z-1.0000 F5000
G1 X581.5270 Y462.4458 Z-1.0000 F5000
G1 X582.1325 Y466.3173 Z-1.0000 F5000
G1 X583.9490 Y469.5283 Z-1.0000 F5000
G1 X587.1050 Y471.7485 Z-1.0000 F5000
G1 X591.7472 Y472.5926 Z-1.0000 F5000
G1 X596.4261 Y471.4366 Z-1.0000 F5000
G1 X599.7472 Y468.6660 Z-1.0000 F5000
G1 X601.7105 Y465.3449 Z-1.0000 F5000
G1 X602.3710 Y462.4458 Z-1.0000 F5000
G1 X602.3710 Y455.2898 Z-1.0000 F5000
G1 X602.3710 Y462.4458 Z-1.0000 F5000
G1 X601.7105 Y465.3449 Z-1.0000 F5000
G1 X599.7472 Y468.6660 Z-1.0000 F5000
G1 X596.4261 Y471.4366 Z-1.0000 F5000
G1 X591.7472 Y472.5926 Z-1.0000 F5000
G1 X587.1050 Y471.7485 Z-1.0000 F5000
G1 X583.9490 Y469.5283 Z-1.0000 F5000
G1 X582.1325 Y466.3173 Z-1.0000 F5000
G1 X581.5270 Y462.4458 Z-1.0000 F5000
G1 X581.5270 Y455.2898 Z-1.0000 F5000
G1 X581.5270 Y455.2898 Z10.0000 F9999
G1 X599.8206 Y424.7577 Z10.0000 F9999
G1 X599.8206 Y424.7577 Z-1.0000 F2500
G1 X599.8206 Y439.1981 Z-1.0000 F5000
G1 X599.8206 Y424.7577 Z-1.0000 F5000
G1 X581.5270 Y424.7577 Z-1.0000 F5000
G1 X581.5270 Y439.8770 Z-1.0000 F5000
G1 X581.5270 Y424.7577 Z-1.0000 F5000
G1 X622.6279 Y424.7577 Z-1.0000 F5000
G1 X622.6279 Y424.7577 Z10.0000 F9999
G1 X774.7562 Y424.7577 Z10.0000 F9999
G1 X774.7562 Y424.7577 Z-1.0000 F2500
G1 X774.7562 Y439.1981 Z-1.0000 F5000
G1 X774.7562 Y424.7577 Z-1.0000 F5000
G1 X756.4626 Y424.7577 Z-1.0000 F5000
G1 X756.4626 Y439.8770 Z-1.0000 F5000
G1 X756.4626 Y424.7577 Z-1.0000 F5000
G1 X797.5635 Y424.7577 Z-1.0000 F5000
G1 X797.5635 Y424.7577 Z10.0000 F9999
G1 X797.5635 Y455.2898 Z10.0000 F9999
G1 X797.5635 Y455.2898 Z-1.0000 F2500
G1 X756.4626 Y455.2898 Z-1.0000 F5000
G1 X756.4626 Y462.4458 Z-1.0000 F5000
G1 X757.0681 Y466.3173 Z-1.0000 F5000
G1 X758.8846 Y469.5283 Z-1.0000 F5000
G1 X762.0406 Y471.7485 Z-1.0000 F5000
G1 X766.6828 Y472.5926 Z-1.0000 F5000
G1 X771.3617 Y471.4366 Z-1.0000 F5000
G1 X774.6828 Y468.6660 Z-1.0000 F5000
G1 X776.6461 Y465.3449 Z-1.0000 F5000
G1 X777.3066 Y462.4458 Z-1.0000 F5000
G1 X777.3066 Y455.2898 Z-1.0000 F5000
G1 X777.3066 Y462.4458 Z-1.0000 F5000
G1 X776.6461 Y465.3449 Z-1.0000 F5000
G1 X774.6828 Y468.6660 Z-1.0000 F5000
G1 X771.3617 Y471.4366 Z-1.0000 F5000
G1 X766.6828 Y472.5926 Z-1.0000 F5000
G1 X762.0406 Y471.7485 Z-1.0000 F5000
G1 X758.8846 Y469.5283 Z-1.0000 F5000
G1 X757.0681 Y466.3173 Z-1.0000 F5000
G1 X756.4626 Y462.4458 Z-1.0000 F5000
G1 X756.4626 Y455.2898 Z-1.0000 F5000
G1 X756.4626 Y455.2898 Z10.0000 F9999
G1 X756.4626 Y499.3999 Z10.0000 F9999
G1 X756.4626 Y499.3999 Z-1.0000 F2500
G1 X797.5635 Y515.4549 Z-1.0000 F5000
G1 X756.4626 Y499.3999 Z-1.0000 F5000
G1 X797.5635 Y483.3816 Z-1.0000 F5000
G1 X797.5635 Y483.3816 Z10.0000 F9999
G1 X797.5635 Y472.7027 Z10.0000 F9999
G1 X797.5635 Y472.7027 Z-1.0000 F2500
G1 X777.4167 Y459.4733 Z-1.0000 F5000
G1 X797.5635 Y472.7027 Z-1.0000 F5000
G1 X797.5635 Y472.7027 Z10.0000 F9999
G1 X782.8663 Y509.7118 Z10.0000 F9999
G1 X782.8663 Y509.7118 Z-1.0000 F2500
G1 X782.8663 Y489.0146 Z-1.0000 F5000
G1 X782.8663 Y509.7118 Z-1.0000 F5000
G1 X782.8663 Y509.7118 Z10.0000 F9999
G1 X772.9030 Y556.0788 Z10.0000 F9999
G1 X772.9030 Y556.0788 Z-1.0000 F2500
G1 X772.9030 Y526.8311 Z-1.0000 F5000
G1 X772.9030 Y556.0788 Z-1.0000 F5000
G1 X772.9030 Y556.0788 Z10.0000 F9999
G1 X756.4626 Y582.7760 Z10.0000 F9999
G1 X756.4626 Y582.7760 Z-1.0000 F2500
G1 X797.5635 Y598.8311 Z-1.0000 F5000
G1 X756.4626 Y582.7760 Z-1.0000 F5000
G1 X797.5635 Y566.7577 Z-1.0000 F5000
G1 X797.5635 Y566.7577 Z10.0000 F9999
G1 X782.8663 Y593.0880 Z10.0000 F9999
G1 X782.8663 Y593.0880 Z-1.0000 F2500
G1 X782.8663 Y572.3907 Z-1.0000 F5000
G1 X782.8663 Y593.0880 Z-1.0000 F5000
G1 X782.8663 Y593.0880 Z10.0000 F9999
G1 X790.7378 Y651.3082 Z10.0000 F9999
G1 X790.7378 Y651.3082 Z-1.0000 F2500
G1 X793.7837 Y653.2531 Z-1.0000 F5000
G1 X795.8387 Y655.6751 Z-1.0000 F5000
G1 X797.0864 Y658.7944 Z-1.0000 F5000
G1 X797.5635 Y662.9228 Z-1.0000 F5000
G1 X797.1048 Y667.4182 Z-1.0000 F5000
G1 X795.3617 Y671.2348 Z-1.0000 F5000
G1 X792.3709 Y673.9137 Z-1.0000 F5000
G1 X788.2057 Y675.0329 Z-1.0000 F5000
G1 X784.2057 Y674.5008 Z-1.0000 F5000
G1 X781.5268 Y672.9595 Z-1.0000 F5000
G1 X779.8387 Y670.9228 Z-1.0000 F5000
G1 X778.7378 Y669.0146 Z-1.0000 F5000
G1 X774.0039 Y659.8219 Z-1.0000 F5000
G1 X772.5910 Y657.4549 Z-1.0000 F5000
G1 X770.9397 Y655.6017 Z-1.0000 F5000
G1 X768.7562 Y654.3540 Z-1.0000 F5000
G1 X765.8754 Y653.8403 Z-1.0000 F5000
G1 X762.5910 Y654.3724 Z-1.0000 F5000
G1 X759.5635 Y656.2072 Z-1.0000 F5000
G1 X757.3433 Y659.3449 Z-1.0000 F5000
G1 X756.4626 Y663.7118 Z-1.0000 F5000
G1 X757.1415 Y667.9687 Z-1.0000 F5000
G1 X758.6094 Y670.8127 Z-1.0000 F5000
G1 X760.7562 Y672.9045 Z-1.0000 F5000
G1 X758.6094 Y670.8127 Z-1.0000 F5000
G1 X757.1415 Y667.9687 Z-1.0000 F5000
G1 X756.4626 Y663.7118 Z-1.0000 F5000
G1 X757.3433 Y659.3449 Z-1.0000 F5000
G1 X759.5635 Y656.2072 Z-1.0000 F5000
G1 X762.5910 Y654.3724 Z-1.0000 F5000
G1 X765.8754 Y653.8403 Z-1.0000 F5000
G1 X768.7562 Y654.3540 Z-1.0000 F5000
G1 X770.9397 Y655.6017 Z-1.0000 F5000
G1 X772.5910 Y657.4549 Z-1.0000 F5000
G1 X774.0039 Y659.8219 Z-1.0000 F5000
G1 X778.7378 Y669.0146 Z-1.0000 F5000
G1 X779.8387 Y670.9228 Z-1.0000 F5000
G1 X781.5268 Y672.9595 Z-1.0000 F5000
G1 X784.2057 Y674.5008 Z-1.0000 F5000
G1 X788.2057 Y675.0329 Z-1.0000 F5000
G1 X792.3709 Y673.9137 Z-1.0000 F5000
G1 X795.3617 Y671.2348 Z-1.0000 F5000
G1 X797.1048 Y667.4182 Z-1.0000 F5000
G1 X797.5635 Y662.9228 Z-1.0000 F5000
G1 X797.0864 Y658.7944 Z-1.0000 F5000
G1 X795.8387 Y655.6751 Z-1.0000 F5000
G1 X793.7837 Y653.2531 Z-1.0000 F5000
G1 X793.7837 Y653.2531 Z10.0000 F9999
G1 X747.0681 Y640.5926 Z10.0000 F9999
G1 X747.0681 Y640.5926 Z-1.0000 F2500
G1 X799.9121 Y610.2072 Z-1.0000 F5000
G1 X747.0681 Y640.5926 Z-1.0000 F5000
G1 X747.0681 Y640.5926 Z10.0000 F9999
G1 X756.4626 Y708.7393 Z10.0000 F9999
G1 X756.4626 Y708.7393 Z-1.0000 F2500
G1 X789.8571 Y686.5375 Z-1.0000 F5000
G1 X789.8571 Y715.3449 Z-1.0000 F5000
G1 X789.8571 Y686.5375 Z-1.0000 F5000
G1 X756.4626 Y708.7393 Z-1.0000 F5000
G1 X797.5635 Y708.7393 Z-1.0000 F5000
G1 X797.5635 Y708.7393 Z10.0000 F9999
G1 X797.5635 Y772.3540 Z10.0000 F9999
G1 X797.5635 Y772.3540 Z-1.0000 F2500
G1 X774.7562 Y772.3540 Z-1.0000 F5000
G1 X774.7562 Y788.8127 Z-1.0000 F5000
G1 X774.7562 Y772.3540 Z-1.0000 F5000
G1 X756.4626 Y772.3540 Z-1.0000 F5000
G1 X756.4626 Y790.1155 Z-1.0000 F5000
G1 X756.4626 Y772.3540 Z-1.0000 F5000
G1 X797.5635 Y772.3540 Z-1.0000 F5000
G1 X797.5635 Y790.1155 Z-1.0000 F5000
G1 X797.5635 Y790.1155 Z10.0000 F9999
G1 X776.3525 Y812.5192 Z10.0000 F9999
G1 X776.3525 Y812.5192 Z-1.0000 F2500
G1 X797.5635 Y824.4641 Z-1.0000 F5000
G1 X776.3525 Y812.5192 Z-1.0000 F5000
G1 X756.4626 Y824.4641 Z-1.0000 F5000
G1 X776.3525 Y812.5192 Z-1.0000 F5000
G1 X756.4626 Y800.4458 Z-1.0000 F5000
G1 X776.3525 Y812.5192 Z-1.0000 F5000
G1 X797.5635 Y800.4458 Z-1.0000 F5000
G1 X797.5635 Y800.4458 Z10.0000 F9999
G1 X747.0681 Y756.8494 Z10.0000 F9999
G1 X747.0681 Y756.8494 Z-1.0000 F2500
G1 X799.9121 Y726.4641 Z-1.0000 F5000
G1 X747.0681 Y756.8494 Z-1.0000 F5000
G1 X747.0681 Y756.8494 Z10.0000 F9999
G1 X622.6279 Y772.3540 Z10.0000 F9999
G1 X622.6279 Y772.3540 Z-1.0000 F2500
G1 X599.8206 Y772.3540 Z-1.0000 F5000
G1 X599.8206 Y788.8127 Z-1.0000 F5000
G1 X599.8206 Y772.3540 Z-1.0000 F5000
G1 X581.5270 Y772.3540 Z-1.0000 F5000
G1 X581.5270 Y790.1155 Z-1.0000 F5000
G1 X581.5270 Y772.3540 Z-1.0000 F5000
G1 X622.6279 Y772.3540 Z-1.0000 F5000
G1 X622.6279 Y790.1155 Z-1.0000 F5000
G1 X622.6279 Y790.1155 Z10.0000 F9999
G1 X601.4169 Y812.5192 Z10.0000 F9999
G1 X601.4169 Y812.5192 Z-1.0000 F2500
G1 X622.6279 Y824.4641 Z-1.0000 F5000
G1 X601.4169 Y812.5192 Z-1.0000 F5000
G1 X581.5270 Y824.4641 Z-1.0000 F5000
G1 X601.4169 Y812.5192 Z-1.0000 F5000
G1 X581.5270 Y800.4458 Z-1.0000 F5000
G1 X601.4169 Y812.5192 Z-1.0000 F5000
G1 X622.6279 Y800.4458 Z-1.0000 F5000
G1 X622.6279 Y800.4458 Z10.0000 F9999
G1 X918.3708 Y756.8494 Z10.0000 F9999
G1 X918.3708 Y756.8494 Z-1.0000 F2500
G1 X971.2149 Y726.4641 Z-1.0000 F5000
G1 X918.3708 Y756.8494 Z-1.0000 F5000
G1 X918.3708 Y756.8494 Z10.0000 F9999
G1 X927.7653 Y708.7393 Z10.0000 F9999
G1 X927.7653 Y708.7393 Z-1.0000 F2500
G1 X961.1598 Y686.5375 Z-1.0000 F5000
G1 X961.1598 Y715.3449 Z-1.0000 F5000
G1 X961.1598 Y686.5375 Z-1.0000 F5000
G1 X927.7653 Y708.7393 Z-1.0000 F5000
G1 X968.8663 Y708.7393 Z-1.0000 F5000
G1 X968.8663 Y708.7393 Z10.0000 F9999
G1 X962.0406 Y651.3082 Z10.0000 F9999
G1 X962.0406 Y651.3082 Z-1.0000 F2500
G1 X965.0864 Y653.2531 Z-1.0000 F5000
G1 X967.1415 Y655.6751 Z-1.0000 F5000
G1 X968.3892 Y658.7944 Z-1.0000 F5000
G1 X968.8663 Y662.9228 Z-1.0000 F5000
G1 X968.4075 Y667.4182 Z-1.0000 F5000
G1 X966.6644 Y671.2348 Z-1.0000 F5000
G1 X963.6736 Y673.9137 Z-1.0000 F5000
G1 X959.5085 Y675.0329 Z-1.0000 F5000
G1 X955.5085 Y674.5008 Z-1.0000 F5000
G1 X952.8296 Y672.9595 Z-1.0000 F5000
G1 X951.1415 Y670.9228 Z-1.0000 F5000
G1 X950.0406 Y669.0146 Z-1.0000 F5000
G1 X945.3066 Y659.8219 Z-1.0000 F5000
G1 X943.8938 Y657.4549 Z-1.0000 F5000
G1 X942.2424 Y655.6017 Z-1.0000 F5000
G1 X940.0589 Y654.3540 Z-1.0000 F5000
G1 X937.1782 Y653.8403 Z-1.0000 F5000
G1 X933.8938 Y654.3724 Z-1.0000 F5000
G1 X930.8663 Y656.2072 Z-1.0000 F5000
G1 X928.6461 Y659.3449 Z-1.0000 F5000
G1 X927.7653 Y663.7118 Z-1.0000 F5000
G1 X928.4442 Y667.9687 Z-1.0000 F5000
G1 X929.9121 Y670.8127 Z-1.0000 F5000
G1 X932.0589 Y672.9045 Z-1.0000 F5000
G1 X929.9121 Y670.8127 Z-1.0000 F5000
G1 X928.4442 Y667.9687 Z-1.0000 F5000
G1 X927.7653 Y663.7118 Z-1.0000 F5000
G1 X928.6461 Y659.3449 Z-1.0000 F5000
G1 X930.8663 Y656.2072 Z-1.0000 F5000
G1 X933.8938 Y654.3724 Z-1.0000 F5000
G1 X937.1782 Y653.8403 Z-1.0000 F5000
G1 X940.0589 Y654.3540 Z-1.0000 F5000
G1 X942.2424 Y655.6017 Z-1.0000 F5000
G1 X943.8938 Y657.4549 Z-1.0000 F5000
G1 X945.3066 Y659.8219 Z-1.0000 F5000
G1 X950.0406 Y669.0146 Z-1.0000 F5000
G1 X951.1415 Y670.9228 Z-1.0000 F5000
G1 X952.8296 Y672.9595 Z-1.0000 F5000
G1 X955.5085 Y674.5008 Z-1.0000 F5000
G1 X959.5085 Y675.0329 Z-1.0000 F5000
G1 X963.6736 Y673.9137 Z-1.0000 F5000
G1 X966.6644 Y671.2348 Z-1.0000 F5000
G1 X968.4075 Y667.4182 Z-1.0000 F5000
G1 X968.8663 Y662.9228 Z-1.0000 F5000
G1 X968.3892 Y658.7944 Z-1.0000 F5000
G1 X967.1415 Y655.6751 Z-1.0000 F5000
G1 X965.0864 Y653.2531 Z-1.0000 F5000
G1 X965.0864 Y653.2531 Z10.0000 F9999
G1 X918.3708 Y640.5926 Z10.0000 F9999
G1 X918.3708 Y640.5926 Z-1.0000 F2500
G1 X971.2149 Y610.2072 Z-1.0000 F5000
G1 X918.3708 Y640.5926 Z-1.0000 F5000
G1 X918.3708 Y640.5926 Z10.0000 F9999
G1 X927.7653 Y582.7760 Z10.0000 F9999
G1 X927.7653 Y582.7760 Z-1.0000 F2500
G1 X968.8663 Y598.8311 Z-1.0000 F5000
G1 X927.7653 Y582.7760 Z-1.0000 F5000
G1 X968.8663 Y566.7577 Z-1.0000 F5000
G1 X968.8663 Y566.7577 Z10.0000 F9999
G1 X944.2057 Y556.0788 Z10.0000 F9999
G1 X944.2057 Y556.0788 Z-1.0000 F2500
G1 X944.2057 Y526.8311 Z-1.0000 F5000
G1 X944.2057 Y556.0788 Z-1.0000 F5000
G1 X944.2057 Y556.0788 Z10.0000 F9999
G1 X954.1690 Y593.0880 Z10.0000 F9999
G1 X954.1690 Y593.0880 Z-1.0000 F2500
G1 X954.1690 Y572.3907 Z-1.0000 F5000
G1 X954.1690 Y593.0880 Z-1.0000 F5000
G1 X954.1690 Y593.0880 Z10.0000 F9999
G1 X954.1690 Y509.7118 Z10.0000 F9999
G1 X954.1690 Y509.7118 Z-1.0000 F2500
G1 X954.1690 Y489.0146 Z-1.0000 F5000
G1 X954.1690 Y509.7118 Z-1.0000 F5000
G1 X954.1690 Y509.7118 Z10.0000 F9999
G1 X927.7653 Y499.3999 Z10.0000 F9999
G1 X927.7653 Y499.3999 Z-1.0000 F2500
G1 X968.8663 Y515.4549 Z-1.0000 F5000
G1 X927.7653 Y499.3999 Z-1.0000 F5000
G1 X968.8663 Y483.3816 Z-1.0000 F5000
G1 X968.8663 Y483.3816 Z10.0000 F9999
G1 X968.8663 Y472.7027 Z10.0000 F9999
G1 X968.8663 Y472.7027 Z-1.0000 F2500
G1 X948.7195 Y459.4733 Z-1.0000 F5000
G1 X968.8663 Y472.7027 Z-1.0000 F5000
G1 X968.8663 Y472.7027 Z10.0000 F9999
G1 X968.8663 Y455.2898 Z10.0000 F9999
G1 X968.8663 Y455.2898 Z-1.0000 F2500
G1 X927.7653 Y455.2898 Z-1.0000 F5000
G1 X927.7653 Y462.4458 Z-1.0000 F5000
G1 X928.3708 Y466.3173 Z-1.0000 F5000
G1 X930.1874 Y469.5283 Z-1.0000 F5000
G1 X933.3433 Y471.7485 Z-1.0000 F5000
G1 X937.9855 Y472.5926 Z-1.0000 F5000
G1 X942.6644 Y471.4366 Z-1.0000 F5000
G1 X945.9855 Y468.6660 Z-1.0000 F5000
G1 X947.9488 Y465.3449 Z-1.0000 F5000
G1 X948.6094 Y462.4458 Z-1.0000 F5000
G1 X948.6094 Y455.2898 Z-1.0000 F5000
G1 X948.6094 Y462.4458 Z-1.0000 F5000
G1 X947.9488 Y465.3449 Z-1.0000 F5000
G1 X945.9855 Y468.6660 Z-1.0000 F5000
G1 X942.6644 Y471.4366 Z-1.0000 F5000
G1 X937.9855 Y472.5926 Z-1.0000 F5000
G1 X933.3433 Y471.7485 Z-1.0000 F5000
G1 X930.1874 Y469.5283 Z-1.0000 F5000
G1 X928.3708 Y466.3173 Z-1.0000 F5000
G1 X927.7653 Y462.4458 Z-1.0000 F5000
G1 X927.7653 Y455.2898 Z-1.0000 F5000
G1 X927.7653 Y455.2898 Z10.0000 F9999
G1 X946.0589 Y424.7577 Z10.0000 F9999
G1 X946.0589 Y424.7577 Z-1.0000 F2500
G1 X946.0589 Y439.1981 Z-1.0000 F5000
G1 X946.0589 Y424.7577 Z-1.0000 F5000
G1 X927.7653 Y424.7577 Z-1.0000 F5000
G1 X927.7653 Y439.8770 Z-1.0000 F5000
G1 X927.7653 Y424.7577 Z-1.0000 F5000
G1 X968.8663 Y424.7577 Z-1.0000 F5000
G1 X968.8663 Y424.7577 Z10.0000 F9999
G1 X1115.1425 Y424.7577 Z10.0000 F9999
G1 X1115.1425 Y424.7577 Z-1.0000 F2500
G1 X1115.1425 Y439.1981 Z-1.0000 F5000
G1 X1115.1425 Y424.7577 Z-1.0000 F5000
G1 X1096.8489 Y424.7577 Z-1.0000 F5000
G1 X1096.8489 Y439.8770 Z-1.0000 F5000
G1 X1096.8489 Y424.7577 Z-1.0000 F5000
G1 X1137.9498 Y424.7577 Z-1.0000 F5000
G1 X1137.9498 Y424.7577 Z10.0000 F9999
G1 X1137.9498 Y455.2898 Z10.0000 F9999
G1 X1137.9498 Y455.2898 Z-1.0000 F2500
G1 X1096.8489 Y455.2898 Z-1.0000 F5000
G1 X1096.8489 Y462.4458 Z-1.0000 F5000
G1 X1097.4544 Y466.3173 Z-1.0000 F5000
G1 X1099.2709 Y469.5283 Z-1.0000 F5000
G1 X1102.4269 Y471.7485 Z-1.0000 F5000
G1 X1107.0691 Y472.5926 Z-1.0000 F5000
G1 X1111.7480 Y471.4366 Z-1.0000 F5000
G1 X1115.0691 Y468.6660 Z-1.0000 F5000
G1 X1117.0324 Y465.3449 Z-1.0000 F5000
G1 X1117.6930 Y462.4458 Z-1.0000 F5000
G1 X1117.6930 Y455.2898 Z-1.0000 F5000
G1 X1117.6930 Y462.4458 Z-1.0000 F5000
G1 X1117.0324 Y465.3449 Z-1.0000 F5000
G1 X1115.0691 Y468.6660 Z-1.0000 F5000
G1 X1111.7480 Y471.4366 Z-1.0000 F5000
G1 X1107.0691 Y472.5926 Z-1.0000 F5000
G1 X1102.4269 Y471.7485 Z-1.0000 F5000
G1 X1099.2709 Y469.5283 Z-1.0000 F5000
G1 X1097.4544 Y466.3173 Z-1.0000 F5000
G1 X1096.8489 Y462.4458 Z-1.0000 F5000
G1 X1096.8489 Y455.2898 Z-1.0000 F5000
G1 X1096.8489 Y455.2898 Z10.0000 F9999
G1 X1096.8489 Y499.3999 Z10.0000 F9999
G1 X1096.8489 Y499.3999 Z-1.0000 F2500
G1 X1137.9498 Y515.4549 Z-1.0000 F5000
G1 X1096.8489 Y499.3999 Z-1.0000 F5000
G1 X1137.9498 Y483.3816 Z-1.0000 F5000
G1 X1137.9498 Y483.3816 Z10.0000 F9999
G1 X1137.9498 Y472.7027 Z10.0000 F9999
G1 X1137.9498 Y472.7027 Z-1.0000 F2500
G1 X1117.8031 Y459.4733 Z-1.0000 F5000
G1 X1137.9498 Y472.7027 Z-1.0000 F5000
G1 X1137.9498 Y472.7027 Z10.0000 F9999
G1 X1123.2526 Y509.7118 Z10.0000 F9999
G1 X1123.2526 Y509.7118 Z-1.0000 F2500
G1 X1123.2526 Y489.0146 Z-1.0000 F5000
G1 X1123.2526 Y509.7118 Z-1.0000 F5000
G1 X1123.2526 Y509.7118 Z10.0000 F9999
G1 X1113.2893 Y556.0788 Z10.0000 F9999
G1 X1113.2893 Y556.0788 Z-1.0000 F2500
G1 X1113.2893 Y526.8311 Z-1.0000 F5000
G1 X1113.2893 Y556.0788 Z-1.0000 F5000
G1 X1113.2893 Y556.0788 Z10.0000 F9999
G1 X1096.8489 Y582.7760 Z10.0000 F9999
G1 X1096.8489 Y582.7760 Z-1.0000 F2500
G1 X1137.9498 Y598.8311 Z-1.0000 F5000
G1 X1096.8489 Y582.7760 Z-1.0000 F5000
G1 X1137.9498 Y566.7577 Z-1.0000 F5000
G1 X1137.9498 Y566.7577 Z10.0000 F9999
G1 X1123.2526 Y593.0880 Z10.0000 F9999
G1 X1123.2526 Y593.0880 Z-1.0000 F2500
G1 X1123.2526 Y572.3907 Z-1.0000 F5000
G1 X1123.2526 Y593.0880 Z-1.0000 F5000
G1 X1123.2526 Y593.0880 Z10.0000 F9999
G1 X1131.1242 Y651.3082 Z10.0000 F9999
G1 X1131.1242 Y651.3082 Z-1.0000 F2500
G1 X1134.1700 Y653.2531 Z-1.0000 F5000
G1 X1136.2251 Y655.6751 Z-1.0000 F5000
G1 X1137.4728 Y658.7944 Z-1.0000 F5000
G1 X1137.9498 Y662.9228 Z-1.0000 F5000
G1 X1137.4911 Y667.4182 Z-1.0000 F5000
G1 X1135.7480 Y671.2348 Z-1.0000 F5000
G1 X1132.7572 Y673.9137 Z-1.0000 F5000
G1 X1128.5920 Y675.0329 Z-1.0000 F5000
G1 X1124.5920 Y674.5008 Z-1.0000 F5000
G1 X1121.9131 Y672.9595 Z-1.0000 F5000
G1 X1120.2251 Y670.9228 Z-1.0000 F5000
G1 X1119.1242 Y669.0146 Z-1.0000 F5000
G1 X1114.3902 Y659.8219 Z-1.0000 F5000
G1 X1112.9774 Y657.4549 Z-1.0000 F5000
G1 X1111.3260 Y655.6017 Z-1.0000 F5000
G1 X1109.1425 Y654.3540 Z-1.0000 F5000
G1 X1106.2618 Y653.8403 Z-1.0000 F5000
G1 X1102.9774 Y654.3724 Z-1.0000 F5000
G1 X1099.9498 Y656.2072 Z-1.0000 F5000
G1 X1097.7297 Y659.3449 Z-1.0000 F5000
G1 X1096.8489 Y663.7118 Z-1.0000 F5000
G1 X1097.5278 Y667.9687 Z-1.0000 F5000
G1 X1098.9957 Y670.8127 Z-1.0000 F5000
G1 X1101.1425 Y672.9045 Z-1.0000 F5000
G1 X1098.9957 Y670.8127 Z-1.0000 F5000
G1 X1097.5278 Y667.9687 Z-1.0000 F5000
G1 X1096.8489 Y663.7118 Z-1.0000 F5000
G1 X1097.7297 Y659.3449 Z-1.0000 F5000
G1 X1099.9498 Y656.2072 Z-1.0000 F5000
G1 X1102.9774 Y654.3724 Z-1.0000 F5000
G1 X1106.2618 Y653.8403 Z-1.0000 F5000
G1 X1109.1425 Y654.3540 Z-1.0000 F5000
G1 X1111.3260 Y655.6017 Z-1.0000 F5000
G1 X1112.9774 Y657.4549 Z-1.0000 F5000
G1 X1114.3902 Y659.8219 Z-1.0000 F5000
G1 X1119.1242 Y669.0146 Z-1.0000 F5000
G1 X1120.2251 Y670.9228 Z-1.0000 F5000
G1 X1121.9131 Y672.9595 Z-1.0000 F5000
G1 X1124.5920 Y674.5008 Z-1.0000 F5000
G1 X1128.5920 Y675.0329 Z-1.0000 F5000
G1 X1132.7572 Y673.9137 Z-1.0000 F5000
G1 X1135.7480 Y671.2348 Z-1.0000 F5000
G1 X1137.4911 Y667.4182 Z-1.0000 F5000
G1 X1137.9498 Y662.9228 Z-1.0000 F5000
G1 X1137.4728 Y658.7944 Z-1.0000 F5000
G1 X1136.2251 Y655.6751 Z-1.0000 F5000
G1 X1134.1700 Y653.2531 Z-1.0000 F5000
G1 X1134.1700 Y653.2531 Z10.0000 F9999
G1 X1087.4544 Y640.5926 Z10.0000 F9999
G1 X1087.4544 Y640.5926 Z-1.0000 F2500
G1 X1140.2985 Y610.2072 Z-1.0000 F5000
G1 X1087.4544 Y640.5926 Z-1.0000 F5000
G1 X1087.4544 Y640.5926 Z10.0000 F9999
G1 X1096.8489 Y708.7393 Z10.0000 F9999
G1 X1096.8489 Y708.7393 Z-1.0000 F2500
G1 X1130.2434 Y686.5375 Z-1.0000 F5000
G1 X1130.2434 Y715.3449 Z-1.0000 F5000
G1 X1130.2434 Y686.5375 Z-1.0000 F5000
G1 X1096.8489 Y708.7393 Z-1.0000 F5000
G1 X1137.9498 Y708.7393 Z-1.0000 F5000
G1 X1137.9498 Y708.7393 Z10.0000 F9999
G1 X1137.9498 Y772.3540 Z10.0000 F9999
G1 X1137.9498 Y772.3540 Z-1.0000 F2500
G1 X1115.1425 Y772.3540 Z-1.0000 F5000
G1 X1115.1425 Y788.8127 Z-1.0000 F5000
G1 X1115.1425 Y772.3540 Z-1.0000 F5000
G1 X1096.8489 Y772.3540 Z-1.0000 F5000
G1 X1096.8489 Y790.1155 Z-1.0000 F5000
G1 X1096.8489 Y772.3540 Z-1.0000 F5000
G1 X1137.9498 Y772.3540 Z-1.0000 F5000
G1 X1137.9498 Y790.1155 Z-1.0000 F5000
G1 X1137.9498 Y790.1155 Z10.0000 F9999
G1 X1116.7388 Y812.5192 Z10.0000 F9999
G1 X1116.7388 Y812.5192 Z-1.0000 F2500
G1 X1137.9498 Y824.4641 Z-1.0000 F5000
G1 X1116.7388 Y812.5192 Z-1.0000 F5000
G1 X1096.8489 Y824.4641 Z-1.0000 F5000
G1 X1116.7388 Y812.5192 Z-1.0000 F5000
G1 X1096.8489 Y800.4458 Z-1.0000 F5000
G1 X1116.7388 Y812.5192 Z-1.0000 F5000
G1 X1137.9498 Y800.4458 Z-1.0000 F5000
G1 X1137.9498 Y800.4458 Z10.0000 F9999
G1 X1087.4544 Y756.8494 Z10.0000 F9999
G1 X1087.4544 Y756.8494 Z-1.0000 F2500
G1 X1140.2985 Y726.4641 Z-1.0000 F5000
G1 X1087.4544 Y756.8494 Z-1.0000 F5000
G1 X1087.4544 Y756.8494 Z10.0000 F9999
G1 X968.8663 Y772.3540 Z10.0000 F9999
G1 X968.8663 Y772.3540 Z-1.0000 F2500
G1 X946.0589 Y772.3540 Z-1.0000 F5000
G1 X946.0589 Y788.8127 Z-1.0000 F5000
G1 X946.0589 Y772.3540 Z-1.0000 F5000
G1 X927.7653 Y772.3540 Z-1.0000 F5000
G1 X927.7653 Y790.1155 Z-1.0000 F5000
G1 X927.7653 Y772.3540 Z-1.0000 F5000
G1 X968.8663 Y772.3540 Z-1.0000 F5000
G1 X968.8663 Y790.1155 Z-1.0000 F5000
G1 X968.8663 Y790.1155 Z10.0000 F9999
G1 X947.6552 Y812.5192 Z10.0000 F9999
G1 X947.6552 Y812.5192 Z-1.0000 F2500
G1 X968.8663 Y824.4641 Z-1.0000 F5000
G1 X947.6552 Y812.5192 Z-1.0000 F5000
G1 X927.7653 Y824.4641 Z-1.0000 F5000
G1 X947.6552 Y812.5192 Z-1.0000 F5000
G1 X927.7653 Y800.4458 Z-1.0000 F5000
G1 X947.6552 Y812.5192 Z-1.0000 F5000
G1 X968.8663 Y800.4458 Z-1.0000 F5000
G1 X968.8663 Y800.4458 Z10.0000 F9999
(Tool Number:1) (7.998 mm dia. slot drill)
M3 S9000
G1 X0.0000 Y1961.1457 Z10.0000 F9999
G1 X0.0000 Y1961.1457 Z1.0000 F2500
G1 X38.9711 Y1961.1457 Z-9.5000 F2500
G1 X0.0000 Y1961.1457 Z-20.0000 F2500
G1 X1220.0000 Y1961.1457 Z-20.0000 F5000
G1 X1220.0000 Y1961.1457 Z10.0000 F9999
(Tool Number:1) (7.998 mm dia. slot drill)
M3 S9000
G1 X195.9498 Y779.8984 Z10.0000 F9999
G1 X195.9498 Y779.8984 Z1.0000 F2500
G1 X195.9498 Y740.9273 Z-9.5000 F2500
G1 X195.9498 Y779.8984 Z-20.0000 F2500
G1 X195.9498 Y665.8997 Z-20.0000 F5000
G1 X200.9498 Y665.8997 Z-20.0000 F5000
G1 X200.9498 Y663.8975 Z-20.0000 F5000
G1 X183.2923 Y663.8975 Z-20.0000 F5000
G1 X177.9498 Y658.5551 Z-20.0000 F5000
G1 X177.9498 Y601.2424 Z-20.0000 F5000
G1 X183.2923 Y595.8998 Z-20.0000 F5000
G1 X200.9498 Y595.8998 Z-20.0000 F5000
G1 X200.9498 Y593.8978 Z-20.0000 F5000
G1 X195.9498 Y593.8978 Z-20.0000 F5000
G1 X195.9498 Y365.9003 Z-20.0000 F5000
G1 X200.9498 Y365.9003 Z-20.0000 F5000
G1 X200.9498 Y363.8983 Z-20.0000 F5000
G1 X183.2923 Y363.8983 Z-20.0000 F5000
G1 X177.9498 Y358.5557 Z-20.0000 F5000
G1 X177.9498 Y334.9003 Z-20.0000 F5000
G1 X224.9477 Y334.9003 Z-20.0000 F5000
G1 X224.9477 Y339.9003 Z-20.0000 F5000
G1 X226.9497 Y339.9003 Z-20.0000 F5000
G1 X226.9497 Y319.8983 Z-20.0000 F5000
G1 X224.9477 Y319.8983 Z-20.0000 F5000
G1 X224.9477 Y324.8983 Z-20.0000 F5000
G1 X177.9498 Y324.8983 Z-20.0000 F5000
G1 X177.9498 Y301.2430 Z-20.0000 F5000
G1 X183.2922 Y295.9003 Z-20.0000 F5000
G1 X200.9498 Y295.9003 Z-20.0000 F5000
G1 X200.9498 Y293.8984 Z-20.0000 F5000
G1 X195.9498 Y293.8984 Z-20.0000 F5000
G1 X195.9498 Y234.7848 Z-20.0000 F5000
G1 X195.9498 Y234.7848 Z-10.0000 F9999
G1 X195.9498 Y218.7868 Z-10.0000 F5000
G1 X195.9498 Y218.7868 Z-20.0000 F2500
G1 X195.9498 Y175.9006 Z-20.0000 F5000
G1 X218.9497 Y175.9006 Z-20.0000 F5000
G1 X218.9497 Y173.8988 Z-20.0000 F5000
G1 X213.9497 Y173.8988 Z-20.0000 F5000
G1 X213.9497 Y65.9008 Z-20.0000 F5000
G1 X218.9497 Y65.9008 Z-20.0000 F5000
G1 X218.9497 Y63.8989 Z-20.0000 F5000
G1 X183.2922 Y63.8989 Z-20.0000 F5000
G1 X177.9498 Y58.5561 Z-20.0000 F5000
G1 X177.9498 Y25.9008 Z-20.0000 F5000
G1 X239.5893 Y25.9008 Z-20.0000 F5000
G1 X240.1368 Y25.8214 Z-20.0000 F5000
G1 X240.3964 Y25.7038 Z-20.0000 F5000
G1 X240.6141 Y25.5100 Z-20.0000 F5000
G1 X240.7610 Y25.2658 Z-20.0000 F5000
G1 X240.8298 Y24.9893 Z-20.0000 F5000
G1 X240.8129 Y24.6983 Z-20.0000 F5000
G1 X240.7126 Y24.4316 Z-20.0000 F5000
G1 X240.3814 Y23.9881 Z-20.0000 F5000
G1 X237.4526 Y21.0591 Z-20.0000 F5000
G1 X236.0666 Y19.2032 Z-20.0000 F5000
G1 X235.1488 Y16.6648 Z-20.0000 F5000
G1 X235.0252 Y13.9677 Z-20.0000 F5000
G1 X235.6671 Y11.4403 Z-20.0000 F5000
G1 X237.0007 Y9.1985 Z-20.0000 F5000
G1 X238.9950 Y7.3797 Z-20.0000 F5000
G1 X241.4385 Y6.2335 Z-20.0000 F5000
G1 X243.7313 Y5.9010 Z-20.0000 F5000
G1 X270.1660 Y5.9010 Z-20.0000 F5000
G1 X272.4588 Y6.2335 Z-20.0000 F5000
G1 X274.9023 Y7.3797 Z-20.0000 F5000
G1 X276.8966 Y9.1985 Z-20.0000 F5000
G1 X278.2301 Y11.4403 Z-20.0000 F5000
G1 X278.8721 Y13.9677 Z-20.0000 F5000
G1 X278.7485 Y16.6648 Z-20.0000 F5000
G1 X277.8307 Y19.2032 Z-20.0000 F5000
G1 X276.4447 Y21.0591 Z-20.0000 F5000
G1 X273.5158 Y23.9881 Z-20.0000 F5000
G1 X273.1847 Y24.4316 Z-20.0000 F5000
G1 X273.0844 Y24.6983 Z-20.0000 F5000
G1 X273.0675 Y24.9893 Z-20.0000 F5000
G1 X273.1362 Y25.2658 Z-20.0000 F5000
G1 X273.2832 Y25.5100 Z-20.0000 F5000
G1 X273.5009 Y25.7038 Z-20.0000 F5000
G1 X273.7604 Y25.8214 Z-20.0000 F5000
G1 X274.3079 Y25.9008 Z-20.0000 F5000
G1 X335.9475 Y25.9008 Z-20.0000 F5000
G1 X335.9475 Y58.5561 Z-20.0000 F5000
G1 X330.6050 Y63.8989 Z-20.0000 F5000
G1 X294.9476 Y63.8989 Z-20.0000 F5000
G1 X294.9476 Y65.9008 Z-20.0000 F5000
G1 X299.9476 Y65.9008 Z-20.0000 F5000
G1 X299.9476 Y173.8988 Z-20.0000 F5000
G1 X294.9476 Y173.8988 Z-20.0000 F5000
G1 X294.9476 Y175.9006 Z-20.0000 F5000
G1 X317.9475 Y175.9006 Z-20.0000 F5000
G1 X317.9475 Y217.8492 Z-20.0000 F5000
G1 X317.9475 Y217.8492 Z-10.0000 F9999
G1 X317.9475 Y233.8472 Z-10.0000 F5000
G1 X317.9475 Y233.8472 Z-20.0000 F2500
G1 X317.9475 Y293.8984 Z-20.0000 F5000
G1 X312.9475 Y293.8984 Z-20.0000 F5000
G1 X312.9475 Y295.9003 Z-20.0000 F5000
G1 X330.6050 Y295.9003 Z-20.0000 F5000
G1 X335.9475 Y301.2430 Z-20.0000 F5000
G1 X335.9475 Y324.8983 Z-20.0000 F5000
G1 X288.9496 Y324.8983 Z-20.0000 F5000
G1 X288.9496 Y319.8983 Z-20.0000 F5000
G1 X286.9476 Y319.8983 Z-20.0000 F5000
G1 X286.9476 Y339.9003 Z-20.0000 F5000
G1 X288.9496 Y339.9003 Z-20.0000 F5000
G1 X288.9496 Y334.9003 Z-20.0000 F5000
G1 X335.9475 Y334.9003 Z-20.0000 F5000
G1 X335.9475 Y358.5557 Z-20.0000 F5000
G1 X330.6050 Y363.8983 Z-20.0000 F5000
G1 X312.9475 Y363.8983 Z-20.0000 F5000
G1 X312.9475 Y365.9003 Z-20.0000 F5000
G1 X317.9475 Y365.9003 Z-20.0000 F5000
G1 X317.9475 Y593.8978 Z-20.0000 F5000
G1 X312.9475 Y593.8978 Z-20.0000 F5000
G1 X312.9475 Y595.8998 Z-20.0000 F5000
G1 X330.6050 Y595.8998 Z-20.0000 F5000
G1 X335.9475 Y601.2424 Z-20.0000 F5000
G1 X335.9475 Y658.5551 Z-20.0000 F5000
G1 X330.6049 Y663.8975 Z-20.0000 F5000
G1 X312.9475 Y663.8975 Z-20.0000 F5000
G1 X312.9475 Y665.8997 Z-20.0000 F5000
G1 X317.9475 Y665.8997 Z-20.0000 F5000
G1 X317.9475 Y893.8972 Z-20.0000 F5000
G1 X312.9475 Y893.8972 Z-20.0000 F5000
G1 X312.9475 Y895.8992 Z-20.0000 F5000
G1 X330.6049 Y895.8992 Z-20.0000 F5000
G1 X335.9475 Y901.2416 Z-20.0000 F5000
G1 X335.9475 Y924.8970 Z-20.0000 F5000
G1 X288.9496 Y924.8970 Z-20.0000 F5000
G1 X288.9496 Y919.8970 Z-20.0000 F5000
G1 X286.9476 Y919.8970 Z-20.0000 F5000
G1 X286.9476 Y939.8990 Z-20.0000 F5000
G1 X288.9496 Y939.8990 Z-20.0000 F5000
G1 X288.9496 Y934.8990 Z-20.0000 F5000
G1 X335.9475 Y934.8990 Z-20.0000 F5000
G1 X335.9475 Y958.5545 Z-20.0000 F5000
G1 X330.6050 Y963.8970 Z-20.0000 F5000
G1 X312.9475 Y963.8970 Z-20.0000 F5000
G1 X312.9475 Y965.8990 Z-20.0000 F5000
G1 X317.9475 Y965.8990 Z-20.0000 F5000
G1 X317.9475 Y1083.8968 Z-20.0000 F5000
G1 X294.9476 Y1083.8968 Z-20.0000 F5000
G1 X294.9476 Y1085.8987 Z-20.0000 F5000
G1 X299.9476 Y1085.8987 Z-20.0000 F5000
G1 X299.9476 Y1193.8966 Z-20.0000 F5000
G1 X294.9476 Y1193.8966 Z-20.0000 F5000
G1 X294.9476 Y1195.8986 Z-20.0000 F5000
G1 X330.6050 Y1195.8986 Z-20.0000 F5000
G1 X335.9475 Y1201.2411 Z-20.0000 F5000
G1 X335.9475 Y1258.5539 Z-20.0000 F5000
G1 X330.6050 Y1263.8964 Z-20.0000 F5000
G1 X294.9476 Y1263.8964 Z-20.0000 F5000
G1 X294.9476 Y1265.8984 Z-20.0000 F5000
G1 X299.9476 Y1265.8984 Z-20.0000 F5000
G1 X299.9476 Y1493.8959 Z-20.0000 F5000
G1 X294.9476 Y1493.8959 Z-20.0000 F5000
G1 X294.9476 Y1495.8979 Z-20.0000 F5000
G1 X330.6050 Y1495.8979 Z-20.0000 F5000
G1 X335.9475 Y1501.2405 Z-20.0000 F5000
G1 X335.9475 Y1558.5532 Z-20.0000 F5000
G1 X330.6050 Y1563.8958 Z-20.0000 F5000
G1 X294.9476 Y1563.8958 Z-20.0000 F5000
G1 X294.9476 Y1565.8978 Z-20.0000 F5000
G1 X299.9476 Y1565.8978 Z-20.0000 F5000
G1 X299.9476 Y1793.8953 Z-20.0000 F5000
G1 X294.9476 Y1793.8953 Z-20.0000 F5000
G1 X294.9476 Y1795.8973 Z-20.0000 F5000
G1 X330.6050 Y1795.8973 Z-20.0000 F5000
G1 X335.9475 Y1801.2399 Z-20.0000 F5000
G1 X335.9475 Y1821.9632 Z-20.0000 F5000
G1 X335.9475 Y1821.9632 Z-10.0000 F9999
G1 X335.9475 Y1837.9612 Z-10.0000 F5000
G1 X335.9475 Y1837.9612 Z-20.0000 F2500
G1 X335.9475 Y1858.5526 Z-20.0000 F5000
G1 X330.6050 Y1863.8952 Z-20.0000 F5000
G1 X294.9476 Y1863.8952 Z-20.0000 F5000
G1 X294.9476 Y1865.8972 Z-20.0000 F5000
G1 X299.9476 Y1865.8972 Z-20.0000 F5000
G1 X299.9476 Y1931.8951 Z-20.0000 F5000
G1 X213.9497 Y1931.8951 Z-20.0000 F5000
G1 X213.9497 Y1865.8972 Z-20.0000 F5000
G1 X218.9497 Y1865.8972 Z-20.0000 F5000
G1 X218.9497 Y1863.8952 Z-20.0000 F5000
G1 X183.2923 Y1863.8952 Z-20.0000 F5000
G1 X177.9498 Y1858.5526 Z-20.0000 F5000
G1 X177.9498 Y1837.9612 Z-20.0000 F5000
G1 X177.9498 Y1837.9612 Z-10.0000 F9999
G1 X177.9498 Y1821.9632 Z-10.0000 F5000
G1 X177.9498 Y1821.9632 Z-20.0000 F2500
G1 X177.9498 Y1801.2399 Z-20.0000 F5000
G1 X183.2923 Y1795.8973 Z-20.0000 F5000
G1 X218.9497 Y1795.8973 Z-20.0000 F5000
G1 X218.9497 Y1793.8953 Z-20.0000 F5000
G1 X213.9497 Y1793.8953 Z-20.0000 F5000
G1 X213.9497 Y1565.8978 Z-20.0000 F5000
G1 X218.9497 Y1565.8978 Z-20.0000 F5000
G1 X218.9497 Y1563.8958 Z-20.0000 F5000
G1 X183.2923 Y1563.8958 Z-20.0000 F5000
G1 X177.9498 Y1558.5532 Z-20.0000 F5000
G1 X177.9498 Y1501.2405 Z-20.0000 F5000
G1 X183.2923 Y1495.8979 Z-20.0000 F5000
G1 X218.9497 Y1495.8979 Z-20.0000 F5000
G1 X218.9497 Y1493.8959 Z-20.0000 F5000
G1 X213.9497 Y1493.8959 Z-20.0000 F5000
G1 X213.9497 Y1265.8984 Z-20.0000 F5000
G1 X218.9497 Y1265.8984 Z-20.0000 F5000
G1 X218.9497 Y1263.8964 Z-20.0000 F5000
G1 X183.2923 Y1263.8964 Z-20.0000 F5000
G1 X177.9498 Y1258.5539 Z-20.0000 F5000
G1 X177.9498 Y1201.2411 Z-20.0000 F5000
G1 X183.2923 Y1195.8986 Z-20.0000 F5000
G1 X218.9497 Y1195.8986 Z-20.0000 F5000
G1 X218.9497 Y1193.8966 Z-20.0000 F5000
G1 X213.9497 Y1193.8966 Z-20.0000 F5000
G1 X213.9497 Y1085.8987 Z-20.0000 F5000
G1 X218.9497 Y1085.8987 Z-20.0000 F5000
G1 X218.9497 Y1083.8968 Z-20.0000 F5000
G1 X195.9498 Y1083.8968 Z-20.0000 F5000
G1 X195.9498 Y965.8990 Z-20.0000 F5000
G1 X200.9498 Y965.8990 Z-20.0000 F5000
G1 X200.9498 Y963.8970 Z-20.0000 F5000
G1 X183.2923 Y963.8970 Z-20.0000 F5000
G1 X177.9498 Y958.5545 Z-20.0000 F5000
G1 X177.9498 Y934.8990 Z-20.0000 F5000
G1 X224.9477 Y934.8990 Z-20.0000 F5000
G1 X224.9477 Y939.8990 Z-20.0000 F5000
G1 X226.9497 Y939.8990 Z-20.0000 F5000
G1 X226.9497 Y919.8970 Z-20.0000 F5000
G1 X224.9477 Y919.8970 Z-20.0000 F5000
G1 X224.9477 Y924.8970 Z-20.0000 F5000
G1 X177.9498 Y924.8970 Z-20.0000 F5000
G1 X177.9498 Y901.2416 Z-20.0000 F5000
G1 X183.2923 Y895.8992 Z-20.0000 F5000
G1 X200.9498 Y895.8992 Z-20.0000 F5000
G1 X200.9498 Y893.8972 Z-20.0000 F5000
G1 X195.9498 Y893.8972 Z-20.0000 F5000
G1 X195.9498 Y779.8984 Z-20.0000 F5000
G1 X195.9498 Y779.8984 Z10.0000 F9999
G1 X644.0452 Y1379.8972 Z10.0000 F9999
G1 X644.0452 Y1379.8972 Z1.0000 F2500
G1 X644.0452 Y1418.8683 Z-9.5000 F2500
G1 X644.0452 Y1379.8972 Z-20.0000 F2500
G1 X644.0452 Y1493.8959 Z-20.0000 F5000
G1 X639.0452 Y1493.8959 Z-20.0000 F5000
G1 X639.0452 Y1495.8979 Z-20.0000 F5000
G1 X674.7026 Y1495.8979 Z-20.0000 F5000
G1 X680.0451 Y1501.2405 Z-20.0000 F5000
G1 X680.0451 Y1558.5532 Z-20.0000 F5000
G1 X674.7026 Y1563.8958 Z-20.0000 F5000
G1 X639.0452 Y1563.8958 Z-20.0000 F5000
G1 X639.0452 Y1565.8978 Z-20.0000 F5000
G1 X644.0452 Y1565.8978 Z-20.0000 F5000
G1 X644.0452 Y1793.8953 Z-20.0000 F5000
G1 X639.0452 Y1793.8953 Z-20.0000 F5000
G1 X639.0452 Y1795.8973 Z-20.0000 F5000
G1 X674.7026 Y1795.8973 Z-20.0000 F5000
G1 X680.0451 Y1801.2399 Z-20.0000 F5000
G1 X680.0451 Y1822.3356 Z-20.0000 F5000
G1 X680.0451 Y1822.3356 Z-10.0000 F9999
G1 X680.0451 Y1838.3336 Z-10.0000 F5000
G1 X680.0451 Y1838.3336 Z-20.0000 F2500
G1 X680.0451 Y1858.5526 Z-20.0000 F5000
G1 X674.7026 Y1863.8952 Z-20.0000 F5000
G1 X639.0452 Y1863.8952 Z-20.0000 F5000
G1 X639.0452 Y1865.8972 Z-20.0000 F5000
G1 X644.0452 Y1865.8972 Z-20.0000 F5000
G1 X644.0452 Y1931.8951 Z-20.0000 F5000
G1 X558.0473 Y1931.8951 Z-20.0000 F5000
G1 X558.0473 Y1865.8972 Z-20.0000 F5000
G1 X563.0473 Y1865.8972 Z-20.0000 F5000
G1 X563.0473 Y1863.8952 Z-20.0000 F5000
G1 X527.3899 Y1863.8952 Z-20.0000 F5000
G1 X522.0475 Y1858.5526 Z-20.0000 F5000
G1 X522.0475 Y1838.7060 Z-20.0000 F5000
G1 X522.0475 Y1838.7060 Z-10.0000 F9999
G1 X522.0475 Y1822.7080 Z-10.0000 F5000
G1 X522.0475 Y1822.7080 Z-20.0000 F2500
G1 X522.0475 Y1801.2399 Z-20.0000 F5000
G1 X527.3899 Y1795.8973 Z-20.0000 F5000
G1 X563.0473 Y1795.8973 Z-20.0000 F5000
G1 X563.0473 Y1793.8953 Z-20.0000 F5000
G1 X558.0473 Y1793.8953 Z-20.0000 F5000
G1 X558.0473 Y1565.8978 Z-20.0000 F5000
G1 X563.0473 Y1565.8978 Z-20.0000 F5000
G1 X563.0473 Y1563.8958 Z-20.0000 F5000
G1 X527.3899 Y1563.8958 Z-20.0000 F5000
G1 X522.0475 Y1558.5532 Z-20.0000 F5000
G1 X522.0475 Y1501.2405 Z-20.0000 F5000
G1 X527.3899 Y1495.8979 Z-20.0000 F5000
G1 X563.0473 Y1495.8979 Z-20.0000 F5000
G1 X563.0473 Y1493.8959 Z-20.0000 F5000
G1 X558.0473 Y1493.8959 Z-20.0000 F5000
G1 X558.0473 Y1265.8984 Z-20.0000 F5000
G1 X563.0473 Y1265.8984 Z-20.0000 F5000
G1 X563.0473 Y1263.8964 Z-20.0000 F5000
G1 X527.3899 Y1263.8964 Z-20.0000 F5000
G1 X522.0475 Y1258.5539 Z-20.0000 F5000
G1 X522.0475 Y1201.2411 Z-20.0000 F5000
G1 X527.3899 Y1195.8986 Z-20.0000 F5000
G1 X563.0473 Y1195.8986 Z-20.0000 F5000
G1 X563.0473 Y1193.8966 Z-20.0000 F5000
G1 X558.0473 Y1193.8966 Z-20.0000 F5000
G1 X558.0473 Y1085.8987 Z-20.0000 F5000
G1 X563.0473 Y1085.8987 Z-20.0000 F5000
G1 X563.0473 Y1083.8968 Z-20.0000 F5000
G1 X540.0474 Y1083.8968 Z-20.0000 F5000
G1 X540.0474 Y965.8990 Z-20.0000 F5000
G1 X545.0474 Y965.8990 Z-20.0000 F5000
G1 X545.0474 Y963.8970 Z-20.0000 F5000
G1 X527.3899 Y963.8970 Z-20.0000 F5000
G1 X522.0475 Y958.5545 Z-20.0000 F5000
G1 X522.0475 Y934.8990 Z-20.0000 F5000
G1 X569.0453 Y934.8990 Z-20.0000 F5000
G1 X569.0453 Y939.8990 Z-20.0000 F5000
G1 X571.0473 Y939.8990 Z-20.0000 F5000
G1 X571.0473 Y919.8970 Z-20.0000 F5000
G1 X569.0453 Y919.8970 Z-20.0000 F5000
G1 X569.0453 Y924.8970 Z-20.0000 F5000
G1 X522.0475 Y924.8970 Z-20.0000 F5000
G1 X522.0475 Y901.2416 Z-20.0000 F5000
G1 X527.3900 Y895.8992 Z-20.0000 F5000
G1 X545.0474 Y895.8992 Z-20.0000 F5000
G1 X545.0474 Y893.8972 Z-20.0000 F5000
G1 X540.0474 Y893.8972 Z-20.0000 F5000
G1 X540.0474 Y665.8997 Z-20.0000 F5000
G1 X545.0474 Y665.8997 Z-20.0000 F5000
G1 X545.0474 Y663.8975 Z-20.0000 F5000
G1 X527.3900 Y663.8975 Z-20.0000 F5000
G1 X522.0475 Y658.5551 Z-20.0000 F5000
G1 X522.0475 Y601.2424 Z-20.0000 F5000
G1 X527.3899 Y595.8998 Z-20.0000 F5000
G1 X545.0474 Y595.8998 Z-20.0000 F5000
G1 X545.0474 Y593.8978 Z-20.0000 F5000
G1 X540.0474 Y593.8978 Z-20.0000 F5000
G1 X540.0474 Y365.9003 Z-20.0000 F5000
G1 X545.0474 Y365.9003 Z-20.0000 F5000
G1 X545.0474 Y363.8983 Z-20.0000 F5000
G1 X527.3899 Y363.8983 Z-20.0000 F5000
G1 X522.0475 Y358.5557 Z-20.0000 F5000
G1 X522.0475 Y334.9003 Z-20.0000 F5000
G1 X569.0453 Y334.9003 Z-20.0000 F5000
G1 X569.0453 Y339.9003 Z-20.0000 F5000
G1 X571.0473 Y339.9003 Z-20.0000 F5000
G1 X571.0473 Y319.8983 Z-20.0000 F5000
G1 X569.0453 Y319.8983 Z-20.0000 F5000
G1 X569.0453 Y324.8983 Z-20.0000 F5000
G1 X522.0475 Y324.8983 Z-20.0000 F5000
G1 X522.0475 Y301.2430 Z-20.0000 F5000
G1 X527.3899 Y295.9003 Z-20.0000 F5000
G1 X545.0474 Y295.9003 Z-20.0000 F5000
G1 X545.0474 Y293.8984 Z-20.0000 F5000
G1 X540.0474 Y293.8984 Z-20.0000 F5000
G1 X540.0474 Y231.9718 Z-20.0000 F5000
G1 X540.0474 Y231.9718 Z-10.0000 F9999
G1 X540.0474 Y215.9738 Z-10.0000 F5000
G1 X540.0474 Y215.9738 Z-20.0000 F2500
G1 X540.0474 Y175.9006 Z-20.0000 F5000
G1 X563.0473 Y175.9006 Z-20.0000 F5000
G1 X563.0473 Y173.8988 Z-20.0000 F5000
G1 X558.0473 Y173.8988 Z-20.0000 F5000
G1 X558.0473 Y65.9008 Z-20.0000 F5000
G1 X563.0473 Y65.9008 Z-20.0000 F5000
G1 X563.0473 Y63.8989 Z-20.0000 F5000
G1 X527.3899 Y63.8989 Z-20.0000 F5000
G1 X522.0475 Y58.5561 Z-20.0000 F5000
G1 X522.0475 Y25.9008 Z-20.0000 F5000
G1 X583.6870 Y25.9008 Z-20.0000 F5000
G1 X584.2345 Y25.8214 Z-20.0000 F5000
G1 X584.4940 Y25.7038 Z-20.0000 F5000
G1 X584.7117 Y25.5100 Z-20.0000 F5000
G1 X584.8587 Y25.2658 Z-20.0000 F5000
G1 X584.9274 Y24.9893 Z-20.0000 F5000
G1 X584.9105 Y24.6983 Z-20.0000 F5000
G1 X584.8102 Y24.4316 Z-20.0000 F5000
G1 X584.4791 Y23.9881 Z-20.0000 F5000
G1 X581.5502 Y21.0591 Z-20.0000 F5000
G1 X580.1642 Y19.2032 Z-20.0000 F5000
G1 X579.2464 Y16.6648 Z-20.0000 F5000
G1 X579.1228 Y13.9677 Z-20.0000 F5000
G1 X579.7648 Y11.4403 Z-20.0000 F5000
G1 X581.0983 Y9.1985 Z-20.0000 F5000
G1 X583.0926 Y7.3797 Z-20.0000 F5000
G1 X585.5361 Y6.2335 Z-20.0000 F5000
G1 X587.8289 Y5.9010 Z-20.0000 F5000
G1 X614.2636 Y5.9010 Z-20.0000 F5000
G1 X616.5564 Y6.2335 Z-20.0000 F5000
G1 X619.0000 Y7.3797 Z-20.0000 F5000
G1 X620.9942 Y9.1985 Z-20.0000 F5000
G1 X622.3278 Y11.4403 Z-20.0000 F5000
G1 X622.9697 Y13.9677 Z-20.0000 F5000
G1 X622.8461 Y16.6648 Z-20.0000 F5000
G1 X621.9283 Y19.2032 Z-20.0000 F5000
G1 X620.5423 Y21.0591 Z-20.0000 F5000
G1 X617.6135 Y23.9881 Z-20.0000 F5000
G1 X617.2823 Y24.4316 Z-20.0000 F5000
G1 X617.1820 Y24.6983 Z-20.0000 F5000
G1 X617.1651 Y24.9893 Z-20.0000 F5000
G1 X617.2339 Y25.2658 Z-20.0000 F5000
G1 X617.3808 Y25.5100 Z-20.0000 F5000
G1 X617.5986 Y25.7038 Z-20.0000 F5000
G1 X617.8581 Y25.8214 Z-20.0000 F5000
G1 X618.4056 Y25.9008 Z-20.0000 F5000
G1 X680.0451 Y25.9008 Z-20.0000 F5000
G1 X680.0451 Y58.5561 Z-20.0000 F5000
G1 X674.7027 Y63.8989 Z-20.0000 F5000
G1 X639.0452 Y63.8989 Z-20.0000 F5000
G1 X639.0452 Y65.9008 Z-20.0000 F5000
G1 X644.0452 Y65.9008 Z-20.0000 F5000
G1 X644.0452 Y173.8988 Z-20.0000 F5000
G1 X639.0452 Y173.8988 Z-20.0000 F5000
G1 X639.0452 Y175.9006 Z-20.0000 F5000
G1 X662.0452 Y175.9006 Z-20.0000 F5000
G1 X662.0452 Y212.2232 Z-20.0000 F5000
G1 X662.0452 Y212.2232 Z-10.0000 F9999
G1 X662.0452 Y228.2212 Z-10.0000 F5000
G1 X662.0452 Y228.2212 Z-20.0000 F2500
G1 X662.0452 Y293.8984 Z-20.0000 F5000
G1 X657.0452 Y293.8984 Z-20.0000 F5000
G1 X657.0452 Y295.9003 Z-20.0000 F5000
G1 X674.7027 Y295.9003 Z-20.0000 F5000
G1 X680.0451 Y301.2430 Z-20.0000 F5000
G1 X680.0451 Y324.8983 Z-20.0000 F5000
G1 X633.0472 Y324.8983 Z-20.0000 F5000
G1 X633.0472 Y319.8983 Z-20.0000 F5000
G1 X631.0452 Y319.8983 Z-20.0000 F5000
G1 X631.0452 Y339.9003 Z-20.0000 F5000
G1 X633.0472 Y339.9003 Z-20.0000 F5000
G1 X633.0472 Y334.9003 Z-20.0000 F5000
G1 X680.0451 Y334.9003 Z-20.0000 F5000
G1 X680.0451 Y358.5557 Z-20.0000 F5000
G1 X674.7026 Y363.8983 Z-20.0000 F5000
G1 X657.0452 Y363.8983 Z-20.0000 F5000
G1 X657.0452 Y365.9003 Z-20.0000 F5000
G1 X662.0452 Y365.9003 Z-20.0000 F5000
G1 X662.0452 Y593.8978 Z-20.0000 F5000
G1 X657.0452 Y593.8978 Z-20.0000 F5000
G1 X657.0452 Y595.8998 Z-20.0000 F5000
G1 X674.7026 Y595.8998 Z-20.0000 F5000
G1 X680.0451 Y601.2424 Z-20.0000 F5000
G1 X680.0451 Y658.5551 Z-20.0000 F5000
G1 X674.7026 Y663.8975 Z-20.0000 F5000
G1 X657.0452 Y663.8975 Z-20.0000 F5000
G1 X657.0452 Y665.8997 Z-20.0000 F5000
G1 X662.0452 Y665.8997 Z-20.0000 F5000
G1 X662.0452 Y893.8972 Z-20.0000 F5000
G1 X657.0452 Y893.8972 Z-20.0000 F5000
G1 X657.0452 Y895.8992 Z-20.0000 F5000
G1 X674.7026 Y895.8992 Z-20.0000 F5000
G1 X680.0451 Y901.2416 Z-20.0000 F5000
G1 X680.0451 Y924.8970 Z-20.0000 F5000
G1 X633.0472 Y924.8970 Z-20.0000 F5000
G1 X633.0472 Y919.8970 Z-20.0000 F5000
G1 X631.0452 Y919.8970 Z-20.0000 F5000
G1 X631.0452 Y939.8990 Z-20.0000 F5000
G1 X633.0472 Y939.8990 Z-20.0000 F5000
G1 X633.0472 Y934.8990 Z-20.0000 F5000
G1 X680.0451 Y934.8990 Z-20.0000 F5000
G1 X680.0451 Y958.5545 Z-20.0000 F5000
G1 X674.7026 Y963.8970 Z-20.0000 F5000
G1 X657.0452 Y963.8970 Z-20.0000 F5000
G1 X657.0452 Y965.8990 Z-20.0000 F5000
G1 X662.0452 Y965.8990 Z-20.0000 F5000
G1 X662.0452 Y1083.8968 Z-20.0000 F5000
G1 X639.0452 Y1083.8968 Z-20.0000 F5000
G1 X639.0452 Y1085.8987 Z-20.0000 F5000
G1 X644.0452 Y1085.8987 Z-20.0000 F5000
G1 X644.0452 Y1193.8966 Z-20.0000 F5000
G1 X639.0452 Y1193.8966 Z-20.0000 F5000
G1 X639.0452 Y1195.8986 Z-20.0000 F5000
G1 X674.7026 Y1195.8986 Z-20.0000 F5000
G1 X680.0451 Y1201.2411 Z-20.0000 F5000
G1 X680.0451 Y1258.5539 Z-20.0000 F5000
G1 X674.7026 Y1263.8964 Z-20.0000 F5000
G1 X639.0452 Y1263.8964 Z-20.0000 F5000
G1 X639.0452 Y1265.8984 Z-20.0000 F5000
G1 X644.0452 Y1265.8984 Z-20.0000 F5000
G1 X644.0452 Y1379.8972 Z-20.0000 F5000
G1 X644.0452 Y1379.8972 Z10.0000 F9999
G1 X988.1429 Y1379.8972 Z10.0000 F9999
G1 X988.1429 Y1379.8972 Z1.0000 F2500
G1 X988.1429 Y1418.8683 Z-9.5000 F2500
G1 X988.1429 Y1379.8972 Z-20.0000 F2500
G1 X988.1429 Y1493.8959 Z-20.0000 F5000
G1 X983.1429 Y1493.8959 Z-20.0000 F5000
G1 X983.1429 Y1495.8979 Z-20.0000 F5000
G1 X1018.8003 Y1495.8979 Z-20.0000 F5000
G1 X1024.1427 Y1501.2405 Z-20.0000 F5000
G1 X1024.1427 Y1558.5532 Z-20.0000 F5000
G1 X1018.8003 Y1563.8958 Z-20.0000 F5000
G1 X983.1429 Y1563.8958 Z-20.0000 F5000
G1 X983.1429 Y1565.8978 Z-20.0000 F5000
G1 X988.1429 Y1565.8978 Z-20.0000 F5000
G1 X988.1429 Y1793.8953 Z-20.0000 F5000
G1 X983.1429 Y1793.8953 Z-20.0000 F5000
G1 X983.1429 Y1795.8973 Z-20.0000 F5000
G1 X1018.8003 Y1795.8973 Z-20.0000 F5000
G1 X1024.1427 Y1801.2399 Z-20.0000 F5000
G1 X1024.1427 Y1822.2530 Z-20.0000 F5000
G1 X1024.1427 Y1822.2530 Z-10.0000 F9999
G1 X1024.1427 Y1838.2510 Z-10.0000 F5000
G1 X1024.1427 Y1838.2510 Z-20.0000 F2500
G1 X1024.1427 Y1858.5526 Z-20.0000 F5000
G1 X1018.8003 Y1863.8952 Z-20.0000 F5000
G1 X983.1429 Y1863.8952 Z-20.0000 F5000
G1 X983.1429 Y1865.8972 Z-20.0000 F5000
G1 X988.1429 Y1865.8972 Z-20.0000 F5000
G1 X988.1429 Y1931.8951 Z-20.0000 F5000
G1 X902.1450 Y1931.8951 Z-20.0000 F5000
G1 X902.1450 Y1865.8972 Z-20.0000 F5000
G1 X907.1450 Y1865.8972 Z-20.0000 F5000
G1 X907.1450 Y1863.8952 Z-20.0000 F5000
G1 X871.4876 Y1863.8952 Z-20.0000 F5000
G1 X866.1451 Y1858.5526 Z-20.0000 F5000
G1 X866.1451 Y1837.8786 Z-20.0000 F5000
G1 X866.1451 Y1837.8786 Z-10.0000 F9999
G1 X866.1451 Y1821.8806 Z-10.0000 F5000
G1 X866.1451 Y1821.8806 Z-20.0000 F2500
G1 X866.1451 Y1801.2399 Z-20.0000 F5000
G1 X871.4876 Y1795.8973 Z-20.0000 F5000
G1 X907.1450 Y1795.8973 Z-20.0000 F5000
G1 X907.1450 Y1793.8953 Z-20.0000 F5000
G1 X902.1450 Y1793.8953 Z-20.0000 F5000
G1 X902.1450 Y1565.8978 Z-20.0000 F5000
G1 X907.1450 Y1565.8978 Z-20.0000 F5000
G1 X907.1450 Y1563.8958 Z-20.0000 F5000
G1 X871.4876 Y1563.8958 Z-20.0000 F5000
G1 X866.1451 Y1558.5532 Z-20.0000 F5000
G1 X866.1451 Y1501.2405 Z-20.0000 F5000
G1 X871.4876 Y1495.8979 Z-20.0000 F5000
G1 X907.1450 Y1495.8979 Z-20.0000 F5000
G1 X907.1450 Y1493.8959 Z-20.0000 F5000
G1 X902.1450 Y1493.8959 Z-20.0000 F5000
G1 X902.1450 Y1265.8984 Z-20.0000 F5000
G1 X907.1450 Y1265.8984 Z-20.0000 F5000
G1 X907.1450 Y1263.8964 Z-20.0000 F5000
G1 X871.4876 Y1263.8964 Z-20.0000 F5000
G1 X866.1451 Y1258.5539 Z-20.0000 F5000
G1 X866.1451 Y1201.2411 Z-20.0000 F5000
G1 X871.4876 Y1195.8986 Z-20.0000 F5000
G1 X907.1450 Y1195.8986 Z-20.0000 F5000
G1 X907.1450 Y1193.8966 Z-20.0000 F5000
G1 X902.1450 Y1193.8966 Z-20.0000 F5000
G1 X902.1450 Y1085.8987 Z-20.0000 F5000
G1 X907.1450 Y1085.8987 Z-20.0000 F5000
G1 X907.1450 Y1083.8968 Z-20.0000 F5000
G1 X884.1450 Y1083.8968 Z-20.0000 F5000
G1 X884.1450 Y965.8990 Z-20.0000 F5000
G1 X889.1450 Y965.8990 Z-20.0000 F5000
G1 X889.1450 Y963.8970 Z-20.0000 F5000
G1 X871.4876 Y963.8970 Z-20.0000 F5000
G1 X866.1451 Y958.5545 Z-20.0000 F5000
G1 X866.1451 Y934.8990 Z-20.0000 F5000
G1 X913.1430 Y934.8990 Z-20.0000 F5000
G1 X913.1430 Y939.8990 Z-20.0000 F5000
G1 X915.1450 Y939.8990 Z-20.0000 F5000
G1 X915.1450 Y919.8970 Z-20.0000 F5000
G1 X913.1430 Y919.8970 Z-20.0000 F5000
G1 X913.1430 Y924.8970 Z-20.0000 F5000
G1 X866.1451 Y924.8970 Z-20.0000 F5000
G1 X866.1451 Y901.2416 Z-20.0000 F5000
G1 X871.4876 Y895.8992 Z-20.0000 F5000
G1 X889.1450 Y895.8992 Z-20.0000 F5000
G1 X889.1450 Y893.8972 Z-20.0000 F5000
G1 X884.1450 Y893.8972 Z-20.0000 F5000
G1 X884.1450 Y665.8997 Z-20.0000 F5000
G1 X889.1450 Y665.8997 Z-20.0000 F5000
G1 X889.1450 Y663.8975 Z-20.0000 F5000
G1 X871.4876 Y663.8975 Z-20.0000 F5000
G1 X866.1451 Y658.5551 Z-20.0000 F5000
G1 X866.1451 Y601.2424 Z-20.0000 F5000
G1 X871.4876 Y595.8998 Z-20.0000 F5000
G1 X889.1450 Y595.8998 Z-20.0000 F5000
G1 X889.1450 Y593.8978 Z-20.0000 F5000
G1 X884.1450 Y593.8978 Z-20.0000 F5000
G1 X884.1450 Y365.9003 Z-20.0000 F5000
G1 X889.1450 Y365.9003 Z-20.0000 F5000
G1 X889.1450 Y363.8983 Z-20.0000 F5000
G1 X871.4876 Y363.8983 Z-20.0000 F5000
G1 X866.1451 Y358.5557 Z-20.0000 F5000
G1 X866.1451 Y334.9003 Z-20.0000 F5000
G1 X913.1430 Y334.9003 Z-20.0000 F5000
G1 X913.1430 Y339.9003 Z-20.0000 F5000
G1 X915.1450 Y339.9003 Z-20.0000 F5000
G1 X915.1450 Y319.8983 Z-20.0000 F5000
G1 X913.1430 Y319.8983 Z-20.0000 F5000
G1 X913.1430 Y324.8983 Z-20.0000 F5000
G1 X866.1451 Y324.8983 Z-20.0000 F5000
G1 X866.1451 Y301.2430 Z-20.0000 F5000
G1 X871.4875 Y295.9003 Z-20.0000 F5000
G1 X889.1450 Y295.9003 Z-20.0000 F5000
G1 X889.1450 Y293.8984 Z-20.0000 F5000
G1 X884.1450 Y293.8984 Z-20.0000 F5000
G1 X884.1450 Y232.8667 Z-20.0000 F5000
G1 X884.1450 Y232.8667 Z-10.0000 F9999
G1 X884.1450 Y216.8687 Z-10.0000 F5000
G1 X884.1450 Y216.8687 Z-20.0000 F2500
G1 X884.1450 Y175.9006 Z-20.0000 F5000
G1 X907.1450 Y175.9006 Z-20.0000 F5000
G1 X907.1450 Y173.8988 Z-20.0000 F5000
G1 X902.1450 Y173.8988 Z-20.0000 F5000
G1 X902.1450 Y65.9008 Z-20.0000 F5000
G1 X907.1450 Y65.9008 Z-20.0000 F5000
G1 X907.1450 Y63.8989 Z-20.0000 F5000
G1 X871.4875 Y63.8989 Z-20.0000 F5000
G1 X866.1451 Y58.5561 Z-20.0000 F5000
G1 X866.1451 Y25.9008 Z-20.0000 F5000
G1 X927.7846 Y25.9008 Z-20.0000 F5000
G1 X928.3321 Y25.8214 Z-20.0000 F5000
G1 X928.5916 Y25.7038 Z-20.0000 F5000
G1 X928.8094 Y25.5100 Z-20.0000 F5000
G1 X928.9563 Y25.2658 Z-20.0000 F5000
G1 X929.0251 Y24.9893 Z-20.0000 F5000
G1 X929.0082 Y24.6983 Z-20.0000 F5000
G1 X928.9079 Y24.4316 Z-20.0000 F5000
G1 X928.5767 Y23.9881 Z-20.0000 F5000
G1 X925.6479 Y21.0591 Z-20.0000 F5000
G1 X924.2619 Y19.2032 Z-20.0000 F5000
G1 X923.3441 Y16.6648 Z-20.0000 F5000
G1 X923.2205 Y13.9677 Z-20.0000 F5000
G1 X923.8624 Y11.4403 Z-20.0000 F5000
G1 X925.1960 Y9.1985 Z-20.0000 F5000
G1 X927.1902 Y7.3797 Z-20.0000 F5000
G1 X929.6338 Y6.2335 Z-20.0000 F5000
G1 X931.9266 Y5.9010 Z-20.0000 F5000
G1 X958.3612 Y5.9010 Z-20.0000 F5000
G1 X960.6541 Y6.2335 Z-20.0000 F5000
G1 X963.0976 Y7.3797 Z-20.0000 F5000
G1 X965.0919 Y9.1985 Z-20.0000 F5000
G1 X966.4254 Y11.4403 Z-20.0000 F5000
G1 X967.0674 Y13.9677 Z-20.0000 F5000
G1 X966.9438 Y16.6648 Z-20.0000 F5000
G1 X966.0259 Y19.2032 Z-20.0000 F5000
G1 X964.6399 Y21.0591 Z-20.0000 F5000
G1 X961.7111 Y23.9881 Z-20.0000 F5000
G1 X961.3799 Y24.4316 Z-20.0000 F5000
G1 X961.2797 Y24.6983 Z-20.0000 F5000
G1 X961.2628 Y24.9893 Z-20.0000 F5000
G1 X961.3315 Y25.2658 Z-20.0000 F5000
G1 X961.4785 Y25.5100 Z-20.0000 F5000
G1 X961.6962 Y25.7038 Z-20.0000 F5000
G1 X961.9557 Y25.8214 Z-20.0000 F5000
G1 X962.5032 Y25.9008 Z-20.0000 F5000
G1 X1024.1427 Y25.9008 Z-20.0000 F5000
G1 X1024.1427 Y58.5561 Z-20.0000 F5000
G1 X1018.8003 Y63.8989 Z-20.0000 F5000
G1 X983.1429 Y63.8989 Z-20.0000 F5000
G1 X983.1429 Y65.9008 Z-20.0000 F5000
G1 X988.1429 Y65.9008 Z-20.0000 F5000
G1 X988.1429 Y173.8988 Z-20.0000 F5000
G1 X983.1429 Y173.8988 Z-20.0000 F5000
G1 X983.1429 Y175.9006 Z-20.0000 F5000
G1 X1006.1428 Y175.9006 Z-20.0000 F5000
G1 X1006.1428 Y216.8687 Z-20.0000 F5000
G1 X1006.1428 Y216.8687 Z-10.0000 F9999
G1 X1006.1428 Y232.8667 Z-10.0000 F5000
G1 X1006.1428 Y232.8667 Z-20.0000 F2500
G1 X1006.1428 Y293.8984 Z-20.0000 F5000
G1 X1001.1428 Y293.8984 Z-20.0000 F5000
G1 X1001.1428 Y295.9003 Z-20.0000 F5000
G1 X1018.8003 Y295.9003 Z-20.0000 F5000
G1 X1024.1427 Y301.2430 Z-20.0000 F5000
G1 X1024.1427 Y324.8983 Z-20.0000 F5000
G1 X977.1449 Y324.8983 Z-20.0000 F5000
G1 X977.1449 Y319.8983 Z-20.0000 F5000
G1 X975.1429 Y319.8983 Z-20.0000 F5000
G1 X975.1429 Y339.9003 Z-20.0000 F5000
G1 X977.1449 Y339.9003 Z-20.0000 F5000
G1 X977.1449 Y334.9003 Z-20.0000 F5000
G1 X1024.1427 Y334.9003 Z-20.0000 F5000
G1 X1024.1427 Y358.5557 Z-20.0000 F5000
G1 X1018.8003 Y363.8983 Z-20.0000 F5000
G1 X1001.1428 Y363.8983 Z-20.0000 F5000
G1 X1001.1428 Y365.9003 Z-20.0000 F5000
G1 X1006.1428 Y365.9003 Z-20.0000 F5000
G1 X1006.1428 Y593.8978 Z-20.0000 F5000
G1 X1001.1428 Y593.8978 Z-20.0000 F5000
G1 X1001.1428 Y595.8998 Z-20.0000 F5000
G1 X1018.8003 Y595.8998 Z-20.0000 F5000
G1 X1024.1427 Y601.2424 Z-20.0000 F5000
G1 X1024.1427 Y658.5551 Z-20.0000 F5000
G1 X1018.8002 Y663.8975 Z-20.0000 F5000
G1 X1001.1428 Y663.8975 Z-20.0000 F5000
G1 X1001.1428 Y665.8997 Z-20.0000 F5000
G1 X1006.1428 Y665.8997 Z-20.0000 F5000
G1 X1006.1428 Y893.8972 Z-20.0000 F5000
G1 X1001.1428 Y893.8972 Z-20.0000 F5000
G1 X1001.1428 Y895.8992 Z-20.0000 F5000
G1 X1018.8002 Y895.8992 Z-20.0000 F5000
G1 X1024.1427 Y901.2416 Z-20.0000 F5000
G1 X1024.1427 Y924.8970 Z-20.0000 F5000
G1 X977.1449 Y924.8970 Z-20.0000 F5000
G1 X977.1449 Y919.8970 Z-20.0000 F5000
G1 X975.1429 Y919.8970 Z-20.0000 F5000
G1 X975.1429 Y939.8990 Z-20.0000 F5000
G1 X977.1449 Y939.8990 Z-20.0000 F5000
G1 X977.1449 Y934.8990 Z-20.0000 F5000
G1 X1024.1427 Y934.8990 Z-20.0000 F5000
G1 X1024.1427 Y958.5545 Z-20.0000 F5000
G1 X1018.8003 Y963.8970 Z-20.0000 F5000
G1 X1001.1428 Y963.8970 Z-20.0000 F5000
G1 X1001.1428 Y965.8990 Z-20.0000 F5000
G1 X1006.1428 Y965.8990 Z-20.0000 F5000
G1 X1006.1428 Y1083.8968 Z-20.0000 F5000
G1 X983.1429 Y1083.8968 Z-20.0000 F5000
G1 X983.1429 Y1085.8987 Z-20.0000 F5000
G1 X988.1429 Y1085.8987 Z-20.0000 F5000
G1 X988.1429 Y1193.8966 Z-20.0000 F5000
G1 X983.1429 Y1193.8966 Z-20.0000 F5000
G1 X983.1429 Y1195.8986 Z-20.0000 F5000
G1 X1018.8003 Y1195.8986 Z-20.0000 F5000
G1 X1024.1427 Y1201.2411 Z-20.0000 F5000
G1 X1024.1427 Y1258.5539 Z-20.0000 F5000
G1 X1018.8003 Y1263.8964 Z-20.0000 F5000
G1 X983.1429 Y1263.8964 Z-20.0000 F5000
G1 X983.1429 Y1265.8984 Z-20.0000 F5000
G1 X988.1429 Y1265.8984 Z-20.0000 F5000
G1 X988.1429 Y1379.8972 Z-20.0000 F5000
G1 X988.1429 Y1379.8972 Z10.0000 F9999
G1 X1160.1917 Y1379.8972 Z10.0000 F9999
G1 X1160.1917 Y1379.8972 Z1.0000 F2500
G1 X1160.1917 Y1418.8683 Z-9.5000 F2500
G1 X1160.1917 Y1379.8972 Z-20.0000 F2500
G1 X1160.1917 Y1493.8959 Z-20.0000 F5000
G1 X1155.1917 Y1493.8959 Z-20.0000 F5000
G1 X1155.1917 Y1495.8979 Z-20.0000 F5000
G1 X1190.8491 Y1495.8979 Z-20.0000 F5000
G1 X1196.1915 Y1501.2405 Z-20.0000 F5000
G1 X1196.1915 Y1558.5532 Z-20.0000 F5000
G1 X1190.8491 Y1563.8958 Z-20.0000 F5000
G1 X1155.1917 Y1563.8958 Z-20.0000 F5000
G1 X1155.1917 Y1565.8978 Z-20.0000 F5000
G1 X1160.1917 Y1565.8978 Z-20.0000 F5000
G1 X1160.1917 Y1793.8953 Z-20.0000 F5000
G1 X1155.1917 Y1793.8953 Z-20.0000 F5000
G1 X1155.1917 Y1795.8973 Z-20.0000 F5000
G1 X1190.8491 Y1795.8973 Z-20.0000 F5000
G1 X1196.1915 Y1801.2399 Z-20.0000 F5000
G1 X1196.1915 Y1858.5526 Z-20.0000 F5000
G1 X1190.8491 Y1863.8952 Z-20.0000 F5000
G1 X1155.1917 Y1863.8952 Z-20.0000 F5000
G1 X1155.1917 Y1865.8972 Z-20.0000 F5000
G1 X1160.1917 Y1865.8972 Z-20.0000 F5000
G1 X1160.1917 Y1931.8951 Z-20.0000 F5000
G1 X1074.1938 Y1931.8951 Z-20.0000 F5000
G1 X1074.1938 Y1865.8972 Z-20.0000 F5000
G1 X1079.1938 Y1865.8972 Z-20.0000 F5000
G1 X1079.1938 Y1863.8952 Z-20.0000 F5000
G1 X1043.5364 Y1863.8952 Z-20.0000 F5000
G1 X1038.1939 Y1858.5526 Z-20.0000 F5000
G1 X1038.1939 Y1801.2399 Z-20.0000 F5000
G1 X1043.5364 Y1795.8973 Z-20.0000 F5000
G1 X1079.1938 Y1795.8973 Z-20.0000 F5000
G1 X1079.1938 Y1793.8953 Z-20.0000 F5000
G1 X1074.1938 Y1793.8953 Z-20.0000 F5000
G1 X1074.1938 Y1565.8978 Z-20.0000 F5000
G1 X1079.1938 Y1565.8978 Z-20.0000 F5000
G1 X1079.1938 Y1563.8958 Z-20.0000 F5000
G1 X1043.5364 Y1563.8958 Z-20.0000 F5000
G1 X1038.1939 Y1558.5532 Z-20.0000 F5000
G1 X1038.1939 Y1501.2405 Z-20.0000 F5000
G1 X1043.5364 Y1495.8979 Z-20.0000 F5000
G1 X1079.1938 Y1495.8979 Z-20.0000 F5000
G1 X1079.1938 Y1493.8959 Z-20.0000 F5000
G1 X1074.1938 Y1493.8959 Z-20.0000 F5000
G1 X1074.1938 Y1265.8984 Z-20.0000 F5000
G1 X1079.1938 Y1265.8984 Z-20.0000 F5000
G1 X1079.1938 Y1263.8964 Z-20.0000 F5000
G1 X1043.5364 Y1263.8964 Z-20.0000 F5000
G1 X1038.1939 Y1258.5539 Z-20.0000 F5000
G1 X1038.1939 Y1201.2411 Z-20.0000 F5000
G1 X1043.5364 Y1195.8986 Z-20.0000 F5000
G1 X1079.1938 Y1195.8986 Z-20.0000 F5000
G1 X1079.1938 Y1193.8966 Z-20.0000 F5000
G1 X1074.1938 Y1193.8966 Z-20.0000 F5000
G1 X1074.1938 Y1085.8987 Z-20.0000 F5000
G1 X1079.1938 Y1085.8987 Z-20.0000 F5000
G1 X1079.1938 Y1083.8968 Z-20.0000 F5000
G1 X1056.1939 Y1083.8968 Z-20.0000 F5000
G1 X1056.1939 Y965.8990 Z-20.0000 F5000
G1 X1061.1939 Y965.8990 Z-20.0000 F5000
G1 X1061.1939 Y963.8970 Z-20.0000 F5000
G1 X1043.5364 Y963.8970 Z-20.0000 F5000
G1 X1038.1939 Y958.5545 Z-20.0000 F5000
G1 X1038.1939 Y934.8990 Z-20.0000 F5000
G1 X1085.1918 Y934.8990 Z-20.0000 F5000
G1 X1085.1918 Y939.8990 Z-20.0000 F5000
G1 X1087.1938 Y939.8990 Z-20.0000 F5000
G1 X1087.1938 Y919.8970 Z-20.0000 F5000
G1 X1085.1918 Y919.8970 Z-20.0000 F5000
G1 X1085.1918 Y924.8970 Z-20.0000 F5000
G1 X1038.1939 Y924.8970 Z-20.0000 F5000
G1 X1038.1939 Y901.2416 Z-20.0000 F5000
G1 X1043.5364 Y895.8992 Z-20.0000 F5000
G1 X1061.1939 Y895.8992 Z-20.0000 F5000
G1 X1061.1939 Y893.8972 Z-20.0000 F5000
G1 X1056.1939 Y893.8972 Z-20.0000 F5000
G1 X1056.1939 Y665.8997 Z-20.0000 F5000
G1 X1061.1939 Y665.8997 Z-20.0000 F5000
G1 X1061.1939 Y663.8975 Z-20.0000 F5000
G1 X1043.5364 Y663.8975 Z-20.0000 F5000
G1 X1038.1939 Y658.5551 Z-20.0000 F5000
G1 X1038.1939 Y601.2424 Z-20.0000 F5000
G1 X1043.5364 Y595.8998 Z-20.0000 F5000
G1 X1061.1939 Y595.8998 Z-20.0000 F5000
G1 X1061.1939 Y593.8978 Z-20.0000 F5000
G1 X1056.1939 Y593.8978 Z-20.0000 F5000
G1 X1056.1939 Y365.9003 Z-20.0000 F5000
G1 X1061.1939 Y365.9003 Z-20.0000 F5000
G1 X1061.1939 Y363.8983 Z-20.0000 F5000
G1 X1043.5364 Y363.8983 Z-20.0000 F5000
G1 X1038.1939 Y358.5557 Z-20.0000 F5000
G1 X1038.1939 Y334.9003 Z-20.0000 F5000
G1 X1085.1918 Y334.9003 Z-20.0000 F5000
G1 X1085.1918 Y339.9003 Z-20.0000 F5000
G1 X1087.1938 Y339.9003 Z-20.0000 F5000
G1 X1087.1938 Y319.8983 Z-20.0000 F5000
G1 X1085.1918 Y319.8983 Z-20.0000 F5000
G1 X1085.1918 Y324.8983 Z-20.0000 F5000
G1 X1038.1939 Y324.8983 Z-20.0000 F5000
G1 X1038.1939 Y301.2430 Z-20.0000 F5000
G1 X1043.5363 Y295.9003 Z-20.0000 F5000
G1 X1061.1939 Y295.9003 Z-20.0000 F5000
G1 X1061.1939 Y293.8984 Z-20.0000 F5000
G1 X1056.1939 Y293.8984 Z-20.0000 F5000
G1 X1056.1939 Y175.9006 Z-20.0000 F5000
G1 X1079.1938 Y175.9006 Z-20.0000 F5000
G1 X1079.1938 Y173.8988 Z-20.0000 F5000
G1 X1074.1938 Y173.8988 Z-20.0000 F5000
G1 X1074.1938 Y65.9008 Z-20.0000 F5000
G1 X1079.1938 Y65.9008 Z-20.0000 F5000
G1 X1079.1938 Y63.8989 Z-20.0000 F5000
G1 X1043.5363 Y63.8989 Z-20.0000 F5000
G1 X1038.1939 Y58.5561 Z-20.0000 F5000
G1 X1038.1939 Y25.9008 Z-20.0000 F5000
G1 X1099.8334 Y25.9008 Z-20.0000 F5000
G1 X1100.3809 Y25.8214 Z-20.0000 F5000
G1 X1100.6404 Y25.7038 Z-20.0000 F5000
G1 X1100.8582 Y25.5100 Z-20.0000 F5000
G1 X1101.0051 Y25.2658 Z-20.0000 F5000
G1 X1101.0739 Y24.9893 Z-20.0000 F5000
G1 X1101.0570 Y24.6983 Z-20.0000 F5000
G1 X1100.9567 Y24.4316 Z-20.0000 F5000
G1 X1100.6255 Y23.9881 Z-20.0000 F5000
G1 X1097.6967 Y21.0591 Z-20.0000 F5000
G1 X1096.3107 Y19.2032 Z-20.0000 F5000
G1 X1095.3929 Y16.6648 Z-20.0000 F5000
G1 X1095.2693 Y13.9677 Z-20.0000 F5000
G1 X1095.9112 Y11.4403 Z-20.0000 F5000
G1 X1097.2448 Y9.1985 Z-20.0000 F5000
G1 X1099.2391 Y7.3797 Z-20.0000 F5000
G1 X1101.6826 Y6.2335 Z-20.0000 F5000
G1 X1103.9754 Y5.9010 Z-20.0000 F5000
G1 X1130.4101 Y5.9010 Z-20.0000 F5000
G1 X1132.7029 Y6.2335 Z-20.0000 F5000
G1 X1135.1464 Y7.3797 Z-20.0000 F5000
G1 X1137.1407 Y9.1985 Z-20.0000 F5000
G1 X1138.4742 Y11.4403 Z-20.0000 F5000
G1 X1139.1162 Y13.9677 Z-20.0000 F5000
G1 X1138.9926 Y16.6648 Z-20.0000 F5000
G1 X1138.0748 Y19.2032 Z-20.0000 F5000
G1 X1136.6888 Y21.0591 Z-20.0000 F5000
G1 X1133.7599 Y23.9881 Z-20.0000 F5000
G1 X1133.4288 Y24.4316 Z-20.0000 F5000
G1 X1133.3285 Y24.6983 Z-20.0000 F5000
G1 X1133.3116 Y24.9893 Z-20.0000 F5000
G1 X1133.3803 Y25.2658 Z-20.0000 F5000
G1 X1133.5273 Y25.5100 Z-20.0000 F5000
G1 X1133.7450 Y25.7038 Z-20.0000 F5000
G1 X1134.0045 Y25.8214 Z-20.0000 F5000
G1 X1134.5520 Y25.9008 Z-20.0000 F5000
G1 X1196.1915 Y25.9008 Z-20.0000 F5000
G1 X1196.1915 Y58.5561 Z-20.0000 F5000
G1 X1190.8491 Y63.8989 Z-20.0000 F5000
G1 X1155.1917 Y63.8989 Z-20.0000 F5000
G1 X1155.1917 Y65.9008 Z-20.0000 F5000
G1 X1160.1917 Y65.9008 Z-20.0000 F5000
G1 X1160.1917 Y173.8988 Z-20.0000 F5000
G1 X1155.1917 Y173.8988 Z-20.0000 F5000
G1 X1155.1917 Y175.9006 Z-20.0000 F5000
G1 X1178.1916 Y175.9006 Z-20.0000 F5000
G1 X1178.1916 Y293.8984 Z-20.0000 F5000
G1 X1173.1916 Y293.8984 Z-20.0000 F5000
G1 X1173.1916 Y295.9003 Z-20.0000 F5000
G1 X1190.8491 Y295.9003 Z-20.0000 F5000
G1 X1196.1915 Y301.2430 Z-20.0000 F5000
G1 X1196.1915 Y324.8983 Z-20.0000 F5000
G1 X1149.1937 Y324.8983 Z-20.0000 F5000
G1 X1149.1937 Y319.8983 Z-20.0000 F5000
G1 X1147.1917 Y319.8983 Z-20.0000 F5000
G1 X1147.1917 Y339.9003 Z-20.0000 F5000
G1 X1149.1937 Y339.9003 Z-20.0000 F5000
G1 X1149.1937 Y334.9003 Z-20.0000 F5000
G1 X1196.1915 Y334.9003 Z-20.0000 F5000
G1 X1196.1915 Y358.5557 Z-20.0000 F5000
G1 X1190.8491 Y363.8983 Z-20.0000 F5000
G1 X1173.1916 Y363.8983 Z-20.0000 F5000
G1 X1173.1916 Y365.9003 Z-20.0000 F5000
G1 X1178.1916 Y365.9003 Z-20.0000 F5000
G1 X1178.1916 Y593.8978 Z-20.0000 F5000
G1 X1173.1916 Y593.8978 Z-20.0000 F5000
G1 X1173.1916 Y595.8998 Z-20.0000 F5000
G1 X1190.8491 Y595.8998 Z-20.0000 F5000
G1 X1196.1915 Y601.2424 Z-20.0000 F5000
G1 X1196.1915 Y658.5551 Z-20.0000 F5000
G1 X1190.8490 Y663.8975 Z-20.0000 F5000
G1 X1173.1916 Y663.8975 Z-20.0000 F5000
G1 X1173.1916 Y665.8997 Z-20.0000 F5000
G1 X1178.1916 Y665.8997 Z-20.0000 F5000
G1 X1178.1916 Y893.8972 Z-20.0000 F5000
G1 X1173.1916 Y893.8972 Z-20.0000 F5000
G1 X1173.1916 Y895.8992 Z-20.0000 F5000
G1 X1190.8490 Y895.8992 Z-20.0000 F5000
G1 X1196.1915 Y901.2416 Z-20.0000 F5000
G1 X1196.1915 Y924.8970 Z-20.0000 F5000
G1 X1149.1937 Y924.8970 Z-20.0000 F5000
G1 X1149.1937 Y919.8970 Z-20.0000 F5000
G1 X1147.1917 Y919.8970 Z-20.0000 F5000
G1 X1147.1917 Y939.8990 Z-20.0000 F5000
G1 X1149.1937 Y939.8990 Z-20.0000 F5000
G1 X1149.1937 Y934.8990 Z-20.0000 F5000
G1 X1196.1915 Y934.8990 Z-20.0000 F5000
G1 X1196.1915 Y958.5545 Z-20.0000 F5000
G1 X1190.8491 Y963.8970 Z-20.0000 F5000
G1 X1173.1916 Y963.8970 Z-20.0000 F5000
G1 X1173.1916 Y965.8990 Z-20.0000 F5000
G1 X1178.1916 Y965.8990 Z-20.0000 F5000
G1 X1178.1916 Y1083.8968 Z-20.0000 F5000
G1 X1155.1917 Y1083.8968 Z-20.0000 F5000
G1 X1155.1917 Y1085.8987 Z-20.0000 F5000
G1 X1160.1917 Y1085.8987 Z-20.0000 F5000
G1 X1160.1917 Y1193.8966 Z-20.0000 F5000
G1 X1155.1917 Y1193.8966 Z-20.0000 F5000
G1 X1155.1917 Y1195.8986 Z-20.0000 F5000
G1 X1190.8491 Y1195.8986 Z-20.0000 F5000
G1 X1196.1915 Y1201.2411 Z-20.0000 F5000
G1 X1196.1915 Y1258.5539 Z-20.0000 F5000
G1 X1190.8491 Y1263.8964 Z-20.0000 F5000
G1 X1155.1917 Y1263.8964 Z-20.0000 F5000
G1 X1155.1917 Y1265.8984 Z-20.0000 F5000
G1 X1160.1917 Y1265.8984 Z-20.0000 F5000
G1 X1160.1917 Y1379.8972 Z-20.0000 F5000
G1 X1160.1917 Y1379.8972 Z10.0000 F9999
G1 X23.9009 Y779.8984 Z10.0000 F9999
G1 X23.9009 Y779.8984 Z1.0000 F2500
G1 X23.9009 Y740.9273 Z-9.5000 F2500
G1 X23.9009 Y779.8984 Z-20.0000 F2500
G1 X23.9009 Y665.8997 Z-20.0000 F5000
G1 X28.9009 Y665.8997 Z-20.0000 F5000
G1 X28.9009 Y663.8975 Z-20.0000 F5000
G1 X11.2435 Y663.8975 Z-20.0000 F5000
G1 X5.9010 Y658.5551 Z-20.0000 F5000
G1 X5.9010 Y601.2424 Z-20.0000 F5000
G1 X11.2435 Y595.8998 Z-20.0000 F5000
G1 X28.9009 Y595.8998 Z-20.0000 F5000
G1 X28.9009 Y593.8978 Z-20.0000 F5000
G1 X23.9009 Y593.8978 Z-20.0000 F5000
G1 X23.9009 Y365.9003 Z-20.0000 F5000
G1 X28.9009 Y365.9003 Z-20.0000 F5000
G1 X28.9009 Y363.8983 Z-20.0000 F5000
G1 X11.2435 Y363.8983 Z-20.0000 F5000
G1 X5.9010 Y358.5557 Z-20.0000 F5000
G1 X5.9010 Y334.9003 Z-20.0000 F5000
G1 X52.8989 Y334.9003 Z-20.0000 F5000
G1 X52.8989 Y339.9003 Z-20.0000 F5000
G1 X54.9009 Y339.9003 Z-20.0000 F5000
G1 X54.9009 Y319.8983 Z-20.0000 F5000
G1 X52.8989 Y319.8983 Z-20.0000 F5000
G1 X52.8989 Y324.8983 Z-20.0000 F5000
G1 X5.9010 Y324.8983 Z-20.0000 F5000
G1 X5.9010 Y301.2430 Z-20.0000 F5000
G1 X11.2434 Y295.9003 Z-20.0000 F5000
G1 X28.9009 Y295.9003 Z-20.0000 F5000
G1 X28.9009 Y293.8984 Z-20.0000 F5000
G1 X23.9009 Y293.8984 Z-20.0000 F5000
G1 X23.9009 Y175.9006 Z-20.0000 F5000
G1 X46.9009 Y175.9006 Z-20.0000 F5000
G1 X46.9009 Y173.8988 Z-20.0000 F5000
G1 X41.9009 Y173.8988 Z-20.0000 F5000
G1 X41.9009 Y65.9008 Z-20.0000 F5000
G1 X46.9009 Y65.9008 Z-20.0000 F5000
G1 X46.9009 Y63.8989 Z-20.0000 F5000
G1 X11.2434 Y63.8989 Z-20.0000 F5000
G1 X5.9010 Y58.5561 Z-20.0000 F5000
G1 X5.9010 Y25.9008 Z-20.0000 F5000
G1 X67.5405 Y25.9008 Z-20.0000 F5000
G1 X68.0880 Y25.8214 Z-20.0000 F5000
G1 X68.3475 Y25.7038 Z-20.0000 F5000
G1 X68.5653 Y25.5100 Z-20.0000 F5000
G1 X68.7122 Y25.2658 Z-20.0000 F5000
G1 X68.7810 Y24.9893 Z-20.0000 F5000
G1 X68.7641 Y24.6983 Z-20.0000 F5000
G1 X68.6638 Y24.4316 Z-20.0000 F5000
G1 X68.3326 Y23.9881 Z-20.0000 F5000
G1 X65.4038 Y21.0591 Z-20.0000 F5000
G1 X64.0178 Y19.2032 Z-20.0000 F5000
G1 X63.1000 Y16.6648 Z-20.0000 F5000
G1 X62.9764 Y13.9677 Z-20.0000 F5000
G1 X63.6183 Y11.4403 Z-20.0000 F5000
G1 X64.9519 Y9.1985 Z-20.0000 F5000
G1 X66.9461 Y7.3797 Z-20.0000 F5000
G1 X69.3897 Y6.2335 Z-20.0000 F5000
G1 X71.6825 Y5.9010 Z-20.0000 F5000
G1 X98.1171 Y5.9010 Z-20.0000 F5000
G1 X100.4100 Y6.2335 Z-20.0000 F5000
G1 X102.8535 Y7.3797 Z-20.0000 F5000
G1 X104.8478 Y9.1985 Z-20.0000 F5000
G1 X106.1813 Y11.4403 Z-20.0000 F5000
G1 X106.8233 Y13.9677 Z-20.0000 F5000
G1 X106.6997 Y16.6648 Z-20.0000 F5000
G1 X105.7818 Y19.2032 Z-20.0000 F5000
G1 X104.3959 Y21.0591 Z-20.0000 F5000
G1 X101.4670 Y23.9881 Z-20.0000 F5000
G1 X101.1359 Y24.4316 Z-20.0000 F5000
G1 X101.0356 Y24.6983 Z-20.0000 F5000
G1 X101.0187 Y24.9893 Z-20.0000 F5000
G1 X101.0874 Y25.2658 Z-20.0000 F5000
G1 X101.2344 Y25.5100 Z-20.0000 F5000
G1 X101.4521 Y25.7038 Z-20.0000 F5000
G1 X101.7116 Y25.8214 Z-20.0000 F5000
G1 X102.2591 Y25.9008 Z-20.0000 F5000
G1 X163.8986 Y25.9008 Z-20.0000 F5000
G1 X163.8986 Y58.5561 Z-20.0000 F5000
G1 X158.5562 Y63.8989 Z-20.0000 F5000
G1 X122.8988 Y63.8989 Z-20.0000 F5000
G1 X122.8988 Y65.9008 Z-20.0000 F5000
G1 X127.8988 Y65.9008 Z-20.0000 F5000
G1 X127.8988 Y173.8988 Z-20.0000 F5000
G1 X122.8988 Y173.8988 Z-20.0000 F5000
G1 X122.8988 Y175.9006 Z-20.0000 F5000
G1 X145.8987 Y175.9006 Z-20.0000 F5000
G1 X145.8987 Y293.8984 Z-20.0000 F5000
G1 X140.8987 Y293.8984 Z-20.0000 F5000
G1 X140.8987 Y295.9003 Z-20.0000 F5000
G1 X158.5562 Y295.9003 Z-20.0000 F5000
G1 X163.8986 Y301.2430 Z-20.0000 F5000
G1 X163.8986 Y324.8983 Z-20.0000 F5000
G1 X116.9008 Y324.8983 Z-20.0000 F5000
G1 X116.9008 Y319.8983 Z-20.0000 F5000
G1 X114.8988 Y319.8983 Z-20.0000 F5000
G1 X114.8988 Y339.9003 Z-20.0000 F5000
G1 X116.9008 Y339.9003 Z-20.0000 F5000
G1 X116.9008 Y334.9003 Z-20.0000 F5000
G1 X163.8986 Y334.9003 Z-20.0000 F5000
G1 X163.8986 Y358.5557 Z-20.0000 F5000
G1 X158.5562 Y363.8983 Z-20.0000 F5000
G1 X140.8987 Y363.8983 Z-20.0000 F5000
G1 X140.8987 Y365.9003 Z-20.0000 F5000
G1 X145.8987 Y365.9003 Z-20.0000 F5000
G1 X145.8987 Y593.8978 Z-20.0000 F5000
G1 X140.8987 Y593.8978 Z-20.0000 F5000
G1 X140.8987 Y595.8998 Z-20.0000 F5000
G1 X158.5562 Y595.8998 Z-20.0000 F5000
G1 X163.8986 Y601.2424 Z-20.0000 F5000
G1 X163.8986 Y658.5551 Z-20.0000 F5000
G1 X158.5561 Y663.8975 Z-20.0000 F5000
G1 X140.8987 Y663.8975 Z-20.0000 F5000
G1 X140.8987 Y665.8997 Z-20.0000 F5000
G1 X145.8987 Y665.8997 Z-20.0000 F5000
G1 X145.8987 Y893.8972 Z-20.0000 F5000
G1 X140.8987 Y893.8972 Z-20.0000 F5000
G1 X140.8987 Y895.8992 Z-20.0000 F5000
G1 X158.5561 Y895.8992 Z-20.0000 F5000
G1 X163.8986 Y901.2416 Z-20.0000 F5000
G1 X163.8986 Y924.8970 Z-20.0000 F5000
G1 X116.9008 Y924.8970 Z-20.0000 F5000
G1 X116.9008 Y919.8970 Z-20.0000 F5000
G1 X114.8988 Y919.8970 Z-20.0000 F5000
G1 X114.8988 Y939.8990 Z-20.0000 F5000
G1 X116.9008 Y939.8990 Z-20.0000 F5000
G1 X116.9008 Y934.8990 Z-20.0000 F5000
G1 X163.8986 Y934.8990 Z-20.0000 F5000
G1 X163.8986 Y958.5545 Z-20.0000 F5000
G1 X158.5562 Y963.8970 Z-20.0000 F5000
G1 X140.8987 Y963.8970 Z-20.0000 F5000
G1 X140.8987 Y965.8990 Z-20.0000 F5000
G1 X145.8987 Y965.8990 Z-20.0000 F5000
G1 X145.8987 Y1083.8968 Z-20.0000 F5000
G1 X122.8988 Y1083.8968 Z-20.0000 F5000
G1 X122.8988 Y1085.8987 Z-20.0000 F5000
G1 X127.8988 Y1085.8987 Z-20.0000 F5000
G1 X127.8988 Y1193.8966 Z-20.0000 F5000
G1 X122.8988 Y1193.8966 Z-20.0000 F5000
G1 X122.8988 Y1195.8986 Z-20.0000 F5000
G1 X158.5562 Y1195.8986 Z-20.0000 F5000
G1 X163.8986 Y1201.2411 Z-20.0000 F5000
G1 X163.8986 Y1258.5539 Z-20.0000 F5000
G1 X158.5562 Y1263.8964 Z-20.0000 F5000
G1 X122.8988 Y1263.8964 Z-20.0000 F5000
G1 X122.8988 Y1265.8984 Z-20.0000 F5000
G1 X127.8988 Y1265.8984 Z-20.0000 F5000
G1 X127.8988 Y1493.8959 Z-20.0000 F5000
G1 X122.8988 Y1493.8959 Z-20.0000 F5000
G1 X122.8988 Y1495.8979 Z-20.0000 F5000
G1 X158.5562 Y1495.8979 Z-20.0000 F5000
G1 X163.8986 Y1501.2405 Z-20.0000 F5000
G1 X163.8986 Y1558.5532 Z-20.0000 F5000
G1 X158.5562 Y1563.8958 Z-20.0000 F5000
G1 X122.8988 Y1563.8958 Z-20.0000 F5000
G1 X122.8988 Y1565.8978 Z-20.0000 F5000
G1 X127.8988 Y1565.8978 Z-20.0000 F5000
G1 X127.8988 Y1793.8953 Z-20.0000 F5000
G1 X122.8988 Y1793.8953 Z-20.0000 F5000
G1 X122.8988 Y1795.8973 Z-20.0000 F5000
G1 X158.5562 Y1795.8973 Z-20.0000 F5000
G1 X163.8986 Y1801.2399 Z-20.0000 F5000
G1 X163.8986 Y1858.5526 Z-20.0000 F5000
G1 X158.5562 Y1863.8952 Z-20.0000 F5000
G1 X122.8988 Y1863.8952 Z-20.0000 F5000
G1 X122.8988 Y1865.8972 Z-20.0000 F5000
G1 X127.8988 Y1865.8972 Z-20.0000 F5000
G1 X127.8988 Y1931.8951 Z-20.0000 F5000
G1 X41.9009 Y1931.8951 Z-20.0000 F5000
G1 X41.9009 Y1865.8972 Z-20.0000 F5000
G1 X46.9009 Y1865.8972 Z-20.0000 F5000
G1 X46.9009 Y1863.8952 Z-20.0000 F5000
G1 X11.2435 Y1863.8952 Z-20.0000 F5000
G1 X5.9010 Y1858.5526 Z-20.0000 F5000
G1 X5.9010 Y1801.2399 Z-20.0000 F5000
G1 X11.2435 Y1795.8973 Z-20.0000 F5000
G1 X46.9009 Y1795.8973 Z-20.0000 F5000
G1 X46.9009 Y1793.8953 Z-20.0000 F5000
G1 X41.9009 Y1793.8953 Z-20.0000 F5000
G1 X41.9009 Y1565.8978 Z-20.0000 F5000
G1 X46.9009 Y1565.8978 Z-20.0000 F5000
G1 X46.9009 Y1563.8958 Z-20.0000 F5000
G1 X11.2435 Y1563.8958 Z-20.0000 F5000
G1 X5.9010 Y1558.5532 Z-20.0000 F5000
G1 X5.9010 Y1501.2405 Z-20.0000 F5000
G1 X11.2435 Y1495.8979 Z-20.0000 F5000
G1 X46.9009 Y1495.8979 Z-20.0000 F5000
G1 X46.9009 Y1493.8959 Z-20.0000 F5000
G1 X41.9009 Y1493.8959 Z-20.0000 F5000
G1 X41.9009 Y1265.8984 Z-20.0000 F5000
G1 X46.9009 Y1265.8984 Z-20.0000 F5000
G1 X46.9009 Y1263.8964 Z-20.0000 F5000
G1 X11.2435 Y1263.8964 Z-20.0000 F5000
G1 X5.9010 Y1258.5539 Z-20.0000 F5000
G1 X5.9010 Y1201.2411 Z-20.0000 F5000
G1 X11.2435 Y1195.8986 Z-20.0000 F5000
G1 X46.9009 Y1195.8986 Z-20.0000 F5000
G1 X46.9009 Y1193.8966 Z-20.0000 F5000
G1 X41.9009 Y1193.8966 Z-20.0000 F5000
G1 X41.9009 Y1085.8987 Z-20.0000 F5000
G1 X46.9009 Y1085.8987 Z-20.0000 F5000
G1 X46.9009 Y1083.8968 Z-20.0000 F5000
G1 X23.9009 Y1083.8968 Z-20.0000 F5000
G1 X23.9009 Y965.8990 Z-20.0000 F5000
G1 X28.9009 Y965.8990 Z-20.0000 F5000
G1 X28.9009 Y963.8970 Z-20.0000 F5000
G1 X11.2435 Y963.8970 Z-20.0000 F5000
G1 X5.9010 Y958.5545 Z-20.0000 F5000
G1 X5.9010 Y934.8990 Z-20.0000 F5000
G1 X52.8989 Y934.8990 Z-20.0000 F5000
G1 X52.8989 Y939.8990 Z-20.0000 F5000
G1 X54.9009 Y939.8990 Z-20.0000 F5000
G1 X54.9009 Y919.8970 Z-20.0000 F5000
G1 X52.8989 Y919.8970 Z-20.0000 F5000
G1 X52.8989 Y924.8970 Z-20.0000 F5000
G1 X5.9010 Y924.8970 Z-20.0000 F5000
G1 X5.9010 Y901.2416 Z-20.0000 F5000
G1 X11.2435 Y895.8992 Z-20.0000 F5000
G1 X28.9009 Y895.8992 Z-20.0000 F5000
G1 X28.9009 Y893.8972 Z-20.0000 F5000
G1 X23.9009 Y893.8972 Z-20.0000 F5000
G1 X23.9009 Y779.8984 Z-20.0000 F5000
G1 X23.9009 Y779.8984 Z10.0000 F9999
G1 X367.9986 Y779.8984 Z10.0000 F9999
G1 X367.9986 Y779.8984 Z1.0000 F2500
G1 X367.9986 Y740.9273 Z-9.5000 F2500
G1 X367.9986 Y779.8984 Z-20.0000 F2500
G1 X367.9986 Y665.8997 Z-20.0000 F5000
G1 X372.9986 Y665.8997 Z-20.0000 F5000
G1 X372.9986 Y663.8975 Z-20.0000 F5000
G1 X355.3412 Y663.8975 Z-20.0000 F5000
G1 X349.9986 Y658.5551 Z-20.0000 F5000
G1 X349.9986 Y601.2424 Z-20.0000 F5000
G1 X355.3411 Y595.8998 Z-20.0000 F5000
G1 X372.9986 Y595.8998 Z-20.0000 F5000
G1 X372.9986 Y593.8978 Z-20.0000 F5000
G1 X367.9986 Y593.8978 Z-20.0000 F5000
G1 X367.9986 Y365.9003 Z-20.0000 F5000
G1 X372.9986 Y365.9003 Z-20.0000 F5000
G1 X372.9986 Y363.8983 Z-20.0000 F5000
G1 X355.3411 Y363.8983 Z-20.0000 F5000
G1 X349.9986 Y358.5557 Z-20.0000 F5000
G1 X349.9986 Y334.9003 Z-20.0000 F5000
G1 X396.9965 Y334.9003 Z-20.0000 F5000
G1 X396.9965 Y339.9003 Z-20.0000 F5000
G1 X398.9985 Y339.9003 Z-20.0000 F5000
G1 X398.9985 Y319.8983 Z-20.0000 F5000
G1 X396.9965 Y319.8983 Z-20.0000 F5000
G1 X396.9965 Y324.8983 Z-20.0000 F5000
G1 X349.9986 Y324.8983 Z-20.0000 F5000
G1 X349.9986 Y301.2430 Z-20.0000 F5000
G1 X355.3411 Y295.9003 Z-20.0000 F5000
G1 X372.9986 Y295.9003 Z-20.0000 F5000
G1 X372.9986 Y293.8984 Z-20.0000 F5000
G1 X367.9986 Y293.8984 Z-20.0000 F5000
G1 X367.9986 Y175.9006 Z-20.0000 F5000
G1 X390.9985 Y175.9006 Z-20.0000 F5000
G1 X390.9985 Y173.8988 Z-20.0000 F5000
G1 X385.9985 Y173.8988 Z-20.0000 F5000
G1 X385.9985 Y65.9008 Z-20.0000 F5000
G1 X390.9985 Y65.9008 Z-20.0000 F5000
G1 X390.9985 Y63.8989 Z-20.0000 F5000
G1 X355.3411 Y63.8989 Z-20.0000 F5000
G1 X349.9986 Y58.5561 Z-20.0000 F5000
G1 X349.9986 Y25.9008 Z-20.0000 F5000
G1 X411.6381 Y25.9008 Z-20.0000 F5000
G1 X412.1857 Y25.8214 Z-20.0000 F5000
G1 X412.4452 Y25.7038 Z-20.0000 F5000
G1 X412.6629 Y25.5100 Z-20.0000 F5000
G1 X412.8099 Y25.2658 Z-20.0000 F5000
G1 X412.8786 Y24.9893 Z-20.0000 F5000
G1 X412.8617 Y24.6983 Z-20.0000 F5000
G1 X412.7614 Y24.4316 Z-20.0000 F5000
G1 X412.4302 Y23.9881 Z-20.0000 F5000
G1 X409.5014 Y21.0591 Z-20.0000 F5000
G1 X408.1154 Y19.2032 Z-20.0000 F5000
G1 X407.1976 Y16.6648 Z-20.0000 F5000
G1 X407.0740 Y13.9677 Z-20.0000 F5000
G1 X407.7159 Y11.4403 Z-20.0000 F5000
G1 X409.0495 Y9.1985 Z-20.0000 F5000
G1 X411.0438 Y7.3797 Z-20.0000 F5000
G1 X413.4873 Y6.2335 Z-20.0000 F5000
G1 X415.7801 Y5.9010 Z-20.0000 F5000
G1 X442.2148 Y5.9010 Z-20.0000 F5000
G1 X444.5076 Y6.2335 Z-20.0000 F5000
G1 X446.9511 Y7.3797 Z-20.0000 F5000
G1 X448.9454 Y9.1985 Z-20.0000 F5000
G1 X450.2790 Y11.4403 Z-20.0000 F5000
G1 X450.9209 Y13.9677 Z-20.0000 F5000
G1 X450.7973 Y16.6648 Z-20.0000 F5000
G1 X449.8795 Y19.2032 Z-20.0000 F5000
G1 X448.4935 Y21.0591 Z-20.0000 F5000
G1 X445.5647 Y23.9881 Z-20.0000 F5000
G1 X445.2335 Y24.4316 Z-20.0000 F5000
G1 X445.1332 Y24.6983 Z-20.0000 F5000
G1 X445.1163 Y24.9893 Z-20.0000 F5000
G1 X445.1851 Y25.2658 Z-20.0000 F5000
G1 X445.3320 Y25.5100 Z-20.0000 F5000
G1 X445.5497 Y25.7038 Z-20.0000 F5000
G1 X445.8093 Y25.8214 Z-20.0000 F5000
G1 X446.3568 Y25.9008 Z-20.0000 F5000
G1 X507.9963 Y25.9008 Z-20.0000 F5000
G1 X507.9963 Y58.5561 Z-20.0000 F5000
G1 X502.6538 Y63.8989 Z-20.0000 F5000
G1 X466.9964 Y63.8989 Z-20.0000 F5000
G1 X466.9964 Y65.9008 Z-20.0000 F5000
G1 X471.9964 Y65.9008 Z-20.0000 F5000
G1 X471.9964 Y173.8988 Z-20.0000 F5000
G1 X466.9964 Y173.8988 Z-20.0000 F5000
G1 X466.9964 Y175.9006 Z-20.0000 F5000
G1 X489.9963 Y175.9006 Z-20.0000 F5000
G1 X489.9963 Y293.8984 Z-20.0000 F5000
G1 X484.9963 Y293.8984 Z-20.0000 F5000
G1 X484.9963 Y295.9003 Z-20.0000 F5000
G1 X502.6538 Y295.9003 Z-20.0000 F5000
G1 X507.9963 Y301.2430 Z-20.0000 F5000
G1 X507.9963 Y324.8983 Z-20.0000 F5000
G1 X460.9984 Y324.8983 Z-20.0000 F5000
G1 X460.9984 Y319.8983 Z-20.0000 F5000
G1 X458.9964 Y319.8983 Z-20.0000 F5000
G1 X458.9964 Y339.9003 Z-20.0000 F5000
G1 X460.9984 Y339.9003 Z-20.0000 F5000
G1 X460.9984 Y334.9003 Z-20.0000 F5000
G1 X507.9963 Y334.9003 Z-20.0000 F5000
G1 X507.9963 Y358.5557 Z-20.0000 F5000
G1 X502.6538 Y363.8983 Z-20.0000 F5000
G1 X484.9963 Y363.8983 Z-20.0000 F5000
G1 X484.9963 Y365.9003 Z-20.0000 F5000
G1 X489.9963 Y365.9003 Z-20.0000 F5000
G1 X489.9963 Y593.8978 Z-20.0000 F5000
G1 X484.9963 Y593.8978 Z-20.0000 F5000
G1 X484.9963 Y595.8998 Z-20.0000 F5000
G1 X502.6538 Y595.8998 Z-20.0000 F5000
G1 X507.9963 Y601.2424 Z-20.0000 F5000
G1 X507.9963 Y658.5551 Z-20.0000 F5000
G1 X502.6537 Y663.8975 Z-20.0000 F5000
G1 X484.9963 Y663.8975 Z-20.0000 F5000
G1 X484.9963 Y665.8997 Z-20.0000 F5000
G1 X489.9963 Y665.8997 Z-20.0000 F5000
G1 X489.9963 Y893.8972 Z-20.0000 F5000
G1 X484.9963 Y893.8972 Z-20.0000 F5000
G1 X484.9963 Y895.8992 Z-20.0000 F5000
G1 X502.6537 Y895.8992 Z-20.0000 F5000
G1 X507.9963 Y901.2416 Z-20.0000 F5000
G1 X507.9963 Y924.8970 Z-20.0000 F5000
G1 X460.9984 Y924.8970 Z-20.0000 F5000
G1 X460.9984 Y919.8970 Z-20.0000 F5000
G1 X458.9964 Y919.8970 Z-20.0000 F5000
G1 X458.9964 Y939.8990 Z-20.0000 F5000
G1 X460.9984 Y939.8990 Z-20.0000 F5000
G1 X460.9984 Y934.8990 Z-20.0000 F5000
G1 X507.9963 Y934.8990 Z-20.0000 F5000
G1 X507.9963 Y958.5545 Z-20.0000 F5000
G1 X502.6538 Y963.8970 Z-20.0000 F5000
G1 X484.9963 Y963.8970 Z-20.0000 F5000
G1 X484.9963 Y965.8990 Z-20.0000 F5000
G1 X489.9963 Y965.8990 Z-20.0000 F5000
G1 X489.9963 Y1083.8968 Z-20.0000 F5000
G1 X466.9964 Y1083.8968 Z-20.0000 F5000
G1 X466.9964 Y1085.8987 Z-20.0000 F5000
G1 X471.9964 Y1085.8987 Z-20.0000 F5000
G1 X471.9964 Y1193.8966 Z-20.0000 F5000
G1 X466.9964 Y1193.8966 Z-20.0000 F5000
G1 X466.9964 Y1195.8986 Z-20.0000 F5000
G1 X502.6538 Y1195.8986 Z-20.0000 F5000
G1 X507.9963 Y1201.2411 Z-20.0000 F5000
G1 X507.9963 Y1258.5539 Z-20.0000 F5000
G1 X502.6538 Y1263.8964 Z-20.0000 F5000
G1 X466.9964 Y1263.8964 Z-20.0000 F5000
G1 X466.9964 Y1265.8984 Z-20.0000 F5000
G1 X471.9964 Y1265.8984 Z-20.0000 F5000
G1 X471.9964 Y1493.8959 Z-20.0000 F5000
G1 X466.9964 Y1493.8959 Z-20.0000 F5000
G1 X466.9964 Y1495.8979 Z-20.0000 F5000
G1 X502.6538 Y1495.8979 Z-20.0000 F5000
G1 X507.9963 Y1501.2405 Z-20.0000 F5000
G1 X507.9963 Y1558.5532 Z-20.0000 F5000
G1 X502.6538 Y1563.8958 Z-20.0000 F5000
G1 X466.9964 Y1563.8958 Z-20.0000 F5000
G1 X466.9964 Y1565.8978 Z-20.0000 F5000
G1 X471.9964 Y1565.8978 Z-20.0000 F5000
G1 X471.9964 Y1793.8953 Z-20.0000 F5000
G1 X466.9964 Y1793.8953 Z-20.0000 F5000
G1 X466.9964 Y1795.8973 Z-20.0000 F5000
G1 X502.6538 Y1795.8973 Z-20.0000 F5000
G1 X507.9963 Y1801.2399 Z-20.0000 F5000
G1 X507.9963 Y1858.5526 Z-20.0000 F5000
G1 X502.6538 Y1863.8952 Z-20.0000 F5000
G1 X466.9964 Y1863.8952 Z-20.0000 F5000
G1 X466.9964 Y1865.8972 Z-20.0000 F5000
G1 X471.9964 Y1865.8972 Z-20.0000 F5000
G1 X471.9964 Y1931.8951 Z-20.0000 F5000
G1 X385.9985 Y1931.8951 Z-20.0000 F5000
G1 X385.9985 Y1865.8972 Z-20.0000 F5000
G1 X390.9985 Y1865.8972 Z-20.0000 F5000
G1 X390.9985 Y1863.8952 Z-20.0000 F5000
G1 X355.3411 Y1863.8952 Z-20.0000 F5000
G1 X349.9986 Y1858.5526 Z-20.0000 F5000
G1 X349.9986 Y1801.2399 Z-20.0000 F5000
G1 X355.3411 Y1795.8973 Z-20.0000 F5000
G1 X390.9985 Y1795.8973 Z-20.0000 F5000
G1 X390.9985 Y1793.8953 Z-20.0000 F5000
G1 X385.9985 Y1793.8953 Z-20.0000 F5000
G1 X385.9985 Y1565.8978 Z-20.0000 F5000
G1 X390.9985 Y1565.8978 Z-20.0000 F5000
G1 X390.9985 Y1563.8958 Z-20.0000 F5000
G1 X355.3411 Y1563.8958 Z-20.0000 F5000
G1 X349.9986 Y1558.5532 Z-20.0000 F5000
G1 X349.9986 Y1501.2405 Z-20.0000 F5000
G1 X355.3411 Y1495.8979 Z-20.0000 F5000
G1 X390.9985 Y1495.8979 Z-20.0000 F5000
G1 X390.9985 Y1493.8959 Z-20.0000 F5000
G1 X385.9985 Y1493.8959 Z-20.0000 F5000
G1 X385.9985 Y1265.8984 Z-20.0000 F5000
G1 X390.9985 Y1265.8984 Z-20.0000 F5000
G1 X390.9985 Y1263.8964 Z-20.0000 F5000
G1 X355.3411 Y1263.8964 Z-20.0000 F5000
G1 X349.9986 Y1258.5539 Z-20.0000 F5000
G1 X349.9986 Y1201.2411 Z-20.0000 F5000
G1 X355.3411 Y1195.8986 Z-20.0000 F5000
G1 X390.9985 Y1195.8986 Z-20.0000 F5000
G1 X390.9985 Y1193.8966 Z-20.0000 F5000
G1 X385.9985 Y1193.8966 Z-20.0000 F5000
G1 X385.9985 Y1085.8987 Z-20.0000 F5000
G1 X390.9985 Y1085.8987 Z-20.0000 F5000
G1 X390.9985 Y1083.8968 Z-20.0000 F5000
G1 X367.9986 Y1083.8968 Z-20.0000 F5000
G1 X367.9986 Y965.8990 Z-20.0000 F5000
G1 X372.9986 Y965.8990 Z-20.0000 F5000
G1 X372.9986 Y963.8970 Z-20.0000 F5000
G1 X355.3411 Y963.8970 Z-20.0000 F5000
G1 X349.9986 Y958.5545 Z-20.0000 F5000
G1 X349.9986 Y934.8990 Z-20.0000 F5000
G1 X396.9965 Y934.8990 Z-20.0000 F5000
G1 X396.9965 Y939.8990 Z-20.0000 F5000
G1 X398.9985 Y939.8990 Z-20.0000 F5000
G1 X398.9985 Y919.8970 Z-20.0000 F5000
G1 X396.9965 Y919.8970 Z-20.0000 F5000
G1 X396.9965 Y924.8970 Z-20.0000 F5000
G1 X349.9986 Y924.8970 Z-20.0000 F5000
G1 X349.9986 Y901.2416 Z-20.0000 F5000
G1 X355.3412 Y895.8992 Z-20.0000 F5000
G1 X372.9986 Y895.8992 Z-20.0000 F5000
G1 X372.9986 Y893.8972 Z-20.0000 F5000
G1 X367.9986 Y893.8972 Z-20.0000 F5000
G1 X367.9986 Y779.8984 Z-20.0000 F5000
G1 X367.9986 Y779.8984 Z10.0000 F9999
G1 X816.0940 Y1379.8972 Z10.0000 F9999
G1 X816.0940 Y1379.8972 Z1.0000 F2500
G1 X816.0940 Y1418.8683 Z-9.5000 F2500
G1 X816.0940 Y1379.8972 Z-20.0000 F2500
G1 X816.0940 Y1493.8959 Z-20.0000 F5000
G1 X811.0940 Y1493.8959 Z-20.0000 F5000
G1 X811.0940 Y1495.8979 Z-20.0000 F5000
G1 X846.7514 Y1495.8979 Z-20.0000 F5000
G1 X852.0939 Y1501.2405 Z-20.0000 F5000
G1 X852.0939 Y1558.5532 Z-20.0000 F5000
G1 X846.7514 Y1563.8958 Z-20.0000 F5000
G1 X811.0940 Y1563.8958 Z-20.0000 F5000
G1 X811.0940 Y1565.8978 Z-20.0000 F5000
G1 X816.0940 Y1565.8978 Z-20.0000 F5000
G1 X816.0940 Y1793.8953 Z-20.0000 F5000
G1 X811.0940 Y1793.8953 Z-20.0000 F5000
G1 X811.0940 Y1795.8973 Z-20.0000 F5000
G1 X846.7514 Y1795.8973 Z-20.0000 F5000
G1 X852.0939 Y1801.2399 Z-20.0000 F5000
G1 X852.0939 Y1858.5526 Z-20.0000 F5000
G1 X846.7514 Y1863.8952 Z-20.0000 F5000
G1 X811.0940 Y1863.8952 Z-20.0000 F5000
G1 X811.0940 Y1865.8972 Z-20.0000 F5000
G1 X816.0940 Y1865.8972 Z-20.0000 F5000
G1 X816.0940 Y1931.8951 Z-20.0000 F5000
G1 X730.0962 Y1931.8951 Z-20.0000 F5000
G1 X730.0962 Y1865.8972 Z-20.0000 F5000
G1 X735.0962 Y1865.8972 Z-20.0000 F5000
G1 X735.0962 Y1863.8952 Z-20.0000 F5000
G1 X699.4388 Y1863.8952 Z-20.0000 F5000
G1 X694.0963 Y1858.5526 Z-20.0000 F5000
G1 X694.0963 Y1801.2399 Z-20.0000 F5000
G1 X699.4388 Y1795.8973 Z-20.0000 F5000
G1 X735.0962 Y1795.8973 Z-20.0000 F5000
G1 X735.0962 Y1793.8953 Z-20.0000 F5000
G1 X730.0962 Y1793.8953 Z-20.0000 F5000
G1 X730.0962 Y1565.8978 Z-20.0000 F5000
G1 X735.0962 Y1565.8978 Z-20.0000 F5000
G1 X735.0962 Y1563.8958 Z-20.0000 F5000
G1 X699.4388 Y1563.8958 Z-20.0000 F5000
G1 X694.0963 Y1558.5532 Z-20.0000 F5000
G1 X694.0963 Y1501.2405 Z-20.0000 F5000
G1 X699.4388 Y1495.8979 Z-20.0000 F5000
G1 X735.0962 Y1495.8979 Z-20.0000 F5000
G1 X735.0962 Y1493.8959 Z-20.0000 F5000
G1 X730.0962 Y1493.8959 Z-20.0000 F5000
G1 X730.0962 Y1265.8984 Z-20.0000 F5000
G1 X735.0962 Y1265.8984 Z-20.0000 F5000
G1 X735.0962 Y1263.8964 Z-20.0000 F5000
G1 X699.4388 Y1263.8964 Z-20.0000 F5000
G1 X694.0963 Y1258.5539 Z-20.0000 F5000
G1 X694.0963 Y1201.2411 Z-20.0000 F5000
G1 X699.4388 Y1195.8986 Z-20.0000 F5000
G1 X735.0962 Y1195.8986 Z-20.0000 F5000
G1 X735.0962 Y1193.8966 Z-20.0000 F5000
G1 X730.0962 Y1193.8966 Z-20.0000 F5000
G1 X730.0962 Y1085.8987 Z-20.0000 F5000
G1 X735.0962 Y1085.8987 Z-20.0000 F5000
G1 X735.0962 Y1083.8968 Z-20.0000 F5000
G1 X712.0962 Y1083.8968 Z-20.0000 F5000
G1 X712.0962 Y965.8990 Z-20.0000 F5000
G1 X717.0962 Y965.8990 Z-20.0000 F5000
G1 X717.0962 Y963.8970 Z-20.0000 F5000
G1 X699.4388 Y963.8970 Z-20.0000 F5000
G1 X694.0963 Y958.5545 Z-20.0000 F5000
G1 X694.0963 Y934.8990 Z-20.0000 F5000
G1 X741.0942 Y934.8990 Z-20.0000 F5000
G1 X741.0942 Y939.8990 Z-20.0000 F5000
G1 X743.0962 Y939.8990 Z-20.0000 F5000
G1 X743.0962 Y919.8970 Z-20.0000 F5000
G1 X741.0942 Y919.8970 Z-20.0000 F5000
G1 X741.0942 Y924.8970 Z-20.0000 F5000
G1 X694.0963 Y924.8970 Z-20.0000 F5000
G1 X694.0963 Y901.2416 Z-20.0000 F5000
G1 X699.4388 Y895.8992 Z-20.0000 F5000
G1 X717.0962 Y895.8992 Z-20.0000 F5000
G1 X717.0962 Y893.8972 Z-20.0000 F5000
G1 X712.0962 Y893.8972 Z-20.0000 F5000
G1 X712.0962 Y665.8997 Z-20.0000 F5000
G1 X717.0962 Y665.8997 Z-20.0000 F5000
G1 X717.0962 Y663.8975 Z-20.0000 F5000
G1 X699.4388 Y663.8975 Z-20.0000 F5000
G1 X694.0963 Y658.5551 Z-20.0000 F5000
G1 X694.0963 Y601.2424 Z-20.0000 F5000
G1 X699.4388 Y595.8998 Z-20.0000 F5000
G1 X717.0962 Y595.8998 Z-20.0000 F5000
G1 X717.0962 Y593.8978 Z-20.0000 F5000
G1 X712.0962 Y593.8978 Z-20.0000 F5000
G1 X712.0962 Y365.9003 Z-20.0000 F5000
G1 X717.0962 Y365.9003 Z-20.0000 F5000
G1 X717.0962 Y363.8983 Z-20.0000 F5000
G1 X699.4388 Y363.8983 Z-20.0000 F5000
G1 X694.0963 Y358.5557 Z-20.0000 F5000
G1 X694.0963 Y334.9003 Z-20.0000 F5000
G1 X741.0942 Y334.9003 Z-20.0000 F5000
G1 X741.0942 Y339.9003 Z-20.0000 F5000
