(plotsheet 2n3_nested_153 sheets_final v1_0_sheet 42 to 55_S42.0_6 screws_CC8 - stepover 1mm)
(Material Size) (X=1220.000, Y=2440.000, Z=21.000)
(LinuxCNC_NoArcs_MM_TC_medium_50um_G1_verbose.con)
G90 G80 G21 G49
G64 P0.050
M6 T1
(Tool Number:1) (7.998 mm dia. slot drill)
G43 H1 G0Z30.0000
M3 S19000
G04 P10
G1 X145.3819 Y126.9873 Z10.0000 F9999
G1 X145.3819 Y126.9873 Z2.0000 F9999
G1 X145.3819 Y126.9873 Z-2.0000 F2000
G1 X145.3819 Y126.9873 Z10.0000 F9999
G1 X1084.1089 Y126.9873 Z10.0000 F9999
G1 X1084.1089 Y126.9873 Z2.0000 F9999
G1 X1084.1089 Y126.9873 Z-2.0000 F2000
G1 X1084.1089 Y126.9873 Z10.0000 F9999
G1 X742.4399 Y1923.3380 Z10.0000 F9999
G1 X742.4399 Y1923.3380 Z2.0000 F9999
G1 X742.4399 Y1923.3380 Z-2.0000 F2000
G1 X742.4399 Y1923.3380 Z10.0000 F9999
G1 X913.2744 Y2268.4583 Z10.0000 F9999
G1 X913.2744 Y2268.4583 Z2.0000 F9999
G1 X913.2744 Y2268.4583 Z-2.0000 F2000
G1 X913.2744 Y2268.4583 Z10.0000 F9999
G1 X171.2659 Y2275.3606 Z10.0000 F9999
G1 X171.2659 Y2275.3606 Z2.0000 F9999
G1 X171.2659 Y2275.3606 Z-2.0000 F2000
G1 X171.2659 Y2275.3606 Z10.0000 F9999
G1 X198.2444 Y1922.3571 Z10.0000 F9999
G1 X198.2444 Y1922.3571 Z2.0000 F9999
G1 X198.2444 Y1922.3571 Z-2.0000 F2000
G1 X198.2444 Y1922.3571 Z10.0000 F9999
G1 X1900.0000 Y2800.0000 Z80.0000 F9999
G1 Z80.0000 F9999
G1 X1900.0000 Y2800.0000 F9999
M5
M30
