(plotsheet 2n3_nested_153 sheets_final v1_0_sheet 80_S80.0_10 screws_CC8 - stepover 1mm)
(Material Size) (X=1220.000, Y=2440.000, Z=21.000)
(LinuxCNC_NoArcs_MM_TC_medium_50um_G1_verbose.con)
G90 G80 G21 G49
G64 P0.050
M6 T1
(Tool Number:1) (7.998 mm dia. slot drill)
G43 H1 G0Z80.0000
M3 S19000
G04 P10
G1 X374.4554 Y452.2631 Z10.0000 F9999
G1 X374.4554 Y452.2631 Z2.0000 F9999
G1 X374.4554 Y452.2631 Z-1.0000 F2000
G1 X374.4554 Y452.2631 Z10.0000 F9999
G1 X165.6577 Y602.3904 Z10.0000 F9999
G1 X165.6577 Y602.3904 Z2.0000 F9999
G1 X165.6577 Y602.3904 Z-1.0000 F2000
G1 X165.6577 Y602.3904 Z10.0000 F9999
G1 X610.8628 Y721.4568 Z10.0000 F9999
G1 X610.8628 Y721.4568 Z2.0000 F9999
G1 X610.8628 Y721.4568 Z-1.0000 F2000
G1 X610.8628 Y721.4568 Z10.0000 F9999
G1 X377.9066 Y1044.1443 Z10.0000 F9999
G1 X377.9066 Y1044.1443 Z2.0000 F9999
G1 X377.9066 Y1044.1443 Z-1.0000 F2000
G1 X377.9066 Y1044.1443 Z10.0000 F9999
G1 X146.7526 Y1534.9598 Z10.0000 F9999
G1 X146.7526 Y1534.9598 Z2.0000 F9999
G1 X146.7526 Y1534.9598 Z-1.0000 F2000
G1 X146.7526 Y1534.9598 Z10.0000 F9999
G1 X395.1627 Y1594.6111 Z10.0000 F9999
G1 X395.1627 Y1594.6111 Z2.0000 F9999
G1 X395.1627 Y1594.6111 Z-1.0000 F2000
G1 X395.1627 Y1594.6111 Z10.0000 F9999
G1 X1000.8486 Y1599.7878 Z10.0000 F9999
G1 X1000.8486 Y1599.7878 Z2.0000 F9999
G1 X1000.8486 Y1599.7878 Z-1.0000 F2000
G1 X1000.8486 Y1599.7878 Z10.0000 F9999
G1 X788.5997 Y2239.9858 Z10.0000 F9999
G1 X788.5997 Y2239.9858 Z2.0000 F9999
G1 X788.5997 Y2239.9858 Z-1.0000 F2000
G1 X788.5997 Y2239.9858 Z10.0000 F9999
G1 X160.1420 Y2231.9695 Z10.0000 F9999
G1 X160.1420 Y2231.9695 Z2.0000 F9999
G1 X160.1420 Y2231.9695 Z-1.0000 F2000
G1 X160.1420 Y2231.9695 Z10.0000 F9999
G1 X864.5262 Y155.0283 Z10.0000 F9999
G1 X864.5262 Y155.0283 Z2.0000 F9999
G1 X864.5262 Y155.0283 Z-1.0000 F2000
G1 X864.5262 Y155.0283 Z10.0000 F9999
G1 X1900.0000 Y2800.0000 Z80.0000 F9999
G1 Z80.0000 F9999
G1 X1900.0000 Y2800.0000 F9999
M5
M30
