(plotsheet 2n3_nested_153 sheets_final v1_0_sheet 99a_S99.0_7 screws_CC8 - stepover 1mm)
(Material Size) (X=1220.000, Y=2440.000, Z=21.000)
(LinuxCNC_NoArcs_MM_TC_medium_50um_G1_verbose.con)
G90 G80 G21 G49
G64 P0.050
M6 T1
(Tool Number:1) (7.998 mm dia. slot drill)
G43 H1 G0Z80.0000
M3 S9000
G04 P10
G1 X899.0382 Y528.1895 Z10.0000 F9999
G1 X899.0382 Y528.1895 Z2.0000 F9999
G1 X899.0382 Y528.1895 Z-1.0000 F2500
G1 X899.0382 Y528.1895 Z10.0000 F9999
G1 X1099.2079 Y64.0028 Z10.0000 F9999
G1 X1099.2079 Y64.0028 Z2.0000 F9999
G1 X1099.2079 Y64.0028 Z-1.0000 F2500
G1 X1099.2079 Y64.0028 Z10.0000 F9999
G1 X460.7355 Y1044.1443 Z10.0000 F9999
G1 X460.7355 Y1044.1443 Z2.0000 F9999
G1 X460.7355 Y1044.1443 Z-1.0000 F2500
G1 X460.7355 Y1044.1443 Z10.0000 F9999
G1 X153.5785 Y1042.4187 Z10.0000 F9999
G1 X153.5785 Y1042.4187 Z2.0000 F9999
G1 X153.5785 Y1042.4187 Z-1.0000 F2500
G1 X153.5785 Y1042.4187 Z10.0000 F9999
G1 X909.3918 Y1938.0056 Z10.0000 F9999
G1 X909.3918 Y1938.0056 Z2.0000 F9999
G1 X909.3918 Y1938.0056 Z-1.0000 F2500
G1 X909.3918 Y1938.0056 Z10.0000 F9999
G1 X457.2843 Y2293.4795 Z10.0000 F9999
G1 X457.2843 Y2293.4795 Z2.0000 F9999
G1 X457.2843 Y2293.4795 Z-1.0000 F2500
G1 X457.2843 Y2293.4795 Z10.0000 F9999
G1 X155.3041 Y2293.4795 Z10.0000 F9999
G1 X155.3041 Y2293.4795 Z2.0000 F9999
G1 X155.3041 Y2293.4795 Z-1.0000 F2500
G1 X155.3041 Y2293.4795 Z10.0000 F9999
G1 X1900.0000 Y2800.0000 Z80.0000 F9999
G1 Z80.0000 F9999
G1 X1900.0000 Y2800.0000 F9999
M5
M30
