(plotsheet 2n3_nested_153 sheets_final v1_0_sheet 144a_S144.1_text_CC8 - stepover 1mm)
(Material Size) (X=1220.000, Y=2440.000, Z=20.000)
(LinuxCNC_NoArcs_MM_TC_medium_50um_G1_verbose.con)
G90 G80 G21 G49
G64 P0.050
M6 T1
(Tool Number:1) (7.998 mm dia. slot drill)
G43 H1 G0Z80.0000
M3 S18000
G04 P10
G1 X593.1555 Y456.4721 Z10.0000 F9999
G1 X593.1555 Y456.4721 Z-1.0000 F2500
G1 X593.1555 Y470.9124 Z-1.0000 F5000
G1 X593.1555 Y456.4721 Z-1.0000 F5000
G1 X574.8620 Y456.4721 Z-1.0000 F5000
G1 X574.8620 Y471.5913 Z-1.0000 F5000
G1 X574.8620 Y456.4721 Z-1.0000 F5000
G1 X615.9629 Y456.4721 Z-1.0000 F5000
G1 X615.9629 Y456.4721 Z10.0000 F9999
G1 X615.9629 Y487.0042 Z10.0000 F9999
G1 X615.9629 Y487.0042 Z-1.0000 F2500
G1 X574.8620 Y487.0042 Z-1.0000 F5000
G1 X574.8620 Y494.1602 Z-1.0000 F5000
G1 X575.4675 Y498.0317 Z-1.0000 F5000
G1 X577.2840 Y501.2427 Z-1.0000 F5000
G1 X580.4400 Y503.4629 Z-1.0000 F5000
G1 X585.0822 Y504.3069 Z-1.0000 F5000
G1 X589.7611 Y503.1510 Z-1.0000 F5000
G1 X593.0822 Y500.3803 Z-1.0000 F5000
G1 X595.0455 Y497.0592 Z-1.0000 F5000
G1 X595.7060 Y494.1602 Z-1.0000 F5000
G1 X595.7060 Y487.0042 Z-1.0000 F5000
G1 X595.7060 Y494.1602 Z-1.0000 F5000
G1 X595.0455 Y497.0592 Z-1.0000 F5000
G1 X593.0822 Y500.3803 Z-1.0000 F5000
G1 X589.7611 Y503.1510 Z-1.0000 F5000
G1 X585.0822 Y504.3069 Z-1.0000 F5000
G1 X580.4400 Y503.4629 Z-1.0000 F5000
G1 X577.2840 Y501.2427 Z-1.0000 F5000
G1 X575.4675 Y498.0317 Z-1.0000 F5000
G1 X574.8620 Y494.1602 Z-1.0000 F5000
G1 X574.8620 Y487.0042 Z-1.0000 F5000
G1 X574.8620 Y487.0042 Z10.0000 F9999
G1 X574.8620 Y531.1143 Z10.0000 F9999
G1 X574.8620 Y531.1143 Z-1.0000 F2500
G1 X615.9629 Y547.1693 Z-1.0000 F5000
G1 X574.8620 Y531.1143 Z-1.0000 F5000
G1 X615.9629 Y515.0959 Z-1.0000 F5000
G1 X615.9629 Y515.0959 Z10.0000 F9999
G1 X615.9629 Y504.4170 Z10.0000 F9999
G1 X615.9629 Y504.4170 Z-1.0000 F2500
G1 X595.8161 Y491.1877 Z-1.0000 F5000
G1 X615.9629 Y504.4170 Z-1.0000 F5000
G1 X615.9629 Y504.4170 Z10.0000 F9999
G1 X601.2656 Y541.4262 Z10.0000 F9999
G1 X601.2656 Y541.4262 Z-1.0000 F2500
G1 X601.2656 Y520.7290 Z-1.0000 F5000
G1 X601.2656 Y541.4262 Z-1.0000 F5000
G1 X601.2656 Y541.4262 Z10.0000 F9999
G1 X609.1372 Y599.6464 Z10.0000 F9999
G1 X609.1372 Y599.6464 Z-1.0000 F2500
G1 X612.1831 Y601.5913 Z-1.0000 F5000
G1 X614.2381 Y604.0134 Z-1.0000 F5000
G1 X615.4858 Y607.1326 Z-1.0000 F5000
G1 X615.9629 Y611.2611 Z-1.0000 F5000
G1 X615.5042 Y615.7565 Z-1.0000 F5000
G1 X613.7611 Y619.5730 Z-1.0000 F5000
G1 X610.7702 Y622.2519 Z-1.0000 F5000
G1 X606.6051 Y623.3712 Z-1.0000 F5000
G1 X602.6051 Y622.8391 Z-1.0000 F5000
G1 X599.9262 Y621.2978 Z-1.0000 F5000
G1 X598.2381 Y619.2611 Z-1.0000 F5000
G1 X597.1372 Y617.3528 Z-1.0000 F5000
G1 X592.4033 Y608.1602 Z-1.0000 F5000
G1 X590.9904 Y605.7932 Z-1.0000 F5000
G1 X589.3390 Y603.9400 Z-1.0000 F5000
G1 X587.1555 Y602.6923 Z-1.0000 F5000
G1 X584.2748 Y602.1785 Z-1.0000 F5000
G1 X580.9904 Y602.7106 Z-1.0000 F5000
G1 X577.9629 Y604.5455 Z-1.0000 F5000
G1 X575.7427 Y607.6831 Z-1.0000 F5000
G1 X574.8620 Y612.0501 Z-1.0000 F5000
G1 X575.5409 Y616.3069 Z-1.0000 F5000
G1 X577.0088 Y619.1510 Z-1.0000 F5000
G1 X579.1555 Y621.2427 Z-1.0000 F5000
G1 X577.0088 Y619.1510 Z-1.0000 F5000
G1 X575.5409 Y616.3069 Z-1.0000 F5000
G1 X574.8620 Y612.0501 Z-1.0000 F5000
G1 X575.7427 Y607.6831 Z-1.0000 F5000
G1 X577.9629 Y604.5455 Z-1.0000 F5000
G1 X580.9904 Y602.7106 Z-1.0000 F5000
G1 X584.2748 Y602.1785 Z-1.0000 F5000
G1 X587.1555 Y602.6923 Z-1.0000 F5000
G1 X589.3390 Y603.9400 Z-1.0000 F5000
G1 X590.9904 Y605.7932 Z-1.0000 F5000
G1 X592.4033 Y608.1602 Z-1.0000 F5000
G1 X597.1372 Y617.3528 Z-1.0000 F5000
G1 X598.2381 Y619.2611 Z-1.0000 F5000
G1 X599.9262 Y621.2978 Z-1.0000 F5000
G1 X602.6051 Y622.8391 Z-1.0000 F5000
G1 X606.6051 Y623.3712 Z-1.0000 F5000
G1 X610.7702 Y622.2519 Z-1.0000 F5000
G1 X613.7611 Y619.5730 Z-1.0000 F5000
G1 X615.5042 Y615.7565 Z-1.0000 F5000
G1 X615.9629 Y611.2611 Z-1.0000 F5000
G1 X615.4858 Y607.1326 Z-1.0000 F5000
G1 X614.2381 Y604.0134 Z-1.0000 F5000
G1 X612.1831 Y601.5913 Z-1.0000 F5000
G1 X612.1831 Y601.5913 Z10.0000 F9999
G1 X565.4675 Y588.9308 Z10.0000 F9999
G1 X565.4675 Y588.9308 Z-1.0000 F2500
G1 X618.3115 Y558.5455 Z-1.0000 F5000
G1 X565.4675 Y588.9308 Z-1.0000 F5000
G1 X565.4675 Y588.9308 Z10.0000 F9999
G1 X574.8620 Y643.1143 Z10.0000 F9999
G1 X574.8620 Y643.1143 Z-1.0000 F2500
G1 X574.8620 Y637.2978 Z-1.0000 F5000
G1 X574.8620 Y643.1143 Z-1.0000 F5000
G1 X615.9629 Y643.1143 Z-1.0000 F5000
G1 X615.9629 Y643.1143 Z10.0000 F9999
G1 X565.4675 Y688.7473 Z10.0000 F9999
G1 X565.4675 Y688.7473 Z-1.0000 F2500
G1 X618.3115 Y658.3620 Z-1.0000 F5000
G1 X565.4675 Y688.7473 Z-1.0000 F5000
G1 X565.4675 Y688.7473 Z10.0000 F9999
G1 X574.8620 Y704.2519 Z10.0000 F9999
G1 X574.8620 Y704.2519 Z-1.0000 F2500
G1 X615.9629 Y704.2519 Z-1.0000 F5000
G1 X574.8620 Y704.2519 Z-1.0000 F5000
G1 X574.8620 Y704.2519 Z10.0000 F9999
G1 X574.8620 Y724.2152 Z10.0000 F9999
G1 X574.8620 Y724.2152 Z-1.0000 F2500
G1 X615.9629 Y761.3161 Z-1.0000 F5000
G1 X574.8620 Y761.3161 Z-1.0000 F5000
G1 X615.9629 Y761.3161 Z-1.0000 F5000
G1 X574.8620 Y724.2152 Z-1.0000 F5000
G1 X615.9629 Y724.2152 Z-1.0000 F5000
G1 X615.9629 Y724.2152 Z10.0000 F9999
G1 X735.7493 Y688.7473 Z10.0000 F9999
G1 X735.7493 Y688.7473 Z-1.0000 F2500
G1 X788.5933 Y658.3620 Z-1.0000 F5000
G1 X735.7493 Y688.7473 Z-1.0000 F5000
G1 X735.7493 Y688.7473 Z10.0000 F9999
G1 X745.1438 Y704.2519 Z10.0000 F9999
G1 X745.1438 Y704.2519 Z-1.0000 F2500
G1 X786.2447 Y704.2519 Z-1.0000 F5000
G1 X745.1438 Y704.2519 Z-1.0000 F5000
G1 X745.1438 Y704.2519 Z10.0000 F9999
G1 X745.1438 Y724.2152 Z10.0000 F9999
G1 X745.1438 Y724.2152 Z-1.0000 F2500
G1 X786.2447 Y761.3161 Z-1.0000 F5000
G1 X745.1438 Y761.3161 Z-1.0000 F5000
G1 X786.2447 Y761.3161 Z-1.0000 F5000
G1 X745.1438 Y724.2152 Z-1.0000 F5000
G1 X786.2447 Y724.2152 Z-1.0000 F5000
G1 X786.2447 Y724.2152 Z10.0000 F9999
G1 X745.1438 Y643.1143 Z10.0000 F9999
G1 X745.1438 Y643.1143 Z-1.0000 F2500
G1 X745.1438 Y637.2978 Z-1.0000 F5000
G1 X745.1438 Y643.1143 Z-1.0000 F5000
G1 X786.2447 Y643.1143 Z-1.0000 F5000
G1 X786.2447 Y643.1143 Z10.0000 F9999
G1 X779.4190 Y599.6464 Z10.0000 F9999
G1 X779.4190 Y599.6464 Z-1.0000 F2500
G1 X782.4649 Y601.5913 Z-1.0000 F5000
G1 X784.5199 Y604.0134 Z-1.0000 F5000
G1 X785.7676 Y607.1326 Z-1.0000 F5000
G1 X786.2447 Y611.2611 Z-1.0000 F5000
G1 X785.7860 Y615.7565 Z-1.0000 F5000
G1 X784.0428 Y619.5730 Z-1.0000 F5000
G1 X781.0520 Y622.2519 Z-1.0000 F5000
G1 X776.8869 Y623.3712 Z-1.0000 F5000
G1 X772.8869 Y622.8391 Z-1.0000 F5000
G1 X770.2080 Y621.2978 Z-1.0000 F5000
G1 X768.5199 Y619.2611 Z-1.0000 F5000
G1 X767.4190 Y617.3528 Z-1.0000 F5000
G1 X762.6850 Y608.1602 Z-1.0000 F5000
G1 X761.2722 Y605.7932 Z-1.0000 F5000
G1 X759.6208 Y603.9400 Z-1.0000 F5000
G1 X757.4373 Y602.6923 Z-1.0000 F5000
G1 X754.5566 Y602.1785 Z-1.0000 F5000
G1 X751.2722 Y602.7106 Z-1.0000 F5000
G1 X748.2447 Y604.5455 Z-1.0000 F5000
G1 X746.0245 Y607.6831 Z-1.0000 F5000
G1 X745.1438 Y612.0501 Z-1.0000 F5000
G1 X745.8227 Y616.3069 Z-1.0000 F5000
G1 X747.2905 Y619.1510 Z-1.0000 F5000
G1 X749.4373 Y621.2427 Z-1.0000 F5000
G1 X747.2905 Y619.1510 Z-1.0000 F5000
G1 X745.8227 Y616.3069 Z-1.0000 F5000
G1 X745.1438 Y612.0501 Z-1.0000 F5000
G1 X746.0245 Y607.6831 Z-1.0000 F5000
G1 X748.2447 Y604.5455 Z-1.0000 F5000
G1 X751.2722 Y602.7106 Z-1.0000 F5000
G1 X754.5566 Y602.1785 Z-1.0000 F5000
G1 X757.4373 Y602.6923 Z-1.0000 F5000
G1 X759.6208 Y603.9400 Z-1.0000 F5000
G1 X761.2722 Y605.7932 Z-1.0000 F5000
G1 X762.6850 Y608.1602 Z-1.0000 F5000
G1 X767.4190 Y617.3528 Z-1.0000 F5000
G1 X768.5199 Y619.2611 Z-1.0000 F5000
G1 X770.2080 Y621.2978 Z-1.0000 F5000
G1 X772.8869 Y622.8391 Z-1.0000 F5000
G1 X776.8869 Y623.3712 Z-1.0000 F5000
G1 X781.0520 Y622.2519 Z-1.0000 F5000
G1 X784.0428 Y619.5730 Z-1.0000 F5000
G1 X785.7860 Y615.7565 Z-1.0000 F5000
G1 X786.2447 Y611.2611 Z-1.0000 F5000
G1 X785.7676 Y607.1326 Z-1.0000 F5000
G1 X784.5199 Y604.0134 Z-1.0000 F5000
G1 X782.4649 Y601.5913 Z-1.0000 F5000
G1 X782.4649 Y601.5913 Z10.0000 F9999
G1 X735.7493 Y588.9308 Z10.0000 F9999
G1 X735.7493 Y588.9308 Z-1.0000 F2500
G1 X788.5933 Y558.5455 Z-1.0000 F5000
G1 X735.7493 Y588.9308 Z-1.0000 F5000
G1 X735.7493 Y588.9308 Z10.0000 F9999
G1 X745.1438 Y531.1143 Z10.0000 F9999
G1 X745.1438 Y531.1143 Z-1.0000 F2500
G1 X786.2447 Y547.1693 Z-1.0000 F5000
G1 X745.1438 Y531.1143 Z-1.0000 F5000
G1 X786.2447 Y515.0959 Z-1.0000 F5000
G1 X786.2447 Y515.0959 Z10.0000 F9999
G1 X786.2447 Y504.4170 Z10.0000 F9999
G1 X786.2447 Y504.4170 Z-1.0000 F2500
G1 X766.0979 Y491.1877 Z-1.0000 F5000
G1 X786.2447 Y504.4170 Z-1.0000 F5000
G1 X786.2447 Y504.4170 Z10.0000 F9999
G1 X786.2447 Y487.0042 Z10.0000 F9999
G1 X786.2447 Y487.0042 Z-1.0000 F2500
G1 X745.1438 Y487.0042 Z-1.0000 F5000
G1 X745.1438 Y494.1602 Z-1.0000 F5000
G1 X745.7493 Y498.0317 Z-1.0000 F5000
G1 X747.5658 Y501.2427 Z-1.0000 F5000
G1 X750.7217 Y503.4629 Z-1.0000 F5000
G1 X755.3639 Y504.3069 Z-1.0000 F5000
G1 X760.0428 Y503.1510 Z-1.0000 F5000
G1 X763.3639 Y500.3803 Z-1.0000 F5000
G1 X765.3272 Y497.0592 Z-1.0000 F5000
G1 X765.9878 Y494.1602 Z-1.0000 F5000
G1 X765.9878 Y487.0042 Z-1.0000 F5000
G1 X765.9878 Y494.1602 Z-1.0000 F5000
G1 X765.3272 Y497.0592 Z-1.0000 F5000
G1 X763.3639 Y500.3803 Z-1.0000 F5000
G1 X760.0428 Y503.1510 Z-1.0000 F5000
G1 X755.3639 Y504.3069 Z-1.0000 F5000
G1 X750.7217 Y503.4629 Z-1.0000 F5000
G1 X747.5658 Y501.2427 Z-1.0000 F5000
G1 X745.7493 Y498.0317 Z-1.0000 F5000
G1 X745.1438 Y494.1602 Z-1.0000 F5000
G1 X745.1438 Y487.0042 Z-1.0000 F5000
G1 X745.1438 Y487.0042 Z10.0000 F9999
G1 X763.4373 Y456.4721 Z10.0000 F9999
G1 X763.4373 Y456.4721 Z-1.0000 F2500
G1 X763.4373 Y470.9124 Z-1.0000 F5000
G1 X763.4373 Y456.4721 Z-1.0000 F5000
G1 X745.1438 Y456.4721 Z-1.0000 F5000
G1 X745.1438 Y471.5913 Z-1.0000 F5000
G1 X745.1438 Y456.4721 Z-1.0000 F5000
G1 X786.2447 Y456.4721 Z-1.0000 F5000
G1 X786.2447 Y456.4721 Z10.0000 F9999
G1 X771.5474 Y541.4262 Z10.0000 F9999
G1 X771.5474 Y541.4262 Z-1.0000 F2500
G1 X771.5474 Y520.7290 Z-1.0000 F5000
G1 X771.5474 Y541.4262 Z-1.0000 F5000
G1 X771.5474 Y541.4262 Z10.0000 F9999
G1 X902.7696 Y588.9308 Z10.0000 F9999
G1 X902.7696 Y588.9308 Z-1.0000 F2500
G1 X955.6136 Y558.5455 Z-1.0000 F5000
G1 X902.7696 Y588.9308 Z-1.0000 F5000
G1 X902.7696 Y588.9308 Z10.0000 F9999
G1 X946.4393 Y599.6464 Z10.0000 F9999
G1 X946.4393 Y599.6464 Z-1.0000 F2500
G1 X949.4852 Y601.5913 Z-1.0000 F5000
G1 X951.5402 Y604.0134 Z-1.0000 F5000
G1 X952.7880 Y607.1326 Z-1.0000 F5000
G1 X953.2650 Y611.2611 Z-1.0000 F5000
G1 X952.8063 Y615.7565 Z-1.0000 F5000
G1 X951.0632 Y619.5730 Z-1.0000 F5000
G1 X948.0724 Y622.2519 Z-1.0000 F5000
G1 X943.9072 Y623.3712 Z-1.0000 F5000
G1 X939.9072 Y622.8391 Z-1.0000 F5000
G1 X937.2283 Y621.2978 Z-1.0000 F5000
G1 X935.5402 Y619.2611 Z-1.0000 F5000
G1 X934.4393 Y617.3528 Z-1.0000 F5000
G1 X929.7054 Y608.1602 Z-1.0000 F5000
G1 X928.2925 Y605.7932 Z-1.0000 F5000
G1 X926.6412 Y603.9400 Z-1.0000 F5000
G1 X924.4577 Y602.6923 Z-1.0000 F5000
G1 X921.5769 Y602.1785 Z-1.0000 F5000
G1 X918.2925 Y602.7106 Z-1.0000 F5000
G1 X915.2650 Y604.5455 Z-1.0000 F5000
G1 X913.0448 Y607.6831 Z-1.0000 F5000
G1 X912.1641 Y612.0501 Z-1.0000 F5000
G1 X912.8430 Y616.3069 Z-1.0000 F5000
G1 X914.3109 Y619.1510 Z-1.0000 F5000
G1 X916.4577 Y621.2427 Z-1.0000 F5000
G1 X914.3109 Y619.1510 Z-1.0000 F5000
G1 X912.8430 Y616.3069 Z-1.0000 F5000
G1 X912.1641 Y612.0501 Z-1.0000 F5000
G1 X913.0448 Y607.6831 Z-1.0000 F5000
G1 X915.2650 Y604.5455 Z-1.0000 F5000
G1 X918.2925 Y602.7106 Z-1.0000 F5000
G1 X921.5769 Y602.1785 Z-1.0000 F5000
G1 X924.4577 Y602.6923 Z-1.0000 F5000
G1 X926.6412 Y603.9400 Z-1.0000 F5000
G1 X928.2925 Y605.7932 Z-1.0000 F5000
G1 X929.7054 Y608.1602 Z-1.0000 F5000
G1 X934.4393 Y617.3528 Z-1.0000 F5000
G1 X935.5402 Y619.2611 Z-1.0000 F5000
G1 X937.2283 Y621.2978 Z-1.0000 F5000
G1 X939.9072 Y622.8391 Z-1.0000 F5000
G1 X943.9072 Y623.3712 Z-1.0000 F5000
G1 X948.0724 Y622.2519 Z-1.0000 F5000
G1 X951.0632 Y619.5730 Z-1.0000 F5000
G1 X952.8063 Y615.7565 Z-1.0000 F5000
G1 X953.2650 Y611.2611 Z-1.0000 F5000
G1 X952.7880 Y607.1326 Z-1.0000 F5000
G1 X951.5402 Y604.0134 Z-1.0000 F5000
G1 X949.4852 Y601.5913 Z-1.0000 F5000
G1 X949.4852 Y601.5913 Z10.0000 F9999
G1 X912.1641 Y643.1143 Z10.0000 F9999
G1 X912.1641 Y643.1143 Z-1.0000 F2500
G1 X912.1641 Y637.2978 Z-1.0000 F5000
G1 X912.1641 Y643.1143 Z-1.0000 F5000
G1 X953.2650 Y643.1143 Z-1.0000 F5000
G1 X953.2650 Y643.1143 Z10.0000 F9999
G1 X902.7696 Y688.7473 Z10.0000 F9999
G1 X902.7696 Y688.7473 Z-1.0000 F2500
G1 X955.6136 Y658.3620 Z-1.0000 F5000
G1 X902.7696 Y688.7473 Z-1.0000 F5000
G1 X902.7696 Y688.7473 Z10.0000 F9999
G1 X912.1641 Y704.2519 Z10.0000 F9999
G1 X912.1641 Y704.2519 Z-1.0000 F2500
G1 X953.2650 Y704.2519 Z-1.0000 F5000
G1 X912.1641 Y704.2519 Z-1.0000 F5000
G1 X912.1641 Y704.2519 Z10.0000 F9999
G1 X912.1641 Y724.2152 Z10.0000 F9999
G1 X912.1641 Y724.2152 Z-1.0000 F2500
G1 X953.2650 Y761.3161 Z-1.0000 F5000
G1 X912.1641 Y761.3161 Z-1.0000 F5000
G1 X953.2650 Y761.3161 Z-1.0000 F5000
G1 X912.1641 Y724.2152 Z-1.0000 F5000
G1 X953.2650 Y724.2152 Z-1.0000 F5000
G1 X953.2650 Y724.2152 Z10.0000 F9999
G1 X1080.5031 Y688.7473 Z10.0000 F9999
G1 X1080.5031 Y688.7473 Z-1.0000 F2500
G1 X1133.3472 Y658.3620 Z-1.0000 F5000
G1 X1080.5031 Y688.7473 Z-1.0000 F5000
G1 X1080.5031 Y688.7473 Z10.0000 F9999
G1 X1089.8976 Y704.2519 Z10.0000 F9999
G1 X1089.8976 Y704.2519 Z-1.0000 F2500
G1 X1130.9985 Y704.2519 Z-1.0000 F5000
G1 X1089.8976 Y704.2519 Z-1.0000 F5000
G1 X1089.8976 Y704.2519 Z10.0000 F9999
G1 X1089.8976 Y724.2152 Z10.0000 F9999
G1 X1089.8976 Y724.2152 Z-1.0000 F2500
G1 X1130.9985 Y761.3161 Z-1.0000 F5000
G1 X1089.8976 Y761.3161 Z-1.0000 F5000
G1 X1130.9985 Y761.3161 Z-1.0000 F5000
G1 X1089.8976 Y724.2152 Z-1.0000 F5000
G1 X1130.9985 Y724.2152 Z-1.0000 F5000
G1 X1130.9985 Y724.2152 Z10.0000 F9999
G1 X1089.8976 Y643.1143 Z10.0000 F9999
G1 X1089.8976 Y643.1143 Z-1.0000 F2500
G1 X1089.8976 Y637.2978 Z-1.0000 F5000
G1 X1089.8976 Y643.1143 Z-1.0000 F5000
G1 X1130.9985 Y643.1143 Z-1.0000 F5000
G1 X1130.9985 Y643.1143 Z10.0000 F9999
G1 X1124.1728 Y599.6464 Z10.0000 F9999
G1 X1124.1728 Y599.6464 Z-1.0000 F2500
G1 X1127.2187 Y601.5913 Z-1.0000 F5000
G1 X1129.2738 Y604.0134 Z-1.0000 F5000
G1 X1130.5215 Y607.1326 Z-1.0000 F5000
G1 X1130.9985 Y611.2611 Z-1.0000 F5000
G1 X1130.5398 Y615.7565 Z-1.0000 F5000
G1 X1128.7967 Y619.5730 Z-1.0000 F5000
G1 X1125.8059 Y622.2519 Z-1.0000 F5000
G1 X1121.6407 Y623.3712 Z-1.0000 F5000
G1 X1117.6407 Y622.8391 Z-1.0000 F5000
G1 X1114.9618 Y621.2978 Z-1.0000 F5000
G1 X1113.2738 Y619.2611 Z-1.0000 F5000
G1 X1112.1728 Y617.3528 Z-1.0000 F5000
G1 X1107.4389 Y608.1602 Z-1.0000 F5000
G1 X1106.0261 Y605.7932 Z-1.0000 F5000
G1 X1104.3747 Y603.9400 Z-1.0000 F5000
G1 X1102.1912 Y602.6923 Z-1.0000 F5000
G1 X1099.3105 Y602.1785 Z-1.0000 F5000
G1 X1096.0261 Y602.7106 Z-1.0000 F5000
G1 X1092.9985 Y604.5455 Z-1.0000 F5000
G1 X1090.7784 Y607.6831 Z-1.0000 F5000
G1 X1089.8976 Y612.0501 Z-1.0000 F5000
G1 X1090.5765 Y616.3069 Z-1.0000 F5000
G1 X1092.0444 Y619.1510 Z-1.0000 F5000
G1 X1094.1912 Y621.2427 Z-1.0000 F5000
G1 X1092.0444 Y619.1510 Z-1.0000 F5000
G1 X1090.5765 Y616.3069 Z-1.0000 F5000
G1 X1089.8976 Y612.0501 Z-1.0000 F5000
G1 X1090.7784 Y607.6831 Z-1.0000 F5000
G1 X1092.9985 Y604.5455 Z-1.0000 F5000
G1 X1096.0261 Y602.7106 Z-1.0000 F5000
G1 X1099.3105 Y602.1785 Z-1.0000 F5000
G1 X1102.1912 Y602.6923 Z-1.0000 F5000
G1 X1104.3747 Y603.9400 Z-1.0000 F5000
G1 X1106.0261 Y605.7932 Z-1.0000 F5000
G1 X1107.4389 Y608.1602 Z-1.0000 F5000
G1 X1112.1728 Y617.3528 Z-1.0000 F5000
G1 X1113.2738 Y619.2611 Z-1.0000 F5000
G1 X1114.9618 Y621.2978 Z-1.0000 F5000
G1 X1117.6407 Y622.8391 Z-1.0000 F5000
G1 X1121.6407 Y623.3712 Z-1.0000 F5000
G1 X1125.8059 Y622.2519 Z-1.0000 F5000
G1 X1128.7967 Y619.5730 Z-1.0000 F5000
G1 X1130.5398 Y615.7565 Z-1.0000 F5000
G1 X1130.9985 Y611.2611 Z-1.0000 F5000
G1 X1130.5215 Y607.1326 Z-1.0000 F5000
G1 X1129.2738 Y604.0134 Z-1.0000 F5000
G1 X1127.2187 Y601.5913 Z-1.0000 F5000
G1 X1127.2187 Y601.5913 Z10.0000 F9999
G1 X1080.5031 Y588.9308 Z10.0000 F9999
G1 X1080.5031 Y588.9308 Z-1.0000 F2500
G1 X1133.3472 Y558.5455 Z-1.0000 F5000
G1 X1080.5031 Y588.9308 Z-1.0000 F5000
G1 X1080.5031 Y588.9308 Z10.0000 F9999
G1 X1089.8976 Y531.1143 Z10.0000 F9999
G1 X1089.8976 Y531.1143 Z-1.0000 F2500
G1 X1130.9985 Y547.1693 Z-1.0000 F5000
G1 X1089.8976 Y531.1143 Z-1.0000 F5000
G1 X1130.9985 Y515.0959 Z-1.0000 F5000
G1 X1130.9985 Y515.0959 Z10.0000 F9999
G1 X1130.9985 Y504.4170 Z10.0000 F9999
G1 X1130.9985 Y504.4170 Z-1.0000 F2500
G1 X1110.8517 Y491.1877 Z-1.0000 F5000
G1 X1130.9985 Y504.4170 Z-1.0000 F5000
G1 X1130.9985 Y504.4170 Z10.0000 F9999
G1 X1130.9985 Y487.0042 Z10.0000 F9999
G1 X1130.9985 Y487.0042 Z-1.0000 F2500
G1 X1089.8976 Y487.0042 Z-1.0000 F5000
G1 X1089.8976 Y494.1602 Z-1.0000 F5000
G1 X1090.5031 Y498.0317 Z-1.0000 F5000
G1 X1092.3196 Y501.2427 Z-1.0000 F5000
G1 X1095.4756 Y503.4629 Z-1.0000 F5000
G1 X1100.1178 Y504.3069 Z-1.0000 F5000
G1 X1104.7967 Y503.1510 Z-1.0000 F5000
G1 X1108.1178 Y500.3803 Z-1.0000 F5000
G1 X1110.0811 Y497.0592 Z-1.0000 F5000
G1 X1110.7417 Y494.1602 Z-1.0000 F5000
G1 X1110.7417 Y487.0042 Z-1.0000 F5000
G1 X1110.7417 Y494.1602 Z-1.0000 F5000
G1 X1110.0811 Y497.0592 Z-1.0000 F5000
G1 X1108.1178 Y500.3803 Z-1.0000 F5000
G1 X1104.7967 Y503.1510 Z-1.0000 F5000
G1 X1100.1178 Y504.3069 Z-1.0000 F5000
G1 X1095.4756 Y503.4629 Z-1.0000 F5000
G1 X1092.3196 Y501.2427 Z-1.0000 F5000
G1 X1090.5031 Y498.0317 Z-1.0000 F5000
G1 X1089.8976 Y494.1602 Z-1.0000 F5000
G1 X1089.8976 Y487.0042 Z-1.0000 F5000
G1 X1089.8976 Y487.0042 Z10.0000 F9999
G1 X1108.1912 Y456.4721 Z10.0000 F9999
G1 X1108.1912 Y456.4721 Z-1.0000 F2500
G1 X1108.1912 Y470.9124 Z-1.0000 F5000
G1 X1108.1912 Y456.4721 Z-1.0000 F5000
G1 X1089.8976 Y456.4721 Z-1.0000 F5000
G1 X1089.8976 Y471.5913 Z-1.0000 F5000
G1 X1089.8976 Y456.4721 Z-1.0000 F5000
G1 X1130.9985 Y456.4721 Z-1.0000 F5000
G1 X1130.9985 Y456.4721 Z10.0000 F9999
G1 X1116.3013 Y541.4262 Z10.0000 F9999
G1 X1116.3013 Y541.4262 Z-1.0000 F2500
G1 X1116.3013 Y520.7290 Z-1.0000 F5000
G1 X1116.3013 Y541.4262 Z-1.0000 F5000
G1 X1116.3013 Y541.4262 Z10.0000 F9999
G1 X953.2650 Y504.4170 Z10.0000 F9999
G1 X953.2650 Y504.4170 Z-1.0000 F2500
G1 X933.1182 Y491.1877 Z-1.0000 F5000
G1 X953.2650 Y504.4170 Z-1.0000 F5000
G1 X953.2650 Y504.4170 Z10.0000 F9999
G1 X953.2650 Y487.0042 Z10.0000 F9999
G1 X953.2650 Y487.0042 Z-1.0000 F2500
G1 X912.1641 Y487.0042 Z-1.0000 F5000
G1 X912.1641 Y494.1602 Z-1.0000 F5000
G1 X912.7696 Y498.0317 Z-1.0000 F5000
G1 X914.5861 Y501.2427 Z-1.0000 F5000
G1 X917.7421 Y503.4629 Z-1.0000 F5000
G1 X922.3843 Y504.3069 Z-1.0000 F5000
G1 X927.0632 Y503.1510 Z-1.0000 F5000
G1 X930.3843 Y500.3803 Z-1.0000 F5000
G1 X932.3476 Y497.0592 Z-1.0000 F5000
G1 X933.0081 Y494.1602 Z-1.0000 F5000
G1 X933.0081 Y487.0042 Z-1.0000 F5000
G1 X933.0081 Y494.1602 Z-1.0000 F5000
G1 X932.3476 Y497.0592 Z-1.0000 F5000
G1 X930.3843 Y500.3803 Z-1.0000 F5000
G1 X927.0632 Y503.1510 Z-1.0000 F5000
G1 X922.3843 Y504.3069 Z-1.0000 F5000
G1 X917.7421 Y503.4629 Z-1.0000 F5000
G1 X914.5861 Y501.2427 Z-1.0000 F5000
G1 X912.7696 Y498.0317 Z-1.0000 F5000
G1 X912.1641 Y494.1602 Z-1.0000 F5000
G1 X912.1641 Y487.0042 Z-1.0000 F5000
G1 X912.1641 Y487.0042 Z10.0000 F9999
G1 X930.4577 Y456.4721 Z10.0000 F9999
G1 X930.4577 Y456.4721 Z-1.0000 F2500
G1 X930.4577 Y470.9124 Z-1.0000 F5000
G1 X930.4577 Y456.4721 Z-1.0000 F5000
G1 X912.1641 Y456.4721 Z-1.0000 F5000
G1 X912.1641 Y471.5913 Z-1.0000 F5000
G1 X912.1641 Y456.4721 Z-1.0000 F5000
G1 X953.2650 Y456.4721 Z-1.0000 F5000
G1 X953.2650 Y456.4721 Z10.0000 F9999
G1 X912.1641 Y531.1143 Z10.0000 F9999
G1 X912.1641 Y531.1143 Z-1.0000 F2500
G1 X953.2650 Y547.1693 Z-1.0000 F5000
G1 X912.1641 Y531.1143 Z-1.0000 F5000
G1 X953.2650 Y515.0959 Z-1.0000 F5000
G1 X953.2650 Y515.0959 Z10.0000 F9999
G1 X938.5678 Y541.4262 Z10.0000 F9999
G1 X938.5678 Y541.4262 Z-1.0000 F2500
G1 X938.5678 Y520.7290 Z-1.0000 F5000
G1 X938.5678 Y541.4262 Z-1.0000 F5000
G1 X938.5678 Y541.4262 Z10.0000 F9999
G1 X428.5228 Y947.8297 Z10.0000 F9999
G1 X428.5228 Y947.8297 Z-1.0000 F2500
G1 X428.5228 Y962.2700 Z-1.0000 F5000
G1 X428.5228 Y947.8297 Z-1.0000 F5000
G1 X410.2292 Y947.8297 Z-1.0000 F5000
G1 X410.2292 Y962.9489 Z-1.0000 F5000
G1 X410.2292 Y947.8297 Z-1.0000 F5000
G1 X451.3302 Y947.8297 Z-1.0000 F5000
G1 X451.3302 Y947.8297 Z10.0000 F9999
G1 X451.3302 Y978.3618 Z10.0000 F9999
G1 X451.3302 Y978.3618 Z-1.0000 F2500
G1 X410.2292 Y978.3618 Z-1.0000 F5000
G1 X410.2292 Y985.5177 Z-1.0000 F5000
G1 X410.8347 Y989.3893 Z-1.0000 F5000
G1 X412.6513 Y992.6003 Z-1.0000 F5000
G1 X415.8072 Y994.8205 Z-1.0000 F5000
G1 X420.4494 Y995.6645 Z-1.0000 F5000
G1 X425.1283 Y994.5086 Z-1.0000 F5000
G1 X428.4494 Y991.7379 Z-1.0000 F5000
G1 X430.4127 Y988.4168 Z-1.0000 F5000
G1 X431.0733 Y985.5177 Z-1.0000 F5000
G1 X431.0733 Y978.3618 Z-1.0000 F5000
G1 X431.0733 Y985.5177 Z-1.0000 F5000
G1 X430.4127 Y988.4168 Z-1.0000 F5000
G1 X428.4494 Y991.7379 Z-1.0000 F5000
G1 X425.1283 Y994.5086 Z-1.0000 F5000
G1 X420.4494 Y995.6645 Z-1.0000 F5000
G1 X415.8072 Y994.8205 Z-1.0000 F5000
G1 X412.6513 Y992.6003 Z-1.0000 F5000
G1 X410.8347 Y989.3893 Z-1.0000 F5000
G1 X410.2292 Y985.5177 Z-1.0000 F5000
G1 X410.2292 Y978.3618 Z-1.0000 F5000
G1 X410.2292 Y978.3618 Z10.0000 F9999
G1 X410.2292 Y1022.4719 Z10.0000 F9999
G1 X410.2292 Y1022.4719 Z-1.0000 F2500
G1 X451.3302 Y1038.5269 Z-1.0000 F5000
G1 X410.2292 Y1022.4719 Z-1.0000 F5000
G1 X451.3302 Y1006.4535 Z-1.0000 F5000
G1 X451.3302 Y1006.4535 Z10.0000 F9999
G1 X451.3302 Y995.7746 Z10.0000 F9999
G1 X451.3302 Y995.7746 Z-1.0000 F2500
G1 X431.1834 Y982.5453 Z-1.0000 F5000
G1 X451.3302 Y995.7746 Z-1.0000 F5000
G1 X451.3302 Y995.7746 Z10.0000 F9999
G1 X436.6329 Y1032.7838 Z10.0000 F9999
G1 X436.6329 Y1032.7838 Z-1.0000 F2500
G1 X436.6329 Y1012.0865 Z-1.0000 F5000
G1 X436.6329 Y1032.7838 Z-1.0000 F5000
G1 X436.6329 Y1032.7838 Z10.0000 F9999
G1 X426.6696 Y1079.1508 Z10.0000 F9999
G1 X426.6696 Y1079.1508 Z-1.0000 F2500
G1 X426.6696 Y1049.9031 Z-1.0000 F5000
G1 X426.6696 Y1079.1508 Z-1.0000 F5000
G1 X426.6696 Y1079.1508 Z10.0000 F9999
G1 X410.2292 Y1105.8480 Z10.0000 F9999
G1 X410.2292 Y1105.8480 Z-1.0000 F2500
G1 X451.3302 Y1121.9031 Z-1.0000 F5000
G1 X410.2292 Y1105.8480 Z-1.0000 F5000
G1 X451.3302 Y1089.8297 Z-1.0000 F5000
G1 X451.3302 Y1089.8297 Z10.0000 F9999
G1 X436.6329 Y1116.1599 Z10.0000 F9999
G1 X436.6329 Y1116.1599 Z-1.0000 F2500
G1 X436.6329 Y1095.4627 Z-1.0000 F5000
G1 X436.6329 Y1116.1599 Z-1.0000 F5000
G1 X436.6329 Y1116.1599 Z10.0000 F9999
G1 X444.5045 Y1174.3801 Z10.0000 F9999
G1 X444.5045 Y1174.3801 Z-1.0000 F2500
G1 X447.5503 Y1176.3251 Z-1.0000 F5000
G1 X449.6054 Y1178.7471 Z-1.0000 F5000
G1 X450.8531 Y1181.8664 Z-1.0000 F5000
G1 X451.3302 Y1185.9948 Z-1.0000 F5000
G1 X450.8714 Y1190.4902 Z-1.0000 F5000
G1 X449.1283 Y1194.3067 Z-1.0000 F5000
G1 X446.1375 Y1196.9856 Z-1.0000 F5000
G1 X441.9724 Y1198.1049 Z-1.0000 F5000
G1 X437.9724 Y1197.5728 Z-1.0000 F5000
G1 X435.2935 Y1196.0315 Z-1.0000 F5000
G1 X433.6054 Y1193.9948 Z-1.0000 F5000
G1 X432.5045 Y1192.0865 Z-1.0000 F5000
G1 X427.7705 Y1182.8939 Z-1.0000 F5000
G1 X426.3577 Y1180.5269 Z-1.0000 F5000
G1 X424.7063 Y1178.6737 Z-1.0000 F5000
G1 X422.5228 Y1177.4260 Z-1.0000 F5000
G1 X419.6421 Y1176.9122 Z-1.0000 F5000
G1 X416.3577 Y1177.4443 Z-1.0000 F5000
G1 X413.3302 Y1179.2792 Z-1.0000 F5000
G1 X411.1100 Y1182.4168 Z-1.0000 F5000
G1 X410.2292 Y1186.7838 Z-1.0000 F5000
G1 X410.9081 Y1191.0407 Z-1.0000 F5000
G1 X412.3760 Y1193.8847 Z-1.0000 F5000
G1 X414.5228 Y1195.9764 Z-1.0000 F5000
G1 X412.3760 Y1193.8847 Z-1.0000 F5000
G1 X410.9081 Y1191.0407 Z-1.0000 F5000
G1 X410.2292 Y1186.7838 Z-1.0000 F5000
G1 X411.1100 Y1182.4168 Z-1.0000 F5000
G1 X413.3302 Y1179.2792 Z-1.0000 F5000
G1 X416.3577 Y1177.4443 Z-1.0000 F5000
G1 X419.6421 Y1176.9122 Z-1.0000 F5000
G1 X422.5228 Y1177.4260 Z-1.0000 F5000
G1 X424.7063 Y1178.6737 Z-1.0000 F5000
G1 X426.3577 Y1180.5269 Z-1.0000 F5000
G1 X427.7705 Y1182.8939 Z-1.0000 F5000
G1 X432.5045 Y1192.0865 Z-1.0000 F5000
G1 X433.6054 Y1193.9948 Z-1.0000 F5000
G1 X435.2935 Y1196.0315 Z-1.0000 F5000
G1 X437.9724 Y1197.5728 Z-1.0000 F5000
G1 X441.9724 Y1198.1049 Z-1.0000 F5000
G1 X446.1375 Y1196.9856 Z-1.0000 F5000
G1 X449.1283 Y1194.3067 Z-1.0000 F5000
G1 X450.8714 Y1190.4902 Z-1.0000 F5000
G1 X451.3302 Y1185.9948 Z-1.0000 F5000
G1 X450.8531 Y1181.8664 Z-1.0000 F5000
G1 X449.6054 Y1178.7471 Z-1.0000 F5000
G1 X447.5503 Y1176.3251 Z-1.0000 F5000
G1 X447.5503 Y1176.3251 Z10.0000 F9999
G1 X445.8072 Y1209.6095 Z10.0000 F9999
G1 X445.8072 Y1209.6095 Z-1.0000 F2500
G1 X447.0733 Y1210.8572 Z-1.0000 F5000
G1 X448.8898 Y1213.1875 Z-1.0000 F5000
G1 X450.5412 Y1216.6553 Z-1.0000 F5000
G1 X451.3302 Y1221.3893 Z-1.0000 F5000
G1 X450.1375 Y1226.5453 Z-1.0000 F5000
G1 X446.8164 Y1230.9122 Z-1.0000 F5000
G1 X441.8990 Y1233.9581 Z-1.0000 F5000
G1 X435.9540 Y1235.0957 Z-1.0000 F5000
G1 X430.4127 Y1233.7563 Z-1.0000 F5000
G1 X426.3760 Y1230.5086 Z-1.0000 F5000
G1 X423.9540 Y1226.4535 Z-1.0000 F5000
G1 X423.1467 Y1222.6920 Z-1.0000 F5000
G1 X423.1467 Y1220.5453 Z-1.0000 F5000
G1 X423.5503 Y1218.2884 Z-1.0000 F5000
G1 X424.4494 Y1215.6462 Z-1.0000 F5000
G1 X409.0549 Y1221.2792 Z-1.0000 F5000
G1 X409.0549 Y1235.4810 Z-1.0000 F5000
G1 X409.0549 Y1221.2792 Z-1.0000 F5000
G1 X424.4494 Y1215.6462 Z-1.0000 F5000
G1 X423.5503 Y1218.2884 Z-1.0000 F5000
G1 X423.1467 Y1220.5453 Z-1.0000 F5000
G1 X423.1467 Y1222.6920 Z-1.0000 F5000
G1 X423.9540 Y1226.4535 Z-1.0000 F5000
G1 X426.3760 Y1230.5086 Z-1.0000 F5000
G1 X430.4127 Y1233.7563 Z-1.0000 F5000
G1 X435.9540 Y1235.0957 Z-1.0000 F5000
G1 X441.8990 Y1233.9581 Z-1.0000 F5000
G1 X446.8164 Y1230.9122 Z-1.0000 F5000
G1 X450.1375 Y1226.5453 Z-1.0000 F5000
G1 X451.3302 Y1221.3893 Z-1.0000 F5000
G1 X450.5412 Y1216.6553 Z-1.0000 F5000
G1 X448.8898 Y1213.1875 Z-1.0000 F5000
G1 X447.0733 Y1210.8572 Z-1.0000 F5000
G1 X447.0733 Y1210.8572 Z10.0000 F9999
G1 X400.8347 Y1163.6645 Z10.0000 F9999
G1 X400.8347 Y1163.6645 Z-1.0000 F2500
G1 X453.6788 Y1133.2792 Z-1.0000 F5000
G1 X400.8347 Y1163.6645 Z-1.0000 F5000
G1 X400.8347 Y1163.6645 Z10.0000 F9999
G1 X400.8347 Y1276.3985 Z10.0000 F9999
G1 X400.8347 Y1276.3985 Z-1.0000 F2500
G1 X453.6788 Y1246.0131 Z-1.0000 F5000
G1 X400.8347 Y1276.3985 Z-1.0000 F5000
G1 X400.8347 Y1276.3985 Z10.0000 F9999
G1 X410.2292 Y1291.9031 Z10.0000 F9999
G1 X410.2292 Y1291.9031 Z-1.0000 F2500
G1 X451.3302 Y1291.9031 Z-1.0000 F5000
G1 X410.2292 Y1291.9031 Z-1.0000 F5000
G1 X410.2292 Y1291.9031 Z10.0000 F9999
G1 X410.2292 Y1311.8664 Z10.0000 F9999
G1 X410.2292 Y1311.8664 Z-1.0000 F2500
G1 X451.3302 Y1348.9673 Z-1.0000 F5000
G1 X410.2292 Y1348.9673 Z-1.0000 F5000
G1 X451.3302 Y1348.9673 Z-1.0000 F5000
G1 X410.2292 Y1311.8664 Z-1.0000 F5000
G1 X451.3302 Y1311.8664 Z-1.0000 F5000
G1 X451.3302 Y1311.8664 Z10.0000 F9999
G1 X272.4431 Y1209.6095 Z10.0000 F9999
G1 X272.4431 Y1209.6095 Z-1.0000 F2500
G1 X273.7092 Y1210.8572 Z-1.0000 F5000
G1 X275.5257 Y1213.1875 Z-1.0000 F5000
G1 X277.1771 Y1216.6553 Z-1.0000 F5000
G1 X277.9661 Y1221.3893 Z-1.0000 F5000
G1 X276.7734 Y1226.5453 Z-1.0000 F5000
G1 X273.4523 Y1230.9122 Z-1.0000 F5000
G1 X268.5349 Y1233.9581 Z-1.0000 F5000
G1 X262.5899 Y1235.0957 Z-1.0000 F5000
G1 X257.0486 Y1233.7563 Z-1.0000 F5000
G1 X253.0120 Y1230.5086 Z-1.0000 F5000
G1 X250.5899 Y1226.4535 Z-1.0000 F5000
G1 X249.7826 Y1222.6920 Z-1.0000 F5000
G1 X249.7826 Y1220.5453 Z-1.0000 F5000
G1 X250.1863 Y1218.2884 Z-1.0000 F5000
G1 X251.0853 Y1215.6462 Z-1.0000 F5000
G1 X235.6909 Y1221.2792 Z-1.0000 F5000
G1 X235.6909 Y1235.4810 Z-1.0000 F5000
G1 X235.6909 Y1221.2792 Z-1.0000 F5000
G1 X251.0853 Y1215.6462 Z-1.0000 F5000
G1 X250.1863 Y1218.2884 Z-1.0000 F5000
G1 X249.7826 Y1220.5453 Z-1.0000 F5000
G1 X249.7826 Y1222.6920 Z-1.0000 F5000
G1 X250.5899 Y1226.4535 Z-1.0000 F5000
G1 X253.0120 Y1230.5086 Z-1.0000 F5000
G1 X257.0486 Y1233.7563 Z-1.0000 F5000
G1 X262.5899 Y1235.0957 Z-1.0000 F5000
G1 X268.5349 Y1233.9581 Z-1.0000 F5000
G1 X273.4523 Y1230.9122 Z-1.0000 F5000
G1 X276.7734 Y1226.5453 Z-1.0000 F5000
G1 X277.9661 Y1221.3893 Z-1.0000 F5000
G1 X277.1771 Y1216.6553 Z-1.0000 F5000
G1 X275.5257 Y1213.1875 Z-1.0000 F5000
G1 X273.7092 Y1210.8572 Z-1.0000 F5000
G1 X273.7092 Y1210.8572 Z10.0000 F9999
G1 X271.1404 Y1174.3801 Z10.0000 F9999
G1 X271.1404 Y1174.3801 Z-1.0000 F2500
G1 X274.1863 Y1176.3251 Z-1.0000 F5000
G1 X276.2413 Y1178.7471 Z-1.0000 F5000
G1 X277.4890 Y1181.8664 Z-1.0000 F5000
G1 X277.9661 Y1185.9948 Z-1.0000 F5000
G1 X277.5074 Y1190.4902 Z-1.0000 F5000
G1 X275.7642 Y1194.3067 Z-1.0000 F5000
G1 X272.7734 Y1196.9856 Z-1.0000 F5000
G1 X268.6083 Y1198.1049 Z-1.0000 F5000
G1 X264.6083 Y1197.5728 Z-1.0000 F5000
G1 X261.9294 Y1196.0315 Z-1.0000 F5000
G1 X260.2413 Y1193.9948 Z-1.0000 F5000
G1 X259.1404 Y1192.0865 Z-1.0000 F5000
G1 X254.4064 Y1182.8939 Z-1.0000 F5000
G1 X252.9936 Y1180.5269 Z-1.0000 F5000
G1 X251.3422 Y1178.6737 Z-1.0000 F5000
G1 X249.1587 Y1177.4260 Z-1.0000 F5000
G1 X246.2780 Y1176.9122 Z-1.0000 F5000
G1 X242.9936 Y1177.4443 Z-1.0000 F5000
G1 X239.9661 Y1179.2792 Z-1.0000 F5000
G1 X237.7459 Y1182.4168 Z-1.0000 F5000
G1 X236.8652 Y1186.7838 Z-1.0000 F5000
G1 X237.5441 Y1191.0407 Z-1.0000 F5000
G1 X239.0120 Y1193.8847 Z-1.0000 F5000
G1 X241.1587 Y1195.9764 Z-1.0000 F5000
G1 X239.0120 Y1193.8847 Z-1.0000 F5000
G1 X237.5441 Y1191.0407 Z-1.0000 F5000
G1 X236.8652 Y1186.7838 Z-1.0000 F5000
G1 X237.7459 Y1182.4168 Z-1.0000 F5000
G1 X239.9661 Y1179.2792 Z-1.0000 F5000
G1 X242.9936 Y1177.4443 Z-1.0000 F5000
G1 X246.2780 Y1176.9122 Z-1.0000 F5000
G1 X249.1587 Y1177.4260 Z-1.0000 F5000
G1 X251.3422 Y1178.6737 Z-1.0000 F5000
G1 X252.9936 Y1180.5269 Z-1.0000 F5000
G1 X254.4064 Y1182.8939 Z-1.0000 F5000
G1 X259.1404 Y1192.0865 Z-1.0000 F5000
G1 X260.2413 Y1193.9948 Z-1.0000 F5000
G1 X261.9294 Y1196.0315 Z-1.0000 F5000
G1 X264.6083 Y1197.5728 Z-1.0000 F5000
G1 X268.6083 Y1198.1049 Z-1.0000 F5000
G1 X272.7734 Y1196.9856 Z-1.0000 F5000
G1 X275.7642 Y1194.3067 Z-1.0000 F5000
G1 X277.5074 Y1190.4902 Z-1.0000 F5000
G1 X277.9661 Y1185.9948 Z-1.0000 F5000
G1 X277.4890 Y1181.8664 Z-1.0000 F5000
G1 X276.2413 Y1178.7471 Z-1.0000 F5000
G1 X274.1863 Y1176.3251 Z-1.0000 F5000
G1 X274.1863 Y1176.3251 Z10.0000 F9999
G1 X227.4707 Y1163.6645 Z10.0000 F9999
G1 X227.4707 Y1163.6645 Z-1.0000 F2500
G1 X280.3147 Y1133.2792 Z-1.0000 F5000
G1 X227.4707 Y1163.6645 Z-1.0000 F5000
G1 X227.4707 Y1163.6645 Z10.0000 F9999
G1 X236.8652 Y1105.8480 Z10.0000 F9999
G1 X236.8652 Y1105.8480 Z-1.0000 F2500
G1 X277.9661 Y1121.9031 Z-1.0000 F5000
G1 X236.8652 Y1105.8480 Z-1.0000 F5000
G1 X277.9661 Y1089.8297 Z-1.0000 F5000
G1 X277.9661 Y1089.8297 Z10.0000 F9999
G1 X253.3055 Y1079.1508 Z10.0000 F9999
G1 X253.3055 Y1079.1508 Z-1.0000 F2500
G1 X253.3055 Y1049.9031 Z-1.0000 F5000
G1 X253.3055 Y1079.1508 Z-1.0000 F5000
G1 X253.3055 Y1079.1508 Z10.0000 F9999
G1 X263.2688 Y1116.1599 Z10.0000 F9999
G1 X263.2688 Y1116.1599 Z-1.0000 F2500
G1 X263.2688 Y1095.4627 Z-1.0000 F5000
G1 X263.2688 Y1116.1599 Z-1.0000 F5000
G1 X263.2688 Y1116.1599 Z10.0000 F9999
G1 X263.2688 Y1032.7838 Z10.0000 F9999
G1 X263.2688 Y1032.7838 Z-1.0000 F2500
G1 X263.2688 Y1012.0865 Z-1.0000 F5000
G1 X263.2688 Y1032.7838 Z-1.0000 F5000
G1 X263.2688 Y1032.7838 Z10.0000 F9999
G1 X236.8652 Y1022.4719 Z10.0000 F9999
G1 X236.8652 Y1022.4719 Z-1.0000 F2500
G1 X277.9661 Y1038.5269 Z-1.0000 F5000
G1 X236.8652 Y1022.4719 Z-1.0000 F5000
G1 X277.9661 Y1006.4535 Z-1.0000 F5000
G1 X277.9661 Y1006.4535 Z10.0000 F9999
G1 X277.9661 Y995.7746 Z10.0000 F9999
G1 X277.9661 Y995.7746 Z-1.0000 F2500
G1 X257.8193 Y982.5453 Z-1.0000 F5000
G1 X277.9661 Y995.7746 Z-1.0000 F5000
G1 X277.9661 Y995.7746 Z10.0000 F9999
G1 X277.9661 Y978.3618 Z10.0000 F9999
G1 X277.9661 Y978.3618 Z-1.0000 F2500
G1 X236.8652 Y978.3618 Z-1.0000 F5000
G1 X236.8652 Y985.5177 Z-1.0000 F5000
G1 X237.4707 Y989.3893 Z-1.0000 F5000
G1 X239.2872 Y992.6003 Z-1.0000 F5000
G1 X242.4431 Y994.8205 Z-1.0000 F5000
G1 X247.0853 Y995.6645 Z-1.0000 F5000
G1 X251.7642 Y994.5086 Z-1.0000 F5000
G1 X255.0853 Y991.7379 Z-1.0000 F5000
G1 X257.0486 Y988.4168 Z-1.0000 F5000
G1 X257.7092 Y985.5177 Z-1.0000 F5000
G1 X257.7092 Y978.3618 Z-1.0000 F5000
G1 X257.7092 Y985.5177 Z-1.0000 F5000
G1 X257.0486 Y988.4168 Z-1.0000 F5000
G1 X255.0853 Y991.7379 Z-1.0000 F5000
G1 X251.7642 Y994.5086 Z-1.0000 F5000
G1 X247.0853 Y995.6645 Z-1.0000 F5000
G1 X242.4431 Y994.8205 Z-1.0000 F5000
G1 X239.2872 Y992.6003 Z-1.0000 F5000
G1 X237.4707 Y989.3893 Z-1.0000 F5000
G1 X236.8652 Y985.5177 Z-1.0000 F5000
G1 X236.8652 Y978.3618 Z-1.0000 F5000
G1 X236.8652 Y978.3618 Z10.0000 F9999
G1 X255.1587 Y947.8297 Z10.0000 F9999
G1 X255.1587 Y947.8297 Z-1.0000 F2500
G1 X255.1587 Y962.2700 Z-1.0000 F5000
G1 X255.1587 Y947.8297 Z-1.0000 F5000
G1 X236.8652 Y947.8297 Z-1.0000 F5000
G1 X236.8652 Y962.9489 Z-1.0000 F5000
G1 X236.8652 Y947.8297 Z-1.0000 F5000
G1 X277.9661 Y947.8297 Z-1.0000 F5000
G1 X277.9661 Y947.8297 Z10.0000 F9999
G1 X106.8305 Y978.3618 Z10.0000 F9999
G1 X106.8305 Y978.3618 Z-1.0000 F2500
G1 X65.7296 Y978.3618 Z-1.0000 F5000
G1 X65.7296 Y985.5177 Z-1.0000 F5000
G1 X66.3351 Y989.3893 Z-1.0000 F5000
G1 X68.1516 Y992.6003 Z-1.0000 F5000
G1 X71.3076 Y994.8205 Z-1.0000 F5000
G1 X75.9498 Y995.6645 Z-1.0000 F5000
G1 X80.6287 Y994.5086 Z-1.0000 F5000
G1 X83.9498 Y991.7379 Z-1.0000 F5000
G1 X85.9131 Y988.4168 Z-1.0000 F5000
G1 X86.5736 Y985.5177 Z-1.0000 F5000
G1 X86.5736 Y978.3618 Z-1.0000 F5000
G1 X86.5736 Y985.5177 Z-1.0000 F5000
G1 X85.9131 Y988.4168 Z-1.0000 F5000
G1 X83.9498 Y991.7379 Z-1.0000 F5000
G1 X80.6287 Y994.5086 Z-1.0000 F5000
G1 X75.9498 Y995.6645 Z-1.0000 F5000
G1 X71.3076 Y994.8205 Z-1.0000 F5000
G1 X68.1516 Y992.6003 Z-1.0000 F5000
G1 X66.3351 Y989.3893 Z-1.0000 F5000
G1 X65.7296 Y985.5177 Z-1.0000 F5000
G1 X65.7296 Y978.3618 Z-1.0000 F5000
G1 X65.7296 Y978.3618 Z10.0000 F9999
G1 X84.0232 Y947.8297 Z10.0000 F9999
G1 X84.0232 Y947.8297 Z-1.0000 F2500
G1 X84.0232 Y962.2700 Z-1.0000 F5000
G1 X84.0232 Y947.8297 Z-1.0000 F5000
G1 X65.7296 Y947.8297 Z-1.0000 F5000
G1 X65.7296 Y962.9489 Z-1.0000 F5000
G1 X65.7296 Y947.8297 Z-1.0000 F5000
G1 X106.8305 Y947.8297 Z-1.0000 F5000
G1 X106.8305 Y947.8297 Z10.0000 F9999
G1 X106.8305 Y995.7746 Z10.0000 F9999
G1 X106.8305 Y995.7746 Z-1.0000 F2500
G1 X86.6837 Y982.5453 Z-1.0000 F5000
G1 X106.8305 Y995.7746 Z-1.0000 F5000
G1 X106.8305 Y995.7746 Z10.0000 F9999
G1 X92.1333 Y1032.7838 Z10.0000 F9999
G1 X92.1333 Y1032.7838 Z-1.0000 F2500
G1 X92.1333 Y1012.0865 Z-1.0000 F5000
G1 X92.1333 Y1032.7838 Z-1.0000 F5000
G1 X92.1333 Y1032.7838 Z10.0000 F9999
G1 X65.7296 Y1022.4719 Z10.0000 F9999
G1 X65.7296 Y1022.4719 Z-1.0000 F2500
G1 X106.8305 Y1038.5269 Z-1.0000 F5000
G1 X65.7296 Y1022.4719 Z-1.0000 F5000
G1 X106.8305 Y1006.4535 Z-1.0000 F5000
G1 X106.8305 Y1006.4535 Z10.0000 F9999
G1 X82.1700 Y1079.1508 Z10.0000 F9999
G1 X82.1700 Y1079.1508 Z-1.0000 F2500
G1 X82.1700 Y1049.9031 Z-1.0000 F5000
G1 X82.1700 Y1079.1508 Z-1.0000 F5000
G1 X82.1700 Y1079.1508 Z10.0000 F9999
G1 X65.7296 Y1105.8480 Z10.0000 F9999
G1 X65.7296 Y1105.8480 Z-1.0000 F2500
G1 X106.8305 Y1121.9031 Z-1.0000 F5000
G1 X65.7296 Y1105.8480 Z-1.0000 F5000
G1 X106.8305 Y1089.8297 Z-1.0000 F5000
G1 X106.8305 Y1089.8297 Z10.0000 F9999
G1 X92.1333 Y1116.1599 Z10.0000 F9999
G1 X92.1333 Y1116.1599 Z-1.0000 F2500
G1 X92.1333 Y1095.4627 Z-1.0000 F5000
G1 X92.1333 Y1116.1599 Z-1.0000 F5000
G1 X92.1333 Y1116.1599 Z10.0000 F9999
G1 X100.0048 Y1174.3801 Z10.0000 F9999
G1 X100.0048 Y1174.3801 Z-1.0000 F2500
G1 X103.0507 Y1176.3251 Z-1.0000 F5000
G1 X105.1057 Y1178.7471 Z-1.0000 F5000
G1 X106.3535 Y1181.8664 Z-1.0000 F5000
G1 X106.8305 Y1185.9948 Z-1.0000 F5000
G1 X106.3718 Y1190.4902 Z-1.0000 F5000
G1 X104.6287 Y1194.3067 Z-1.0000 F5000
G1 X101.6379 Y1196.9856 Z-1.0000 F5000
G1 X97.4727 Y1198.1049 Z-1.0000 F5000
G1 X93.4727 Y1197.5728 Z-1.0000 F5000
G1 X90.7938 Y1196.0315 Z-1.0000 F5000
G1 X89.1057 Y1193.9948 Z-1.0000 F5000
G1 X88.0048 Y1192.0865 Z-1.0000 F5000
G1 X83.2709 Y1182.8939 Z-1.0000 F5000
G1 X81.8580 Y1180.5269 Z-1.0000 F5000
G1 X80.2067 Y1178.6737 Z-1.0000 F5000
G1 X78.0232 Y1177.4260 Z-1.0000 F5000
G1 X75.1424 Y1176.9122 Z-1.0000 F5000
G1 X71.8580 Y1177.4443 Z-1.0000 F5000
G1 X68.8305 Y1179.2792 Z-1.0000 F5000
G1 X66.6103 Y1182.4168 Z-1.0000 F5000
G1 X65.7296 Y1186.7838 Z-1.0000 F5000
G1 X66.4085 Y1191.0407 Z-1.0000 F5000
G1 X67.8764 Y1193.8847 Z-1.0000 F5000
G1 X70.0232 Y1195.9764 Z-1.0000 F5000
G1 X67.8764 Y1193.8847 Z-1.0000 F5000
G1 X66.4085 Y1191.0407 Z-1.0000 F5000
G1 X65.7296 Y1186.7838 Z-1.0000 F5000
G1 X66.6103 Y1182.4168 Z-1.0000 F5000
G1 X68.8305 Y1179.2792 Z-1.0000 F5000
G1 X71.8580 Y1177.4443 Z-1.0000 F5000
G1 X75.1424 Y1176.9122 Z-1.0000 F5000
G1 X78.0232 Y1177.4260 Z-1.0000 F5000
G1 X80.2067 Y1178.6737 Z-1.0000 F5000
G1 X81.8580 Y1180.5269 Z-1.0000 F5000
G1 X83.2709 Y1182.8939 Z-1.0000 F5000
G1 X88.0048 Y1192.0865 Z-1.0000 F5000
G1 X89.1057 Y1193.9948 Z-1.0000 F5000
G1 X90.7938 Y1196.0315 Z-1.0000 F5000
G1 X93.4727 Y1197.5728 Z-1.0000 F5000
G1 X97.4727 Y1198.1049 Z-1.0000 F5000
G1 X101.6379 Y1196.9856 Z-1.0000 F5000
G1 X104.6287 Y1194.3067 Z-1.0000 F5000
G1 X106.3718 Y1190.4902 Z-1.0000 F5000
G1 X106.8305 Y1185.9948 Z-1.0000 F5000
G1 X106.3535 Y1181.8664 Z-1.0000 F5000
G1 X105.1057 Y1178.7471 Z-1.0000 F5000
G1 X103.0507 Y1176.3251 Z-1.0000 F5000
G1 X103.0507 Y1176.3251 Z10.0000 F9999
G1 X101.3076 Y1209.6095 Z10.0000 F9999
G1 X101.3076 Y1209.6095 Z-1.0000 F2500
G1 X102.5736 Y1210.8572 Z-1.0000 F5000
G1 X104.3901 Y1213.1875 Z-1.0000 F5000
G1 X106.0415 Y1216.6553 Z-1.0000 F5000
G1 X106.8305 Y1221.3893 Z-1.0000 F5000
G1 X105.6379 Y1226.5453 Z-1.0000 F5000
G1 X102.3168 Y1230.9122 Z-1.0000 F5000
G1 X97.3993 Y1233.9581 Z-1.0000 F5000
G1 X91.4544 Y1235.0957 Z-1.0000 F5000
G1 X85.9131 Y1233.7563 Z-1.0000 F5000
G1 X81.8764 Y1230.5086 Z-1.0000 F5000
G1 X79.4544 Y1226.4535 Z-1.0000 F5000
G1 X78.6470 Y1222.6920 Z-1.0000 F5000
G1 X78.6470 Y1220.5453 Z-1.0000 F5000
G1 X79.0507 Y1218.2884 Z-1.0000 F5000
G1 X79.9498 Y1215.6462 Z-1.0000 F5000
G1 X64.5553 Y1221.2792 Z-1.0000 F5000
G1 X64.5553 Y1235.4810 Z-1.0000 F5000
G1 X64.5553 Y1221.2792 Z-1.0000 F5000
G1 X79.9498 Y1215.6462 Z-1.0000 F5000
G1 X79.0507 Y1218.2884 Z-1.0000 F5000
G1 X78.6470 Y1220.5453 Z-1.0000 F5000
G1 X78.6470 Y1222.6920 Z-1.0000 F5000
G1 X79.4544 Y1226.4535 Z-1.0000 F5000
G1 X81.8764 Y1230.5086 Z-1.0000 F5000
G1 X85.9131 Y1233.7563 Z-1.0000 F5000
G1 X91.4544 Y1235.0957 Z-1.0000 F5000
G1 X97.3993 Y1233.9581 Z-1.0000 F5000
G1 X102.3168 Y1230.9122 Z-1.0000 F5000
G1 X105.6379 Y1226.5453 Z-1.0000 F5000
G1 X106.8305 Y1221.3893 Z-1.0000 F5000
G1 X106.0415 Y1216.6553 Z-1.0000 F5000
G1 X104.3901 Y1213.1875 Z-1.0000 F5000
G1 X102.5736 Y1210.8572 Z-1.0000 F5000
G1 X102.5736 Y1210.8572 Z10.0000 F9999
G1 X56.3351 Y1163.6645 Z10.0000 F9999
G1 X56.3351 Y1163.6645 Z-1.0000 F2500
G1 X109.1791 Y1133.2792 Z-1.0000 F5000
G1 X56.3351 Y1163.6645 Z-1.0000 F5000
G1 X56.3351 Y1163.6645 Z10.0000 F9999
G1 X56.3351 Y1276.3985 Z10.0000 F9999
G1 X56.3351 Y1276.3985 Z-1.0000 F2500
G1 X109.1791 Y1246.0131 Z-1.0000 F5000
G1 X56.3351 Y1276.3985 Z-1.0000 F5000
G1 X56.3351 Y1276.3985 Z10.0000 F9999
G1 X65.7296 Y1291.9031 Z10.0000 F9999
G1 X65.7296 Y1291.9031 Z-1.0000 F2500
G1 X106.8305 Y1291.9031 Z-1.0000 F5000
G1 X65.7296 Y1291.9031 Z-1.0000 F5000
G1 X65.7296 Y1291.9031 Z10.0000 F9999
G1 X65.7296 Y1311.8664 Z10.0000 F9999
G1 X65.7296 Y1311.8664 Z-1.0000 F2500
G1 X106.8305 Y1348.9673 Z-1.0000 F5000
G1 X65.7296 Y1348.9673 Z-1.0000 F5000
G1 X106.8305 Y1348.9673 Z-1.0000 F5000
G1 X65.7296 Y1311.8664 Z-1.0000 F5000
G1 X106.8305 Y1311.8664 Z-1.0000 F5000
G1 X106.8305 Y1311.8664 Z10.0000 F9999
G1 X227.4707 Y1276.3985 Z10.0000 F9999
G1 X227.4707 Y1276.3985 Z-1.0000 F2500
G1 X280.3147 Y1246.0131 Z-1.0000 F5000
G1 X227.4707 Y1276.3985 Z-1.0000 F5000
G1 X227.4707 Y1276.3985 Z10.0000 F9999
G1 X236.8652 Y1291.9031 Z10.0000 F9999
G1 X236.8652 Y1291.9031 Z-1.0000 F2500
G1 X277.9661 Y1291.9031 Z-1.0000 F5000
G1 X236.8652 Y1291.9031 Z-1.0000 F5000
G1 X236.8652 Y1291.9031 Z10.0000 F9999
G1 X236.8652 Y1311.8664 Z10.0000 F9999
G1 X236.8652 Y1311.8664 Z-1.0000 F2500
G1 X277.9661 Y1348.9673 Z-1.0000 F5000
G1 X236.8652 Y1348.9673 Z-1.0000 F5000
G1 X277.9661 Y1348.9673 Z-1.0000 F5000
G1 X236.8652 Y1311.8664 Z-1.0000 F5000
G1 X277.9661 Y1311.8664 Z-1.0000 F5000
G1 X277.9661 Y1311.8664 Z10.0000 F9999
(Tool Number:1) (7.998 mm dia. slot drill)
M3 S9000
G1 X0.0000 Y2304.9167 Z10.0000 F9999
G1 X0.0000 Y2304.9167 Z1.0000 F2500
G1 X38.9711 Y2304.9167 Z-9.5000 F2500
G1 X0.0000 Y2304.9167 Z-20.0000 F2500
G1 X547.7904 Y2304.9167 Z-20.0000 F5000
G1 X547.7904 Y2038.7977 Z-20.0000 F5000
G1 X1220.0000 Y2038.7977 Z-20.0000 F5000
G1 X1220.0000 Y2038.7977 Z10.0000 F9999
(Tool Number:1) (7.998 mm dia. slot drill)
M3 S9000
G1 X317.9475 Y1293.3040 Z10.0000 F9999
G1 X317.9475 Y1293.3040 Z1.0000 F2500
G1 X317.9475 Y1332.2751 Z-9.5000 F2500
G1 X317.9475 Y1293.3040 Z-20.0000 F2500
G1 X317.9475 Y1422.3479 Z-20.0000 F5000
G1 X312.9475 Y1422.3479 Z-20.0000 F5000
G1 X312.9475 Y1424.3507 Z-20.0000 F5000
G1 X330.6049 Y1424.3507 Z-20.0000 F5000
G1 X335.9475 Y1429.6930 Z-20.0000 F5000
G1 X335.9475 Y1453.3487 Z-20.0000 F5000
G1 X288.9496 Y1453.3487 Z-20.0000 F5000
G1 X288.9496 Y1448.3492 Z-20.0000 F5000
G1 X286.9476 Y1448.3492 Z-20.0000 F5000
G1 X286.9476 Y1468.3507 Z-20.0000 F5000
G1 X288.9496 Y1468.3507 Z-20.0000 F5000
G1 X288.9496 Y1463.3512 Z-20.0000 F5000
G1 X335.9475 Y1463.3512 Z-20.0000 F5000
G1 X335.9475 Y1487.0056 Z-20.0000 F5000
G1 X330.6048 Y1492.3476 Z-20.0000 F5000
G1 X312.9475 Y1492.3476 Z-20.0000 F5000
G1 X312.9475 Y1494.3505 Z-20.0000 F5000
G1 X317.9475 Y1494.3505 Z-20.0000 F5000
G1 X317.9475 Y1612.3488 Z-20.0000 F5000
G1 X294.9499 Y1612.3488 Z-20.0000 F5000
G1 X294.9499 Y1614.3515 Z-20.0000 F5000
G1 X299.9500 Y1614.3515 Z-20.0000 F5000
G1 X299.9475 Y1722.3474 Z-20.0000 F5000
G1 X294.9476 Y1722.3474 Z-20.0000 F5000
G1 X294.9476 Y1724.3502 Z-20.0000 F5000
G1 X330.6049 Y1724.3502 Z-20.0000 F5000
G1 X335.9475 Y1729.6925 Z-20.0000 F5000
G1 X335.9475 Y1787.0051 Z-20.0000 F5000
G1 X330.6048 Y1792.3470 Z-20.0000 F5000
G1 X294.9476 Y1792.3470 Z-20.0000 F5000
G1 X294.9476 Y1794.3501 Z-20.0000 F5000
G1 X299.9476 Y1794.3501 Z-20.0000 F5000
G1 X299.9476 Y2022.3475 Z-20.0000 F5000
G1 X294.9476 Y2022.3475 Z-20.0000 F5000
G1 X294.9476 Y2024.3493 Z-20.0000 F5000
G1 X330.6050 Y2024.3493 Z-20.0000 F5000
G1 X335.9475 Y2029.6921 Z-20.0000 F5000
G1 X335.9475 Y2048.0547 Z-20.0000 F5000
G1 X335.9475 Y2048.0547 Z-10.0000 F9999
G1 X335.9475 Y2064.0527 Z-10.0000 F5000
G1 X335.9475 Y2064.0527 Z-20.0000 F2500
G1 X335.9475 Y2087.0046 Z-20.0000 F5000
G1 X330.6050 Y2092.3472 Z-20.0000 F5000
G1 X294.9476 Y2092.3472 Z-20.0000 F5000
G1 X294.9476 Y2094.3493 Z-20.0000 F5000
G1 X299.9476 Y2094.3493 Z-20.0000 F5000
G1 X299.9476 Y2282.7282 Z-20.0000 F5000
G1 X213.9497 Y2282.7282 Z-20.0000 F5000
G1 X213.9497 Y2094.3493 Z-20.0000 F5000
G1 X218.9497 Y2094.3493 Z-20.0000 F5000
G1 X218.9497 Y2092.3472 Z-20.0000 F5000
G1 X183.2923 Y2092.3472 Z-20.0000 F5000
G1 X177.9498 Y2087.0046 Z-20.0000 F5000
G1 X177.9498 Y2066.2097 Z-20.0000 F5000
G1 X177.9498 Y2066.2097 Z-10.0000 F9999
G1 X177.9498 Y2050.2117 Z-10.0000 F5000
G1 X177.9498 Y2050.2117 Z-20.0000 F2500
G1 X177.9498 Y2029.6921 Z-20.0000 F5000
G1 X183.2922 Y2024.3493 Z-20.0000 F5000
G1 X218.9497 Y2024.3493 Z-20.0000 F5000
G1 X218.9497 Y2022.3475 Z-20.0000 F5000
G1 X213.9497 Y2022.3475 Z-20.0000 F5000
G1 X213.9497 Y1794.3501 Z-20.0000 F5000
G1 X218.9497 Y1794.3501 Z-20.0000 F5000
G1 X218.9497 Y1792.3470 Z-20.0000 F5000
G1 X183.2925 Y1792.3470 Z-20.0000 F5000
G1 X177.9498 Y1787.0051 Z-20.0000 F5000
G1 X177.9498 Y1729.6925 Z-20.0000 F5000
G1 X183.2924 Y1724.3502 Z-20.0000 F5000
G1 X218.9497 Y1724.3502 Z-20.0000 F5000
G1 X218.9497 Y1722.3474 Z-20.0000 F5000
G1 X213.9497 Y1722.3474 Z-20.0000 F5000
G1 X213.9497 Y1614.3515 Z-20.0000 F5000
G1 X218.9497 Y1614.3515 Z-20.0000 F5000
G1 X218.9497 Y1612.3488 Z-20.0000 F5000
G1 X195.9498 Y1612.3488 Z-20.0000 F5000
G1 X195.9498 Y1494.3505 Z-20.0000 F5000
G1 X200.9498 Y1494.3505 Z-20.0000 F5000
G1 X200.9498 Y1492.3476 Z-20.0000 F5000
G1 X183.2925 Y1492.3476 Z-20.0000 F5000
G1 X177.9498 Y1487.0056 Z-20.0000 F5000
G1 X177.9498 Y1463.3512 Z-20.0000 F5000
G1 X224.9477 Y1463.3512 Z-20.0000 F5000
G1 X224.9477 Y1468.3507 Z-20.0000 F5000
G1 X226.9497 Y1468.3507 Z-20.0000 F5000
G1 X226.9497 Y1448.3492 Z-20.0000 F5000
G1 X224.9477 Y1448.3492 Z-20.0000 F5000
G1 X224.9477 Y1453.3487 Z-20.0000 F5000
G1 X177.9498 Y1453.3487 Z-20.0000 F5000
G1 X177.9498 Y1429.6930 Z-20.0000 F5000
G1 X183.2924 Y1424.3507 Z-20.0000 F5000
G1 X200.9498 Y1424.3507 Z-20.0000 F5000
G1 X200.9498 Y1422.3479 Z-20.0000 F5000
G1 X195.9498 Y1422.3479 Z-20.0000 F5000
G1 X195.9498 Y1164.2601 Z-20.0000 F5000
G1 X200.9498 Y1164.2601 Z-20.0000 F5000
G1 X200.9498 Y1162.2573 Z-20.0000 F5000
G1 X183.2923 Y1162.2573 Z-20.0000 F5000
G1 X177.9498 Y1156.9149 Z-20.0000 F5000
G1 X177.9498 Y1099.6027 Z-20.0000 F5000
G1 X183.2923 Y1094.2602 Z-20.0000 F5000
G1 X200.9498 Y1094.2602 Z-20.0000 F5000
G1 X200.9498 Y1092.2573 Z-20.0000 F5000
G1 X195.9498 Y1092.2573 Z-20.0000 F5000
G1 X195.9498 Y834.1696 Z-20.0000 F5000
G1 X200.9498 Y834.1696 Z-20.0000 F5000
G1 X200.9498 Y832.1666 Z-20.0000 F5000
G1 X183.2925 Y832.1666 Z-20.0000 F5000
G1 X177.9498 Y826.8246 Z-20.0000 F5000
G1 X177.9498 Y803.1688 Z-20.0000 F5000
G1 X224.9477 Y803.1688 Z-20.0000 F5000
G1 X224.9477 Y808.1683 Z-20.0000 F5000
G1 X226.9497 Y808.1683 Z-20.0000 F5000
G1 X226.9497 Y788.1667 Z-20.0000 F5000
G1 X224.9477 Y788.1667 Z-20.0000 F5000
G1 X224.9477 Y793.1663 Z-20.0000 F5000
G1 X177.9498 Y793.1663 Z-20.0000 F5000
G1 X177.9498 Y769.5119 Z-20.0000 F5000
G1 X183.2924 Y764.1698 Z-20.0000 F5000
G1 X200.9498 Y764.1698 Z-20.0000 F5000
G1 X200.9498 Y762.1669 Z-20.0000 F5000
G1 X195.9498 Y762.1669 Z-20.0000 F5000
G1 X195.9498 Y644.1687 Z-20.0000 F5000
G1 X218.9497 Y644.1687 Z-20.0000 F5000
G1 X218.9497 Y642.1660 Z-20.0000 F5000
G1 X213.9497 Y642.1660 Z-20.0000 F5000
G1 X213.9497 Y534.1701 Z-20.0000 F5000
G1 X218.9497 Y534.1701 Z-20.0000 F5000
G1 X218.9497 Y532.1672 Z-20.0000 F5000
G1 X183.2924 Y532.1672 Z-20.0000 F5000
G1 X177.9498 Y526.8251 Z-20.0000 F5000
G1 X177.9498 Y506.2663 Z-20.0000 F5000
G1 X177.9498 Y506.2663 Z-10.0000 F9999
G1 X177.9498 Y490.2683 Z-10.0000 F5000
G1 X177.9498 Y490.2683 Z-20.0000 F2500
G1 X177.9498 Y469.5124 Z-20.0000 F5000
G1 X183.2925 Y464.1704 Z-20.0000 F5000
G1 X218.9497 Y464.1704 Z-20.0000 F5000
G1 X218.9497 Y462.1676 Z-20.0000 F5000
G1 X213.9497 Y462.1676 Z-20.0000 F5000
G1 X213.9497 Y234.1707 Z-20.0000 F5000
G1 X218.9497 Y234.1707 Z-20.0000 F5000
G1 X218.9497 Y232.1676 Z-20.0000 F5000
G1 X183.2925 Y232.1676 Z-20.0000 F5000
G1 X177.9498 Y226.8257 Z-20.0000 F5000
G1 X177.9498 Y169.5132 Z-20.0000 F5000
G1 X183.2923 Y164.1707 Z-20.0000 F5000
G1 X218.9497 Y164.1707 Z-20.0000 F5000
G1 X218.9497 Y162.1679 Z-20.0000 F5000
G1 X213.9497 Y162.1679 Z-20.0000 F5000
G1 X213.9497 Y5.9010 Z-20.0000 F5000
G1 X299.9476 Y5.9010 Z-20.0000 F5000
G1 X299.9476 Y162.1679 Z-20.0000 F5000
G1 X294.9476 Y162.1679 Z-20.0000 F5000
G1 X294.9476 Y164.1707 Z-20.0000 F5000
G1 X330.6050 Y164.1707 Z-20.0000 F5000
G1 X335.9475 Y169.5132 Z-20.0000 F5000
G1 X335.9475 Y226.8257 Z-20.0000 F5000
G1 X330.6048 Y232.1676 Z-20.0000 F5000
G1 X294.9476 Y232.1676 Z-20.0000 F5000
G1 X294.9476 Y234.1707 Z-20.0000 F5000
G1 X299.9476 Y234.1707 Z-20.0000 F5000
G1 X299.9476 Y462.1676 Z-20.0000 F5000
G1 X294.9476 Y462.1676 Z-20.0000 F5000
G1 X294.9476 Y464.1704 Z-20.0000 F5000
G1 X330.6048 Y464.1704 Z-20.0000 F5000
G1 X335.9475 Y469.5124 Z-20.0000 F5000
G1 X335.9475 Y488.5427 Z-20.0000 F5000
G1 X335.9475 Y488.5427 Z-10.0000 F9999
G1 X335.9475 Y504.5407 Z-10.0000 F5000
G1 X335.9475 Y504.5407 Z-20.0000 F2500
G1 X335.9475 Y526.8251 Z-20.0000 F5000
G1 X330.6048 Y532.1672 Z-20.0000 F5000
G1 X294.9476 Y532.1672 Z-20.0000 F5000
G1 X294.9476 Y534.1701 Z-20.0000 F5000
G1 X299.9475 Y534.1701 Z-20.0000 F5000
G1 X299.9500 Y642.1660 Z-20.0000 F5000
G1 X294.9499 Y642.1660 Z-20.0000 F5000
G1 X294.9499 Y644.1687 Z-20.0000 F5000
G1 X317.9475 Y644.1687 Z-20.0000 F5000
G1 X317.9475 Y762.1669 Z-20.0000 F5000
G1 X312.9475 Y762.1669 Z-20.0000 F5000
G1 X312.9475 Y764.1698 Z-20.0000 F5000
G1 X330.6048 Y764.1698 Z-20.0000 F5000
G1 X335.9475 Y769.5119 Z-20.0000 F5000
G1 X335.9475 Y793.1663 Z-20.0000 F5000
G1 X288.9496 Y793.1663 Z-20.0000 F5000
G1 X288.9496 Y788.1667 Z-20.0000 F5000
G1 X286.9476 Y788.1667 Z-20.0000 F5000
G1 X286.9476 Y808.1683 Z-20.0000 F5000
G1 X288.9496 Y808.1683 Z-20.0000 F5000
G1 X288.9496 Y803.1688 Z-20.0000 F5000
G1 X335.9475 Y803.1688 Z-20.0000 F5000
G1 X335.9475 Y826.8246 Z-20.0000 F5000
G1 X330.6048 Y832.1666 Z-20.0000 F5000
G1 X312.9475 Y832.1666 Z-20.0000 F5000
G1 X312.9475 Y834.1696 Z-20.0000 F5000
G1 X317.9475 Y834.1696 Z-20.0000 F5000
G1 X317.9475 Y1092.2573 Z-20.0000 F5000
G1 X312.9475 Y1092.2573 Z-20.0000 F5000
G1 X312.9475 Y1094.2602 Z-20.0000 F5000
G1 X330.6049 Y1094.2602 Z-20.0000 F5000
G1 X335.9475 Y1099.6027 Z-20.0000 F5000
G1 X335.9475 Y1156.9149 Z-20.0000 F5000
G1 X330.6049 Y1162.2573 Z-20.0000 F5000
G1 X312.9475 Y1162.2573 Z-20.0000 F5000
G1 X312.9475 Y1164.2601 Z-20.0000 F5000
G1 X317.9475 Y1164.2601 Z-20.0000 F5000
G1 X317.9475 Y1293.3040 Z-20.0000 F5000
G1 X317.9475 Y1293.3040 Z10.0000 F9999
G1 X531.7860 Y1079.8978 Z10.0000 F9999
G1 X531.7860 Y1079.8978 Z1.0000 F2500
G1 X531.7860 Y1040.9266 Z-9.5000 F2500
G1 X531.7860 Y1079.8978 Z-20.0000 F2500
G1 X531.7860 Y965.8990 Z-20.0000 F5000
G1 X536.7860 Y965.8990 Z-20.0000 F5000
G1 X536.7860 Y963.8970 Z-20.0000 F5000
G1 X519.1285 Y963.8970 Z-20.0000 F5000
G1 X513.7860 Y958.5545 Z-20.0000 F5000
G1 X513.7860 Y934.8990 Z-20.0000 F5000
G1 X560.7839 Y934.8990 Z-20.0000 F5000
G1 X560.7839 Y939.8991 Z-20.0000 F5000
G1 X562.7859 Y939.8991 Z-20.0000 F5000
G1 X562.7859 Y919.8971 Z-20.0000 F5000
G1 X560.7839 Y919.8971 Z-20.0000 F5000
G1 X560.7839 Y924.8972 Z-20.0000 F5000
G1 X513.7860 Y924.8972 Z-20.0000 F5000
G1 X513.7860 Y901.2418 Z-20.0000 F5000
G1 X519.1285 Y895.8992 Z-20.0000 F5000
G1 X536.7860 Y895.8992 Z-20.0000 F5000
G1 X536.7860 Y893.8972 Z-20.0000 F5000
G1 X531.7860 Y893.8972 Z-20.0000 F5000
G1 X531.7860 Y665.8997 Z-20.0000 F5000
G1 X536.7860 Y665.8997 Z-20.0000 F5000
G1 X536.7860 Y663.8977 Z-20.0000 F5000
G1 X519.1285 Y663.8977 Z-20.0000 F5000
G1 X513.7860 Y658.5551 Z-20.0000 F5000
G1 X513.7860 Y601.2423 Z-20.0000 F5000
G1 X519.1285 Y595.8998 Z-20.0000 F5000
G1 X536.7860 Y595.8998 Z-20.0000 F5000
G1 X536.7860 Y593.8978 Z-20.0000 F5000
G1 X531.7860 Y593.8978 Z-20.0000 F5000
G1 X531.7860 Y365.9003 Z-20.0000 F5000
G1 X536.7860 Y365.9003 Z-20.0000 F5000
G1 X536.7860 Y363.8983 Z-20.0000 F5000
G1 X519.1285 Y363.8983 Z-20.0000 F5000
G1 X513.7860 Y358.5557 Z-20.0000 F5000
G1 X513.7860 Y336.2946 Z-20.0000 F5000
G1 X513.7860 Y336.2946 Z-10.0000 F9999
G1 X513.7860 Y320.2966 Z-10.0000 F5000
G1 X513.7860 Y320.2966 Z-20.0000 F2500
G1 X513.7860 Y301.2430 Z-20.0000 F5000
G1 X519.1285 Y295.9004 Z-20.0000 F5000
G1 X536.7860 Y295.9004 Z-20.0000 F5000
G1 X536.7860 Y293.8984 Z-20.0000 F5000
G1 X531.7860 Y293.8984 Z-20.0000 F5000
G1 X531.7860 Y65.9009 Z-20.0000 F5000
G1 X536.7860 Y65.9009 Z-20.0000 F5000
G1 X536.7860 Y63.8989 Z-20.0000 F5000
G1 X519.1285 Y63.8989 Z-20.0000 F5000
G1 X513.7860 Y58.5563 Z-20.0000 F5000
G1 X513.7860 Y25.9010 Z-20.0000 F5000
G1 X575.4253 Y25.9010 Z-20.0000 F5000
G1 X575.9730 Y25.8215 Z-20.0000 F5000
G1 X576.2326 Y25.7039 Z-20.0000 F5000
G1 X576.4503 Y25.5100 Z-20.0000 F5000
G1 X576.5972 Y25.2659 Z-20.0000 F5000
G1 X576.6660 Y24.9894 Z-20.0000 F5000
G1 X576.6491 Y24.6984 Z-20.0000 F5000
G1 X576.5488 Y24.4316 Z-20.0000 F5000
G1 X576.2177 Y23.9882 Z-20.0000 F5000
G1 X573.2888 Y21.0593 Z-20.0000 F5000
G1 X571.9027 Y19.2031 Z-20.0000 F5000
G1 X570.9850 Y16.6645 Z-20.0000 F5000
G1 X570.8614 Y13.9681 Z-20.0000 F5000
G1 X571.5033 Y11.4402 Z-20.0000 F5000
G1 X572.8368 Y9.1988 Z-20.0000 F5000
G1 X574.8310 Y7.3796 Z-20.0000 F5000
G1 X577.2749 Y6.2334 Z-20.0000 F5000
G1 X579.5676 Y5.9010 Z-20.0000 F5000
G1 X606.0021 Y5.9010 Z-20.0000 F5000
G1 X608.2948 Y6.2334 Z-20.0000 F5000
G1 X610.7387 Y7.3796 Z-20.0000 F5000
G1 X612.7329 Y9.1988 Z-20.0000 F5000
G1 X614.0664 Y11.4402 Z-20.0000 F5000
G1 X614.7083 Y13.9681 Z-20.0000 F5000
G1 X614.5847 Y16.6645 Z-20.0000 F5000
G1 X613.6670 Y19.2031 Z-20.0000 F5000
G1 X612.2810 Y21.0593 Z-20.0000 F5000
G1 X609.3521 Y23.9882 Z-20.0000 F5000
G1 X609.0209 Y24.4316 Z-20.0000 F5000
G1 X608.9206 Y24.6984 Z-20.0000 F5000
G1 X608.9037 Y24.9894 Z-20.0000 F5000
G1 X608.9725 Y25.2659 Z-20.0000 F5000
G1 X609.1194 Y25.5100 Z-20.0000 F5000
G1 X609.3372 Y25.7039 Z-20.0000 F5000
G1 X609.5967 Y25.8215 Z-20.0000 F5000
G1 X610.1444 Y25.9010 Z-20.0000 F5000
G1 X671.7837 Y25.9010 Z-20.0000 F5000
G1 X671.7837 Y58.5563 Z-20.0000 F5000
G1 X666.4412 Y63.8989 Z-20.0000 F5000
G1 X648.7837 Y63.8989 Z-20.0000 F5000
G1 X648.7837 Y65.9009 Z-20.0000 F5000
G1 X653.7837 Y65.9009 Z-20.0000 F5000
G1 X653.7837 Y293.8984 Z-20.0000 F5000
G1 X648.7837 Y293.8984 Z-20.0000 F5000
G1 X648.7837 Y295.9004 Z-20.0000 F5000
G1 X666.4412 Y295.9004 Z-20.0000 F5000
G1 X671.7837 Y301.2430 Z-20.0000 F5000
G1 X671.7837 Y319.4338 Z-20.0000 F5000
G1 X671.7837 Y319.4338 Z-10.0000 F9999
G1 X671.7837 Y335.4318 Z-10.0000 F5000
G1 X671.7837 Y335.4318 Z-20.0000 F2500
G1 X671.7837 Y358.5557 Z-20.0000 F5000
G1 X666.4412 Y363.8983 Z-20.0000 F5000
G1 X648.7837 Y363.8983 Z-20.0000 F5000
G1 X648.7837 Y365.9003 Z-20.0000 F5000
G1 X653.7837 Y365.9003 Z-20.0000 F5000
G1 X653.7837 Y593.8978 Z-20.0000 F5000
G1 X648.7837 Y593.8978 Z-20.0000 F5000
G1 X648.7837 Y595.8998 Z-20.0000 F5000
G1 X666.4412 Y595.8998 Z-20.0000 F5000
G1 X671.7837 Y601.2423 Z-20.0000 F5000
G1 X671.7837 Y658.5551 Z-20.0000 F5000
G1 X666.4412 Y663.8977 Z-20.0000 F5000
G1 X648.7837 Y663.8977 Z-20.0000 F5000
G1 X648.7837 Y665.8997 Z-20.0000 F5000
G1 X653.7837 Y665.8997 Z-20.0000 F5000
G1 X653.7837 Y893.8972 Z-20.0000 F5000
G1 X648.7837 Y893.8972 Z-20.0000 F5000
G1 X648.7837 Y895.8992 Z-20.0000 F5000
G1 X666.4412 Y895.8992 Z-20.0000 F5000
G1 X671.7837 Y901.2418 Z-20.0000 F5000
G1 X671.7837 Y924.8972 Z-20.0000 F5000
G1 X624.7858 Y924.8972 Z-20.0000 F5000
G1 X624.7858 Y919.8971 Z-20.0000 F5000
G1 X622.7838 Y919.8971 Z-20.0000 F5000
G1 X622.7838 Y939.8991 Z-20.0000 F5000
G1 X624.7858 Y939.8991 Z-20.0000 F5000
G1 X624.7858 Y934.8990 Z-20.0000 F5000
G1 X671.7837 Y934.8990 Z-20.0000 F5000
G1 X671.7837 Y958.5545 Z-20.0000 F5000
G1 X666.4412 Y963.8970 Z-20.0000 F5000
G1 X648.7837 Y963.8970 Z-20.0000 F5000
G1 X648.7837 Y965.8990 Z-20.0000 F5000
G1 X653.7837 Y965.8990 Z-20.0000 F5000
G1 X653.7837 Y1193.8966 Z-20.0000 F5000
G1 X648.7837 Y1193.8966 Z-20.0000 F5000
G1 X648.7837 Y1195.8986 Z-20.0000 F5000
G1 X666.4412 Y1195.8986 Z-20.0000 F5000
G1 X671.7837 Y1201.2411 Z-20.0000 F5000
G1 X671.7837 Y1258.5539 Z-20.0000 F5000
G1 X666.4412 Y1263.8964 Z-20.0000 F5000
G1 X648.7837 Y1263.8964 Z-20.0000 F5000
G1 X648.7837 Y1265.8984 Z-20.0000 F5000
G1 X653.7837 Y1265.8984 Z-20.0000 F5000
G1 X653.7837 Y1383.8963 Z-20.0000 F5000
G1 X630.7861 Y1383.8963 Z-20.0000 F5000
G1 X630.7861 Y1385.8983 Z-20.0000 F5000
G1 X635.7862 Y1385.8983 Z-20.0000 F5000
G1 X635.7837 Y1493.8959 Z-20.0000 F5000
G1 X630.7838 Y1493.8959 Z-20.0000 F5000
G1 X630.7838 Y1495.8979 Z-20.0000 F5000
G1 X666.4412 Y1495.8979 Z-20.0000 F5000
G1 X671.7837 Y1501.2405 Z-20.0000 F5000
G1 X671.7837 Y1558.5532 Z-20.0000 F5000
G1 X666.4412 Y1563.8958 Z-20.0000 F5000
G1 X630.7838 Y1563.8958 Z-20.0000 F5000
G1 X630.7838 Y1565.8978 Z-20.0000 F5000
G1 X635.7838 Y1565.8978 Z-20.0000 F5000
G1 X635.7838 Y1793.8953 Z-20.0000 F5000
G1 X630.7838 Y1793.8953 Z-20.0000 F5000
G1 X630.7838 Y1795.8973 Z-20.0000 F5000
G1 X666.4412 Y1795.8973 Z-20.0000 F5000
G1 X671.7837 Y1801.2399 Z-20.0000 F5000
G1 X671.7837 Y1818.9812 Z-20.0000 F5000
G1 X671.7837 Y1818.9812 Z-10.0000 F9999
G1 X671.7837 Y1834.9792 Z-10.0000 F5000
G1 X671.7837 Y1834.9792 Z-20.0000 F2500
G1 X671.7837 Y1858.5528 Z-20.0000 F5000
G1 X666.4412 Y1863.8953 Z-20.0000 F5000
G1 X630.7838 Y1863.8953 Z-20.0000 F5000
G1 X630.7838 Y1865.8972 Z-20.0000 F5000
G1 X635.7838 Y1865.8972 Z-20.0000 F5000
G1 X635.7838 Y1995.3950 Z-20.0000 F5000
G1 X549.7859 Y1995.3950 Z-20.0000 F5000
G1 X549.7859 Y1865.8972 Z-20.0000 F5000
G1 X554.7859 Y1865.8972 Z-20.0000 F5000
G1 X554.7859 Y1863.8953 Z-20.0000 F5000
G1 X519.1285 Y1863.8953 Z-20.0000 F5000
G1 X513.7860 Y1858.5528 Z-20.0000 F5000
G1 X513.7860 Y1837.5676 Z-20.0000 F5000
G1 X513.7860 Y1837.5676 Z-10.0000 F9999
G1 X513.7860 Y1821.5696 Z-10.0000 F5000
G1 X513.7860 Y1821.5696 Z-20.0000 F2500
G1 X513.7860 Y1801.2399 Z-20.0000 F5000
G1 X519.1285 Y1795.8973 Z-20.0000 F5000
G1 X554.7859 Y1795.8973 Z-20.0000 F5000
G1 X554.7859 Y1793.8953 Z-20.0000 F5000
G1 X549.7859 Y1793.8953 Z-20.0000 F5000
G1 X549.7859 Y1565.8978 Z-20.0000 F5000
G1 X554.7859 Y1565.8978 Z-20.0000 F5000
G1 X554.7859 Y1563.8958 Z-20.0000 F5000
G1 X519.1285 Y1563.8958 Z-20.0000 F5000
G1 X513.7860 Y1558.5532 Z-20.0000 F5000
G1 X513.7860 Y1501.2405 Z-20.0000 F5000
G1 X519.1285 Y1495.8979 Z-20.0000 F5000
G1 X554.7859 Y1495.8979 Z-20.0000 F5000
G1 X554.7859 Y1493.8959 Z-20.0000 F5000
G1 X549.7859 Y1493.8959 Z-20.0000 F5000
G1 X549.7859 Y1385.8983 Z-20.0000 F5000
G1 X554.7859 Y1385.8983 Z-20.0000 F5000
G1 X554.7859 Y1383.8963 Z-20.0000 F5000
G1 X531.7860 Y1383.8963 Z-20.0000 F5000
G1 X531.7860 Y1265.8984 Z-20.0000 F5000
G1 X536.7860 Y1265.8984 Z-20.0000 F5000
G1 X536.7860 Y1263.8964 Z-20.0000 F5000
G1 X519.1285 Y1263.8964 Z-20.0000 F5000
G1 X513.7860 Y1258.5539 Z-20.0000 F5000
G1 X513.7860 Y1201.2411 Z-20.0000 F5000
G1 X519.1285 Y1195.8986 Z-20.0000 F5000
G1 X536.7860 Y1195.8986 Z-20.0000 F5000
G1 X536.7860 Y1193.8966 Z-20.0000 F5000
G1 X531.7860 Y1193.8966 Z-20.0000 F5000
G1 X531.7860 Y1079.8978 Z-20.0000 F5000
G1 X531.7860 Y1079.8978 Z10.0000 F9999
G1 X875.8836 Y1079.8978 Z10.0000 F9999
G1 X875.8836 Y1079.8978 Z1.0000 F2500
G1 X875.8836 Y1040.9266 Z-9.5000 F2500
G1 X875.8836 Y1079.8978 Z-20.0000 F2500
G1 X875.8836 Y965.8990 Z-20.0000 F5000
G1 X880.8836 Y965.8990 Z-20.0000 F5000
G1 X880.8836 Y963.8970 Z-20.0000 F5000
G1 X863.2262 Y963.8970 Z-20.0000 F5000
G1 X857.8837 Y958.5545 Z-20.0000 F5000
G1 X857.8837 Y934.8990 Z-20.0000 F5000
G1 X904.8816 Y934.8990 Z-20.0000 F5000
G1 X904.8816 Y939.8991 Z-20.0000 F5000
G1 X906.8836 Y939.8991 Z-20.0000 F5000
G1 X906.8836 Y919.8971 Z-20.0000 F5000
G1 X904.8816 Y919.8971 Z-20.0000 F5000
G1 X904.8816 Y924.8972 Z-20.0000 F5000
G1 X857.8837 Y924.8972 Z-20.0000 F5000
G1 X857.8837 Y901.2418 Z-20.0000 F5000
G1 X863.2262 Y895.8992 Z-20.0000 F5000
G1 X880.8836 Y895.8992 Z-20.0000 F5000
G1 X880.8836 Y893.8972 Z-20.0000 F5000
G1 X875.8836 Y893.8972 Z-20.0000 F5000
G1 X875.8836 Y665.8997 Z-20.0000 F5000
G1 X880.8836 Y665.8997 Z-20.0000 F5000
G1 X880.8836 Y663.8977 Z-20.0000 F5000
G1 X863.2262 Y663.8977 Z-20.0000 F5000
G1 X857.8837 Y658.5551 Z-20.0000 F5000
G1 X857.8837 Y601.2423 Z-20.0000 F5000
G1 X863.2262 Y595.8998 Z-20.0000 F5000
G1 X880.8836 Y595.8998 Z-20.0000 F5000
G1 X880.8836 Y593.8978 Z-20.0000 F5000
G1 X875.8836 Y593.8978 Z-20.0000 F5000
G1 X875.8836 Y365.9003 Z-20.0000 F5000
G1 X880.8836 Y365.9003 Z-20.0000 F5000
G1 X880.8836 Y363.8983 Z-20.0000 F5000
G1 X863.2262 Y363.8983 Z-20.0000 F5000
G1 X857.8837 Y358.5557 Z-20.0000 F5000
G1 X857.8837 Y337.1574 Z-20.0000 F5000
G1 X857.8837 Y337.1574 Z-10.0000 F9999
G1 X857.8837 Y321.1594 Z-10.0000 F5000
G1 X857.8837 Y321.1594 Z-20.0000 F2500
G1 X857.8837 Y301.2430 Z-20.0000 F5000
G1 X863.2262 Y295.9004 Z-20.0000 F5000
G1 X880.8836 Y295.9004 Z-20.0000 F5000
G1 X880.8836 Y293.8984 Z-20.0000 F5000
G1 X875.8836 Y293.8984 Z-20.0000 F5000
G1 X875.8836 Y65.9009 Z-20.0000 F5000
G1 X880.8836 Y65.9009 Z-20.0000 F5000
G1 X880.8836 Y63.8989 Z-20.0000 F5000
G1 X863.2262 Y63.8989 Z-20.0000 F5000
G1 X857.8837 Y58.5563 Z-20.0000 F5000
G1 X857.8837 Y25.9010 Z-20.0000 F5000
G1 X919.5230 Y25.9010 Z-20.0000 F5000
G1 X920.0707 Y25.8215 Z-20.0000 F5000
G1 X920.3302 Y25.7039 Z-20.0000 F5000
G1 X920.5479 Y25.5100 Z-20.0000 F5000
G1 X920.6949 Y25.2659 Z-20.0000 F5000
G1 X920.7636 Y24.9894 Z-20.0000 F5000
G1 X920.7467 Y24.6984 Z-20.0000 F5000
G1 X920.6464 Y24.4316 Z-20.0000 F5000
G1 X920.3153 Y23.9882 Z-20.0000 F5000
G1 X917.3864 Y21.0593 Z-20.0000 F5000
G1 X916.0004 Y19.2031 Z-20.0000 F5000
G1 X915.0826 Y16.6645 Z-20.0000 F5000
G1 X914.9590 Y13.9681 Z-20.0000 F5000
G1 X915.6010 Y11.4402 Z-20.0000 F5000
G1 X916.9345 Y9.1988 Z-20.0000 F5000
G1 X918.9286 Y7.3796 Z-20.0000 F5000
G1 X921.3725 Y6.2334 Z-20.0000 F5000
G1 X923.6652 Y5.9010 Z-20.0000 F5000
G1 X950.0998 Y5.9010 Z-20.0000 F5000
G1 X952.3925 Y6.2334 Z-20.0000 F5000
G1 X954.8363 Y7.3796 Z-20.0000 F5000
G1 X956.8305 Y9.1988 Z-20.0000 F5000
G1 X958.1640 Y11.4402 Z-20.0000 F5000
G1 X958.8059 Y13.9681 Z-20.0000 F5000
G1 X958.6823 Y16.6645 Z-20.0000 F5000
G1 X957.7646 Y19.2031 Z-20.0000 F5000
G1 X956.3786 Y21.0593 Z-20.0000 F5000
G1 X953.4497 Y23.9882 Z-20.0000 F5000
G1 X953.1186 Y24.4316 Z-20.0000 F5000
G1 X953.0183 Y24.6984 Z-20.0000 F5000
G1 X953.0014 Y24.9894 Z-20.0000 F5000
G1 X953.0701 Y25.2659 Z-20.0000 F5000
G1 X953.2171 Y25.5100 Z-20.0000 F5000
G1 X953.4348 Y25.7039 Z-20.0000 F5000
G1 X953.6943 Y25.8215 Z-20.0000 F5000
G1 X954.2420 Y25.9010 Z-20.0000 F5000
G1 X1015.8813 Y25.9010 Z-20.0000 F5000
G1 X1015.8813 Y58.5563 Z-20.0000 F5000
G1 X1010.5388 Y63.8989 Z-20.0000 F5000
G1 X992.8814 Y63.8989 Z-20.0000 F5000
G1 X992.8814 Y65.9009 Z-20.0000 F5000
G1 X997.8814 Y65.9009 Z-20.0000 F5000
G1 X997.8814 Y293.8984 Z-20.0000 F5000
G1 X992.8814 Y293.8984 Z-20.0000 F5000
G1 X992.8814 Y295.9004 Z-20.0000 F5000
G1 X1010.5388 Y295.9004 Z-20.0000 F5000
G1 X1015.8813 Y301.2430 Z-20.0000 F5000
G1 X1015.8813 Y322.0222 Z-20.0000 F5000
G1 X1015.8813 Y322.0222 Z-10.0000 F9999
G1 X1015.8813 Y338.0202 Z-10.0000 F5000
G1 X1015.8813 Y338.0202 Z-20.0000 F2500
G1 X1015.8813 Y358.5557 Z-20.0000 F5000
G1 X1010.5388 Y363.8983 Z-20.0000 F5000
G1 X992.8814 Y363.8983 Z-20.0000 F5000
G1 X992.8814 Y365.9003 Z-20.0000 F5000
G1 X997.8814 Y365.9003 Z-20.0000 F5000
G1 X997.8814 Y593.8978 Z-20.0000 F5000
G1 X992.8814 Y593.8978 Z-20.0000 F5000
G1 X992.8814 Y595.8998 Z-20.0000 F5000
G1 X1010.5388 Y595.8998 Z-20.0000 F5000
G1 X1015.8813 Y601.2423 Z-20.0000 F5000
G1 X1015.8813 Y658.5551 Z-20.0000 F5000
G1 X1010.5388 Y663.8977 Z-20.0000 F5000
G1 X992.8814 Y663.8977 Z-20.0000 F5000
G1 X992.8814 Y665.8997 Z-20.0000 F5000
G1 X997.8814 Y665.8997 Z-20.0000 F5000
G1 X997.8814 Y893.8972 Z-20.0000 F5000
G1 X992.8814 Y893.8972 Z-20.0000 F5000
G1 X992.8814 Y895.8992 Z-20.0000 F5000
G1 X1010.5388 Y895.8992 Z-20.0000 F5000
G1 X1015.8813 Y901.2418 Z-20.0000 F5000
G1 X1015.8813 Y924.8972 Z-20.0000 F5000
G1 X968.8834 Y924.8972 Z-20.0000 F5000
G1 X968.8834 Y919.8971 Z-20.0000 F5000
G1 X966.8814 Y919.8971 Z-20.0000 F5000
G1 X966.8814 Y939.8991 Z-20.0000 F5000
G1 X968.8834 Y939.8991 Z-20.0000 F5000
G1 X968.8834 Y934.8990 Z-20.0000 F5000
G1 X1015.8813 Y934.8990 Z-20.0000 F5000
G1 X1015.8813 Y958.5545 Z-20.0000 F5000
G1 X1010.5388 Y963.8970 Z-20.0000 F5000
G1 X992.8814 Y963.8970 Z-20.0000 F5000
G1 X992.8814 Y965.8990 Z-20.0000 F5000
G1 X997.8814 Y965.8990 Z-20.0000 F5000
G1 X997.8814 Y1193.8966 Z-20.0000 F5000
G1 X992.8814 Y1193.8966 Z-20.0000 F5000
G1 X992.8814 Y1195.8986 Z-20.0000 F5000
G1 X1010.5388 Y1195.8986 Z-20.0000 F5000
G1 X1015.8813 Y1201.2411 Z-20.0000 F5000
G1 X1015.8813 Y1258.5539 Z-20.0000 F5000
G1 X1010.5388 Y1263.8964 Z-20.0000 F5000
G1 X992.8814 Y1263.8964 Z-20.0000 F5000
G1 X992.8814 Y1265.8984 Z-20.0000 F5000
G1 X997.8814 Y1265.8984 Z-20.0000 F5000
G1 X997.8814 Y1383.8963 Z-20.0000 F5000
G1 X974.8838 Y1383.8963 Z-20.0000 F5000
G1 X974.8838 Y1385.8983 Z-20.0000 F5000
G1 X979.8838 Y1385.8983 Z-20.0000 F5000
G1 X979.8813 Y1493.8959 Z-20.0000 F5000
G1 X974.8814 Y1493.8959 Z-20.0000 F5000
G1 X974.8814 Y1495.8979 Z-20.0000 F5000
G1 X1010.5388 Y1495.8979 Z-20.0000 F5000
G1 X1015.8813 Y1501.2405 Z-20.0000 F5000
G1 X1015.8813 Y1558.5532 Z-20.0000 F5000
G1 X1010.5388 Y1563.8958 Z-20.0000 F5000
G1 X974.8814 Y1563.8958 Z-20.0000 F5000
G1 X974.8814 Y1565.8978 Z-20.0000 F5000
G1 X979.8814 Y1565.8978 Z-20.0000 F5000
G1 X979.8814 Y1793.8953 Z-20.0000 F5000
G1 X974.8814 Y1793.8953 Z-20.0000 F5000
G1 X974.8814 Y1795.8973 Z-20.0000 F5000
G1 X1010.5388 Y1795.8973 Z-20.0000 F5000
G1 X1015.8813 Y1801.2399 Z-20.0000 F5000
G1 X1015.8813 Y1820.2754 Z-20.0000 F5000
G1 X1015.8813 Y1820.2754 Z-10.0000 F9999
G1 X1015.8813 Y1836.2734 Z-10.0000 F5000
G1 X1015.8813 Y1836.2734 Z-20.0000 F2500
G1 X1015.8813 Y1858.5528 Z-20.0000 F5000
G1 X1010.5388 Y1863.8953 Z-20.0000 F5000
G1 X974.8814 Y1863.8953 Z-20.0000 F5000
G1 X974.8814 Y1865.8972 Z-20.0000 F5000
G1 X979.8814 Y1865.8972 Z-20.0000 F5000
G1 X979.8814 Y1995.3950 Z-20.0000 F5000
G1 X893.8836 Y1995.3950 Z-20.0000 F5000
G1 X893.8836 Y1865.8972 Z-20.0000 F5000
G1 X898.8836 Y1865.8972 Z-20.0000 F5000
G1 X898.8836 Y1863.8953 Z-20.0000 F5000
G1 X863.2262 Y1863.8953 Z-20.0000 F5000
G1 X857.8837 Y1858.5528 Z-20.0000 F5000
G1 X857.8837 Y1838.4304 Z-20.0000 F5000
G1 X857.8837 Y1838.4304 Z-10.0000 F9999
G1 X857.8837 Y1822.4324 Z-10.0000 F5000
G1 X857.8837 Y1822.4324 Z-20.0000 F2500
G1 X857.8837 Y1801.2399 Z-20.0000 F5000
G1 X863.2262 Y1795.8973 Z-20.0000 F5000
G1 X898.8836 Y1795.8973 Z-20.0000 F5000
G1 X898.8836 Y1793.8953 Z-20.0000 F5000
G1 X893.8836 Y1793.8953 Z-20.0000 F5000
G1 X893.8836 Y1565.8978 Z-20.0000 F5000
G1 X898.8836 Y1565.8978 Z-20.0000 F5000
G1 X898.8836 Y1563.8958 Z-20.0000 F5000
G1 X863.2262 Y1563.8958 Z-20.0000 F5000
G1 X857.8837 Y1558.5532 Z-20.0000 F5000
G1 X857.8837 Y1501.2405 Z-20.0000 F5000
G1 X863.2262 Y1495.8979 Z-20.0000 F5000
G1 X898.8836 Y1495.8979 Z-20.0000 F5000
G1 X898.8836 Y1493.8959 Z-20.0000 F5000
G1 X893.8836 Y1493.8959 Z-20.0000 F5000
G1 X893.8836 Y1385.8983 Z-20.0000 F5000
G1 X898.8836 Y1385.8983 Z-20.0000 F5000
G1 X898.8836 Y1383.8963 Z-20.0000 F5000
G1 X875.8836 Y1383.8963 Z-20.0000 F5000
G1 X875.8836 Y1265.8984 Z-20.0000 F5000
G1 X880.8836 Y1265.8984 Z-20.0000 F5000
G1 X880.8836 Y1263.8964 Z-20.0000 F5000
G1 X863.2262 Y1263.8964 Z-20.0000 F5000
G1 X857.8837 Y1258.5539 Z-20.0000 F5000
G1 X857.8837 Y1201.2411 Z-20.0000 F5000
G1 X863.2262 Y1195.8986 Z-20.0000 F5000
G1 X880.8836 Y1195.8986 Z-20.0000 F5000
G1 X880.8836 Y1193.8966 Z-20.0000 F5000
G1 X875.8836 Y1193.8966 Z-20.0000 F5000
G1 X875.8836 Y1079.8978 Z-20.0000 F5000
G1 X875.8836 Y1079.8978 Z10.0000 F9999
G1 X145.8987 Y1293.3040 Z10.0000 F9999
G1 X145.8987 Y1293.3040 Z1.0000 F2500
G1 X145.8987 Y1332.2751 Z-9.5000 F2500
G1 X145.8987 Y1293.3040 Z-20.0000 F2500
G1 X145.8987 Y1422.3479 Z-20.0000 F5000
G1 X140.8987 Y1422.3479 Z-20.0000 F5000
G1 X140.8987 Y1424.3507 Z-20.0000 F5000
G1 X158.5561 Y1424.3507 Z-20.0000 F5000
G1 X163.8986 Y1429.6930 Z-20.0000 F5000
G1 X163.8986 Y1453.3487 Z-20.0000 F5000
G1 X116.9008 Y1453.3487 Z-20.0000 F5000
G1 X116.9008 Y1448.3492 Z-20.0000 F5000
G1 X114.8988 Y1448.3492 Z-20.0000 F5000
G1 X114.8988 Y1468.3507 Z-20.0000 F5000
G1 X116.9008 Y1468.3507 Z-20.0000 F5000
G1 X116.9008 Y1463.3512 Z-20.0000 F5000
G1 X163.8986 Y1463.3512 Z-20.0000 F5000
G1 X163.8986 Y1487.0056 Z-20.0000 F5000
G1 X158.5560 Y1492.3476 Z-20.0000 F5000
G1 X140.8987 Y1492.3476 Z-20.0000 F5000
G1 X140.8987 Y1494.3505 Z-20.0000 F5000
G1 X145.8987 Y1494.3505 Z-20.0000 F5000
G1 X145.8987 Y1612.3488 Z-20.0000 F5000
G1 X122.9011 Y1612.3488 Z-20.0000 F5000
G1 X122.9011 Y1614.3515 Z-20.0000 F5000
G1 X127.9012 Y1614.3515 Z-20.0000 F5000
G1 X127.8987 Y1722.3474 Z-20.0000 F5000
G1 X122.8988 Y1722.3474 Z-20.0000 F5000
G1 X122.8988 Y1724.3502 Z-20.0000 F5000
G1 X158.5561 Y1724.3502 Z-20.0000 F5000
G1 X163.8986 Y1729.6925 Z-20.0000 F5000
G1 X163.8986 Y1787.0051 Z-20.0000 F5000
G1 X158.5560 Y1792.3470 Z-20.0000 F5000
G1 X122.8988 Y1792.3470 Z-20.0000 F5000
G1 X122.8988 Y1794.3501 Z-20.0000 F5000
G1 X127.8988 Y1794.3501 Z-20.0000 F5000
G1 X127.8988 Y2022.3475 Z-20.0000 F5000
G1 X122.8988 Y2022.3475 Z-20.0000 F5000
G1 X122.8988 Y2024.3493 Z-20.0000 F5000
G1 X158.5562 Y2024.3493 Z-20.0000 F5000
G1 X163.8986 Y2029.6921 Z-20.0000 F5000
G1 X163.8986 Y2087.0046 Z-20.0000 F5000
G1 X158.5562 Y2092.3472 Z-20.0000 F5000
G1 X122.8988 Y2092.3472 Z-20.0000 F5000
G1 X122.8988 Y2094.3493 Z-20.0000 F5000
G1 X127.8988 Y2094.3493 Z-20.0000 F5000
G1 X127.8988 Y2282.7282 Z-20.0000 F5000
G1 X41.9009 Y2282.7282 Z-20.0000 F5000
G1 X41.9009 Y2094.3493 Z-20.0000 F5000
G1 X46.9009 Y2094.3493 Z-20.0000 F5000
G1 X46.9009 Y2092.3472 Z-20.0000 F5000
G1 X11.2435 Y2092.3472 Z-20.0000 F5000
G1 X5.9010 Y2087.0046 Z-20.0000 F5000
G1 X5.9010 Y2029.6921 Z-20.0000 F5000
G1 X11.2434 Y2024.3493 Z-20.0000 F5000
G1 X46.9009 Y2024.3493 Z-20.0000 F5000
G1 X46.9009 Y2022.3475 Z-20.0000 F5000
G1 X41.9009 Y2022.3475 Z-20.0000 F5000
G1 X41.9009 Y1794.3501 Z-20.0000 F5000
G1 X46.9009 Y1794.3501 Z-20.0000 F5000
G1 X46.9009 Y1792.3470 Z-20.0000 F5000
G1 X11.2437 Y1792.3470 Z-20.0000 F5000
G1 X5.9010 Y1787.0051 Z-20.0000 F5000
G1 X5.9010 Y1729.6925 Z-20.0000 F5000
G1 X11.2435 Y1724.3502 Z-20.0000 F5000
G1 X46.9009 Y1724.3502 Z-20.0000 F5000
G1 X46.9009 Y1722.3474 Z-20.0000 F5000
G1 X41.9009 Y1722.3474 Z-20.0000 F5000
G1 X41.9009 Y1614.3515 Z-20.0000 F5000
G1 X46.9009 Y1614.3515 Z-20.0000 F5000
G1 X46.9009 Y1612.3488 Z-20.0000 F5000
G1 X23.9009 Y1612.3488 Z-20.0000 F5000
G1 X23.9009 Y1494.3505 Z-20.0000 F5000
G1 X28.9009 Y1494.3505 Z-20.0000 F5000
G1 X28.9009 Y1492.3476 Z-20.0000 F5000
G1 X11.2437 Y1492.3476 Z-20.0000 F5000
G1 X5.9010 Y1487.0056 Z-20.0000 F5000
G1 X5.9010 Y1463.3512 Z-20.0000 F5000
G1 X52.8989 Y1463.3512 Z-20.0000 F5000
G1 X52.8989 Y1468.3507 Z-20.0000 F5000
G1 X54.9009 Y1468.3507 Z-20.0000 F5000
G1 X54.9009 Y1448.3492 Z-20.0000 F5000
G1 X52.8989 Y1448.3492 Z-20.0000 F5000
G1 X52.8989 Y1453.3487 Z-20.0000 F5000
G1 X5.9010 Y1453.3487 Z-20.0000 F5000
G1 X5.9010 Y1429.6930 Z-20.0000 F5000
G1 X11.2435 Y1424.3507 Z-20.0000 F5000
G1 X28.9009 Y1424.3507 Z-20.0000 F5000
G1 X28.9009 Y1422.3479 Z-20.0000 F5000
G1 X23.9009 Y1422.3479 Z-20.0000 F5000
G1 X23.9009 Y1164.2601 Z-20.0000 F5000
G1 X28.9009 Y1164.2601 Z-20.0000 F5000
G1 X28.9009 Y1162.2573 Z-20.0000 F5000
G1 X11.2435 Y1162.2573 Z-20.0000 F5000
G1 X5.9010 Y1156.9149 Z-20.0000 F5000
G1 X5.9010 Y1099.6027 Z-20.0000 F5000
G1 X11.2435 Y1094.2602 Z-20.0000 F5000
G1 X28.9009 Y1094.2602 Z-20.0000 F5000
G1 X28.9009 Y1092.2573 Z-20.0000 F5000
G1 X23.9009 Y1092.2573 Z-20.0000 F5000
G1 X23.9009 Y834.1696 Z-20.0000 F5000
G1 X28.9009 Y834.1696 Z-20.0000 F5000
G1 X28.9009 Y832.1666 Z-20.0000 F5000
G1 X11.2437 Y832.1666 Z-20.0000 F5000
G1 X5.9010 Y826.8246 Z-20.0000 F5000
G1 X5.9010 Y803.1688 Z-20.0000 F5000
G1 X52.8989 Y803.1688 Z-20.0000 F5000
G1 X52.8989 Y808.1683 Z-20.0000 F5000
G1 X54.9009 Y808.1683 Z-20.0000 F5000
G1 X54.9009 Y788.1667 Z-20.0000 F5000
G1 X52.8989 Y788.1667 Z-20.0000 F5000
G1 X52.8989 Y793.1663 Z-20.0000 F5000
G1 X5.9010 Y793.1663 Z-20.0000 F5000
G1 X5.9010 Y769.5119 Z-20.0000 F5000
G1 X11.2436 Y764.1698 Z-20.0000 F5000
G1 X28.9009 Y764.1698 Z-20.0000 F5000
G1 X28.9009 Y762.1669 Z-20.0000 F5000
G1 X23.9009 Y762.1669 Z-20.0000 F5000
G1 X23.9009 Y644.1687 Z-20.0000 F5000
G1 X46.9009 Y644.1687 Z-20.0000 F5000
G1 X46.9009 Y642.1660 Z-20.0000 F5000
G1 X41.9009 Y642.1660 Z-20.0000 F5000
G1 X41.9009 Y534.1701 Z-20.0000 F5000
G1 X46.9009 Y534.1701 Z-20.0000 F5000
G1 X46.9009 Y532.1672 Z-20.0000 F5000
G1 X11.2436 Y532.1672 Z-20.0000 F5000
G1 X5.9010 Y526.8251 Z-20.0000 F5000
G1 X5.9010 Y469.5124 Z-20.0000 F5000
G1 X11.2436 Y464.1704 Z-20.0000 F5000
G1 X46.9009 Y464.1704 Z-20.0000 F5000
G1 X46.9009 Y462.1676 Z-20.0000 F5000
G1 X41.9009 Y462.1676 Z-20.0000 F5000
G1 X41.9009 Y234.1707 Z-20.0000 F5000
G1 X46.9009 Y234.1707 Z-20.0000 F5000
G1 X46.9009 Y232.1676 Z-20.0000 F5000
G1 X11.2437 Y232.1676 Z-20.0000 F5000
G1 X5.9010 Y226.8257 Z-20.0000 F5000
G1 X5.9010 Y169.5132 Z-20.0000 F5000
G1 X11.2435 Y164.1707 Z-20.0000 F5000
G1 X46.9009 Y164.1707 Z-20.0000 F5000
G1 X46.9009 Y162.1679 Z-20.0000 F5000
G1 X41.9009 Y162.1679 Z-20.0000 F5000
G1 X41.9009 Y5.9010 Z-20.0000 F5000
G1 X127.8988 Y5.9010 Z-20.0000 F5000
G1 X127.8988 Y162.1679 Z-20.0000 F5000
G1 X122.8988 Y162.1679 Z-20.0000 F5000
G1 X122.8988 Y164.1707 Z-20.0000 F5000
G1 X158.5562 Y164.1707 Z-20.0000 F5000
G1 X163.8986 Y169.5132 Z-20.0000 F5000
G1 X163.8986 Y226.8257 Z-20.0000 F5000
G1 X158.5560 Y232.1676 Z-20.0000 F5000
G1 X122.8988 Y232.1676 Z-20.0000 F5000
G1 X122.8988 Y234.1707 Z-20.0000 F5000
G1 X127.8988 Y234.1707 Z-20.0000 F5000
G1 X127.8988 Y462.1676 Z-20.0000 F5000
G1 X122.8988 Y462.1676 Z-20.0000 F5000
G1 X122.8988 Y464.1704 Z-20.0000 F5000
G1 X158.5560 Y464.1704 Z-20.0000 F5000
G1 X163.8986 Y469.5124 Z-20.0000 F5000
G1 X163.8986 Y526.8251 Z-20.0000 F5000
G1 X158.5560 Y532.1672 Z-20.0000 F5000
G1 X122.8988 Y532.1672 Z-20.0000 F5000
G1 X122.8988 Y534.1701 Z-20.0000 F5000
G1 X127.8987 Y534.1701 Z-20.0000 F5000
G1 X127.9012 Y642.1660 Z-20.0000 F5000
G1 X122.9011 Y642.1660 Z-20.0000 F5000
G1 X122.9011 Y644.1687 Z-20.0000 F5000
G1 X145.8987 Y644.1687 Z-20.0000 F5000
G1 X145.8987 Y762.1669 Z-20.0000 F5000
G1 X140.8987 Y762.1669 Z-20.0000 F5000
G1 X140.8987 Y764.1698 Z-20.0000 F5000
G1 X158.5560 Y764.1698 Z-20.0000 F5000
G1 X163.8986 Y769.5119 Z-20.0000 F5000
G1 X163.8986 Y793.1663 Z-20.0000 F5000
G1 X116.9008 Y793.1663 Z-20.0000 F5000
G1 X116.9008 Y788.1667 Z-20.0000 F5000
G1 X114.8988 Y788.1667 Z-20.0000 F5000
G1 X114.8988 Y808.1683 Z-20.0000 F5000
G1 X116.9008 Y808.1683 Z-20.0000 F5000
G1 X116.9008 Y803.1688 Z-20.0000 F5000
G1 X163.8986 Y803.1688 Z-20.0000 F5000
G1 X163.8986 Y826.8246 Z-20.0000 F5000
G1 X158.5560 Y832.1666 Z-20.0000 F5000
G1 X140.8987 Y832.1666 Z-20.0000 F5000
G1 X140.8987 Y834.1696 Z-20.0000 F5000
G1 X145.8987 Y834.1696 Z-20.0000 F5000
G1 X145.8987 Y1092.2573 Z-20.0000 F5000
G1 X140.8987 Y1092.2573 Z-20.0000 F5000
G1 X140.8987 Y1094.2602 Z-20.0000 F5000
G1 X158.5561 Y1094.2602 Z-20.0000 F5000
G1 X163.8986 Y1099.6027 Z-20.0000 F5000
G1 X163.8986 Y1156.9149 Z-20.0000 F5000
G1 X158.5561 Y1162.2573 Z-20.0000 F5000
G1 X140.8987 Y1162.2573 Z-20.0000 F5000
G1 X140.8987 Y1164.2601 Z-20.0000 F5000
G1 X145.8987 Y1164.2601 Z-20.0000 F5000
G1 X145.8987 Y1293.3040 Z-20.0000 F5000
G1 X145.8987 Y1293.3040 Z10.0000 F9999
G1 X1047.9324 Y1079.8978 Z10.0000 F9999
G1 X1047.9324 Y1079.8978 Z1.0000 F2500
G1 X1047.9324 Y1040.9266 Z-9.5000 F2500
G1 X1047.9324 Y1079.8978 Z-20.0000 F2500
G1 X1047.9324 Y965.8990 Z-20.0000 F5000
G1 X1052.9324 Y965.8990 Z-20.0000 F5000
G1 X1052.9324 Y963.8970 Z-20.0000 F5000
G1 X1035.2750 Y963.8970 Z-20.0000 F5000
G1 X1029.9325 Y958.5545 Z-20.0000 F5000
G1 X1029.9325 Y934.8990 Z-20.0000 F5000
G1 X1076.9304 Y934.8990 Z-20.0000 F5000
G1 X1076.9304 Y939.8991 Z-20.0000 F5000
G1 X1078.9324 Y939.8991 Z-20.0000 F5000
G1 X1078.9324 Y919.8971 Z-20.0000 F5000
G1 X1076.9304 Y919.8971 Z-20.0000 F5000
G1 X1076.9304 Y924.8972 Z-20.0000 F5000
G1 X1029.9325 Y924.8972 Z-20.0000 F5000
G1 X1029.9325 Y901.2418 Z-20.0000 F5000
G1 X1035.2750 Y895.8992 Z-20.0000 F5000
G1 X1052.9324 Y895.8992 Z-20.0000 F5000
G1 X1052.9324 Y893.8972 Z-20.0000 F5000
G1 X1047.9324 Y893.8972 Z-20.0000 F5000
G1 X1047.9324 Y665.8997 Z-20.0000 F5000
G1 X1052.9324 Y665.8997 Z-20.0000 F5000
G1 X1052.9324 Y663.8977 Z-20.0000 F5000
G1 X1035.2750 Y663.8977 Z-20.0000 F5000
G1 X1029.9325 Y658.5551 Z-20.0000 F5000
G1 X1029.9325 Y601.2423 Z-20.0000 F5000
G1 X1035.2750 Y595.8998 Z-20.0000 F5000
G1 X1052.9324 Y595.8998 Z-20.0000 F5000
G1 X1052.9324 Y593.8978 Z-20.0000 F5000
G1 X1047.9324 Y593.8978 Z-20.0000 F5000
G1 X1047.9324 Y365.9003 Z-20.0000 F5000
G1 X1052.9324 Y365.9003 Z-20.0000 F5000
G1 X1052.9324 Y363.8983 Z-20.0000 F5000
G1 X1035.2750 Y363.8983 Z-20.0000 F5000
G1 X1029.9325 Y358.5557 Z-20.0000 F5000
G1 X1029.9325 Y301.2430 Z-20.0000 F5000
G1 X1035.2750 Y295.9004 Z-20.0000 F5000
G1 X1052.9324 Y295.9004 Z-20.0000 F5000
G1 X1052.9324 Y293.8984 Z-20.0000 F5000
G1 X1047.9324 Y293.8984 Z-20.0000 F5000
G1 X1047.9324 Y65.9009 Z-20.0000 F5000
G1 X1052.9324 Y65.9009 Z-20.0000 F5000
G1 X1052.9324 Y63.8989 Z-20.0000 F5000
G1 X1035.2750 Y63.8989 Z-20.0000 F5000
G1 X1029.9325 Y58.5563 Z-20.0000 F5000
G1 X1029.9325 Y25.9010 Z-20.0000 F5000
G1 X1091.5718 Y25.9010 Z-20.0000 F5000
G1 X1092.1195 Y25.8215 Z-20.0000 F5000
G1 X1092.3790 Y25.7039 Z-20.0000 F5000
G1 X1092.5967 Y25.5100 Z-20.0000 F5000
G1 X1092.7437 Y25.2659 Z-20.0000 F5000
G1 X1092.8124 Y24.9894 Z-20.0000 F5000
G1 X1092.7955 Y24.6984 Z-20.0000 F5000
G1 X1092.6952 Y24.4316 Z-20.0000 F5000
G1 X1092.3641 Y23.9882 Z-20.0000 F5000
G1 X1089.4352 Y21.0593 Z-20.0000 F5000
G1 X1088.0492 Y19.2031 Z-20.0000 F5000
G1 X1087.1315 Y16.6645 Z-20.0000 F5000
G1 X1087.0079 Y13.9681 Z-20.0000 F5000
G1 X1087.6498 Y11.4402 Z-20.0000 F5000
G1 X1088.9833 Y9.1988 Z-20.0000 F5000
G1 X1090.9775 Y7.3796 Z-20.0000 F5000
G1 X1093.4213 Y6.2334 Z-20.0000 F5000
G1 X1095.7140 Y5.9010 Z-20.0000 F5000
G1 X1122.1486 Y5.9010 Z-20.0000 F5000
G1 X1124.4413 Y6.2334 Z-20.0000 F5000
G1 X1126.8852 Y7.3796 Z-20.0000 F5000
G1 X1128.8793 Y9.1988 Z-20.0000 F5000
G1 X1130.2128 Y11.4402 Z-20.0000 F5000
G1 X1130.8548 Y13.9681 Z-20.0000 F5000
G1 X1130.7312 Y16.6645 Z-20.0000 F5000
G1 X1129.8135 Y19.2031 Z-20.0000 F5000
G1 X1128.4274 Y21.0593 Z-20.0000 F5000
G1 X1125.4985 Y23.9882 Z-20.0000 F5000
G1 X1125.1674 Y24.4316 Z-20.0000 F5000
G1 X1125.0671 Y24.6984 Z-20.0000 F5000
G1 X1125.0502 Y24.9894 Z-20.0000 F5000
G1 X1125.1189 Y25.2659 Z-20.0000 F5000
G1 X1125.2659 Y25.5100 Z-20.0000 F5000
G1 X1125.4836 Y25.7039 Z-20.0000 F5000
G1 X1125.7431 Y25.8215 Z-20.0000 F5000
G1 X1126.2908 Y25.9010 Z-20.0000 F5000
G1 X1187.9301 Y25.9010 Z-20.0000 F5000
G1 X1187.9301 Y58.5563 Z-20.0000 F5000
G1 X1182.5877 Y63.8989 Z-20.0000 F5000
G1 X1164.9302 Y63.8989 Z-20.0000 F5000
G1 X1164.9302 Y65.9009 Z-20.0000 F5000
G1 X1169.9302 Y65.9009 Z-20.0000 F5000
G1 X1169.9302 Y293.8984 Z-20.0000 F5000
G1 X1164.9302 Y293.8984 Z-20.0000 F5000
G1 X1164.9302 Y295.9004 Z-20.0000 F5000
G1 X1182.5877 Y295.9004 Z-20.0000 F5000
G1 X1187.9301 Y301.2430 Z-20.0000 F5000
G1 X1187.9301 Y358.5557 Z-20.0000 F5000
G1 X1182.5877 Y363.8983 Z-20.0000 F5000
G1 X1164.9302 Y363.8983 Z-20.0000 F5000
G1 X1164.9302 Y365.9003 Z-20.0000 F5000
G1 X1169.9302 Y365.9003 Z-20.0000 F5000
G1 X1169.9302 Y593.8978 Z-20.0000 F5000
G1 X1164.9302 Y593.8978 Z-20.0000 F5000
G1 X1164.9302 Y595.8998 Z-20.0000 F5000
G1 X1182.5876 Y595.8998 Z-20.0000 F5000
G1 X1187.9301 Y601.2423 Z-20.0000 F5000
G1 X1187.9301 Y658.5551 Z-20.0000 F5000
G1 X1182.5877 Y663.8977 Z-20.0000 F5000
G1 X1164.9302 Y663.8977 Z-20.0000 F5000
G1 X1164.9302 Y665.8997 Z-20.0000 F5000
G1 X1169.9302 Y665.8997 Z-20.0000 F5000
G1 X1169.9302 Y893.8972 Z-20.0000 F5000
G1 X1164.9302 Y893.8972 Z-20.0000 F5000
G1 X1164.9302 Y895.8992 Z-20.0000 F5000
G1 X1182.5877 Y895.8992 Z-20.0000 F5000
G1 X1187.9301 Y901.2418 Z-20.0000 F5000
G1 X1187.9301 Y924.8972 Z-20.0000 F5000
G1 X1140.9323 Y924.8972 Z-20.0000 F5000
G1 X1140.9323 Y919.8971 Z-20.0000 F5000
G1 X1138.9303 Y919.8971 Z-20.0000 F5000
G1 X1138.9303 Y939.8991 Z-20.0000 F5000
G1 X1140.9323 Y939.8991 Z-20.0000 F5000
G1 X1140.9323 Y934.8990 Z-20.0000 F5000
G1 X1187.9301 Y934.8990 Z-20.0000 F5000
G1 X1187.9301 Y958.5545 Z-20.0000 F5000
G1 X1182.5877 Y963.8970 Z-20.0000 F5000
G1 X1164.9302 Y963.8970 Z-20.0000 F5000
G1 X1164.9302 Y965.8990 Z-20.0000 F5000
G1 X1169.9302 Y965.8990 Z-20.0000 F5000
G1 X1169.9302 Y1193.8966 Z-20.0000 F5000
G1 X1164.9302 Y1193.8966 Z-20.0000 F5000
G1 X1164.9302 Y1195.8986 Z-20.0000 F5000
G1 X1182.5877 Y1195.8986 Z-20.0000 F5000
G1 X1187.9301 Y1201.2411 Z-20.0000 F5000
G1 X1187.9301 Y1258.5539 Z-20.0000 F5000
G1 X1182.5877 Y1263.8964 Z-20.0000 F5000
G1 X1164.9302 Y1263.8964 Z-20.0000 F5000
G1 X1164.9302 Y1265.8984 Z-20.0000 F5000
G1 X1169.9302 Y1265.8984 Z-20.0000 F5000
G1 X1169.9302 Y1383.8963 Z-20.0000 F5000
G1 X1146.9326 Y1383.8963 Z-20.0000 F5000
G1 X1146.9326 Y1385.8983 Z-20.0000 F5000
G1 X1151.9327 Y1385.8983 Z-20.0000 F5000
G1 X1151.9302 Y1493.8959 Z-20.0000 F5000
G1 X1146.9303 Y1493.8959 Z-20.0000 F5000
G1 X1146.9303 Y1495.8979 Z-20.0000 F5000
G1 X1182.5877 Y1495.8979 Z-20.0000 F5000
G1 X1187.9301 Y1501.2405 Z-20.0000 F5000
G1 X1187.9301 Y1558.5532 Z-20.0000 F5000
G1 X1182.5877 Y1563.8958 Z-20.0000 F5000
G1 X1146.9303 Y1563.8958 Z-20.0000 F5000
G1 X1146.9303 Y1565.8978 Z-20.0000 F5000
G1 X1151.9303 Y1565.8978 Z-20.0000 F5000
G1 X1151.9303 Y1793.8953 Z-20.0000 F5000
G1 X1146.9303 Y1793.8953 Z-20.0000 F5000
G1 X1146.9303 Y1795.8973 Z-20.0000 F5000
G1 X1182.5877 Y1795.8973 Z-20.0000 F5000
G1 X1187.9301 Y1801.2399 Z-20.0000 F5000
G1 X1187.9301 Y1858.5528 Z-20.0000 F5000
G1 X1182.5877 Y1863.8953 Z-20.0000 F5000
G1 X1146.9303 Y1863.8953 Z-20.0000 F5000
G1 X1146.9303 Y1865.8972 Z-20.0000 F5000
G1 X1151.9303 Y1865.8972 Z-20.0000 F5000
G1 X1151.9303 Y1995.3950 Z-20.0000 F5000
G1 X1065.9324 Y1995.3950 Z-20.0000 F5000
G1 X1065.9324 Y1865.8972 Z-20.0000 F5000
G1 X1070.9324 Y1865.8972 Z-20.0000 F5000
G1 X1070.9324 Y1863.8953 Z-20.0000 F5000
G1 X1035.2750 Y1863.8953 Z-20.0000 F5000
G1 X1029.9325 Y1858.5528 Z-20.0000 F5000
G1 X1029.9325 Y1801.2399 Z-20.0000 F5000
G1 X1035.2750 Y1795.8973 Z-20.0000 F5000
G1 X1070.9324 Y1795.8973 Z-20.0000 F5000
G1 X1070.9324 Y1793.8953 Z-20.0000 F5000
G1 X1065.9324 Y1793.8953 Z-20.0000 F5000
G1 X1065.9324 Y1565.8978 Z-20.0000 F5000
G1 X1070.9324 Y1565.8978 Z-20.0000 F5000
G1 X1070.9324 Y1563.8958 Z-20.0000 F5000
G1 X1035.2750 Y1563.8958 Z-20.0000 F5000
G1 X1029.9325 Y1558.5532 Z-20.0000 F5000
G1 X1029.9325 Y1501.2405 Z-20.0000 F5000
G1 X1035.2750 Y1495.8979 Z-20.0000 F5000
G1 X1070.9324 Y1495.8979 Z-20.0000 F5000
G1 X1070.9324 Y1493.8959 Z-20.0000 F5000
G1 X1065.9324 Y1493.8959 Z-20.0000 F5000
G1 X1065.9324 Y1385.8983 Z-20.0000 F5000
G1 X1070.9324 Y1385.8983 Z-20.0000 F5000
G1 X1070.9324 Y1383.8963 Z-20.0000 F5000
G1 X1047.9324 Y1383.8963 Z-20.0000 F5000
G1 X1047.9324 Y1265.8984 Z-20.0000 F5000
G1 X1052.9324 Y1265.8984 Z-20.0000 F5000
G1 X1052.9324 Y1263.8964 Z-20.0000 F5000
G1 X1035.2750 Y1263.8964 Z-20.0000 F5000
G1 X1029.9325 Y1258.5539 Z-20.0000 F5000
G1 X1029.9325 Y1201.2411 Z-20.0000 F5000
G1 X1035.2750 Y1195.8986 Z-20.0000 F5000
G1 X1052.9324 Y1195.8986 Z-20.0000 F5000
G1 X1052.9324 Y1193.8966 Z-20.0000 F5000
G1 X1047.9324 Y1193.8966 Z-20.0000 F5000
G1 X1047.9324 Y1079.8978 Z-20.0000 F5000
G1 X1047.9324 Y1079.8978 Z10.0000 F9999
G1 X703.8348 Y1079.8978 Z10.0000 F9999
G1 X703.8348 Y1079.8978 Z1.0000 F2500
G1 X703.8348 Y1040.9266 Z-9.5000 F2500
G1 X703.8348 Y1079.8978 Z-20.0000 F2500
G1 X703.8348 Y965.8990 Z-20.0000 F5000
G1 X708.8348 Y965.8990 Z-20.0000 F5000
G1 X708.8348 Y963.8970 Z-20.0000 F5000
G1 X691.1773 Y963.8970 Z-20.0000 F5000
G1 X685.8349 Y958.5545 Z-20.0000 F5000
G1 X685.8349 Y934.8990 Z-20.0000 F5000
G1 X732.8327 Y934.8990 Z-20.0000 F5000
G1 X732.8327 Y939.8991 Z-20.0000 F5000
G1 X734.8347 Y939.8991 Z-20.0000 F5000
G1 X734.8347 Y919.8971 Z-20.0000 F5000
G1 X732.8327 Y919.8971 Z-20.0000 F5000
G1 X732.8327 Y924.8972 Z-20.0000 F5000
G1 X685.8349 Y924.8972 Z-20.0000 F5000
G1 X685.8349 Y901.2418 Z-20.0000 F5000
G1 X691.1773 Y895.8992 Z-20.0000 F5000
G1 X708.8348 Y895.8992 Z-20.0000 F5000
G1 X708.8348 Y893.8972 Z-20.0000 F5000
G1 X703.8348 Y893.8972 Z-20.0000 F5000
G1 X703.8348 Y665.8997 Z-20.0000 F5000
G1 X708.8348 Y665.8997 Z-20.0000 F5000
G1 X708.8348 Y663.8977 Z-20.0000 F5000
G1 X691.1773 Y663.8977 Z-20.0000 F5000
G1 X685.8349 Y658.5551 Z-20.0000 F5000
G1 X685.8349 Y601.2423 Z-20.0000 F5000
G1 X691.1774 Y595.8998 Z-20.0000 F5000
G1 X708.8348 Y595.8998 Z-20.0000 F5000
G1 X708.8348 Y593.8978 Z-20.0000 F5000
G1 X703.8348 Y593.8978 Z-20.0000 F5000
G1 X703.8348 Y365.9003 Z-20.0000 F5000
G1 X708.8348 Y365.9003 Z-20.0000 F5000
G1 X708.8348 Y363.8983 Z-20.0000 F5000
G1 X691.1773 Y363.8983 Z-20.0000 F5000
G1 X685.8349 Y358.5557 Z-20.0000 F5000
G1 X685.8349 Y301.2430 Z-20.0000 F5000
G1 X691.1773 Y295.9004 Z-20.0000 F5000
G1 X708.8348 Y295.9004 Z-20.0000 F5000
G1 X708.8348 Y293.8984 Z-20.0000 F5000
G1 X703.8348 Y293.8984 Z-20.0000 F5000
G1 X703.8348 Y65.9009 Z-20.0000 F5000
G1 X708.8348 Y65.9009 Z-20.0000 F5000
G1 X708.8348 Y63.8989 Z-20.0000 F5000
G1 X691.1773 Y63.8989 Z-20.0000 F5000
G1 X685.8349 Y58.5563 Z-20.0000 F5000
G1 X685.8349 Y25.9010 Z-20.0000 F5000
G1 X747.4742 Y25.9010 Z-20.0000 F5000
G1 X748.0219 Y25.8215 Z-20.0000 F5000
G1 X748.2814 Y25.7039 Z-20.0000 F5000
G1 X748.4991 Y25.5100 Z-20.0000 F5000
G1 X748.6460 Y25.2659 Z-20.0000 F5000
G1 X748.7148 Y24.9894 Z-20.0000 F5000
G1 X748.6979 Y24.6984 Z-20.0000 F5000
G1 X748.5976 Y24.4316 Z-20.0000 F5000
G1 X748.2665 Y23.9882 Z-20.0000 F5000
G1 X745.3376 Y21.0593 Z-20.0000 F5000
G1 X743.9515 Y19.2031 Z-20.0000 F5000
G1 X743.0338 Y16.6645 Z-20.0000 F5000
G1 X742.9102 Y13.9681 Z-20.0000 F5000
G1 X743.5521 Y11.4402 Z-20.0000 F5000
G1 X744.8857 Y9.1988 Z-20.0000 F5000
G1 X746.8798 Y7.3796 Z-20.0000 F5000
G1 X749.3237 Y6.2334 Z-20.0000 F5000
G1 X751.6164 Y5.9010 Z-20.0000 F5000
G1 X778.0510 Y5.9010 Z-20.0000 F5000
G1 X780.3437 Y6.2334 Z-20.0000 F5000
G1 X782.7875 Y7.3796 Z-20.0000 F5000
G1 X784.7817 Y9.1988 Z-20.0000 F5000
G1 X786.1152 Y11.4402 Z-20.0000 F5000
G1 X786.7571 Y13.9681 Z-20.0000 F5000
G1 X786.6335 Y16.6645 Z-20.0000 F5000
G1 X785.7158 Y19.2031 Z-20.0000 F5000
G1 X784.3298 Y21.0593 Z-20.0000 F5000
G1 X781.4009 Y23.9882 Z-20.0000 F5000
G1 X781.0698 Y24.4316 Z-20.0000 F5000
G1 X780.9695 Y24.6984 Z-20.0000 F5000
G1 X780.9526 Y24.9894 Z-20.0000 F5000
G1 X781.0213 Y25.2659 Z-20.0000 F5000
G1 X781.1682 Y25.5100 Z-20.0000 F5000
G1 X781.3860 Y25.7039 Z-20.0000 F5000
G1 X781.6455 Y25.8215 Z-20.0000 F5000
G1 X782.1932 Y25.9010 Z-20.0000 F5000
G1 X843.8325 Y25.9010 Z-20.0000 F5000
G1 X843.8325 Y58.5563 Z-20.0000 F5000
G1 X838.4900 Y63.8989 Z-20.0000 F5000
G1 X820.8326 Y63.8989 Z-20.0000 F5000
G1 X820.8326 Y65.9009 Z-20.0000 F5000
G1 X825.8326 Y65.9009 Z-20.0000 F5000
G1 X825.8326 Y293.8984 Z-20.0000 F5000
G1 X820.8326 Y293.8984 Z-20.0000 F5000
G1 X820.8326 Y295.9004 Z-20.0000 F5000
G1 X838.4900 Y295.9004 Z-20.0000 F5000
G1 X843.8325 Y301.2430 Z-20.0000 F5000
G1 X843.8325 Y358.5557 Z-20.0000 F5000
G1 X838.4900 Y363.8983 Z-20.0000 F5000
G1 X820.8326 Y363.8983 Z-20.0000 F5000
G1 X820.8326 Y365.9003 Z-20.0000 F5000
G1 X825.8326 Y365.9003 Z-20.0000 F5000
G1 X825.8326 Y593.8978 Z-20.0000 F5000
G1 X820.8326 Y593.8978 Z-20.0000 F5000
G1 X820.8326 Y595.8998 Z-20.0000 F5000
G1 X838.4900 Y595.8998 Z-20.0000 F5000
G1 X843.8325 Y601.2423 Z-20.0000 F5000
G1 X843.8325 Y658.5551 Z-20.0000 F5000
G1 X838.4900 Y663.8977 Z-20.0000 F5000
G1 X820.8326 Y663.8977 Z-20.0000 F5000
G1 X820.8326 Y665.8997 Z-20.0000 F5000
G1 X825.8326 Y665.8997 Z-20.0000 F5000
G1 X825.8326 Y893.8972 Z-20.0000 F5000
G1 X820.8326 Y893.8972 Z-20.0000 F5000
G1 X820.8326 Y895.8992 Z-20.0000 F5000
G1 X838.4900 Y895.8992 Z-20.0000 F5000
G1 X843.8325 Y901.2418 Z-20.0000 F5000
G1 X843.8325 Y924.8972 Z-20.0000 F5000
G1 X796.8346 Y924.8972 Z-20.0000 F5000
G1 X796.8346 Y919.8971 Z-20.0000 F5000
G1 X794.8326 Y919.8971 Z-20.0000 F5000
G1 X794.8326 Y939.8991 Z-20.0000 F5000
G1 X796.8346 Y939.8991 Z-20.0000 F5000
G1 X796.8346 Y934.8990 Z-20.0000 F5000
G1 X843.8325 Y934.8990 Z-20.0000 F5000
G1 X843.8325 Y958.5545 Z-20.0000 F5000
G1 X838.4900 Y963.8970 Z-20.0000 F5000
G1 X820.8326 Y963.8970 Z-20.0000 F5000
G1 X820.8326 Y965.8990 Z-20.0000 F5000
G1 X825.8326 Y965.8990 Z-20.0000 F5000
G1 X825.8326 Y1193.8966 Z-20.0000 F5000
G1 X820.8326 Y1193.8966 Z-20.0000 F5000
G1 X820.8326 Y1195.8986 Z-20.0000 F5000
G1 X838.4900 Y1195.8986 Z-20.0000 F5000
G1 X843.8325 Y1201.2411 Z-20.0000 F5000
G1 X843.8325 Y1258.5539 Z-20.0000 F5000
G1 X838.4900 Y1263.8964 Z-20.0000 F5000
G1 X820.8326 Y1263.8964 Z-20.0000 F5000
G1 X820.8326 Y1265.8984 Z-20.0000 F5000
G1 X825.8326 Y1265.8984 Z-20.0000 F5000
G1 X825.8326 Y1383.8963 Z-20.0000 F5000
G1 X802.8349 Y1383.8963 Z-20.0000 F5000
G1 X802.8349 Y1385.8983 Z-20.0000 F5000
G1 X807.8350 Y1385.8983 Z-20.0000 F5000
G1 X807.8325 Y1493.8959 Z-20.0000 F5000
G1 X802.8326 Y1493.8959 Z-20.0000 F5000
G1 X802.8326 Y1495.8979 Z-20.0000 F5000
G1 X838.4900 Y1495.8979 Z-20.0000 F5000
G1 X843.8325 Y1501.2405 Z-20.0000 F5000
G1 X843.8325 Y1558.5532 Z-20.0000 F5000
G1 X838.4900 Y1563.8958 Z-20.0000 F5000
G1 X802.8326 Y1563.8958 Z-20.0000 F5000
G1 X802.8326 Y1565.8978 Z-20.0000 F5000
G1 X807.8326 Y1565.8978 Z-20.0000 F5000
G1 X807.8326 Y1793.8953 Z-20.0000 F5000
G1 X802.8326 Y1793.8953 Z-20.0000 F5000
G1 X802.8326 Y1795.8973 Z-20.0000 F5000
G1 X838.4900 Y1795.8973 Z-20.0000 F5000
G1 X843.8325 Y1801.2399 Z-20.0000 F5000
G1 X843.8325 Y1858.5528 Z-20.0000 F5000
G1 X838.4900 Y1863.8953 Z-20.0000 F5000
G1 X802.8326 Y1863.8953 Z-20.0000 F5000
G1 X802.8326 Y1865.8972 Z-20.0000 F5000
G1 X807.8326 Y1865.8972 Z-20.0000 F5000
G1 X807.8326 Y1995.3950 Z-20.0000 F5000
G1 X721.8347 Y1995.3950 Z-20.0000 F5000
G1 X721.8347 Y1865.8972 Z-20.0000 F5000
G1 X726.8347 Y1865.8972 Z-20.0000 F5000
G1 X726.8347 Y1863.8953 Z-20.0000 F5000
G1 X691.1773 Y1863.8953 Z-20.0000 F5000
G1 X685.8349 Y1858.5528 Z-20.0000 F5000
G1 X685.8349 Y1801.2399 Z-20.0000 F5000
G1 X691.1773 Y1795.8973 Z-20.0000 F5000
G1 X726.8347 Y1795.8973 Z-20.0000 F5000
G1 X726.8347 Y1793.8953 Z-20.0000 F5000
G1 X721.8347 Y1793.8953 Z-20.0000 F5000
G1 X721.8347 Y1565.8978 Z-20.0000 F5000
G1 X726.8347 Y1565.8978 Z-20.0000 F5000
G1 X726.8347 Y1563.8958 Z-20.0000 F5000
G1 X691.1773 Y1563.8958 Z-20.0000 F5000
G1 X685.8349 Y1558.5532 Z-20.0000 F5000
G1 X685.8349 Y1501.2405 Z-20.0000 F5000
G1 X691.1773 Y1495.8979 Z-20.0000 F5000
G1 X726.8347 Y1495.8979 Z-20.0000 F5000
G1 X726.8347 Y1493.8959 Z-20.0000 F5000
G1 X721.8347 Y1493.8959 Z-20.0000 F5000
G1 X721.8347 Y1385.8983 Z-20.0000 F5000
G1 X726.8347 Y1385.8983 Z-20.0000 F5000
G1 X726.8347 Y1383.8963 Z-20.0000 F5000
G1 X703.8348 Y1383.8963 Z-20.0000 F5000
G1 X703.8348 Y1265.8984 Z-20.0000 F5000
G1 X708.8348 Y1265.8984 Z-20.0000 F5000
G1 X708.8348 Y1263.8964 Z-20.0000 F5000
G1 X691.1773 Y1263.8964 Z-20.0000 F5000
G1 X685.8349 Y1258.5539 Z-20.0000 F5000
G1 X685.8349 Y1201.2411 Z-20.0000 F5000
G1 X691.1773 Y1195.8986 Z-20.0000 F5000
G1 X708.8348 Y1195.8986 Z-20.0000 F5000
G1 X708.8348 Y1193.8966 Z-20.0000 F5000
G1 X703.8348 Y1193.8966 Z-20.0000 F5000
G1 X703.8348 Y1079.8978 Z-20.0000 F5000
G1 X703.8348 Y1079.8978 Z10.0000 F9999
G1 X489.9963 Y1293.3040 Z10.0000 F9999
G1 X489.9963 Y1293.3040 Z1.0000 F2500
G1 X489.9963 Y1332.2751 Z-9.5000 F2500
G1 X489.9963 Y1293.3040 Z-20.0000 F2500
G1 X489.9963 Y1422.3479 Z-20.0000 F5000
G1 X484.9963 Y1422.3479 Z-20.0000 F5000
G1 X484.9963 Y1424.3507 Z-20.0000 F5000
G1 X502.6537 Y1424.3507 Z-20.0000 F5000
G1 X507.9963 Y1429.6930 Z-20.0000 F5000
G1 X507.9963 Y1453.3487 Z-20.0000 F5000
G1 X460.9984 Y1453.3487 Z-20.0000 F5000
G1 X460.9984 Y1448.3492 Z-20.0000 F5000
G1 X458.9964 Y1448.3492 Z-20.0000 F5000
G1 X458.9964 Y1468.3507 Z-20.0000 F5000
G1 X460.9984 Y1468.3507 Z-20.0000 F5000
G1 X460.9984 Y1463.3512 Z-20.0000 F5000
G1 X507.9963 Y1463.3512 Z-20.0000 F5000
G1 X507.9963 Y1487.0056 Z-20.0000 F5000
G1 X502.6536 Y1492.3476 Z-20.0000 F5000
G1 X484.9963 Y1492.3476 Z-20.0000 F5000
G1 X484.9963 Y1494.3505 Z-20.0000 F5000
G1 X489.9963 Y1494.3505 Z-20.0000 F5000
G1 X489.9963 Y1612.3488 Z-20.0000 F5000
G1 X466.9987 Y1612.3488 Z-20.0000 F5000
G1 X466.9987 Y1614.3515 Z-20.0000 F5000
G1 X471.9988 Y1614.3515 Z-20.0000 F5000
G1 X471.9963 Y1722.3474 Z-20.0000 F5000
G1 X466.9964 Y1722.3474 Z-20.0000 F5000
G1 X466.9964 Y1724.3502 Z-20.0000 F5000
G1 X502.6537 Y1724.3502 Z-20.0000 F5000
G1 X507.9963 Y1729.6925 Z-20.0000 F5000
G1 X507.9963 Y1787.0051 Z-20.0000 F5000
G1 X502.6536 Y1792.3470 Z-20.0000 F5000
G1 X466.9964 Y1792.3470 Z-20.0000 F5000
G1 X466.9964 Y1794.3501 Z-20.0000 F5000
G1 X471.9964 Y1794.3501 Z-20.0000 F5000
G1 X471.9964 Y2022.3475 Z-20.0000 F5000
G1 X466.9964 Y2022.3475 Z-20.0000 F5000
G1 X466.9964 Y2024.3493 Z-20.0000 F5000
G1 X502.6539 Y2024.3493 Z-20.0000 F5000
G1 X507.9963 Y2029.6921 Z-20.0000 F5000
G1 X507.9963 Y2087.0046 Z-20.0000 F5000
G1 X502.6538 Y2092.3472 Z-20.0000 F5000
G1 X466.9964 Y2092.3472 Z-20.0000 F5000
G1 X466.9964 Y2094.3493 Z-20.0000 F5000
G1 X471.9964 Y2094.3493 Z-20.0000 F5000
G1 X471.9964 Y2282.7282 Z-20.0000 F5000
G1 X385.9985 Y2282.7282 Z-20.0000 F5000
G1 X385.9985 Y2094.3493 Z-20.0000 F5000
G1 X390.9985 Y2094.3493 Z-20.0000 F5000
G1 X390.9985 Y2092.3472 Z-20.0000 F5000
G1 X355.3411 Y2092.3472 Z-20.0000 F5000
G1 X349.9986 Y2087.0046 Z-20.0000 F5000
G1 X349.9986 Y2029.6921 Z-20.0000 F5000
G1 X355.3410 Y2024.3493 Z-20.0000 F5000
G1 X390.9985 Y2024.3493 Z-20.0000 F5000
G1 X390.9985 Y2022.3475 Z-20.0000 F5000
G1 X385.9985 Y2022.3475 Z-20.0000 F5000
G1 X385.9985 Y1794.3501 Z-20.0000 F5000
G1 X390.9985 Y1794.3501 Z-20.0000 F5000
G1 X390.9985 Y1792.3470 Z-20.0000 F5000
G1 X355.3413 Y1792.3470 Z-20.0000 F5000
G1 X349.9986 Y1787.0051 Z-20.0000 F5000
G1 X349.9986 Y1729.6925 Z-20.0000 F5000
G1 X355.3412 Y1724.3502 Z-20.0000 F5000
G1 X390.9985 Y1724.3502 Z-20.0000 F5000
G1 X390.9985 Y1722.3474 Z-20.0000 F5000
G1 X385.9985 Y1722.3474 Z-20.0000 F5000
G1 X385.9985 Y1614.3515 Z-20.0000 F5000
G1 X390.9985 Y1614.3515 Z-20.0000 F5000
G1 X390.9985 Y1612.3488 Z-20.0000 F5000
G1 X367.9986 Y1612.3488 Z-20.0000 F5000
G1 X367.9986 Y1494.3505 Z-20.0000 F5000
G1 X372.9986 Y1494.3505 Z-20.0000 F5000
G1 X372.9986 Y1492.3476 Z-20.0000 F5000
G1 X355.3413 Y1492.3476 Z-20.0000 F5000
G1 X349.9986 Y1487.0056 Z-20.0000 F5000
G1 X349.9986 Y1463.3512 Z-20.0000 F5000
G1 X396.9965 Y1463.3512 Z-20.0000 F5000
G1 X396.9965 Y1468.3507 Z-20.0000 F5000
G1 X398.9985 Y1468.3507 Z-20.0000 F5000
G1 X398.9985 Y1448.3492 Z-20.0000 F5000
G1 X396.9965 Y1448.3492 Z-20.0000 F5000
G1 X396.9965 Y1453.3487 Z-20.0000 F5000
G1 X349.9986 Y1453.3487 Z-20.0000 F5000
G1 X349.9986 Y1429.6930 Z-20.0000 F5000
G1 X355.3412 Y1424.3507 Z-20.0000 F5000
G1 X372.9986 Y1424.3507 Z-20.0000 F5000
G1 X372.9986 Y1422.3479 Z-20.0000 F5000
G1 X367.9986 Y1422.3479 Z-20.0000 F5000
G1 X367.9986 Y1164.2601 Z-20.0000 F5000
G1 X372.9986 Y1164.2601 Z-20.0000 F5000
G1 X372.9986 Y1162.2573 Z-20.0000 F5000
G1 X355.3412 Y1162.2573 Z-20.0000 F5000
G1 X349.9986 Y1156.9149 Z-20.0000 F5000
G1 X349.9986 Y1099.6027 Z-20.0000 F5000
G1 X355.3412 Y1094.2602 Z-20.0000 F5000
G1 X372.9986 Y1094.2602 Z-20.0000 F5000
G1 X372.9986 Y1092.2573 Z-20.0000 F5000
G1 X367.9986 Y1092.2573 Z-20.0000 F5000
G1 X367.9986 Y834.1696 Z-20.0000 F5000
G1 X372.9986 Y834.1696 Z-20.0000 F5000
G1 X372.9986 Y832.1666 Z-20.0000 F5000
G1 X355.3413 Y832.1666 Z-20.0000 F5000
G1 X349.9986 Y826.8246 Z-20.0000 F5000
G1 X349.9986 Y803.1688 Z-20.0000 F5000
G1 X396.9965 Y803.1688 Z-20.0000 F5000
G1 X396.9965 Y808.1683 Z-20.0000 F5000
G1 X398.9985 Y808.1683 Z-20.0000 F5000
G1 X398.9985 Y788.1667 Z-20.0000 F5000
G1 X396.9965 Y788.1667 Z-20.0000 F5000
G1 X396.9965 Y793.1663 Z-20.0000 F5000
G1 X349.9986 Y793.1663 Z-20.0000 F5000
G1 X349.9986 Y769.5119 Z-20.0000 F5000
G1 X355.3413 Y764.1698 Z-20.0000 F5000
G1 X372.9986 Y764.1698 Z-20.0000 F5000
G1 X372.9986 Y762.1669 Z-20.0000 F5000
G1 X367.9986 Y762.1669 Z-20.0000 F5000
G1 X367.9986 Y644.1687 Z-20.0000 F5000
G1 X390.9985 Y644.1687 Z-20.0000 F5000
G1 X390.9985 Y642.1660 Z-20.0000 F5000
G1 X385.9985 Y642.1660 Z-20.0000 F5000
G1 X385.9985 Y534.1701 Z-20.0000 F5000
G1 X390.9985 Y534.1701 Z-20.0000 F5000
G1 X390.9985 Y532.1672 Z-20.0000 F5000
G1 X355.3412 Y532.1672 Z-20.0000 F5000
G1 X349.9986 Y526.8251 Z-20.0000 F5000
G1 X349.9986 Y469.5124 Z-20.0000 F5000
G1 X355.3413 Y464.1704 Z-20.0000 F5000
G1 X390.9985 Y464.1704 Z-20.0000 F5000
G1 X390.9985 Y462.1676 Z-20.0000 F5000
G1 X385.9985 Y462.1676 Z-20.0000 F5000
G1 X385.9985 Y234.1707 Z-20.0000 F5000
G1 X390.9985 Y234.1707 Z-20.0000 F5000
G1 X390.9985 Y232.1676 Z-20.0000 F5000
G1 X355.3413 Y232.1676 Z-20.0000 F5000
G1 X349.9986 Y226.8257 Z-20.0000 F5000
G1 X349.9986 Y169.5132 Z-20.0000 F5000
G1 X355.3411 Y164.1707 Z-20.0000 F5000
G1 X390.9985 Y164.1707 Z-20.0000 F5000
G1 X390.9985 Y162.1679 Z-20.0000 F5000
G1 X385.9985 Y162.1679 Z-20.0000 F5000
G1 X385.9985 Y5.9010 Z-20.0000 F5000
G1 X471.9964 Y5.9010 Z-20.0000 F5000
G1 X471.9964 Y162.1679 Z-20.0000 F5000
G1 X466.9964 Y162.1679 Z-20.0000 F5000
G1 X466.9964 Y164.1707 Z-20.0000 F5000
G1 X502.6538 Y164.1707 Z-20.0000 F5000
G1 X507.9963 Y169.5132 Z-20.0000 F5000
G1 X507.9963 Y226.8257 Z-20.0000 F5000
G1 X502.6536 Y232.1676 Z-20.0000 F5000
G1 X466.9964 Y232.1676 Z-20.0000 F5000
G1 X466.9964 Y234.1707 Z-20.0000 F5000
G1 X471.9964 Y234.1707 Z-20.0000 F5000
G1 X471.9964 Y462.1676 Z-20.0000 F5000
G1 X466.9964 Y462.1676 Z-20.0000 F5000
G1 X466.9964 Y464.1704 Z-20.0000 F5000
G1 X502.6536 Y464.1704 Z-20.0000 F5000
G1 X507.9963 Y469.5124 Z-20.0000 F5000
G1 X507.9963 Y526.8251 Z-20.0000 F5000
G1 X502.6537 Y532.1672 Z-20.0000 F5000
G1 X466.9964 Y532.1672 Z-20.0000 F5000
G1 X466.9964 Y534.1701 Z-20.0000 F5000
G1 X471.9963 Y534.1701 Z-20.0000 F5000
G1 X471.9988 Y642.1660 Z-20.0000 F5000
G1 X466.9987 Y642.1660 Z-20.0000 F5000
G1 X466.9987 Y644.1687 Z-20.0000 F5000
G1 X489.9963 Y644.1687 Z-20.0000 F5000
G1 X489.9963 Y762.1669 Z-20.0000 F5000
G1 X484.9963 Y762.1669 Z-20.0000 F5000
G1 X484.9963 Y764.1698 Z-20.0000 F5000
G1 X502.6537 Y764.1698 Z-20.0000 F5000
G1 X507.9963 Y769.5119 Z-20.0000 F5000
G1 X507.9963 Y793.1663 Z-20.0000 F5000
G1 X460.9984 Y793.1663 Z-20.0000 F5000
G1 X460.9984 Y788.1667 Z-20.0000 F5000
G1 X458.9964 Y788.1667 Z-20.0000 F5000
G1 X458.9964 Y808.1683 Z-20.0000 F5000
G1 X460.9984 Y808.1683 Z-20.0000 F5000
G1 X460.9984 Y803.1688 Z-20.0000 F5000
G1 X507.9963 Y803.1688 Z-20.0000 F5000
G1 X507.9963 Y826.8246 Z-20.0000 F5000
G1 X502.6536 Y832.1666 Z-20.0000 F5000
G1 X484.9963 Y832.1666 Z-20.0000 F5000
G1 X484.9963 Y834.1696 Z-20.0000 F5000
G1 X489.9963 Y834.1696 Z-20.0000 F5000
G1 X489.9963 Y1092.2573 Z-20.0000 F5000
G1 X484.9963 Y1092.2573 Z-20.0000 F5000
G1 X484.9963 Y1094.2602 Z-20.0000 F5000
G1 X502.6537 Y1094.2602 Z-20.0000 F5000
G1 X507.9963 Y1099.6027 Z-20.0000 F5000
G1 X507.9963 Y1156.9149 Z-20.0000 F5000
G1 X502.6537 Y1162.2573 Z-20.0000 F5000
G1 X484.9963 Y1162.2573 Z-20.0000 F5000
G1 X484.9963 Y1164.2601 Z-20.0000 F5000
G1 X489.9963 Y1164.2601 Z-20.0000 F5000
G1 X489.9963 Y1293.3040 Z-20.0000 F5000
G1 X489.9963 Y1293.3040 Z10.0000 F9999
G1 X1900.0000 Y2800.0000 Z80.0000 F9999
G1 Z80.0000 F9999
G1 X1900.0000 Y2800.0000 F9999
M5
M30
