(plotsheet 2n3_nested_153 sheets_final v1_0_sheet 15 to 21__S15.1_text_CC8 - stepover 1mm)
(Material Size) (X=1220.000, Y=2440.000, Z=21.000)
(LinuxCNC_NoArcs_MM_TC_medium_50um_G1_verbose.con)
G90 G80 G21 G49
G64 P0.050
M6 T1
(Tool Number:1) (7.998 mm dia. slot drill)
G43 H1 G0Z30.0000
M3 S19000
G04 P10
G1 X612.8805 Y1131.2223 Z10.0000 F9999
G1 X612.8805 Y1131.2223 Z-1.5000 F2000
G1 X624.1832 Y1147.1856 Z-1.5000 F4000
G1 X625.5699 Y1149.1475 Z-1.5000 F4000
G1 X626.8988 Y1151.1489 Z-1.5000 F4000
G1 X628.8254 Y1158.3599 Z-1.5000 F4000
G1 X627.7245 Y1163.7911 Z-1.5000 F4000
G1 X624.7704 Y1168.2131 Z-1.5000 F4000
G1 X620.4034 Y1171.2223 Z-1.5000 F4000
G1 X615.0089 Y1172.3232 Z-1.5000 F4000
G1 X609.6144 Y1171.2223 Z-1.5000 F4000
G1 X605.1741 Y1168.2131 Z-1.5000 F4000
G1 X602.1832 Y1163.7911 Z-1.5000 F4000
G1 X601.0823 Y1158.3599 Z-1.5000 F4000
G1 X602.1832 Y1152.9470 Z-1.5000 F4000
G1 X605.1741 Y1148.5250 Z-1.5000 F4000
G1 X609.6144 Y1145.5525 Z-1.5000 F4000
G1 X615.0089 Y1144.4516 Z-1.5000 F4000
G1 X621.9264 Y1146.3048 Z-1.5000 F4000
G1 X626.8988 Y1151.1489 Z-1.5000 F4000
G1 X621.9264 Y1146.3048 Z-1.5000 F4000
G1 X615.0089 Y1144.4516 Z-1.5000 F4000
G1 X609.6144 Y1145.5525 Z-1.5000 F4000
G1 X605.1741 Y1148.5250 Z-1.5000 F4000
G1 X602.1832 Y1152.9470 Z-1.5000 F4000
G1 X601.0823 Y1158.3599 Z-1.5000 F4000
G1 X602.1832 Y1163.7911 Z-1.5000 F4000
G1 X605.1741 Y1168.2131 Z-1.5000 F4000
G1 X609.6144 Y1171.2223 Z-1.5000 F4000
G1 X615.0089 Y1172.3232 Z-1.5000 F4000
G1 X620.4034 Y1171.2223 Z-1.5000 F4000
G1 X624.7704 Y1168.2131 Z-1.5000 F4000
G1 X627.7245 Y1163.7911 Z-1.5000 F4000
G1 X628.8254 Y1158.3599 Z-1.5000 F4000
G1 X626.8988 Y1151.1489 Z-1.5000 F4000
G1 X625.9447 Y1149.6993 Z-1.5000 F4000
G1 X619.4126 Y1140.4149 Z-1.5000 F4000
G1 X619.4126 Y1140.4149 Z10.0000 F9999
G1 X639.5961 Y1172.3232 Z10.0000 F9999
G1 X639.5961 Y1172.3232 Z-1.5000 F2000
G1 X652.2199 Y1172.3232 Z-1.5000 F4000
G1 X652.2199 Y1131.2223 Z-1.5000 F4000
G1 X652.2199 Y1172.3232 Z-1.5000 F4000
G1 X652.2199 Y1172.3232 Z10.0000 F9999
G1 X590.0732 Y1172.3232 Z10.0000 F9999
G1 X590.0732 Y1172.3232 Z-1.5000 F2000
G1 X574.3300 Y1154.7085 Z-1.5000 F4000
G1 X572.5814 Y1152.6903 Z-1.5000 F4000
G1 X570.8988 Y1150.6168 Z-1.5000 F4000
G1 X569.8790 Y1149.0570 Z-1.5000 F4000
G1 X568.9172 Y1147.4608 Z-1.5000 F4000
G1 X567.9814 Y1145.0021 Z-1.5000 F4000
G1 X567.5777 Y1141.7177 Z-1.5000 F4000
G1 X568.2016 Y1137.9746 Z-1.5000 F4000
G1 X570.1282 Y1134.5984 Z-1.5000 F4000
G1 X573.4676 Y1132.1580 Z-1.5000 F4000
G1 X578.4585 Y1131.2223 Z-1.5000 F4000
G1 X587.1741 Y1133.8278 Z-1.5000 F4000
G1 X589.9631 Y1140.5801 Z-1.5000 F4000
G1 X587.1741 Y1133.8278 Z-1.5000 F4000
G1 X578.4585 Y1131.2223 Z-1.5000 F4000
G1 X573.4676 Y1132.1580 Z-1.5000 F4000
G1 X570.1282 Y1134.5984 Z-1.5000 F4000
G1 X568.2016 Y1137.9746 Z-1.5000 F4000
G1 X567.5777 Y1141.7177 Z-1.5000 F4000
G1 X567.9814 Y1145.0021 Z-1.5000 F4000
G1 X568.9172 Y1147.4608 Z-1.5000 F4000
G1 X569.8790 Y1149.0570 Z-1.5000 F4000
G1 X570.8988 Y1150.6168 Z-1.5000 F4000
G1 X572.5814 Y1152.6903 Z-1.5000 F4000
G1 X574.3300 Y1154.7085 Z-1.5000 F4000
G1 X590.0732 Y1172.3232 Z-1.5000 F4000
G1 X567.8713 Y1172.3232 Z-1.5000 F4000
G1 X567.8713 Y1172.3232 Z10.0000 F9999
(Tool Number:1) (7.998 mm dia. slot drill)
M3 S19000
G1 X52.8990 Y184.8997 Z10.0000 F9999
G1 X52.8990 Y184.8997 Z1.0000 F2000
G1 X52.8990 Y223.8708 Z-10.0000 F2000
G1 X52.8990 Y184.8997 Z-21.0000 F2000
G1 X52.8990 Y268.8985 Z-21.0000 F2750
G1 X47.8991 Y268.8985 Z-21.0000 F2750
G1 X47.8991 Y270.9005 Z-21.0000 F2750
G1 X85.9010 Y270.9005 Z-21.0000 F2750
G1 X85.9010 Y268.8985 Z-21.0000 F2750
G1 X80.9010 Y268.8985 Z-21.0000 F2750
G1 X80.9010 Y189.9006 Z-21.0000 F2750
G1 X108.8989 Y189.9006 Z-21.0000 F2750
G1 X108.8989 Y194.9008 Z-21.0000 F2750
G1 X110.9009 Y194.9008 Z-21.0000 F2750
G1 X110.9009 Y174.8986 Z-21.0000 F2750
G1 X108.8989 Y174.8986 Z-21.0000 F2750
G1 X108.8989 Y179.8988 Z-21.0000 F2750
G1 X80.9010 Y179.8988 Z-21.0000 F2750
G1 X80.9010 Y100.9009 Z-21.0000 F2750
G1 X85.9010 Y100.9009 Z-21.0000 F2750
G1 X85.9010 Y98.8989 Z-21.0000 F2750
G1 X47.8991 Y98.8989 Z-21.0000 F2750
G1 X47.8991 Y100.9009 Z-21.0000 F2750
G1 X52.8990 Y100.9009 Z-21.0000 F2750
G1 X52.8990 Y184.8997 Z-21.0000 F2750
G1 X52.8990 Y184.8997 Z10.0000 F9999
G1 X80.9010 Y484.8991 Z10.0000 F9999
G1 X80.9010 Y484.8991 Z1.0000 F2000
G1 X80.9010 Y445.9280 Z-10.0000 F2000
G1 X80.9010 Y484.8991 Z-21.0000 F2000
G1 X80.9010 Y400.9003 Z-21.0000 F2750
G1 X85.9010 Y400.9003 Z-21.0000 F2750
G1 X85.9010 Y398.8983 Z-21.0000 F2750
G1 X47.8991 Y398.8983 Z-21.0000 F2750
G1 X47.8991 Y400.9003 Z-21.0000 F2750
G1 X52.8990 Y400.9003 Z-21.0000 F2750
G1 X52.8990 Y568.8980 Z-21.0000 F2750
G1 X47.8991 Y568.8980 Z-21.0000 F2750
G1 X47.8991 Y570.8999 Z-21.0000 F2750
G1 X85.9010 Y570.8999 Z-21.0000 F2750
G1 X85.9010 Y568.8980 Z-21.0000 F2750
G1 X80.9010 Y568.8980 Z-21.0000 F2750
G1 X80.9010 Y484.8991 Z-21.0000 F2750
G1 X80.9010 Y484.8991 Z10.0000 F9999
G1 X70.8990 Y784.8985 Z10.0000 F9999
G1 X70.8990 Y784.8985 Z1.0000 F2000
G1 X70.8990 Y823.8696 Z-10.0000 F2000
G1 X70.8990 Y784.8985 Z-21.0000 F2000
G1 X70.8990 Y868.8973 Z-21.0000 F2750
G1 X65.8990 Y868.8973 Z-21.0000 F2750
G1 X65.8990 Y870.8993 Z-21.0000 F2750
G1 X85.9010 Y870.8993 Z-21.0000 F2750
G1 X85.9010 Y868.8973 Z-21.0000 F2750
G1 X80.9010 Y868.8973 Z-21.0000 F2750
G1 X80.9010 Y789.8994 Z-21.0000 F2750
G1 X109.8990 Y789.8994 Z-21.0000 F2750
G1 X109.8990 Y794.8994 Z-21.0000 F2750
G1 X111.9009 Y794.8994 Z-21.0000 F2750
G1 X111.9009 Y774.8975 Z-21.0000 F2750
G1 X109.8990 Y774.8975 Z-21.0000 F2750
G1 X109.8990 Y779.8975 Z-21.0000 F2750
G1 X80.9010 Y779.8975 Z-21.0000 F2750
G1 X80.9010 Y700.8997 Z-21.0000 F2750
G1 X85.9010 Y700.8997 Z-21.0000 F2750
G1 X85.9010 Y698.8977 Z-21.0000 F2750
G1 X65.8990 Y698.8977 Z-21.0000 F2750
G1 X65.8990 Y700.8997 Z-21.0000 F2750
G1 X70.8990 Y700.8997 Z-21.0000 F2750
G1 X70.8990 Y784.8985 Z-21.0000 F2750
G1 X70.8990 Y784.8985 Z10.0000 F9999
G1 X80.9010 Y1084.8979 Z10.0000 F9999
G1 X80.9010 Y1084.8979 Z1.0000 F2000
G1 X80.9010 Y1045.9268 Z-10.0000 F2000
G1 X80.9010 Y1084.8979 Z-21.0000 F2000
G1 X80.9010 Y1000.8991 Z-21.0000 F2750
G1 X85.9010 Y1000.8991 Z-21.0000 F2750
G1 X85.9010 Y998.8970 Z-21.0000 F2750
G1 X65.8990 Y998.8970 Z-21.0000 F2750
G1 X65.8990 Y1000.8991 Z-21.0000 F2750
G1 X70.8990 Y1000.8991 Z-21.0000 F2750
G1 X70.8990 Y1079.8969 Z-21.0000 F2750
G1 X41.9010 Y1079.8969 Z-21.0000 F2750
G1 X41.9010 Y1074.8969 Z-21.0000 F2750
G1 X39.8991 Y1074.8969 Z-21.0000 F2750
G1 X39.8991 Y1094.8989 Z-21.0000 F2750
G1 X41.9010 Y1094.8989 Z-21.0000 F2750
G1 X41.9010 Y1089.8988 Z-21.0000 F2750
G1 X70.8990 Y1089.8988 Z-21.0000 F2750
G1 X70.8990 Y1168.8967 Z-21.0000 F2750
G1 X65.8990 Y1168.8967 Z-21.0000 F2750
G1 X65.8990 Y1170.8987 Z-21.0000 F2750
G1 X85.9010 Y1170.8987 Z-21.0000 F2750
G1 X85.9010 Y1168.8967 Z-21.0000 F2750
G1 X80.9010 Y1168.8967 Z-21.0000 F2750
G1 X80.9010 Y1084.8979 Z-21.0000 F2750
G1 X80.9010 Y1084.8979 Z10.0000 F9999
G1 X70.8990 Y1384.8972 Z10.0000 F9999
G1 X70.8990 Y1384.8972 Z1.0000 F2000
G1 X70.8990 Y1423.8684 Z-10.0000 F2000
G1 X70.8990 Y1384.8972 Z-21.0000 F2000
G1 X70.8990 Y1468.8961 Z-21.0000 F2750
G1 X65.8990 Y1468.8961 Z-21.0000 F2750
G1 X65.8990 Y1470.8981 Z-21.0000 F2750
G1 X85.9010 Y1470.8981 Z-21.0000 F2750
G1 X85.9010 Y1468.8961 Z-21.0000 F2750
G1 X80.9010 Y1468.8961 Z-21.0000 F2750
G1 X80.9010 Y1389.8983 Z-21.0000 F2750
G1 X109.8990 Y1389.8983 Z-21.0000 F2750
G1 X109.8990 Y1394.8982 Z-21.0000 F2750
G1 X111.9009 Y1394.8982 Z-21.0000 F2750
G1 X111.9009 Y1374.8963 Z-21.0000 F2750
G1 X109.8990 Y1374.8963 Z-21.0000 F2750
G1 X109.8990 Y1379.8963 Z-21.0000 F2750
G1 X80.9010 Y1379.8963 Z-21.0000 F2750
G1 X80.9010 Y1300.8984 Z-21.0000 F2750
G1 X85.9010 Y1300.8984 Z-21.0000 F2750
G1 X85.9010 Y1298.8964 Z-21.0000 F2750
G1 X65.8990 Y1298.8964 Z-21.0000 F2750
G1 X65.8990 Y1300.8984 Z-21.0000 F2750
G1 X70.8990 Y1300.8984 Z-21.0000 F2750
G1 X70.8990 Y1384.8972 Z-21.0000 F2750
G1 X70.8990 Y1384.8972 Z10.0000 F9999
G1 X80.9010 Y1684.8966 Z10.0000 F9999
G1 X80.9010 Y1684.8966 Z1.0000 F2000
G1 X80.9010 Y1645.9255 Z-10.0000 F2000
G1 X80.9010 Y1684.8966 Z-21.0000 F2000
G1 X80.9010 Y1600.8978 Z-21.0000 F2750
G1 X85.9010 Y1600.8978 Z-21.0000 F2750
G1 X85.9010 Y1598.8958 Z-21.0000 F2750
G1 X65.8990 Y1598.8958 Z-21.0000 F2750
G1 X65.8990 Y1600.8978 Z-21.0000 F2750
G1 X70.8990 Y1600.8978 Z-21.0000 F2750
G1 X70.8990 Y1768.8955 Z-21.0000 F2750
G1 X65.8990 Y1768.8955 Z-21.0000 F2750
G1 X65.8990 Y1770.8975 Z-21.0000 F2750
G1 X85.9010 Y1770.8975 Z-21.0000 F2750
G1 X85.9010 Y1768.8955 Z-21.0000 F2750
G1 X80.9010 Y1768.8955 Z-21.0000 F2750
G1 X80.9010 Y1684.8966 Z-21.0000 F2750
G1 X80.9010 Y1684.8966 Z10.0000 F9999
G1 X70.8990 Y1984.8960 Z10.0000 F9999
G1 X70.8990 Y1984.8960 Z1.0000 F2000
G1 X70.8990 Y2023.8672 Z-10.0000 F2000
G1 X70.8990 Y1984.8960 Z-21.0000 F2000
G1 X70.8990 Y2068.8949 Z-21.0000 F2750
G1 X65.8990 Y2068.8949 Z-21.0000 F2750
G1 X65.8990 Y2070.8968 Z-21.0000 F2750
G1 X85.9010 Y2070.8968 Z-21.0000 F2750
G1 X85.9010 Y2068.8949 Z-21.0000 F2750
G1 X80.9010 Y2068.8949 Z-21.0000 F2750
G1 X80.9010 Y1900.8972 Z-21.0000 F2750
G1 X85.9010 Y1900.8972 Z-21.0000 F2750
G1 X85.9010 Y1898.8952 Z-21.0000 F2750
G1 X65.8990 Y1898.8952 Z-21.0000 F2750
G1 X65.8990 Y1900.8972 Z-21.0000 F2750
G1 X70.8990 Y1900.8972 Z-21.0000 F2750
G1 X70.8990 Y1984.8960 Z-21.0000 F2750
G1 X70.8990 Y1984.8960 Z10.0000 F9999
G1 X609.8989 Y1389.8983 Z10.0000 F9999
G1 X609.8989 Y1389.8983 Z1.0000 F2000
G1 X648.8700 Y1389.8983 Z-10.0000 F2000
G1 X609.8989 Y1389.8983 Z-21.0000 F2000
G1 X650.8998 Y1389.8983 Z-21.0000 F2750
G1 X650.8998 Y1387.8963 Z-21.0000 F2750
G1 X645.8998 Y1387.8963 Z-21.0000 F2750
G1 X645.8998 Y1374.8963 Z-21.0000 F2750
G1 X643.8978 Y1374.8963 Z-21.0000 F2750
G1 X643.8978 Y1379.8963 Z-21.0000 F2750
G1 X575.9000 Y1379.8963 Z-21.0000 F2750
G1 X575.9000 Y1374.8963 Z-21.0000 F2750
G1 X573.8980 Y1374.8963 Z-21.0000 F2750
G1 X573.8980 Y1387.8963 Z-21.0000 F2750
G1 X568.8980 Y1387.8963 Z-21.0000 F2750
G1 X568.8980 Y1389.8983 Z-21.0000 F2750
G1 X609.8989 Y1389.8983 Z-21.0000 F2750
G1 X609.8989 Y1389.8983 Z10.0000 F9999
G1 X1148.8988 Y1384.8972 Z10.0000 F9999
G1 X1148.8988 Y1384.8972 Z1.0000 F2000
G1 X1148.8988 Y1345.9261 Z-10.0000 F2000
G1 X1148.8988 Y1384.8972 Z-21.0000 F2000
G1 X1148.8988 Y1300.8984 Z-21.0000 F2750
G1 X1153.8988 Y1300.8984 Z-21.0000 F2750
G1 X1153.8988 Y1298.8964 Z-21.0000 F2750
G1 X1133.8969 Y1298.8964 Z-21.0000 F2750
G1 X1133.8969 Y1300.8984 Z-21.0000 F2750
G1 X1138.8968 Y1300.8984 Z-21.0000 F2750
G1 X1138.8968 Y1379.8963 Z-21.0000 F2750
G1 X1109.8989 Y1379.8963 Z-21.0000 F2750
G1 X1109.8989 Y1374.8963 Z-21.0000 F2750
G1 X1107.8969 Y1374.8963 Z-21.0000 F2750
G1 X1107.8969 Y1394.8982 Z-21.0000 F2750
G1 X1109.8989 Y1394.8982 Z-21.0000 F2750
G1 X1109.8989 Y1389.8983 Z-21.0000 F2750
G1 X1138.8968 Y1389.8983 Z-21.0000 F2750
G1 X1138.8968 Y1468.8961 Z-21.0000 F2750
G1 X1133.8969 Y1468.8961 Z-21.0000 F2750
G1 X1133.8969 Y1470.8981 Z-21.0000 F2750
G1 X1153.8988 Y1470.8981 Z-21.0000 F2750
G1 X1153.8988 Y1468.8961 Z-21.0000 F2750
G1 X1148.8988 Y1468.8961 Z-21.0000 F2750
G1 X1148.8988 Y1384.8972 Z-21.0000 F2750
G1 X1148.8988 Y1384.8972 Z10.0000 F9999
G1 X1138.8968 Y1084.8979 Z10.0000 F9999
G1 X1138.8968 Y1084.8979 Z1.0000 F2000
G1 X1138.8968 Y1123.8690 Z-10.0000 F2000
G1 X1138.8968 Y1084.8979 Z-21.0000 F2000
G1 X1138.8968 Y1168.8967 Z-21.0000 F2750
G1 X1133.8969 Y1168.8967 Z-21.0000 F2750
G1 X1133.8969 Y1170.8987 Z-21.0000 F2750
G1 X1153.8988 Y1170.8987 Z-21.0000 F2750
G1 X1153.8988 Y1168.8967 Z-21.0000 F2750
G1 X1148.8988 Y1168.8967 Z-21.0000 F2750
G1 X1148.8988 Y1089.8988 Z-21.0000 F2750
G1 X1177.8967 Y1089.8988 Z-21.0000 F2750
G1 X1177.8967 Y1094.8989 Z-21.0000 F2750
G1 X1179.8987 Y1094.8989 Z-21.0000 F2750
G1 X1179.8987 Y1074.8969 Z-21.0000 F2750
G1 X1177.8967 Y1074.8969 Z-21.0000 F2750
G1 X1177.8967 Y1079.8969 Z-21.0000 F2750
G1 X1148.8988 Y1079.8969 Z-21.0000 F2750
G1 X1148.8988 Y1000.8991 Z-21.0000 F2750
G1 X1153.8988 Y1000.8991 Z-21.0000 F2750
G1 X1153.8988 Y998.8970 Z-21.0000 F2750
G1 X1133.8969 Y998.8970 Z-21.0000 F2750
G1 X1133.8969 Y1000.8991 Z-21.0000 F2750
G1 X1138.8968 Y1000.8991 Z-21.0000 F2750
G1 X1138.8968 Y1084.8979 Z-21.0000 F2750
G1 X1138.8968 Y1084.8979 Z10.0000 F9999
G1 X1148.8988 Y784.8985 Z10.0000 F9999
G1 X1148.8988 Y784.8985 Z1.0000 F2000
G1 X1148.8988 Y745.9273 Z-10.0000 F2000
G1 X1148.8988 Y784.8985 Z-21.0000 F2000
G1 X1148.8988 Y700.8997 Z-21.0000 F2750
G1 X1153.8988 Y700.8997 Z-21.0000 F2750
G1 X1153.8988 Y698.8977 Z-21.0000 F2750
G1 X1133.8969 Y698.8977 Z-21.0000 F2750
G1 X1133.8969 Y700.8997 Z-21.0000 F2750
G1 X1138.8968 Y700.8997 Z-21.0000 F2750
G1 X1138.8968 Y779.8975 Z-21.0000 F2750
G1 X1109.8989 Y779.8975 Z-21.0000 F2750
G1 X1109.8989 Y774.8975 Z-21.0000 F2750
G1 X1107.8969 Y774.8975 Z-21.0000 F2750
G1 X1107.8969 Y794.8994 Z-21.0000 F2750
G1 X1109.8989 Y794.8994 Z-21.0000 F2750
G1 X1109.8989 Y789.8994 Z-21.0000 F2750
G1 X1138.8968 Y789.8994 Z-21.0000 F2750
G1 X1138.8968 Y868.8973 Z-21.0000 F2750
G1 X1133.8969 Y868.8973 Z-21.0000 F2750
G1 X1133.8969 Y870.8993 Z-21.0000 F2750
G1 X1153.8988 Y870.8993 Z-21.0000 F2750
G1 X1153.8988 Y868.8973 Z-21.0000 F2750
G1 X1148.8988 Y868.8973 Z-21.0000 F2750
G1 X1148.8988 Y784.8985 Z-21.0000 F2750
G1 X1148.8988 Y784.8985 Z10.0000 F9999
G1 X1166.8987 Y484.8991 Z10.0000 F9999
G1 X1166.8987 Y484.8991 Z1.0000 F2000
G1 X1166.8987 Y445.9280 Z-10.0000 F2000
G1 X1166.8987 Y484.8991 Z-21.0000 F2000
G1 X1166.8987 Y400.9003 Z-21.0000 F2750
G1 X1171.8987 Y400.9003 Z-21.0000 F2750
G1 X1171.8987 Y398.8983 Z-21.0000 F2750
G1 X1133.8969 Y398.8983 Z-21.0000 F2750
G1 X1133.8969 Y400.9003 Z-21.0000 F2750
G1 X1138.8968 Y400.9003 Z-21.0000 F2750
G1 X1138.8968 Y568.8980 Z-21.0000 F2750
G1 X1133.8969 Y568.8980 Z-21.0000 F2750
G1 X1133.8969 Y570.8999 Z-21.0000 F2750
G1 X1171.8987 Y570.8999 Z-21.0000 F2750
G1 X1171.8987 Y568.8980 Z-21.0000 F2750
G1 X1166.8987 Y568.8980 Z-21.0000 F2750
G1 X1166.8987 Y484.8991 Z-21.0000 F2750
G1 X1166.8987 Y484.8991 Z10.0000 F9999
G1 X1166.8987 Y184.8997 Z10.0000 F9999
G1 X1166.8987 Y184.8997 Z1.0000 F2000
G1 X1166.8987 Y145.9286 Z-10.0000 F2000
G1 X1166.8987 Y184.8997 Z-21.0000 F2000
G1 X1166.8987 Y100.9009 Z-21.0000 F2750
G1 X1171.8987 Y100.9009 Z-21.0000 F2750
G1 X1171.8987 Y98.8989 Z-21.0000 F2750
G1 X1133.8969 Y98.8989 Z-21.0000 F2750
G1 X1133.8969 Y100.9009 Z-21.0000 F2750
G1 X1138.8968 Y100.9009 Z-21.0000 F2750
G1 X1138.8968 Y179.8988 Z-21.0000 F2750
G1 X1110.8989 Y179.8988 Z-21.0000 F2750
G1 X1110.8989 Y174.8986 Z-21.0000 F2750
G1 X1108.8969 Y174.8986 Z-21.0000 F2750
G1 X1108.8969 Y194.9008 Z-21.0000 F2750
G1 X1110.8989 Y194.9008 Z-21.0000 F2750
G1 X1110.8989 Y189.9006 Z-21.0000 F2750
G1 X1138.8968 Y189.9006 Z-21.0000 F2750
G1 X1138.8968 Y268.8985 Z-21.0000 F2750
G1 X1133.8969 Y268.8985 Z-21.0000 F2750
G1 X1133.8969 Y270.9005 Z-21.0000 F2750
G1 X1171.8987 Y270.9005 Z-21.0000 F2750
G1 X1171.8987 Y268.8985 Z-21.0000 F2750
G1 X1166.8987 Y268.8985 Z-21.0000 F2750
G1 X1166.8987 Y184.8997 Z-21.0000 F2750
G1 X1166.8987 Y184.8997 Z10.0000 F9999
G1 X609.8989 Y189.9006 Z10.0000 F9999
G1 X609.8989 Y189.9006 Z1.0000 F2000
G1 X648.8700 Y189.9006 Z-10.0000 F2000
G1 X609.8989 Y189.9006 Z-21.0000 F2000
G1 X650.8998 Y189.9006 Z-21.0000 F2750
G1 X650.8998 Y187.8986 Z-21.0000 F2750
G1 X645.8998 Y187.8986 Z-21.0000 F2750
G1 X645.8998 Y174.8986 Z-21.0000 F2750
G1 X643.8978 Y174.8986 Z-21.0000 F2750
G1 X643.8978 Y179.8988 Z-21.0000 F2750
G1 X575.9000 Y179.8988 Z-21.0000 F2750
G1 X575.9000 Y174.8986 Z-21.0000 F2750
G1 X573.8980 Y174.8986 Z-21.0000 F2750
G1 X573.8980 Y187.8986 Z-21.0000 F2750
G1 X568.8980 Y187.8986 Z-21.0000 F2750
G1 X568.8980 Y189.9006 Z-21.0000 F2750
G1 X609.8989 Y189.9006 Z-21.0000 F2750
G1 X609.8989 Y189.9006 Z10.0000 F9999
G1 X609.8989 Y789.8994 Z10.0000 F9999
G1 X609.8989 Y789.8994 Z1.0000 F2000
G1 X648.8700 Y789.8994 Z-10.0000 F2000
G1 X609.8989 Y789.8994 Z-21.0000 F2000
G1 X650.8998 Y789.8994 Z-21.0000 F2750
G1 X650.8998 Y787.8975 Z-21.0000 F2750
G1 X645.8998 Y787.8975 Z-21.0000 F2750
G1 X645.8998 Y774.8975 Z-21.0000 F2750
G1 X643.8978 Y774.8975 Z-21.0000 F2750
G1 X643.8978 Y779.8975 Z-21.0000 F2750
G1 X575.9000 Y779.8975 Z-21.0000 F2750
G1 X575.9000 Y774.8975 Z-21.0000 F2750
G1 X573.8980 Y774.8975 Z-21.0000 F2750
G1 X573.8980 Y787.8975 Z-21.0000 F2750
G1 X568.8980 Y787.8975 Z-21.0000 F2750
G1 X568.8980 Y789.8994 Z-21.0000 F2750
G1 X609.8989 Y789.8994 Z-21.0000 F2750
G1 X609.8989 Y789.8994 Z10.0000 F9999
G1 X1138.8968 Y1684.8966 Z10.0000 F9999
G1 X1138.8968 Y1684.8966 Z1.0000 F2000
G1 X1138.8968 Y1723.8678 Z-10.0000 F2000
G1 X1138.8968 Y1684.8966 Z-21.0000 F2000
G1 X1138.8968 Y1768.8955 Z-21.0000 F2750
G1 X1133.8969 Y1768.8955 Z-21.0000 F2750
G1 X1133.8969 Y1770.8975 Z-21.0000 F2750
G1 X1153.8988 Y1770.8975 Z-21.0000 F2750
G1 X1153.8988 Y1768.8955 Z-21.0000 F2750
G1 X1148.8988 Y1768.8955 Z-21.0000 F2750
G1 X1148.8988 Y1600.8978 Z-21.0000 F2750
G1 X1153.8988 Y1600.8978 Z-21.0000 F2750
G1 X1153.8988 Y1598.8958 Z-21.0000 F2750
G1 X1133.8969 Y1598.8958 Z-21.0000 F2750
G1 X1133.8969 Y1600.8978 Z-21.0000 F2750
G1 X1138.8968 Y1600.8978 Z-21.0000 F2750
G1 X1138.8968 Y1684.8966 Z-21.0000 F2750
G1 X1138.8968 Y1684.8966 Z10.0000 F9999
G1 X1138.8968 Y1984.8960 Z10.0000 F9999
G1 X1138.8968 Y1984.8960 Z1.0000 F2000
G1 X1138.8968 Y2023.8672 Z-10.0000 F2000
G1 X1138.8968 Y1984.8960 Z-21.0000 F2000
G1 X1138.8968 Y2068.8949 Z-21.0000 F2750
G1 X1133.8969 Y2068.8949 Z-21.0000 F2750
G1 X1133.8969 Y2070.8968 Z-21.0000 F2750
G1 X1153.8988 Y2070.8968 Z-21.0000 F2750
G1 X1153.8988 Y2068.8949 Z-21.0000 F2750
G1 X1148.8988 Y2068.8949 Z-21.0000 F2750
G1 X1148.8988 Y1900.8972 Z-21.0000 F2750
G1 X1153.8988 Y1900.8972 Z-21.0000 F2750
G1 X1153.8988 Y1898.8952 Z-21.0000 F2750
G1 X1133.8969 Y1898.8952 Z-21.0000 F2750
G1 X1133.8969 Y1900.8972 Z-21.0000 F2750
G1 X1138.8968 Y1900.8972 Z-21.0000 F2750
G1 X1138.8968 Y1984.8960 Z-21.0000 F2750
G1 X1138.8968 Y1984.8960 Z10.0000 F9999
(Tool Number:1) (7.998 mm dia. slot drill)
M3 S19000
G1 X21.7171 Y2385.9193 Z10.0000 F9999
G1 X21.7171 Y2385.9193 Z1.0000 F2000
G1 X20.2009 Y2384.3403 Z0.3821 F2000
G1 X18.7376 Y2382.6867 Z-0.2411 F2000
G1 X17.3324 Y2380.9609 Z-0.8693 F2000
G1 X15.9903 Y2379.1659 Z-1.5019 F2000
G1 X14.7163 Y2377.3050 Z-2.1385 F2000
G1 X13.5149 Y2375.3822 Z-2.7784 F2000
G1 X12.3904 Y2373.4018 Z-3.4213 F2000
G1 X11.3468 Y2371.3682 Z-4.0664 F2000
G1 X10.3878 Y2369.2867 Z-4.7133 F2000
G1 X9.5165 Y2367.1625 Z-5.3614 F2000
G1 X8.7355 Y2365.0011 Z-6.0100 F2000
G1 X8.0473 Y2362.8085 Z-6.6587 F2000
G1 X7.4534 Y2360.5907 Z-7.3068 F2000
G1 X6.9552 Y2358.3536 Z-7.9537 F2000
G1 X6.5533 Y2356.1036 Z-8.5988 F2000
G1 X6.2480 Y2353.8467 Z-9.2417 F2000
G1 X6.0387 Y2351.5891 Z-9.8816 F2000
G1 X6.0176 Y2351.1702 Z-10.0000 F2000
G1 X6.0387 Y2351.5891 Z-10.1184 F2000
G1 X6.2480 Y2353.8467 Z-10.7583 F2000
G1 X6.5533 Y2356.1036 Z-11.4012 F2000
G1 X6.9552 Y2358.3536 Z-12.0463 F2000
G1 X7.4534 Y2360.5907 Z-12.6932 F2000
G1 X8.0473 Y2362.8085 Z-13.3413 F2000
G1 X8.7355 Y2365.0011 Z-13.9900 F2000
G1 X9.5165 Y2367.1625 Z-14.6386 F2000
G1 X10.3878 Y2369.2867 Z-15.2867 F2000
G1 X11.3468 Y2371.3682 Z-15.9336 F2000
G1 X12.3904 Y2373.4018 Z-16.5787 F2000
G1 X13.5149 Y2375.3822 Z-17.2216 F2000
G1 X14.7163 Y2377.3050 Z-17.8615 F2000
G1 X15.9903 Y2379.1659 Z-18.4981 F2000
G1 X17.3324 Y2380.9609 Z-19.1307 F2000
G1 X18.7376 Y2382.6867 Z-19.7589 F2000
G1 X20.2009 Y2384.3403 Z-20.3821 F2000
G1 X21.7171 Y2385.9193 Z-21.0000 F2000
G1 X20.2009 Y2384.3403 Z-21.0000 F2750
G1 X18.7376 Y2382.6867 Z-21.0000 F2750
G1 X17.3324 Y2380.9609 Z-21.0000 F2750
G1 X15.9903 Y2379.1659 Z-21.0000 F2750
G1 X14.7163 Y2377.3050 Z-21.0000 F2750
G1 X13.5149 Y2375.3822 Z-21.0000 F2750
G1 X12.3904 Y2373.4018 Z-21.0000 F2750
G1 X11.3468 Y2371.3682 Z-21.0000 F2750
G1 X10.3878 Y2369.2867 Z-21.0000 F2750
G1 X9.5165 Y2367.1625 Z-21.0000 F2750
G1 X8.7355 Y2365.0011 Z-21.0000 F2750
G1 X8.0473 Y2362.8085 Z-21.0000 F2750
G1 X7.4534 Y2360.5907 Z-21.0000 F2750
G1 X6.9552 Y2358.3536 Z-21.0000 F2750
G1 X6.5533 Y2356.1036 Z-21.0000 F2750
G1 X6.2480 Y2353.8467 Z-21.0000 F2750
G1 X6.0387 Y2351.5891 Z-21.0000 F2750
G1 X5.9248 Y2349.3368 Z-21.0000 F2750
G1 X5.9049 Y2347.0956 Z-21.0000 F2750
G1 X5.9772 Y2344.8713 Z-21.0000 F2750
G1 X6.1394 Y2342.6691 Z-21.0000 F2750
G1 X6.3889 Y2340.4944 Z-21.0000 F2750
G1 X6.3889 Y2340.4944 Z-15.0000 F9999
G1 X6.6973 Y2338.4977 Z-15.0000 F2750
G1 X7.0807 Y2336.5112 Z-15.0000 F2750
G1 X7.5386 Y2334.5390 Z-15.0000 F2750
G1 X8.0701 Y2332.5855 Z-15.0000 F2750
G1 X8.6741 Y2330.6545 Z-15.0000 F2750
G1 X9.3489 Y2328.7502 Z-15.0000 F2750
G1 X10.1151 Y2326.8234 Z-15.0000 F2750
G1 X10.9560 Y2324.9246 Z-15.0000 F2750
G1 X11.8701 Y2323.0582 Z-15.0000 F2750
G1 X12.8552 Y2321.2283 Z-15.0000 F2750
G1 X13.9093 Y2319.4390 Z-15.0000 F2750
G1 X15.0296 Y2317.6941 Z-15.0000 F2750
G1 X15.0296 Y2317.6941 Z-21.0000 F2000
G1 X16.2942 Y2315.8864 Z-21.0000 F2750
G1 X17.6344 Y2314.1282 Z-21.0000 F2750
G1 X19.0473 Y2312.4242 Z-21.0000 F2750
G1 X20.5295 Y2310.7789 Z-21.0000 F2750
G1 X22.0772 Y2309.1964 Z-21.0000 F2750
G1 X23.6864 Y2307.6805 Z-21.0000 F2750
G1 X25.3528 Y2306.2347 Z-21.0000 F2750
G1 X27.0793 Y2304.8563 Z-21.0000 F2750
G1 X28.8755 Y2303.5393 Z-21.0000 F2750
G1 X30.7382 Y2302.2887 Z-21.0000 F2750
G1 X32.6637 Y2301.1093 Z-21.0000 F2750
G1 X34.6481 Y2300.0054 Z-21.0000 F2750
G1 X36.6869 Y2298.9814 Z-21.0000 F2750
G1 X38.7751 Y2298.0409 Z-21.0000 F2750
G1 X40.9077 Y2297.1874 Z-21.0000 F2750
G1 X43.0791 Y2296.4240 Z-21.0000 F2750
G1 X45.2837 Y2295.7530 Z-21.0000 F2750
G1 X47.5153 Y2295.1767 Z-21.0000 F2750
G1 X49.7680 Y2294.6963 Z-21.0000 F2750
G1 X52.0354 Y2294.3130 Z-21.0000 F2750
G1 X54.3114 Y2294.0272 Z-21.0000 F2750
G1 X56.5898 Y2293.8388 Z-21.0000 F2750
G1 X58.8643 Y2293.7472 Z-21.0000 F2750
G1 X61.1290 Y2293.7512 Z-21.0000 F2750
G1 X63.3779 Y2293.8493 Z-21.0000 F2750
G1 X65.6054 Y2294.0395 Z-21.0000 F2750
G1 X67.8062 Y2294.3191 Z-21.0000 F2750
G1 X69.9800 Y2294.6864 Z-21.0000 F2750
G1 X72.1505 Y2295.1452 Z-21.0000 F2750
G1 X74.3169 Y2295.6973 Z-21.0000 F2750
G1 X76.4732 Y2296.3434 Z-21.0000 F2750
G1 X78.6135 Y2297.0835 Z-21.0000 F2750
G1 X80.7317 Y2297.9172 Z-21.0000 F2750
G1 X82.8217 Y2298.8436 Z-21.0000 F2750
G1 X84.8776 Y2299.8612 Z-21.0000 F2750
G1 X86.8933 Y2300.9681 Z-21.0000 F2750
G1 X88.8632 Y2302.1617 Z-21.0000 F2750
G1 X90.7816 Y2303.4392 Z-21.0000 F2750
G1 X92.6434 Y2304.7971 Z-21.0000 F2750
G1 X94.4435 Y2306.2315 Z-21.0000 F2750
G1 X96.1774 Y2307.7381 Z-21.0000 F2750
G1 X97.8409 Y2309.3124 Z-21.0000 F2750
G1 X99.4301 Y2310.9493 Z-21.0000 F2750
G1 X100.9417 Y2312.6438 Z-21.0000 F2750
G1 X102.3730 Y2314.3903 Z-21.0000 F2750
G1 X103.7215 Y2316.1834 Z-21.0000 F2750
G1 X104.9854 Y2318.0173 Z-21.0000 F2750
G1 X106.1633 Y2319.8864 Z-21.0000 F2750
G1 X106.1633 Y2319.8864 Z-15.0000 F9999
G1 X107.2292 Y2321.7392 Z-15.0000 F2750
G1 X108.2225 Y2323.6357 Z-15.0000 F2750
G1 X109.1406 Y2325.5716 Z-15.0000 F2750
G1 X109.9811 Y2327.5424 Z-15.0000 F2750
G1 X110.7422 Y2329.5434 Z-15.0000 F2750
G1 X111.4223 Y2331.5699 Z-15.0000 F2750
G1 X112.0308 Y2333.6551 Z-15.0000 F2750
G1 X112.5558 Y2335.7665 Z-15.0000 F2750
G1 X112.9955 Y2337.8991 Z-15.0000 F2750
G1 X113.3489 Y2340.0477 Z-15.0000 F2750
G1 X113.6153 Y2342.2070 Z-15.0000 F2750
G1 X113.7942 Y2344.3718 Z-15.0000 F2750
G1 X113.7942 Y2344.3718 Z-21.0000 F2000
G1 X113.8729 Y2346.0532 Z-21.0000 F2750
G1 X113.8991 Y2347.7362 Z-21.0000 F2750
G1 X113.8509 Y2350.0178 Z-21.0000 F2750
G1 X113.7060 Y2352.2984 Z-21.0000 F2750
G1 X113.4647 Y2354.5719 Z-21.0000 F2750
G1 X113.1275 Y2356.8321 Z-21.0000 F2750
G1 X112.6957 Y2359.0730 Z-21.0000 F2750
G1 X112.1854 Y2361.2323 Z-21.0000 F2750
G1 X111.5801 Y2363.3911 Z-21.0000 F2750
G1 X110.8785 Y2365.5434 Z-21.0000 F2750
G1 X110.0800 Y2367.6830 Z-21.0000 F2750
G1 X109.1842 Y2369.8035 Z-21.0000 F2750
G1 X108.1917 Y2371.8985 Z-21.0000 F2750
G1 X107.1032 Y2373.9615 Z-21.0000 F2750
G1 X105.9202 Y2375.9859 Z-21.0000 F2750
G1 X104.6448 Y2377.9655 Z-21.0000 F2750
G1 X103.2795 Y2379.8939 Z-21.0000 F2750
G1 X101.8277 Y2381.7652 Z-21.0000 F2750
G1 X100.2928 Y2383.5736 Z-21.0000 F2750
G1 X98.6793 Y2385.3137 Z-21.0000 F2750
G1 X96.9917 Y2386.9804 Z-21.0000 F2750
G1 X95.2351 Y2388.5692 Z-21.0000 F2750
G1 X93.4150 Y2390.0758 Z-21.0000 F2750
G1 X91.5372 Y2391.4968 Z-21.0000 F2750
G1 X89.6076 Y2392.8290 Z-21.0000 F2750
G1 X87.6326 Y2394.0698 Z-21.0000 F2750
G1 X85.6183 Y2395.2174 Z-21.0000 F2750
G1 X83.5713 Y2396.2704 Z-21.0000 F2750
G1 X81.4980 Y2397.2279 Z-21.0000 F2750
G1 X79.4047 Y2398.0896 Z-21.0000 F2750
G1 X77.2976 Y2398.8559 Z-21.0000 F2750
G1 X75.1829 Y2399.5274 Z-21.0000 F2750
G1 X73.0423 Y2400.1115 Z-21.0000 F2750
G1 X70.8568 Y2400.6120 Z-21.0000 F2750
G1 X68.6310 Y2401.0247 Z-21.0000 F2750
G1 X66.3700 Y2401.3462 Z-21.0000 F2750
G1 X64.0793 Y2401.5733 Z-21.0000 F2750
G1 X61.7647 Y2401.7030 Z-21.0000 F2750
G1 X59.4324 Y2401.7332 Z-21.0000 F2750
G1 X57.0887 Y2401.6620 Z-21.0000 F2750
G1 X54.7403 Y2401.4881 Z-21.0000 F2750
G1 X52.3938 Y2401.2110 Z-21.0000 F2750
G1 X50.0561 Y2400.8304 Z-21.0000 F2750
G1 X47.7340 Y2400.3468 Z-21.0000 F2750
G1 X45.4342 Y2399.7615 Z-21.0000 F2750
G1 X43.1635 Y2399.0761 Z-21.0000 F2750
G1 X40.9283 Y2398.2928 Z-21.0000 F2750
G1 X38.7349 Y2397.4144 Z-21.0000 F2750
G1 X36.5891 Y2396.4444 Z-21.0000 F2750
G1 X34.4965 Y2395.3865 Z-21.0000 F2750
G1 X32.4624 Y2394.2450 Z-21.0000 F2750
G1 X30.4915 Y2393.0245 Z-21.0000 F2750
G1 X28.5881 Y2391.7300 Z-21.0000 F2750
G1 X26.7559 Y2390.3666 Z-21.0000 F2750
G1 X24.9982 Y2388.9400 Z-21.0000 F2750
G1 X23.3179 Y2387.4556 Z-21.0000 F2750
G1 X21.7171 Y2385.9193 Z-21.0000 F2750
G1 X21.7171 Y2385.9193 Z10.0000 F9999
G1 X168.1384 Y2396.5901 Z10.0000 F9999
G1 X168.1384 Y2396.5901 Z1.0000 F2000
G1 X166.5323 Y2395.1470 Z0.2758 F2000
G1 X164.9771 Y2393.6327 Z-0.4523 F2000
G1 X163.4775 Y2392.0499 Z-1.1837 F2000
G1 X162.0377 Y2390.4016 Z-1.9178 F2000
G1 X160.6620 Y2388.6912 Z-2.6540 F2000
G1 X159.3543 Y2386.9227 Z-3.3918 F2000
G1 X158.1183 Y2385.1000 Z-4.1305 F2000
G1 X156.9571 Y2383.2277 Z-4.8695 F2000
G1 X155.8737 Y2381.3104 Z-5.6082 F2000
G1 X154.8706 Y2379.3530 Z-6.3460 F2000
G1 X153.9498 Y2377.3605 Z-7.0822 F2000
G1 X153.1131 Y2375.3382 Z-7.8163 F2000
G1 X152.3617 Y2373.2913 Z-8.5477 F2000
G1 X151.6963 Y2371.2252 Z-9.2758 F2000
G1 X151.1174 Y2369.1451 Z-10.0000 F2000
G1 X151.6963 Y2371.2252 Z-10.7242 F2000
G1 X152.3617 Y2373.2913 Z-11.4523 F2000
G1 X153.1131 Y2375.3382 Z-12.1837 F2000
G1 X153.9498 Y2377.3605 Z-12.9178 F2000
G1 X154.8706 Y2379.3530 Z-13.6540 F2000
G1 X155.8737 Y2381.3104 Z-14.3918 F2000
G1 X156.9571 Y2383.2277 Z-15.1305 F2000
G1 X158.1183 Y2385.1000 Z-15.8695 F2000
G1 X159.3543 Y2386.9227 Z-16.6082 F2000
G1 X160.6620 Y2388.6912 Z-17.3460 F2000
G1 X162.0377 Y2390.4016 Z-18.0822 F2000
G1 X163.4775 Y2392.0499 Z-18.8163 F2000
G1 X164.9771 Y2393.6327 Z-19.5477 F2000
G1 X166.5323 Y2395.1470 Z-20.2758 F2000
G1 X168.1384 Y2396.5901 Z-21.0000 F2000
G1 X166.5323 Y2395.1470 Z-21.0000 F2750
G1 X164.9771 Y2393.6327 Z-21.0000 F2750
G1 X163.4775 Y2392.0499 Z-21.0000 F2750
G1 X162.0377 Y2390.4016 Z-21.0000 F2750
G1 X160.6620 Y2388.6912 Z-21.0000 F2750
G1 X159.3543 Y2386.9227 Z-21.0000 F2750
G1 X158.1183 Y2385.1000 Z-21.0000 F2750
G1 X156.9571 Y2383.2277 Z-21.0000 F2750
G1 X155.8737 Y2381.3104 Z-21.0000 F2750
G1 X154.8706 Y2379.3530 Z-21.0000 F2750
G1 X153.9498 Y2377.3605 Z-21.0000 F2750
G1 X153.1131 Y2375.3382 Z-21.0000 F2750
G1 X152.3617 Y2373.2913 Z-21.0000 F2750
G1 X151.6963 Y2371.2252 Z-21.0000 F2750
G1 X151.1174 Y2369.1451 Z-21.0000 F2750
G1 X151.1174 Y2369.1451 Z-15.0000 F9999
G1 X150.6807 Y2367.3132 Z-15.0000 F2750
G1 X150.3081 Y2365.4667 Z-15.0000 F2750
G1 X150.0001 Y2363.6088 Z-15.0000 F2750
G1 X149.7463 Y2361.6440 Z-15.0000 F2750
G1 X149.5646 Y2359.6698 Z-15.0000 F2750
G1 X149.4556 Y2357.6903 Z-15.0000 F2750
G1 X149.4192 Y2355.7094 Z-15.0000 F2750
G1 X149.4671 Y2353.4369 Z-15.0000 F2750
G1 X149.6108 Y2351.1643 Z-15.0000 F2750
G1 X149.8506 Y2348.8977 Z-15.0000 F2750
G1 X150.1857 Y2346.6433 Z-15.0000 F2750
G1 X150.6153 Y2344.4071 Z-15.0000 F2750
G1 X151.1378 Y2342.1948 Z-15.0000 F2750
G1 X151.1378 Y2342.1948 Z-21.0000 F2000
G1 X151.7017 Y2340.1760 Z-21.0000 F2750
G1 X152.3437 Y2338.1798 Z-21.0000 F2750
G1 X153.0626 Y2336.2108 Z-21.0000 F2750
G1 X153.8903 Y2334.1949 Z-21.0000 F2750
G1 X154.8103 Y2332.1901 Z-21.0000 F2750
G1 X155.8233 Y2330.2023 Z-21.0000 F2750
G1 X156.9296 Y2328.2377 Z-21.0000 F2750
G1 X158.1289 Y2326.3025 Z-21.0000 F2750
G1 X159.4205 Y2324.4030 Z-21.0000 F2750
G1 X160.8032 Y2322.5455 Z-21.0000 F2750
G1 X162.2749 Y2320.7363 Z-21.0000 F2750
G1 X163.8333 Y2318.9817 Z-21.0000 F2750
G1 X165.4753 Y2317.2877 Z-21.0000 F2750
G1 X167.1974 Y2315.6602 Z-21.0000 F2750
G1 X168.9955 Y2314.1046 Z-21.0000 F2750
G1 X170.8649 Y2312.6261 Z-21.0000 F2750
G1 X172.8006 Y2311.2296 Z-21.0000 F2750
G1 X174.7972 Y2309.9194 Z-21.0000 F2750
G1 X176.8486 Y2308.6994 Z-21.0000 F2750
G1 X178.9489 Y2307.5727 Z-21.0000 F2750
G1 X181.0916 Y2306.5422 Z-21.0000 F2750
G1 X183.2701 Y2305.6101 Z-21.0000 F2750
G1 X185.4776 Y2304.7779 Z-21.0000 F2750
G1 X187.7075 Y2304.0465 Z-21.0000 F2750
G1 X189.9529 Y2303.4163 Z-21.0000 F2750
G1 X192.2072 Y2302.8871 Z-21.0000 F2750
G1 X194.4638 Y2302.4581 Z-21.0000 F2750
G1 X196.7165 Y2302.1279 Z-21.0000 F2750
G1 X198.9591 Y2301.8949 Z-21.0000 F2750
G1 X201.1858 Y2301.7566 Z-21.0000 F2750
G1 X203.3911 Y2301.7105 Z-21.0000 F2750
G1 X205.5699 Y2301.7533 Z-21.0000 F2750
G1 X207.7850 Y2301.8873 Z-21.0000 F2750
G1 X210.0147 Y2302.1149 Z-21.0000 F2750
G1 X212.2532 Y2302.4381 Z-21.0000 F2750
G1 X214.4947 Y2302.8587 Z-21.0000 F2750
G1 X216.7328 Y2303.3777 Z-21.0000 F2750
G1 X218.9612 Y2303.9957 Z-21.0000 F2750
G1 X221.1735 Y2304.7129 Z-21.0000 F2750
G1 X223.3630 Y2305.5288 Z-21.0000 F2750
G1 X225.5233 Y2306.4422 Z-21.0000 F2750
G1 X227.6478 Y2307.4516 Z-21.0000 F2750
G1 X229.7303 Y2308.5547 Z-21.0000 F2750
G1 X231.7646 Y2309.7489 Z-21.0000 F2750
G1 X233.7448 Y2311.0307 Z-21.0000 F2750
G1 X235.6653 Y2312.3965 Z-21.0000 F2750
G1 X237.5210 Y2313.8419 Z-21.0000 F2750
G1 X239.3069 Y2315.3623 Z-21.0000 F2750
G1 X241.0188 Y2316.9526 Z-21.0000 F2750
G1 X242.6527 Y2318.6076 Z-21.0000 F2750
G1 X244.2052 Y2320.3214 Z-21.0000 F2750
G1 X245.6736 Y2322.0884 Z-21.0000 F2750
G1 X247.0556 Y2323.9026 Z-21.0000 F2750
G1 X248.3492 Y2325.7579 Z-21.0000 F2750
G1 X249.5534 Y2327.6482 Z-21.0000 F2750
G1 X250.6674 Y2329.5674 Z-21.0000 F2750
G1 X250.6674 Y2329.5674 Z-15.0000 F9999
G1 X251.5753 Y2331.2801 Z-15.0000 F2750
G1 X252.4221 Y2333.0266 Z-15.0000 F2750
G1 X253.2061 Y2334.8036 Z-15.0000 F2750
G1 X253.9258 Y2336.6076 Z-15.0000 F2750
G1 X254.5796 Y2338.4351 Z-15.0000 F2750
G1 X255.1667 Y2340.2825 Z-15.0000 F2750
G1 X255.7044 Y2342.2170 Z-15.0000 F2750
G1 X256.1705 Y2344.1729 Z-15.0000 F2750
G1 X256.5636 Y2346.1461 Z-15.0000 F2750
G1 X256.8830 Y2348.1326 Z-15.0000 F2750
G1 X257.1280 Y2350.1282 Z-15.0000 F2750
G1 X257.2984 Y2352.1288 Z-15.0000 F2750
G1 X257.2984 Y2352.1288 Z-21.0000 F2000
G1 X257.3875 Y2353.9181 Z-21.0000 F2750
G1 X257.4172 Y2355.7094 Z-21.0000 F2750
G1 X257.3791 Y2357.7384 Z-21.0000 F2750
G1 X257.2645 Y2359.7673 Z-21.0000 F2750
G1 X257.0736 Y2361.7920 Z-21.0000 F2750
G1 X256.8065 Y2363.8080 Z-21.0000 F2750
G1 X256.4639 Y2365.8111 Z-21.0000 F2750
G1 X256.0469 Y2367.7971 Z-21.0000 F2750
G1 X255.5043 Y2369.9549 Z-21.0000 F2750
G1 X254.8665 Y2372.1098 Z-21.0000 F2750
G1 X254.1324 Y2374.2556 Z-21.0000 F2750
G1 X253.3017 Y2376.3863 Z-21.0000 F2750
G1 X252.3742 Y2378.4954 Z-21.0000 F2750
G1 X251.3507 Y2380.5765 Z-21.0000 F2750
G1 X250.2322 Y2382.6231 Z-21.0000 F2750
G1 X249.0204 Y2384.6289 Z-21.0000 F2750
G1 X247.7176 Y2386.5876 Z-21.0000 F2750
G1 X246.3266 Y2388.4931 Z-21.0000 F2750
G1 X244.8508 Y2390.3394 Z-21.0000 F2750
G1 X243.2941 Y2392.1211 Z-21.0000 F2750
G1 X241.6609 Y2393.8328 Z-21.0000 F2750
G1 X239.9559 Y2395.4699 Z-21.0000 F2750
G1 X238.1844 Y2397.0278 Z-21.0000 F2750
G1 X236.3518 Y2398.5028 Z-21.0000 F2750
G1 X234.4641 Y2399.8914 Z-21.0000 F2750
G1 X232.5273 Y2401.1908 Z-21.0000 F2750
G1 X230.5475 Y2402.3988 Z-21.0000 F2750
G1 X228.5312 Y2403.5135 Z-21.0000 F2750
G1 X226.4846 Y2404.5340 Z-21.0000 F2750
G1 X224.4140 Y2405.4595 Z-21.0000 F2750
G1 X222.3258 Y2406.2900 Z-21.0000 F2750
G1 X220.2261 Y2407.0260 Z-21.0000 F2750
G1 X218.0978 Y2407.6748 Z-21.0000 F2750
G1 X215.9229 Y2408.2406 Z-21.0000 F2750
G1 X213.7061 Y2408.7194 Z-21.0000 F2750
G1 X211.4523 Y2409.1074 Z-21.0000 F2750
G1 X209.1672 Y2409.4015 Z-21.0000 F2750
G1 X206.8564 Y2409.5989 Z-21.0000 F2750
G1 X204.5261 Y2409.6971 Z-21.0000 F2750
G1 X202.1827 Y2409.6943 Z-21.0000 F2750
G1 X199.8327 Y2409.5893 Z-21.0000 F2750
G1 X197.4827 Y2409.3812 Z-21.0000 F2750
G1 X195.1396 Y2409.0701 Z-21.0000 F2750
G1 X192.8102 Y2408.6562 Z-21.0000 F2750
G1 X190.5011 Y2408.1407 Z-21.0000 F2750
G1 X188.2190 Y2407.5252 Z-21.0000 F2750
G1 X185.9703 Y2406.8119 Z-21.0000 F2750
G1 X183.7612 Y2406.0035 Z-21.0000 F2750
G1 X181.5975 Y2405.1033 Z-21.0000 F2750
G1 X179.4850 Y2404.1149 Z-21.0000 F2750
G1 X177.4286 Y2403.0426 Z-21.0000 F2750
G1 X175.4331 Y2401.8909 Z-21.0000 F2750
G1 X173.5028 Y2400.6645 Z-21.0000 F2750
G1 X171.6415 Y2399.3687 Z-21.0000 F2750
G1 X169.8524 Y2398.0087 Z-21.0000 F2750
G1 X168.1384 Y2396.5901 Z-21.0000 F2750
G1 X168.1384 Y2396.5901 Z10.0000 F9999
G1 X309.1533 Y2397.4741 Z10.0000 F9999
G1 X309.1533 Y2397.4741 Z1.0000 F2000
G1 X307.4509 Y2396.0189 Z0.2765 F2000
G1 X305.8011 Y2394.4853 Z-0.4512 F2000
G1 X304.2091 Y2392.8763 Z-1.1824 F2000
G1 X302.6799 Y2391.1951 Z-1.9166 F2000
G1 X301.2184 Y2389.4456 Z-2.6531 F2000
G1 X299.8290 Y2387.6317 Z-3.3912 F2000
G1 X298.5159 Y2385.7582 Z-4.1303 F2000
G1 X297.2828 Y2383.8298 Z-4.8697 F2000
G1 X296.1330 Y2381.8519 Z-5.6088 F2000
G1 X295.0694 Y2379.8297 Z-6.3469 F2000
G1 X294.0944 Y2377.7690 Z-7.0834 F2000
G1 X293.2099 Y2375.6757 Z-7.8176 F2000
G1 X292.4172 Y2373.5555 Z-8.5488 F2000
G1 X291.7173 Y2371.4145 Z-9.2765 F2000
G1 X291.1105 Y2369.2587 Z-10.0000 F2000
G1 X291.7173 Y2371.4145 Z-10.7235 F2000
G1 X292.4172 Y2373.5555 Z-11.4512 F2000
G1 X293.2099 Y2375.6757 Z-12.1824 F2000
G1 X294.0944 Y2377.7690 Z-12.9166 F2000
G1 X295.0694 Y2379.8297 Z-13.6531 F2000
G1 X296.1330 Y2381.8519 Z-14.3912 F2000
G1 X297.2828 Y2383.8298 Z-15.1303 F2000
G1 X298.5159 Y2385.7582 Z-15.8697 F2000
G1 X299.8290 Y2387.6317 Z-16.6088 F2000
G1 X301.2184 Y2389.4456 Z-17.3469 F2000
G1 X302.6799 Y2391.1951 Z-18.0834 F2000
G1 X304.2091 Y2392.8763 Z-18.8176 F2000
G1 X305.8011 Y2394.4853 Z-19.5488 F2000
G1 X307.4509 Y2396.0189 Z-20.2765 F2000
G1 X309.1533 Y2397.4741 Z-21.0000 F2000
G1 X307.4509 Y2396.0189 Z-21.0000 F2750
G1 X305.8011 Y2394.4853 Z-21.0000 F2750
G1 X304.2091 Y2392.8763 Z-21.0000 F2750
G1 X302.6799 Y2391.1951 Z-21.0000 F2750
G1 X301.2184 Y2389.4456 Z-21.0000 F2750
G1 X299.8290 Y2387.6317 Z-21.0000 F2750
G1 X298.5159 Y2385.7582 Z-21.0000 F2750
G1 X297.2828 Y2383.8298 Z-21.0000 F2750
G1 X296.1330 Y2381.8519 Z-21.0000 F2750
G1 X295.0694 Y2379.8297 Z-21.0000 F2750
G1 X294.0944 Y2377.7690 Z-21.0000 F2750
G1 X293.2099 Y2375.6757 Z-21.0000 F2750
G1 X292.4172 Y2373.5555 Z-21.0000 F2750
G1 X291.7173 Y2371.4145 Z-21.0000 F2750
G1 X291.1105 Y2369.2587 Z-21.0000 F2750
G1 X291.1105 Y2369.2587 Z-15.0000 F9999
G1 X290.7520 Y2367.7915 Z-15.0000 F2750
G1 X290.4347 Y2366.3149 Z-15.0000 F2750
G1 X290.0571 Y2364.2154 Z-15.0000 F2750
G1 X289.7625 Y2362.1002 Z-15.0000 F2750
G1 X289.5517 Y2359.9741 Z-15.0000 F2750
G1 X289.4251 Y2357.8422 Z-15.0000 F2750
G1 X289.3830 Y2355.7094 Z-15.0000 F2750
G1 X289.4315 Y2353.4221 Z-15.0000 F2750
G1 X289.5771 Y2351.1348 Z-15.0000 F2750
G1 X289.8200 Y2348.8537 Z-15.0000 F2750
G1 X290.1595 Y2346.5849 Z-15.0000 F2750
G1 X290.5946 Y2344.3347 Z-15.0000 F2750
G1 X291.1238 Y2342.1089 Z-15.0000 F2750
G1 X291.1238 Y2342.1089 Z-21.0000 F2000
G1 X291.5809 Y2340.4602 Z-21.0000 F2750
G1 X292.0900 Y2338.8269 Z-21.0000 F2750
G1 X292.8007 Y2336.8038 Z-21.0000 F2750
G1 X293.6014 Y2334.7862 Z-21.0000 F2750
G1 X294.4932 Y2332.7797 Z-21.0000 F2750
G1 X295.4767 Y2330.7901 Z-21.0000 F2750
G1 X296.5522 Y2328.8234 Z-21.0000 F2750
G1 X297.7193 Y2326.8856 Z-21.0000 F2750
G1 X298.9773 Y2324.9830 Z-21.0000 F2750
G1 X300.3247 Y2323.1217 Z-21.0000 F2750
G1 X301.7596 Y2321.3078 Z-21.0000 F2750
G1 X303.2797 Y2319.5473 Z-21.0000 F2750
G1 X304.8819 Y2317.8461 Z-21.0000 F2750
G1 X306.5627 Y2316.2097 Z-21.0000 F2750
G1 X308.3180 Y2314.6435 Z-21.0000 F2750
G1 X310.1435 Y2313.1525 Z-21.0000 F2750
G1 X312.0341 Y2311.7413 Z-21.0000 F2750
G1 X313.9845 Y2310.4140 Z-21.0000 F2750
G1 X315.9891 Y2309.1743 Z-21.0000 F2750
G1 X318.0419 Y2308.0253 Z-21.0000 F2750
G1 X320.1368 Y2306.9698 Z-21.0000 F2750
G1 X322.2674 Y2306.0097 Z-21.0000 F2750
G1 X324.4273 Y2305.1465 Z-21.0000 F2750
G1 X326.6098 Y2304.3812 Z-21.0000 F2750
G1 X328.8087 Y2303.7142 Z-21.0000 F2750
G1 X331.0174 Y2303.1451 Z-21.0000 F2750
G1 X333.2298 Y2302.6734 Z-21.0000 F2750
G1 X335.4396 Y2302.2977 Z-21.0000 F2750
G1 X337.6412 Y2302.0165 Z-21.0000 F2750
G1 X339.8288 Y2301.8275 Z-21.0000 F2750
G1 X341.9972 Y2301.7282 Z-21.0000 F2750
G1 X344.1415 Y2301.7158 Z-21.0000 F2750
G1 X346.3238 Y2301.7906 Z-21.0000 F2750
G1 X348.5234 Y2301.9558 Z-21.0000 F2750
G1 X350.7348 Y2302.2134 Z-21.0000 F2750
G1 X352.9524 Y2302.5653 Z-21.0000 F2750
G1 X355.1702 Y2303.0129 Z-21.0000 F2750
G1 X357.3823 Y2303.5569 Z-21.0000 F2750
G1 X359.5824 Y2304.1979 Z-21.0000 F2750
G1 X361.7643 Y2304.9356 Z-21.0000 F2750
G1 X363.9215 Y2305.7693 Z-21.0000 F2750
G1 X366.0479 Y2306.6977 Z-21.0000 F2750
G1 X368.1372 Y2307.7191 Z-21.0000 F2750
G1 X370.1835 Y2308.8312 Z-21.0000 F2750
G1 X372.1808 Y2310.0310 Z-21.0000 F2750
G1 X374.1235 Y2311.3152 Z-21.0000 F2750
G1 X376.0066 Y2312.6800 Z-21.0000 F2750
G1 X377.8249 Y2314.1213 Z-21.0000 F2750
G1 X379.5741 Y2315.6342 Z-21.0000 F2750
G1 X381.2501 Y2317.2140 Z-21.0000 F2750
G1 X382.8493 Y2318.8553 Z-21.0000 F2750
G1 X384.3685 Y2320.5527 Z-21.0000 F2750
G1 X385.8053 Y2322.3006 Z-21.0000 F2750
G1 X387.1575 Y2324.0931 Z-21.0000 F2750
G1 X388.4236 Y2325.9244 Z-21.0000 F2750
G1 X389.6024 Y2327.7887 Z-21.0000 F2750
G1 X390.6934 Y2329.6802 Z-21.0000 F2750
G1 X390.6934 Y2329.6802 Z-15.0000 F9999
G1 X391.7587 Y2331.7180 Z-15.0000 F2750
G1 X392.7375 Y2333.8022 Z-15.0000 F2750
G1 X393.6270 Y2335.9272 Z-15.0000 F2750
G1 X394.4246 Y2338.0872 Z-15.0000 F2750
G1 X395.1286 Y2340.2763 Z-15.0000 F2750
G1 X395.6619 Y2342.1926 Z-15.0000 F2750
G1 X396.1248 Y2344.1299 Z-15.0000 F2750
G1 X396.5163 Y2346.0843 Z-15.0000 F2750
G1 X396.8353 Y2348.0518 Z-15.0000 F2750
G1 X397.0813 Y2350.0284 Z-15.0000 F2750
G1 X397.2541 Y2352.0101 Z-15.0000 F2750
G1 X397.2541 Y2352.0101 Z-21.0000 F2000
G1 X397.3493 Y2353.8587 Z-21.0000 F2750
G1 X397.3810 Y2355.7094 Z-21.0000 F2750
G1 X397.3429 Y2357.7373 Z-21.0000 F2750
G1 X397.2285 Y2359.7652 Z-21.0000 F2750
G1 X397.0377 Y2361.7887 Z-21.0000 F2750
G1 X396.7709 Y2363.8037 Z-21.0000 F2750
G1 X396.4287 Y2365.8058 Z-21.0000 F2750
G1 X396.0122 Y2367.7907 Z-21.0000 F2750
G1 X395.4765 Y2369.9242 Z-21.0000 F2750
G1 X394.8478 Y2372.0547 Z-21.0000 F2750
G1 X394.1252 Y2374.1762 Z-21.0000 F2750
G1 X393.3083 Y2376.2828 Z-21.0000 F2750
G1 X392.3970 Y2378.3683 Z-21.0000 F2750
G1 X391.3920 Y2380.4266 Z-21.0000 F2750
G1 X390.2943 Y2382.4514 Z-21.0000 F2750
G1 X389.1056 Y2384.4366 Z-21.0000 F2750
G1 X387.8280 Y2386.3761 Z-21.0000 F2750
G1 X386.4643 Y2388.2641 Z-21.0000 F2750
G1 X385.0177 Y2390.0949 Z-21.0000 F2750
G1 X383.4919 Y2391.8631 Z-21.0000 F2750
G1 X381.8911 Y2393.5637 Z-21.0000 F2750
G1 X380.2198 Y2395.1920 Z-21.0000 F2750
G1 X378.4830 Y2396.7437 Z-21.0000 F2750
G1 X376.6861 Y2398.2151 Z-21.0000 F2750
G1 X374.8345 Y2399.6029 Z-21.0000 F2750
G1 X372.9342 Y2400.9042 Z-21.0000 F2750
G1 X370.9909 Y2402.1168 Z-21.0000 F2750
G1 X369.0109 Y2403.2389 Z-21.0000 F2750
G1 X367.0001 Y2404.2695 Z-21.0000 F2750
G1 X364.9648 Y2405.2077 Z-21.0000 F2750
G1 X362.9108 Y2406.0534 Z-21.0000 F2750
G1 X360.8442 Y2406.8070 Z-21.0000 F2750
G1 X358.7486 Y2407.4758 Z-21.0000 F2750
G1 X356.6067 Y2408.0640 Z-21.0000 F2750
G1 X354.4228 Y2408.5677 Z-21.0000 F2750
G1 X352.2019 Y2408.9833 Z-21.0000 F2750
G1 X349.9492 Y2409.3076 Z-21.0000 F2750
G1 X347.6703 Y2409.5379 Z-21.0000 F2750
G1 X345.3710 Y2409.6718 Z-21.0000 F2750
G1 X343.0574 Y2409.7075 Z-21.0000 F2750
G1 X340.7357 Y2409.6436 Z-21.0000 F2750
G1 X338.4126 Y2409.4793 Z-21.0000 F2750
G1 X336.0943 Y2409.2144 Z-21.0000 F2750
G1 X333.7875 Y2408.8492 Z-21.0000 F2750
G1 X331.4986 Y2408.3847 Z-21.0000 F2750
G1 X329.2341 Y2407.8221 Z-21.0000 F2750
G1 X327.0002 Y2407.1636 Z-21.0000 F2750
G1 X324.8028 Y2406.4116 Z-21.0000 F2750
G1 X322.6477 Y2405.5691 Z-21.0000 F2750
G1 X320.5404 Y2404.6396 Z-21.0000 F2750
G1 X318.4859 Y2403.6269 Z-21.0000 F2750
G1 X316.4889 Y2402.5352 Z-21.0000 F2750
G1 X314.5536 Y2401.3692 Z-21.0000 F2750
G1 X312.6837 Y2400.1336 Z-21.0000 F2750
G1 X310.8827 Y2398.8335 Z-21.0000 F2750
G1 X309.1533 Y2397.4741 Z-21.0000 F2750
G1 X309.1533 Y2397.4741 Z10.0000 F9999
G1 X517.3621 Y2397.6473 Z10.0000 F9999
G1 X517.3621 Y2397.6473 Z1.0000 F2000
G1 X515.5877 Y2399.0263 Z0.3657 F2000
G1 X513.7418 Y2400.3410 Z-0.2740 F2000
G1 X511.8278 Y2401.5861 Z-0.9185 F2000
G1 X509.8494 Y2402.7567 Z-1.5673 F2000
G1 X507.8111 Y2403.8482 Z-2.2200 F2000
G1 X505.7177 Y2404.8561 Z-2.8758 F2000
G1 X503.5742 Y2405.7764 Z-3.5342 F2000
G1 X501.3862 Y2406.6058 Z-4.1947 F2000
G1 X499.1596 Y2407.3410 Z-4.8565 F2000
G1 X496.9005 Y2407.9795 Z-5.5192 F2000
G1 X494.6152 Y2408.5194 Z-6.1820 F2000
G1 X492.3102 Y2408.9591 Z-6.8443 F2000
G1 X489.9922 Y2409.2979 Z-7.5055 F2000
G1 X487.6677 Y2409.5352 Z-8.1651 F2000
G1 X485.3433 Y2409.6715 Z-8.8223 F2000
G1 X483.0256 Y2409.7075 Z-9.4766 F2000
G1 X481.1718 Y2409.6569 Z-10.0000 F2000
G1 X483.0256 Y2409.7075 Z-10.5234 F2000
G1 X485.3433 Y2409.6715 Z-11.1777 F2000
G1 X487.6677 Y2409.5352 Z-11.8349 F2000
G1 X489.9922 Y2409.2979 Z-12.4945 F2000
G1 X492.3102 Y2408.9591 Z-13.1557 F2000
G1 X494.6152 Y2408.5194 Z-13.8180 F2000
G1 X496.9005 Y2407.9795 Z-14.4808 F2000
G1 X499.1596 Y2407.3410 Z-15.1435 F2000
G1 X501.3862 Y2406.6058 Z-15.8053 F2000
G1 X503.5742 Y2405.7764 Z-16.4658 F2000
G1 X505.7177 Y2404.8561 Z-17.1242 F2000
G1 X507.8111 Y2403.8482 Z-17.7800 F2000
G1 X509.8494 Y2402.7567 Z-18.4327 F2000
G1 X511.8278 Y2401.5861 Z-19.0815 F2000
G1 X513.7418 Y2400.3410 Z-19.7260 F2000
G1 X515.5877 Y2399.0263 Z-20.3657 F2000
G1 X517.3621 Y2397.6473 Z-21.0000 F2000
G1 X515.5877 Y2399.0263 Z-21.0000 F2750
G1 X513.7418 Y2400.3410 Z-21.0000 F2750
G1 X511.8278 Y2401.5861 Z-21.0000 F2750
G1 X509.8494 Y2402.7567 Z-21.0000 F2750
G1 X507.8111 Y2403.8482 Z-21.0000 F2750
G1 X505.7177 Y2404.8561 Z-21.0000 F2750
G1 X503.5742 Y2405.7764 Z-21.0000 F2750
G1 X501.3862 Y2406.6058 Z-21.0000 F2750
G1 X499.1596 Y2407.3410 Z-21.0000 F2750
G1 X496.9005 Y2407.9795 Z-21.0000 F2750
G1 X494.6152 Y2408.5194 Z-21.0000 F2750
G1 X492.3102 Y2408.9591 Z-21.0000 F2750
G1 X489.9922 Y2409.2979 Z-21.0000 F2750
G1 X487.6677 Y2409.5352 Z-21.0000 F2750
G1 X485.3433 Y2409.6715 Z-21.0000 F2750
G1 X483.0256 Y2409.7075 Z-21.0000 F2750
G1 X480.7207 Y2409.6446 Z-21.0000 F2750
G1 X478.4350 Y2409.4847 Z-21.0000 F2750
G1 X476.1743 Y2409.2301 Z-21.0000 F2750
G1 X473.9440 Y2408.8837 Z-21.0000 F2750
G1 X471.7446 Y2408.4475 Z-21.0000 F2750
G1 X469.5509 Y2407.9167 Z-21.0000 F2750
G1 X467.3641 Y2407.2893 Z-21.0000 F2750
G1 X465.1903 Y2406.5648 Z-21.0000 F2750
G1 X463.0359 Y2405.7434 Z-21.0000 F2750
G1 X460.9073 Y2404.8257 Z-21.0000 F2750
G1 X458.8108 Y2403.8127 Z-21.0000 F2750
G1 X456.7528 Y2402.7063 Z-21.0000 F2750
G1 X454.7394 Y2401.5087 Z-21.0000 F2750
G1 X452.7767 Y2400.2226 Z-21.0000 F2750
G1 X450.8704 Y2398.8515 Z-21.0000 F2750
G1 X449.0259 Y2397.3992 Z-21.0000 F2750
G1 X447.2483 Y2395.8700 Z-21.0000 F2750
G1 X445.5424 Y2394.2685 Z-21.0000 F2750
G1 X443.9123 Y2392.5998 Z-21.0000 F2750
G1 X442.3619 Y2390.8693 Z-21.0000 F2750
G1 X440.8943 Y2389.0826 Z-21.0000 F2750
G1 X439.5124 Y2387.2456 Z-21.0000 F2750
G1 X438.2184 Y2385.3643 Z-21.0000 F2750
G1 X437.0138 Y2383.4447 Z-21.0000 F2750
G1 X435.9000 Y2381.4929 Z-21.0000 F2750
G1 X435.9000 Y2381.4929 Z-15.0000 F9999
G1 X434.9078 Y2379.5769 Z-15.0000 F2750
G1 X433.9916 Y2377.6197 Z-15.0000 F2750
G1 X433.1538 Y2375.6257 Z-15.0000 F2750
G1 X432.3965 Y2373.5998 Z-15.0000 F2750
G1 X431.7215 Y2371.5469 Z-15.0000 F2750
G1 X431.1300 Y2369.4720 Z-15.0000 F2750
G1 X430.6142 Y2367.3401 Z-15.0000 F2750
G1 X430.1847 Y2365.1855 Z-15.0000 F2750
G1 X429.8430 Y2363.0133 Z-15.0000 F2750
G1 X429.5900 Y2360.8291 Z-15.0000 F2750
G1 X429.4263 Y2358.6382 Z-15.0000 F2750
G1 X429.3518 Y2356.4461 Z-15.0000 F2750
G1 X429.3518 Y2356.4461 Z-21.0000 F2000
G1 X429.3480 Y2356.0778 Z-21.0000 F2750
G1 X429.3468 Y2355.7094 Z-21.0000 F2750
G1 X429.3964 Y2353.3944 Z-21.0000 F2750
G1 X429.5457 Y2351.0793 Z-21.0000 F2750
G1 X429.7944 Y2348.7707 Z-21.0000 F2750
G1 X430.1423 Y2346.4749 Z-21.0000 F2750
G1 X430.5880 Y2344.1982 Z-21.0000 F2750
G1 X431.1300 Y2341.9469 Z-21.0000 F2750
G1 X431.7268 Y2339.8548 Z-21.0000 F2750
G1 X432.4165 Y2337.7623 Z-21.0000 F2750
G1 X433.2007 Y2335.6753 Z-21.0000 F2750
G1 X434.0806 Y2333.5998 Z-21.0000 F2750
G1 X435.0568 Y2331.5420 Z-21.0000 F2750
G1 X436.1294 Y2329.5083 Z-21.0000 F2750
G1 X437.2978 Y2327.5053 Z-21.0000 F2750
G1 X438.5612 Y2325.5394 Z-21.0000 F2750
G1 X439.9178 Y2323.6173 Z-21.0000 F2750
G1 X441.3655 Y2321.7455 Z-21.0000 F2750
G1 X442.9016 Y2319.9302 Z-21.0000 F2750
G1 X444.5225 Y2318.1775 Z-21.0000 F2750
G1 X446.2245 Y2316.4934 Z-21.0000 F2750
G1 X448.0030 Y2314.8832 Z-21.0000 F2750
G1 X449.8532 Y2313.3522 Z-21.0000 F2750
G1 X451.7696 Y2311.9049 Z-21.0000 F2750
G1 X453.7465 Y2310.5456 Z-21.0000 F2750
G1 X455.7777 Y2309.2779 Z-21.0000 F2750
G1 X457.8569 Y2308.1047 Z-21.0000 F2750
G1 X459.9775 Y2307.0287 Z-21.0000 F2750
G1 X462.1327 Y2306.0516 Z-21.0000 F2750
G1 X464.3158 Y2305.1748 Z-21.0000 F2750
G1 X466.5200 Y2304.3988 Z-21.0000 F2750
G1 X468.7385 Y2303.7237 Z-21.0000 F2750
G1 X470.9647 Y2303.1490 Z-21.0000 F2750
G1 X473.1922 Y2302.6737 Z-21.0000 F2750
G1 X475.4147 Y2302.2961 Z-21.0000 F2750
G1 X477.6263 Y2302.0142 Z-21.0000 F2750
G1 X479.8214 Y2301.8256 Z-21.0000 F2750
G1 X481.9948 Y2301.7274 Z-21.0000 F2750
G1 X484.1360 Y2301.7162 Z-21.0000 F2750
G1 X486.2979 Y2301.7912 Z-21.0000 F2750
G1 X488.4754 Y2301.9546 Z-21.0000 F2750
G1 X490.6632 Y2302.2085 Z-21.0000 F2750
G1 X492.8558 Y2302.5545 Z-21.0000 F2750
G1 X495.0476 Y2302.9936 Z-21.0000 F2750
G1 X497.2327 Y2303.5267 Z-21.0000 F2750
G1 X499.4052 Y2304.1538 Z-21.0000 F2750
G1 X501.5591 Y2304.8747 Z-21.0000 F2750
G1 X503.6882 Y2305.6887 Z-21.0000 F2750
G1 X505.7867 Y2306.5943 Z-21.0000 F2750
G1 X507.8486 Y2307.5898 Z-21.0000 F2750
G1 X509.8683 Y2308.6728 Z-21.0000 F2750
G1 X511.8402 Y2309.8405 Z-21.0000 F2750
G1 X513.7591 Y2311.0897 Z-21.0000 F2750
G1 X515.6200 Y2312.4167 Z-21.0000 F2750
G1 X517.4184 Y2313.8173 Z-21.0000 F2750
G1 X519.1499 Y2315.2872 Z-21.0000 F2750
G1 X520.8108 Y2316.8216 Z-21.0000 F2750
G1 X522.3977 Y2318.4155 Z-21.0000 F2750
G1 X523.9078 Y2320.0637 Z-21.0000 F2750
G1 X525.3385 Y2321.7609 Z-21.0000 F2750
G1 X526.6880 Y2323.5016 Z-21.0000 F2750
G1 X527.9547 Y2325.2802 Z-21.0000 F2750
G1 X529.1376 Y2327.0912 Z-21.0000 F2750
G1 X530.2362 Y2328.9292 Z-21.0000 F2750
G1 X530.2362 Y2328.9292 Z-15.0000 F9999
G1 X531.3241 Y2330.9310 Z-15.0000 F2750
G1 X532.3279 Y2332.9797 Z-15.0000 F2750
G1 X533.2447 Y2335.0699 Z-15.0000 F2750
G1 X534.0719 Y2337.1960 Z-15.0000 F2750
G1 X534.8077 Y2339.3522 Z-15.0000 F2750
G1 X535.3714 Y2341.2449 Z-15.0000 F2750
G1 X535.8662 Y2343.1594 Z-15.0000 F2750
G1 X536.2907 Y2345.0922 Z-15.0000 F2750
G1 X536.6442 Y2347.0391 Z-15.0000 F2750
G1 X536.9259 Y2348.9965 Z-15.0000 F2750
G1 X537.1355 Y2350.9601 Z-15.0000 F2750
G1 X537.1355 Y2350.9601 Z-21.0000 F2000
G1 X537.2517 Y2352.5408 Z-21.0000 F2750
G1 X537.3215 Y2354.1246 Z-21.0000 F2750
G1 X537.3448 Y2355.7094 Z-21.0000 F2750
G1 X537.2982 Y2357.9514 Z-21.0000 F2750
G1 X537.1584 Y2360.1924 Z-21.0000 F2750
G1 X536.9254 Y2362.4267 Z-21.0000 F2750
G1 X536.5998 Y2364.6483 Z-21.0000 F2750
G1 X536.1827 Y2366.8516 Z-21.0000 F2750
G1 X535.6694 Y2369.0560 Z-21.0000 F2750
G1 X535.0600 Y2371.2507 Z-21.0000 F2750
G1 X534.3545 Y2373.4295 Z-21.0000 F2750
G1 X533.5534 Y2375.5862 Z-21.0000 F2750
G1 X532.6577 Y2377.7145 Z-21.0000 F2750
G1 X531.6690 Y2379.8083 Z-21.0000 F2750
G1 X530.5894 Y2381.8616 Z-21.0000 F2750
G1 X529.4214 Y2383.8684 Z-21.0000 F2750
G1 X528.1683 Y2385.8231 Z-21.0000 F2750
G1 X526.8336 Y2387.7205 Z-21.0000 F2750
G1 X525.4212 Y2389.5554 Z-21.0000 F2750
G1 X523.9358 Y2391.3233 Z-21.0000 F2750
G1 X522.3819 Y2393.0199 Z-21.0000 F2750
G1 X520.7648 Y2394.6416 Z-21.0000 F2750
G1 X519.0897 Y2396.1849 Z-21.0000 F2750
G1 X517.3621 Y2397.6473 Z-21.0000 F2750
G1 X517.3621 Y2397.6473 Z10.0000 F9999
G1 X643.0163 Y2310.3769 Z10.0000 F9999
G1 X643.0163 Y2310.3769 Z1.0000 F2000
G1 X644.7102 Y2311.7569 Z0.3226 F2000
G1 X646.3564 Y2313.2129 Z-0.3587 F2000
G1 X647.9499 Y2314.7427 Z-1.0436 F2000
G1 X649.4858 Y2316.3433 Z-1.7313 F2000
G1 X650.9597 Y2318.0114 Z-2.4214 F2000
G1 X652.3670 Y2319.7433 Z-3.1133 F2000
G1 X653.7038 Y2321.5350 Z-3.8063 F2000
G1 X654.9664 Y2323.3821 Z-4.5000 F2000
G1 X656.1513 Y2325.2799 Z-5.1937 F2000
G1 X657.2557 Y2327.2235 Z-5.8867 F2000
G1 X658.2770 Y2329.2077 Z-6.5786 F2000
G1 X659.2132 Y2331.2272 Z-7.2687 F2000
G1 X660.0626 Y2333.2765 Z-7.9564 F2000
G1 X660.8241 Y2335.3500 Z-8.6413 F2000
G1 X661.4969 Y2337.4423 Z-9.3226 F2000
G1 X662.0808 Y2339.5477 Z-10.0000 F2000
G1 X661.4969 Y2337.4423 Z-10.6774 F2000
G1 X660.8241 Y2335.3500 Z-11.3587 F2000
G1 X660.0626 Y2333.2765 Z-12.0436 F2000
G1 X659.2132 Y2331.2272 Z-12.7313 F2000
G1 X658.2770 Y2329.2077 Z-13.4214 F2000
G1 X657.2557 Y2327.2235 Z-14.1133 F2000
G1 X656.1513 Y2325.2799 Z-14.8063 F2000
G1 X654.9664 Y2323.3821 Z-15.5000 F2000
G1 X653.7038 Y2321.5350 Z-16.1937 F2000
G1 X652.3670 Y2319.7433 Z-16.8867 F2000
G1 X650.9597 Y2318.0114 Z-17.5786 F2000
G1 X649.4858 Y2316.3433 Z-18.2687 F2000
G1 X647.9499 Y2314.7427 Z-18.9564 F2000
G1 X646.3564 Y2313.2129 Z-19.6413 F2000
G1 X644.7102 Y2311.7569 Z-20.3226 F2000
G1 X643.0163 Y2310.3769 Z-21.0000 F2000
G1 X644.7102 Y2311.7569 Z-21.0000 F2750
G1 X646.3564 Y2313.2129 Z-21.0000 F2750
G1 X647.9499 Y2314.7427 Z-21.0000 F2750
G1 X649.4858 Y2316.3433 Z-21.0000 F2750
G1 X650.9597 Y2318.0114 Z-21.0000 F2750
G1 X652.3670 Y2319.7433 Z-21.0000 F2750
G1 X653.7038 Y2321.5350 Z-21.0000 F2750
G1 X654.9664 Y2323.3821 Z-21.0000 F2750
G1 X656.1513 Y2325.2799 Z-21.0000 F2750
G1 X657.2557 Y2327.2235 Z-21.0000 F2750
G1 X658.2770 Y2329.2077 Z-21.0000 F2750
G1 X659.2132 Y2331.2272 Z-21.0000 F2750
G1 X660.0626 Y2333.2765 Z-21.0000 F2750
G1 X660.8241 Y2335.3500 Z-21.0000 F2750
G1 X661.4969 Y2337.4423 Z-21.0000 F2750
G1 X662.0808 Y2339.5477 Z-21.0000 F2750
G1 X662.0808 Y2339.5477 Z-15.0000 F9999
G1 X662.1222 Y2339.7119 Z-15.0000 F2750
G1 X662.1637 Y2339.8761 Z-15.0000 F2750
G1 X662.6503 Y2342.0146 Z-15.0000 F2750
G1 X663.0502 Y2344.1746 Z-15.0000 F2750
G1 X663.3622 Y2346.3510 Z-15.0000 F2750
G1 X663.5853 Y2348.5382 Z-15.0000 F2750
G1 X663.7191 Y2350.7309 Z-15.0000 F2750
G1 X663.7637 Y2352.9236 Z-15.0000 F2750
G1 X663.7168 Y2355.1737 Z-15.0000 F2750
G1 X663.5758 Y2357.4237 Z-15.0000 F2750
G1 X663.3409 Y2359.6679 Z-15.0000 F2750
G1 X663.0123 Y2361.9002 Z-15.0000 F2750
G1 X662.5912 Y2364.1150 Z-15.0000 F2750
G1 X662.0790 Y2366.3065 Z-15.0000 F2750
G1 X662.0790 Y2366.3065 Z-21.0000 F2000
G1 X662.0301 Y2366.4964 Z-21.0000 F2750
G1 X661.9804 Y2366.6861 Z-21.0000 F2750
G1 X661.3928 Y2368.7485 Z-21.0000 F2750
G1 X660.7147 Y2370.8118 Z-21.0000 F2750
G1 X659.9444 Y2372.8707 Z-21.0000 F2750
G1 X659.0808 Y2374.9192 Z-21.0000 F2750
G1 X658.1233 Y2376.9515 Z-21.0000 F2750
G1 X657.0715 Y2378.9613 Z-21.0000 F2750
G1 X655.9257 Y2380.9424 Z-21.0000 F2750
G1 X654.6869 Y2382.8883 Z-21.0000 F2750
G1 X653.3565 Y2384.7928 Z-21.0000 F2750
G1 X651.9364 Y2386.6496 Z-21.0000 F2750
G1 X650.4291 Y2388.4524 Z-21.0000 F2750
G1 X648.8378 Y2390.1953 Z-21.0000 F2750
G1 X647.1662 Y2391.8726 Z-21.0000 F2750
G1 X645.4183 Y2393.4787 Z-21.0000 F2750
G1 X643.5987 Y2395.0086 Z-21.0000 F2750
G1 X641.7127 Y2396.4577 Z-21.0000 F2750
G1 X639.7657 Y2397.8216 Z-21.0000 F2750
G1 X637.7635 Y2399.0968 Z-21.0000 F2750
G1 X635.7122 Y2400.2799 Z-21.0000 F2750
G1 X633.6182 Y2401.3685 Z-21.0000 F2750
G1 X631.4879 Y2402.3604 Z-21.0000 F2750
G1 X629.3279 Y2403.2542 Z-21.0000 F2750
G1 X627.1450 Y2404.0491 Z-21.0000 F2750
G1 X624.9456 Y2404.7448 Z-21.0000 F2750
G1 X622.7362 Y2405.3415 Z-21.0000 F2750
G1 X620.5233 Y2405.8400 Z-21.0000 F2750
G1 X618.3129 Y2406.2417 Z-21.0000 F2750
G1 X616.1110 Y2406.5484 Z-21.0000 F2750
G1 X613.9232 Y2406.7623 Z-21.0000 F2750
G1 X611.7548 Y2406.8859 Z-21.0000 F2750
G1 X609.6107 Y2406.9224 Z-21.0000 F2750
G1 X607.4021 Y2406.8709 Z-21.0000 F2750
G1 X605.1733 Y2406.7271 Z-21.0000 F2750
G1 X602.9300 Y2406.4883 Z-21.0000 F2750
G1 X600.6780 Y2406.1526 Z-21.0000 F2750
G1 X598.4234 Y2405.7182 Z-21.0000 F2750
G1 X596.1726 Y2405.1840 Z-21.0000 F2750
G1 X593.9320 Y2404.5494 Z-21.0000 F2750
G1 X591.7082 Y2403.8143 Z-21.0000 F2750
G1 X589.5081 Y2402.9792 Z-21.0000 F2750
G1 X587.3381 Y2402.0453 Z-21.0000 F2750
G1 X585.2050 Y2401.0143 Z-21.0000 F2750
G1 X583.1152 Y2399.8885 Z-21.0000 F2750
G1 X581.0749 Y2398.6706 Z-21.0000 F2750
G1 X579.0902 Y2397.3642 Z-21.0000 F2750
G1 X577.1667 Y2395.9732 Z-21.0000 F2750
G1 X575.3097 Y2394.5018 Z-21.0000 F2750
G1 X573.5242 Y2392.9551 Z-21.0000 F2750
G1 X571.8144 Y2391.3381 Z-21.0000 F2750
G1 X570.1844 Y2389.6563 Z-21.0000 F2750
G1 X568.6374 Y2387.9156 Z-21.0000 F2750
G1 X567.1764 Y2386.1220 Z-21.0000 F2750
G1 X565.8036 Y2384.2815 Z-21.0000 F2750
G1 X564.5208 Y2382.4004 Z-21.0000 F2750
G1 X563.3290 Y2380.4849 Z-21.0000 F2750
G1 X562.2291 Y2378.5411 Z-21.0000 F2750
G1 X561.2210 Y2376.5753 Z-21.0000 F2750
G1 X561.2210 Y2376.5753 Z-15.0000 F9999
G1 X560.3088 Y2374.6032 Z-15.0000 F2750
G1 X559.4757 Y2372.5936 Z-15.0000 F2750
G1 X558.7239 Y2370.5512 Z-15.0000 F2750
G1 X558.0553 Y2368.4810 Z-15.0000 F2750
G1 X557.4713 Y2366.3882 Z-15.0000 F2750
G1 X556.9520 Y2364.1803 Z-15.0000 F2750
G1 X556.5254 Y2361.9496 Z-15.0000 F2750
G1 X556.1928 Y2359.7020 Z-15.0000 F2750
G1 X555.9552 Y2357.4433 Z-15.0000 F2750
G1 X555.8128 Y2355.1797 Z-15.0000 F2750
G1 X555.8128 Y2355.1797 Z-21.0000 F2000
G1 X555.7775 Y2354.0519 Z-21.0000 F2750
G1 X555.7657 Y2352.9236 Z-21.0000 F2750
G1 X555.8122 Y2350.6819 Z-21.0000 F2750
G1 X555.9521 Y2348.4402 Z-21.0000 F2750
G1 X556.1854 Y2346.2042 Z-21.0000 F2750
G1 X556.5115 Y2343.9800 Z-21.0000 F2750
G1 X556.9295 Y2341.7731 Z-21.0000 F2750
G1 X557.4379 Y2339.5893 Z-21.0000 F2750
G1 X558.0241 Y2337.4703 Z-21.0000 F2750
G1 X558.7029 Y2335.3571 Z-21.0000 F2750
G1 X559.4749 Y2333.2555 Z-21.0000 F2750
G1 X560.3406 Y2331.1716 Z-21.0000 F2750
G1 X561.2995 Y2329.1114 Z-21.0000 F2750
G1 X562.3510 Y2327.0811 Z-21.0000 F2750
G1 X563.4937 Y2325.0869 Z-21.0000 F2750
G1 X564.7257 Y2323.1346 Z-21.0000 F2750
G1 X566.0448 Y2321.2303 Z-21.0000 F2750
G1 X567.4480 Y2319.3797 Z-21.0000 F2750
G1 X568.9320 Y2317.5883 Z-21.0000 F2750
G1 X570.4928 Y2315.8613 Z-21.0000 F2750
G1 X572.1263 Y2314.2036 Z-21.0000 F2750
G1 X573.8276 Y2312.6196 Z-21.0000 F2750
G1 X575.5918 Y2311.1133 Z-21.0000 F2750
G1 X577.4134 Y2309.6883 Z-21.0000 F2750
G1 X579.2870 Y2308.3478 Z-21.0000 F2750
G1 X581.2066 Y2307.0943 Z-21.0000 F2750
G1 X583.1664 Y2305.9298 Z-21.0000 F2750
G1 X585.1603 Y2304.8558 Z-21.0000 F2750
G1 X587.1822 Y2303.8734 Z-21.0000 F2750
G1 X589.2261 Y2302.9831 Z-21.0000 F2750
G1 X591.2861 Y2302.1847 Z-21.0000 F2750
G1 X593.3617 Y2301.4762 Z-21.0000 F2750
G1 X595.4799 Y2300.8483 Z-21.0000 F2750
G1 X597.6416 Y2300.3031 Z-21.0000 F2750
G1 X599.8422 Y2299.8441 Z-21.0000 F2750
G1 X602.0766 Y2299.4747 Z-21.0000 F2750
G1 X604.3393 Y2299.1979 Z-21.0000 F2750
G1 X606.6248 Y2299.0160 Z-21.0000 F2750
G1 X608.9269 Y2298.9311 Z-21.0000 F2750
G1 X611.2397 Y2298.9448 Z-21.0000 F2750
G1 X613.5567 Y2299.0579 Z-21.0000 F2750
G1 X615.8715 Y2299.2710 Z-21.0000 F2750
G1 X618.1776 Y2299.5840 Z-21.0000 F2750
G1 X620.4687 Y2299.9962 Z-21.0000 F2750
G1 X622.7382 Y2300.5063 Z-21.0000 F2750
G1 X624.9801 Y2301.1126 Z-21.0000 F2750
G1 X627.1883 Y2301.8129 Z-21.0000 F2750
G1 X629.3569 Y2302.6043 Z-21.0000 F2750
G1 X631.4805 Y2303.4836 Z-21.0000 F2750
G1 X633.5539 Y2304.4472 Z-21.0000 F2750
G1 X635.5724 Y2305.4910 Z-21.0000 F2750
G1 X637.5316 Y2306.6107 Z-21.0000 F2750
G1 X639.4275 Y2307.8015 Z-21.0000 F2750
G1 X641.2568 Y2309.0586 Z-21.0000 F2750
G1 X643.0163 Y2310.3769 Z-21.0000 F2750
G1 X643.0163 Y2310.3769 Z10.0000 F9999
G1 X702.0242 Y2397.2938 Z10.0000 F9999
G1 X702.0242 Y2397.2938 Z1.0000 F2000
G1 X700.3272 Y2395.8275 Z0.2765 F2000
G1 X698.6832 Y2394.2830 Z-0.4511 F2000
G1 X697.0976 Y2392.6630 Z-1.1824 F2000
G1 X695.5754 Y2390.9711 Z-1.9165 F2000
G1 X694.1215 Y2389.2109 Z-2.6530 F2000
G1 X692.7402 Y2387.3866 Z-3.3911 F2000
G1 X691.4358 Y2385.5029 Z-4.1303 F2000
G1 X690.2119 Y2383.5647 Z-4.8697 F2000
G1 X689.0719 Y2381.5772 Z-5.6089 F2000
G1 X688.0185 Y2379.5459 Z-6.3470 F2000
G1 X687.0543 Y2377.4765 Z-7.0835 F2000
G1 X686.1809 Y2375.3748 Z-7.8176 F2000
G1 X685.3999 Y2373.2468 Z-8.5489 F2000
G1 X684.7121 Y2371.0986 Z-9.2765 F2000
G1 X684.1177 Y2368.9360 Z-10.0000 F2000
G1 X684.7121 Y2371.0986 Z-10.7235 F2000
G1 X685.3999 Y2373.2468 Z-11.4511 F2000
G1 X686.1809 Y2375.3748 Z-12.1824 F2000
G1 X687.0543 Y2377.4765 Z-12.9165 F2000
G1 X688.0185 Y2379.5459 Z-13.6530 F2000
G1 X689.0719 Y2381.5772 Z-14.3911 F2000
G1 X690.2119 Y2383.5647 Z-15.1303 F2000
G1 X691.4358 Y2385.5029 Z-15.8697 F2000
G1 X692.7402 Y2387.3866 Z-16.6089 F2000
G1 X694.1215 Y2389.2109 Z-17.3470 F2000
G1 X695.5754 Y2390.9711 Z-18.0835 F2000
G1 X697.0976 Y2392.6630 Z-18.8176 F2000
G1 X698.6832 Y2394.2830 Z-19.5489 F2000
G1 X700.3272 Y2395.8275 Z-20.2765 F2000
G1 X702.0242 Y2397.2938 Z-21.0000 F2000
G1 X700.3272 Y2395.8275 Z-21.0000 F2750
G1 X698.6832 Y2394.2830 Z-21.0000 F2750
G1 X697.0976 Y2392.6630 Z-21.0000 F2750
G1 X695.5754 Y2390.9711 Z-21.0000 F2750
G1 X694.1215 Y2389.2109 Z-21.0000 F2750
G1 X692.7402 Y2387.3866 Z-21.0000 F2750
G1 X691.4358 Y2385.5029 Z-21.0000 F2750
G1 X690.2119 Y2383.5647 Z-21.0000 F2750
G1 X689.0719 Y2381.5772 Z-21.0000 F2750
G1 X688.0185 Y2379.5459 Z-21.0000 F2750
G1 X687.0543 Y2377.4765 Z-21.0000 F2750
G1 X686.1809 Y2375.3748 Z-21.0000 F2750
G1 X685.3999 Y2373.2468 Z-21.0000 F2750
G1 X684.7121 Y2371.0986 Z-21.0000 F2750
G1 X684.1177 Y2368.9360 Z-21.0000 F2750
G1 X684.1177 Y2368.9360 Z-15.0000 F9999
G1 X683.7429 Y2367.3524 Z-15.0000 F2750
G1 X683.4160 Y2365.7583 Z-15.0000 F2750
G1 X683.0773 Y2363.7669 Z-15.0000 F2750
G1 X682.8130 Y2361.7621 Z-15.0000 F2750
G1 X682.6240 Y2359.7481 Z-15.0000 F2750
G1 X682.5105 Y2357.7291 Z-15.0000 F2750
G1 X682.4728 Y2355.7094 Z-15.0000 F2750
G1 X682.5189 Y2353.4768 Z-15.0000 F2750
G1 X682.6577 Y2351.2442 Z-15.0000 F2750
G1 X682.8890 Y2349.0173 Z-15.0000 F2750
G1 X683.2125 Y2346.8019 Z-15.0000 F2750
G1 X683.6271 Y2344.6037 Z-15.0000 F2750
G1 X684.1315 Y2342.4283 Z-15.0000 F2750
G1 X684.1315 Y2342.4283 Z-21.0000 F2000
G1 X684.6157 Y2340.6481 Z-21.0000 F2750
G1 X685.1605 Y2338.8855 Z-21.0000 F2750
G1 X685.8810 Y2336.8291 Z-21.0000 F2750
G1 X686.6947 Y2334.7779 Z-21.0000 F2750
G1 X687.6027 Y2332.7377 Z-21.0000 F2750
G1 X688.6058 Y2330.7146 Z-21.0000 F2750
G1 X689.7044 Y2328.7150 Z-21.0000 F2750
G1 X690.8980 Y2326.7452 Z-21.0000 F2750
G1 X692.1860 Y2324.8119 Z-21.0000 F2750
G1 X693.5667 Y2322.9215 Z-21.0000 F2750
G1 X695.0384 Y2321.0804 Z-21.0000 F2750
G1 X696.5983 Y2319.2952 Z-21.0000 F2750
G1 X698.2433 Y2317.5718 Z-21.0000 F2750
G1 X699.9697 Y2315.9164 Z-21.0000 F2750
G1 X701.7731 Y2314.3344 Z-21.0000 F2750
G1 X703.6488 Y2312.8312 Z-21.0000 F2750
G1 X705.5914 Y2311.4116 Z-21.0000 F2750
G1 X707.5954 Y2310.0800 Z-21.0000 F2750
G1 X709.6546 Y2308.8401 Z-21.0000 F2750
G1 X711.7628 Y2307.6953 Z-21.0000 F2750
G1 X713.9132 Y2306.6482 Z-21.0000 F2750
G1 X716.0992 Y2305.7009 Z-21.0000 F2750
G1 X718.3139 Y2304.8549 Z-21.0000 F2750
G1 X720.5504 Y2304.1110 Z-21.0000 F2750
G1 X722.8017 Y2303.4694 Z-21.0000 F2750
G1 X725.0612 Y2302.9298 Z-21.0000 F2750
G1 X727.3223 Y2302.4912 Z-21.0000 F2750
G1 X729.5785 Y2302.1522 Z-21.0000 F2750
G1 X731.8237 Y2301.9109 Z-21.0000 F2750
G1 X734.0520 Y2301.7647 Z-21.0000 F2750
G1 X736.2581 Y2301.7109 Z-21.0000 F2750
G1 X738.4367 Y2301.7462 Z-21.0000 F2750
G1 X740.6052 Y2301.8689 Z-21.0000 F2750
G1 X742.7943 Y2302.0819 Z-21.0000 F2750
G1 X744.9988 Y2302.3880 Z-21.0000 F2750
G1 X747.2129 Y2302.7895 Z-21.0000 F2750
G1 X749.4309 Y2303.2885 Z-21.0000 F2750
G1 X751.6465 Y2303.8865 Z-21.0000 F2750
G1 X753.8533 Y2304.5844 Z-21.0000 F2750
G1 X756.0446 Y2305.3826 Z-21.0000 F2750
G1 X758.2140 Y2306.2810 Z-21.0000 F2750
G1 X760.3544 Y2307.2790 Z-21.0000 F2750
G1 X762.4593 Y2308.3751 Z-21.0000 F2750
G1 X764.5219 Y2309.5675 Z-21.0000 F2750
G1 X766.5358 Y2310.8536 Z-21.0000 F2750
G1 X768.4945 Y2312.2303 Z-21.0000 F2750
G1 X770.3922 Y2313.6940 Z-21.0000 F2750
G1 X772.2230 Y2315.2405 Z-21.0000 F2750
G1 X773.9818 Y2316.8650 Z-21.0000 F2750
G1 X775.6635 Y2318.5625 Z-21.0000 F2750
G1 X777.2639 Y2320.3274 Z-21.0000 F2750
G1 X778.7791 Y2322.1539 Z-21.0000 F2750
G1 X780.2059 Y2324.0358 Z-21.0000 F2750
G1 X781.5415 Y2325.9670 Z-21.0000 F2750
G1 X782.7837 Y2327.9409 Z-21.0000 F2750
G1 X783.9311 Y2329.9509 Z-21.0000 F2750
G1 X784.9827 Y2331.9907 Z-21.0000 F2750
G1 X785.9381 Y2334.0536 Z-21.0000 F2750
G1 X786.7974 Y2336.1333 Z-21.0000 F2750
G1 X787.5613 Y2338.2237 Z-21.0000 F2750
G1 X788.2310 Y2340.3187 Z-21.0000 F2750
G1 X788.8080 Y2342.4126 Z-21.0000 F2750
G1 X788.8080 Y2342.4126 Z-15.0000 F9999
G1 X788.8708 Y2342.6619 Z-15.0000 F2750
G1 X789.3573 Y2344.8004 Z-15.0000 F2750
G1 X789.7573 Y2346.9605 Z-15.0000 F2750
G1 X790.0693 Y2349.1368 Z-15.0000 F2750
G1 X790.2924 Y2351.3241 Z-15.0000 F2750
G1 X790.4262 Y2353.5168 Z-15.0000 F2750
G1 X790.4708 Y2355.7094 Z-15.0000 F2750
G1 X790.4243 Y2357.9480 Z-15.0000 F2750
G1 X790.2848 Y2360.1866 Z-15.0000 F2750
G1 X790.0522 Y2362.4194 Z-15.0000 F2750
G1 X789.7271 Y2364.6406 Z-15.0000 F2750
G1 X789.3102 Y2366.8445 Z-15.0000 F2750
G1 X788.8032 Y2369.0254 Z-15.0000 F2750
G1 X788.8032 Y2369.0254 Z-21.0000 F2000
G1 X788.7458 Y2369.2488 Z-21.0000 F2750
G1 X788.6875 Y2369.4720 Z-21.0000 F2750
G1 X788.0779 Y2371.6059 Z-21.0000 F2750
G1 X787.3739 Y2373.7334 Z-21.0000 F2750
G1 X786.5748 Y2375.8483 Z-21.0000 F2750
G1 X785.6804 Y2377.9445 Z-21.0000 F2750
G1 X784.6910 Y2380.0157 Z-21.0000 F2750
G1 X783.6074 Y2382.0556 Z-21.0000 F2750
G1 X782.4311 Y2384.0579 Z-21.0000 F2750
G1 X781.1639 Y2386.0163 Z-21.0000 F2750
G1 X779.8084 Y2387.9249 Z-21.0000 F2750
G1 X778.3675 Y2389.7776 Z-21.0000 F2750
G1 X776.8450 Y2391.5688 Z-21.0000 F2750
G1 X775.2448 Y2393.2933 Z-21.0000 F2750
G1 X773.5714 Y2394.9461 Z-21.0000 F2750
G1 X771.8297 Y2396.5226 Z-21.0000 F2750
G1 X770.0250 Y2398.0187 Z-21.0000 F2750
G1 X768.1629 Y2399.4309 Z-21.0000 F2750
G1 X766.2492 Y2400.7561 Z-21.0000 F2750
G1 X764.2899 Y2401.9916 Z-21.0000 F2750
G1 X762.2913 Y2403.1356 Z-21.0000 F2750
G1 X760.2596 Y2404.1866 Z-21.0000 F2750
G1 X758.2010 Y2405.1436 Z-21.0000 F2750
G1 X756.1218 Y2406.0063 Z-21.0000 F2750
G1 X754.0280 Y2406.7748 Z-21.0000 F2750
G1 X751.9202 Y2407.4515 Z-21.0000 F2750
G1 X749.7703 Y2408.0453 Z-21.0000 F2750
G1 X747.5775 Y2408.5541 Z-21.0000 F2750
G1 X745.3465 Y2408.9742 Z-21.0000 F2750
G1 X743.0827 Y2409.3022 Z-21.0000 F2750
G1 X740.7917 Y2409.5354 Z-21.0000 F2750
G1 X738.4794 Y2409.6711 Z-21.0000 F2750
G1 X736.1520 Y2409.7075 Z-21.0000 F2750
G1 X733.8158 Y2409.6431 Z-21.0000 F2750
G1 X731.4775 Y2409.4770 Z-21.0000 F2750
G1 X729.1436 Y2409.2089 Z-21.0000 F2750
G1 X726.8208 Y2408.8390 Z-21.0000 F2750
G1 X724.5159 Y2408.3682 Z-21.0000 F2750
G1 X722.2352 Y2407.7979 Z-21.0000 F2750
G1 X719.9852 Y2407.1301 Z-21.0000 F2750
G1 X717.7721 Y2406.3673 Z-21.0000 F2750
G1 X715.6017 Y2405.5124 Z-21.0000 F2750
G1 X713.4797 Y2404.5690 Z-21.0000 F2750
G1 X711.4112 Y2403.5410 Z-21.0000 F2750
G1 X709.4011 Y2402.4328 Z-21.0000 F2750
G1 X707.4537 Y2401.2489 Z-21.0000 F2750
G1 X705.5729 Y2399.9943 Z-21.0000 F2750
G1 X703.7621 Y2398.6742 Z-21.0000 F2750
G1 X702.0242 Y2397.2938 Z-21.0000 F2750
G1 X702.0242 Y2397.2938 Z10.0000 F9999
G1 X910.0045 Y2397.9491 Z10.0000 F9999
G1 X910.0045 Y2397.9491 Z1.0000 F2000
G1 X908.2511 Y2399.2957 Z0.3760 F2000
G1 X906.4263 Y2400.5814 Z-0.2541 F2000
G1 X904.5332 Y2401.8009 Z-0.8897 F2000
G1 X902.5752 Y2402.9492 Z-1.5304 F2000
G1 X900.5563 Y2404.0215 Z-2.1757 F2000
G1 X898.4808 Y2405.0132 Z-2.8250 F2000
G1 X896.3535 Y2405.9201 Z-3.4777 F2000
G1 X894.1797 Y2406.7386 Z-4.1333 F2000
G1 X891.9649 Y2407.4652 Z-4.7913 F2000
G1 X889.7149 Y2408.0971 Z-5.4509 F2000
G1 X887.4360 Y2408.6318 Z-6.1116 F2000
G1 X885.1344 Y2409.0675 Z-6.7728 F2000
G1 X882.8166 Y2409.4029 Z-7.4338 F2000
G1 X880.4892 Y2409.6373 Z-8.0941 F2000
G1 X878.1588 Y2409.7705 Z-8.7529 F2000
G1 X875.8319 Y2409.8029 Z-9.4098 F2000
G1 X873.7418 Y2409.7421 Z-10.0000 F2000
G1 X875.8319 Y2409.8029 Z-10.5902 F2000
G1 X878.1588 Y2409.7705 Z-11.2471 F2000
G1 X880.4892 Y2409.6373 Z-11.9059 F2000
G1 X882.8166 Y2409.4029 Z-12.5662 F2000
G1 X885.1344 Y2409.0675 Z-13.2272 F2000
G1 X887.4360 Y2408.6318 Z-13.8884 F2000
G1 X889.7149 Y2408.0971 Z-14.5491 F2000
G1 X891.9649 Y2407.4652 Z-15.2087 F2000
G1 X894.1797 Y2406.7386 Z-15.8667 F2000
G1 X896.3535 Y2405.9201 Z-16.5223 F2000
G1 X898.4808 Y2405.0132 Z-17.1750 F2000
G1 X900.5563 Y2404.0215 Z-17.8243 F2000
G1 X902.5752 Y2402.9492 Z-18.4696 F2000
G1 X904.5332 Y2401.8009 Z-19.1103 F2000
G1 X906.4263 Y2400.5814 Z-19.7459 F2000
G1 X908.2511 Y2399.2957 Z-20.3760 F2000
G1 X910.0045 Y2397.9491 Z-21.0000 F2000
G1 X908.2511 Y2399.2957 Z-21.0000 F2750
G1 X906.4263 Y2400.5814 Z-21.0000 F2750
G1 X904.5332 Y2401.8009 Z-21.0000 F2750
G1 X902.5752 Y2402.9492 Z-21.0000 F2750
G1 X900.5563 Y2404.0215 Z-21.0000 F2750
G1 X898.4808 Y2405.0132 Z-21.0000 F2750
G1 X896.3535 Y2405.9201 Z-21.0000 F2750
G1 X894.1797 Y2406.7386 Z-21.0000 F2750
G1 X891.9649 Y2407.4652 Z-21.0000 F2750
G1 X889.7149 Y2408.0971 Z-21.0000 F2750
G1 X887.4360 Y2408.6318 Z-21.0000 F2750
G1 X885.1344 Y2409.0675 Z-21.0000 F2750
G1 X882.8166 Y2409.4029 Z-21.0000 F2750
G1 X880.4892 Y2409.6373 Z-21.0000 F2750
G1 X878.1588 Y2409.7705 Z-21.0000 F2750
G1 X875.8319 Y2409.8029 Z-21.0000 F2750
G1 X873.5149 Y2409.7355 Z-21.0000 F2750
G1 X871.2142 Y2409.5698 Z-21.0000 F2750
G1 X868.9359 Y2409.3078 Z-21.0000 F2750
G1 X866.6857 Y2408.9519 Z-21.0000 F2750
G1 X864.4691 Y2408.5052 Z-21.0000 F2750
G1 X862.2914 Y2407.9710 Z-21.0000 F2750
G1 X860.1574 Y2407.3529 Z-21.0000 F2750
G1 X858.0660 Y2406.6531 Z-21.0000 F2750
G1 X855.9897 Y2405.8623 Z-21.0000 F2750
G1 X853.9291 Y2404.9783 Z-21.0000 F2750
G1 X851.8901 Y2404.0010 Z-21.0000 F2750
G1 X849.8789 Y2402.9309 Z-21.0000 F2750
G1 X847.9017 Y2401.7689 Z-21.0000 F2750
G1 X845.9645 Y2400.5166 Z-21.0000 F2750
G1 X844.0736 Y2399.1760 Z-21.0000 F2750
G1 X842.2349 Y2397.7496 Z-21.0000 F2750
G1 X840.4539 Y2396.2407 Z-21.0000 F2750
G1 X838.7363 Y2394.6528 Z-21.0000 F2750
G1 X837.0872 Y2392.9899 Z-21.0000 F2750
G1 X835.5113 Y2391.2568 Z-21.0000 F2750
G1 X834.0132 Y2389.4582 Z-21.0000 F2750
G1 X832.5967 Y2387.5994 Z-21.0000 F2750
G1 X831.2652 Y2385.6862 Z-21.0000 F2750
G1 X830.0218 Y2383.7242 Z-21.0000 F2750
G1 X828.8688 Y2381.7196 Z-21.0000 F2750
G1 X827.8081 Y2379.6784 Z-21.0000 F2750
G1 X826.8411 Y2377.6070 Z-21.0000 F2750
G1 X825.9685 Y2375.5116 Z-21.0000 F2750
G1 X825.1906 Y2373.3983 Z-21.0000 F2750
G1 X824.5072 Y2371.2733 Z-21.0000 F2750
G1 X823.9174 Y2369.1425 Z-21.0000 F2750
G1 X823.9174 Y2369.1425 Z-15.0000 F9999
G1 X823.8809 Y2368.9978 Z-15.0000 F2750
G1 X823.8444 Y2368.8530 Z-15.0000 F2750
G1 X823.3578 Y2366.7145 Z-15.0000 F2750
G1 X822.9579 Y2364.5545 Z-15.0000 F2750
G1 X822.6459 Y2362.3781 Z-15.0000 F2750
G1 X822.4228 Y2360.1909 Z-15.0000 F2750
G1 X822.2890 Y2357.9982 Z-15.0000 F2750
G1 X822.2444 Y2355.8055 Z-15.0000 F2750
G1 X822.2911 Y2353.5610 Z-15.0000 F2750
G1 X822.4313 Y2351.3166 Z-15.0000 F2750
G1 X822.6651 Y2349.0780 Z-15.0000 F2750
G1 X822.9920 Y2346.8510 Z-15.0000 F2750
G1 X823.4111 Y2344.6416 Z-15.0000 F2750
G1 X823.9207 Y2342.4552 Z-15.0000 F2750
G1 X823.9207 Y2342.4552 Z-21.0000 F2000
G1 X823.9738 Y2342.2490 Z-21.0000 F2750
G1 X824.0277 Y2342.0430 Z-21.0000 F2750
G1 X824.6093 Y2340.0002 Z-21.0000 F2750
G1 X825.2796 Y2337.9566 Z-21.0000 F2750
G1 X826.0402 Y2335.9177 Z-21.0000 F2750
G1 X826.8920 Y2333.8890 Z-21.0000 F2750
G1 X827.8359 Y2331.8764 Z-21.0000 F2750
G1 X828.8719 Y2329.8858 Z-21.0000 F2750
G1 X829.9997 Y2327.9233 Z-21.0000 F2750
G1 X831.2186 Y2325.9951 Z-21.0000 F2750
G1 X832.5272 Y2324.1072 Z-21.0000 F2750
G1 X833.9234 Y2322.2658 Z-21.0000 F2750
G1 X835.4050 Y2320.4768 Z-21.0000 F2750
G1 X836.9689 Y2318.7461 Z-21.0000 F2750
G1 X838.6115 Y2317.0791 Z-21.0000 F2750
G1 X840.3290 Y2315.4812 Z-21.0000 F2750
G1 X842.1169 Y2313.9573 Z-21.0000 F2750
G1 X843.9703 Y2312.5119 Z-21.0000 F2750
G1 X845.8838 Y2311.1492 Z-21.0000 F2750
G1 X847.8520 Y2309.8727 Z-21.0000 F2750
G1 X849.8690 Y2308.6857 Z-21.0000 F2750
G1 X851.9286 Y2307.5906 Z-21.0000 F2750
G1 X854.0246 Y2306.5895 Z-21.0000 F2750
G1 X856.1507 Y2305.6839 Z-21.0000 F2750
G1 X858.3005 Y2304.8748 Z-21.0000 F2750
G1 X860.4676 Y2304.1624 Z-21.0000 F2750
G1 X862.6457 Y2303.5466 Z-21.0000 F2750
G1 X864.8287 Y2303.0268 Z-21.0000 F2750
G1 X867.0106 Y2302.6017 Z-21.0000 F2750
G1 X869.1857 Y2302.2697 Z-21.0000 F2750
G1 X871.3485 Y2302.0288 Z-21.0000 F2750
G1 X873.4938 Y2301.8766 Z-21.0000 F2750
G1 X875.6167 Y2301.8101 Z-21.0000 F2750
G1 X877.7975 Y2301.8289 Z-21.0000 F2750
G1 X879.9988 Y2301.9373 Z-21.0000 F2750
G1 X882.2154 Y2302.1378 Z-21.0000 F2750
G1 X884.4417 Y2302.4325 Z-21.0000 F2750
G1 X886.6719 Y2302.8231 Z-21.0000 F2750
G1 X888.8998 Y2303.3107 Z-21.0000 F2750
G1 X891.1193 Y2303.8960 Z-21.0000 F2750
G1 X893.3240 Y2304.5791 Z-21.0000 F2750
G1 X895.5075 Y2305.3596 Z-21.0000 F2750
G1 X897.6635 Y2306.2367 Z-21.0000 F2750
G1 X899.7856 Y2307.2086 Z-21.0000 F2750
G1 X901.8675 Y2308.2735 Z-21.0000 F2750
G1 X903.9033 Y2309.4286 Z-21.0000 F2750
G1 X905.8871 Y2310.6708 Z-21.0000 F2750
G1 X907.8135 Y2311.9966 Z-21.0000 F2750
G1 X909.6771 Y2313.4018 Z-21.0000 F2750
G1 X911.4734 Y2314.8819 Z-21.0000 F2750
G1 X913.1979 Y2316.4322 Z-21.0000 F2750
G1 X914.8467 Y2318.0474 Z-21.0000 F2750
G1 X916.4165 Y2319.7220 Z-21.0000 F2750
G1 X917.9043 Y2321.4506 Z-21.0000 F2750
G1 X919.3078 Y2323.2271 Z-21.0000 F2750
G1 X920.6251 Y2325.0459 Z-21.0000 F2750
G1 X921.8550 Y2326.9009 Z-21.0000 F2750
G1 X922.9965 Y2328.7862 Z-21.0000 F2750
G1 X924.0494 Y2330.6961 Z-21.0000 F2750
G1 X924.0494 Y2330.6961 Z-15.0000 F9999
G1 X925.0270 Y2332.6527 Z-15.0000 F2750
G1 X925.9257 Y2334.6498 Z-15.0000 F2750
G1 X926.7430 Y2336.6826 Z-15.0000 F2750
G1 X927.4768 Y2338.7460 Z-15.0000 F2750
G1 X928.1257 Y2340.8348 Z-15.0000 F2750
G1 X928.7115 Y2343.0386 Z-15.0000 F2750
G1 X929.2043 Y2345.2681 Z-15.0000 F2750
G1 X929.6026 Y2347.5175 Z-15.0000 F2750
G1 X929.9053 Y2349.7807 Z-15.0000 F2750
G1 X930.1118 Y2352.0516 Z-15.0000 F2750
G1 X930.1118 Y2352.0516 Z-21.0000 F2000
G1 X930.2097 Y2353.9274 Z-21.0000 F2750
G1 X930.2424 Y2355.8055 Z-21.0000 F2750
G1 X930.2062 Y2357.7826 Z-21.0000 F2750
G1 X930.0974 Y2359.7597 Z-21.0000 F2750
G1 X929.9161 Y2361.7328 Z-21.0000 F2750
G1 X929.6625 Y2363.6979 Z-21.0000 F2750
G1 X929.3373 Y2365.6511 Z-21.0000 F2750
G1 X928.9412 Y2367.5884 Z-21.0000 F2750
G1 X928.4062 Y2369.7675 Z-21.0000 F2750
G1 X927.7769 Y2371.9359 Z-21.0000 F2750
G1 X927.0535 Y2374.0875 Z-21.0000 F2750
G1 X926.2364 Y2376.2162 Z-21.0000 F2750
G1 X925.3267 Y2378.3160 Z-21.0000 F2750
G1 X924.3261 Y2380.3810 Z-21.0000 F2750
G1 X923.2365 Y2382.4051 Z-21.0000 F2750
G1 X922.0607 Y2384.3829 Z-21.0000 F2750
G1 X920.8018 Y2386.3087 Z-21.0000 F2750
G1 X919.4631 Y2388.1775 Z-21.0000 F2750
G1 X918.0488 Y2389.9845 Z-21.0000 F2750
G1 X916.5632 Y2391.7250 Z-21.0000 F2750
G1 X915.0108 Y2393.3951 Z-21.0000 F2750
G1 X913.3968 Y2394.9912 Z-21.0000 F2750
G1 X911.7262 Y2396.5101 Z-21.0000 F2750
G1 X910.0045 Y2397.9491 Z-21.0000 F2750
G1 X910.0045 Y2397.9491 Z10.0000 F9999
G1 X1050.1428 Y2397.8087 Z10.0000 F9999
G1 X1050.1428 Y2397.8087 Z1.0000 F2000
G1 X1048.3892 Y2399.1669 Z0.3739 F2000
G1 X1046.5635 Y2400.4641 Z-0.2582 F2000
G1 X1044.6687 Y2401.6949 Z-0.8960 F2000
G1 X1042.7083 Y2402.8543 Z-1.5388 F2000
G1 X1040.6861 Y2403.9373 Z-2.1863 F2000
G1 X1038.6067 Y2404.9395 Z-2.8379 F2000
G1 X1036.4749 Y2405.8566 Z-3.4929 F2000
G1 X1034.2958 Y2406.6847 Z-4.1509 F2000
G1 X1032.0751 Y2407.4204 Z-4.8112 F2000
G1 X1029.8188 Y2408.0608 Z-5.4732 F2000
G1 X1027.5330 Y2408.6034 Z-6.1364 F2000
G1 X1025.2241 Y2409.0464 Z-6.7999 F2000
G1 X1022.8987 Y2409.3883 Z-7.4634 F2000
G1 X1020.5634 Y2409.6285 Z-8.1260 F2000
G1 X1018.2248 Y2409.7668 Z-8.7873 F2000
G1 X1015.8896 Y2409.8036 Z-9.4465 F2000
G1 X1013.9293 Y2409.7498 Z-10.0000 F2000
G1 X1015.8896 Y2409.8036 Z-10.5535 F2000
G1 X1018.2248 Y2409.7668 Z-11.2127 F2000
G1 X1020.5634 Y2409.6285 Z-11.8740 F2000
G1 X1022.8987 Y2409.3883 Z-12.5366 F2000
G1 X1025.2241 Y2409.0464 Z-13.2001 F2000
G1 X1027.5330 Y2408.6034 Z-13.8636 F2000
G1 X1029.8188 Y2408.0608 Z-14.5268 F2000
G1 X1032.0751 Y2407.4204 Z-15.1888 F2000
G1 X1034.2958 Y2406.6847 Z-15.8491 F2000
G1 X1036.4749 Y2405.8566 Z-16.5071 F2000
G1 X1038.6067 Y2404.9395 Z-17.1621 F2000
G1 X1040.6861 Y2403.9373 Z-17.8137 F2000
G1 X1042.7083 Y2402.8543 Z-18.4612 F2000
G1 X1044.6687 Y2401.6949 Z-19.1040 F2000
G1 X1046.5635 Y2400.4641 Z-19.7418 F2000
G1 X1048.3892 Y2399.1669 Z-20.3739 F2000
G1 X1050.1428 Y2397.8087 Z-21.0000 F2000
G1 X1048.3892 Y2399.1669 Z-21.0000 F2750
G1 X1046.5635 Y2400.4641 Z-21.0000 F2750
G1 X1044.6687 Y2401.6949 Z-21.0000 F2750
G1 X1042.7083 Y2402.8543 Z-21.0000 F2750
G1 X1040.6861 Y2403.9373 Z-21.0000 F2750
G1 X1038.6067 Y2404.9395 Z-21.0000 F2750
G1 X1036.4749 Y2405.8566 Z-21.0000 F2750
G1 X1034.2958 Y2406.6847 Z-21.0000 F2750
G1 X1032.0751 Y2407.4204 Z-21.0000 F2750
G1 X1029.8188 Y2408.0608 Z-21.0000 F2750
G1 X1027.5330 Y2408.6034 Z-21.0000 F2750
G1 X1025.2241 Y2409.0464 Z-21.0000 F2750
G1 X1022.8987 Y2409.3883 Z-21.0000 F2750
G1 X1020.5634 Y2409.6285 Z-21.0000 F2750
G1 X1018.2248 Y2409.7668 Z-21.0000 F2750
G1 X1015.8896 Y2409.8036 Z-21.0000 F2750
G1 X1013.5643 Y2409.7398 Z-21.0000 F2750
G1 X1011.2552 Y2409.5770 Z-21.0000 F2750
G1 X1008.9685 Y2409.3171 Z-21.0000 F2750
G1 X1006.7102 Y2408.9628 Z-21.0000 F2750
G1 X1004.4856 Y2408.5170 Z-21.0000 F2750
G1 X1002.3002 Y2407.9830 Z-21.0000 F2750
G1 X1000.1587 Y2407.3646 Z-21.0000 F2750
G1 X998.0601 Y2406.6639 Z-21.0000 F2750
G1 X995.9767 Y2405.8716 Z-21.0000 F2750
G1 X993.9088 Y2404.9855 Z-21.0000 F2750
G1 X991.8627 Y2404.0055 Z-21.0000 F2750
G1 X989.8444 Y2402.9319 Z-21.0000 F2750
G1 X987.8604 Y2401.7658 Z-21.0000 F2750
G1 X985.9167 Y2400.5087 Z-21.0000 F2750
G1 X984.0195 Y2399.1627 Z-21.0000 F2750
G1 X982.1748 Y2397.7303 Z-21.0000 F2750
G1 X980.3884 Y2396.2147 Z-21.0000 F2750
G1 X978.6658 Y2394.6197 Z-21.0000 F2750
G1 X977.0123 Y2392.9492 Z-21.0000 F2750
G1 X975.4327 Y2391.2079 Z-21.0000 F2750
G1 X973.9314 Y2389.4009 Z-21.0000 F2750
G1 X972.5124 Y2387.5334 Z-21.0000 F2750
G1 X971.1792 Y2385.6111 Z-21.0000 F2750
G1 X969.9348 Y2383.6400 Z-21.0000 F2750
G1 X968.7815 Y2381.6260 Z-21.0000 F2750
G1 X967.7214 Y2379.5756 Z-21.0000 F2750
G1 X966.7556 Y2377.4949 Z-21.0000 F2750
G1 X965.8849 Y2375.3902 Z-21.0000 F2750
G1 X965.1097 Y2373.2679 Z-21.0000 F2750
G1 X964.4295 Y2371.1341 Z-21.0000 F2750
G1 X963.8437 Y2368.9949 Z-21.0000 F2750
G1 X963.8437 Y2368.9949 Z-15.0000 F9999
G1 X963.7231 Y2368.4958 Z-15.0000 F2750
G1 X963.6024 Y2367.9968 Z-15.0000 F2750
G1 X963.1781 Y2365.9943 Z-15.0000 F2750
G1 X962.8296 Y2363.9742 Z-15.0000 F2750
G1 X962.5579 Y2361.9409 Z-15.0000 F2750
G1 X962.3636 Y2359.8987 Z-15.0000 F2750
G1 X962.2470 Y2357.8521 Z-15.0000 F2750
G1 X962.2082 Y2355.8055 Z-15.0000 F2750
G1 X962.2540 Y2353.5810 Z-15.0000 F2750
G1 X962.3918 Y2351.3564 Z-15.0000 F2750
G1 X962.6215 Y2349.1376 Z-15.0000 F2750
G1 X962.9426 Y2346.9301 Z-15.0000 F2750
G1 X963.3542 Y2344.7397 Z-15.0000 F2750
G1 X963.8549 Y2342.5717 Z-15.0000 F2750
G1 X963.8549 Y2342.5717 Z-21.0000 F2000
G1 X964.0380 Y2341.8675 Z-21.0000 F2750
G1 X964.2306 Y2341.1657 Z-21.0000 F2750
G1 X964.8629 Y2339.0826 Z-21.0000 F2750
G1 X965.5883 Y2337.0008 Z-21.0000 F2750
G1 X966.4082 Y2334.9260 Z-21.0000 F2750
G1 X967.3238 Y2332.8643 Z-21.0000 F2750
G1 X968.3354 Y2330.8219 Z-21.0000 F2750
G1 X969.4431 Y2328.8053 Z-21.0000 F2750
G1 X970.6463 Y2326.8211 Z-21.0000 F2750
G1 X971.9439 Y2324.8757 Z-21.0000 F2750
G1 X973.3342 Y2322.9757 Z-21.0000 F2750
G1 X974.8148 Y2321.1275 Z-21.0000 F2750
G1 X976.3829 Y2319.3374 Z-21.0000 F2750
G1 X978.0350 Y2317.6116 Z-21.0000 F2750
G1 X979.7670 Y2315.9557 Z-21.0000 F2750
G1 X981.5744 Y2314.3753 Z-21.0000 F2750
G1 X983.4522 Y2312.8753 Z-21.0000 F2750
G1 X985.3948 Y2311.4604 Z-21.0000 F2750
G1 X987.3965 Y2310.1346 Z-21.0000 F2750
G1 X989.4510 Y2308.9014 Z-21.0000 F2750
G1 X991.5519 Y2307.7638 Z-21.0000 F2750
G1 X993.6925 Y2306.7241 Z-21.0000 F2750
G1 X995.8661 Y2305.7842 Z-21.0000 F2750
G1 X998.0659 Y2304.9451 Z-21.0000 F2750
G1 X1000.2849 Y2304.2073 Z-21.0000 F2750
G1 X1002.5165 Y2303.5709 Z-21.0000 F2750
G1 X1004.7540 Y2303.0351 Z-21.0000 F2750
G1 X1006.9910 Y2302.5988 Z-21.0000 F2750
G1 X1009.2213 Y2302.2603 Z-21.0000 F2750
G1 X1011.4390 Y2302.0174 Z-21.0000 F2750
G1 X1013.6385 Y2301.8676 Z-21.0000 F2750
G1 X1015.8146 Y2301.8079 Z-21.0000 F2750
G1 X1017.9705 Y2301.8353 Z-21.0000 F2750
G1 X1020.1459 Y2301.9503 Z-21.0000 F2750
G1 X1022.3356 Y2302.1554 Z-21.0000 F2750
G1 X1024.5342 Y2302.4524 Z-21.0000 F2750
G1 X1026.7361 Y2302.8429 Z-21.0000 F2750
G1 X1028.9355 Y2303.3281 Z-21.0000 F2750
G1 X1031.1263 Y2303.9084 Z-21.0000 F2750
G1 X1033.3025 Y2304.5840 Z-21.0000 F2750
G1 X1035.4579 Y2305.3545 Z-21.0000 F2750
G1 X1037.5864 Y2306.2190 Z-21.0000 F2750
G1 X1039.6818 Y2307.1760 Z-21.0000 F2750
G1 X1041.7383 Y2308.2234 Z-21.0000 F2750
G1 X1043.7499 Y2309.3589 Z-21.0000 F2750
G1 X1045.7111 Y2310.5793 Z-21.0000 F2750
G1 X1047.6166 Y2311.8813 Z-21.0000 F2750
G1 X1049.4614 Y2313.2609 Z-21.0000 F2750
G1 X1051.2410 Y2314.7138 Z-21.0000 F2750
G1 X1052.9509 Y2316.2355 Z-21.0000 F2750
G1 X1054.5877 Y2317.8209 Z-21.0000 F2750
G1 X1056.1478 Y2319.4648 Z-21.0000 F2750
G1 X1057.6284 Y2321.1620 Z-21.0000 F2750
G1 X1059.0273 Y2322.9067 Z-21.0000 F2750
G1 X1060.3425 Y2324.6934 Z-21.0000 F2750
G1 X1061.5728 Y2326.5164 Z-21.0000 F2750
G1 X1062.7172 Y2328.3699 Z-21.0000 F2750
G1 X1063.7754 Y2330.2485 Z-21.0000 F2750
G1 X1063.7754 Y2330.2485 Z-15.0000 F9999
G1 X1064.7771 Y2332.2077 Z-15.0000 F2750
G1 X1065.6993 Y2334.2086 Z-15.0000 F2750
G1 X1066.5394 Y2336.2462 Z-15.0000 F2750
G1 X1067.2953 Y2338.3157 Z-15.0000 F2750
G1 X1067.9655 Y2340.4115 Z-15.0000 F2750
G1 X1068.5719 Y2342.6211 Z-15.0000 F2750
G1 X1069.0847 Y2344.8574 Z-15.0000 F2750
G1 X1069.5022 Y2347.1145 Z-15.0000 F2750
G1 X1069.8233 Y2349.3863 Z-15.0000 F2750
G1 X1070.0473 Y2351.6666 Z-15.0000 F2750
G1 X1070.0473 Y2351.6666 Z-21.0000 F2000
G1 X1070.1665 Y2353.7345 Z-21.0000 F2750
G1 X1070.2062 Y2355.8055 Z-21.0000 F2750
G1 X1070.1579 Y2358.0889 Z-21.0000 F2750
G1 X1070.0128 Y2360.3713 Z-21.0000 F2750
G1 X1069.7711 Y2362.6465 Z-21.0000 F2750
G1 X1069.4334 Y2364.9085 Z-21.0000 F2750
G1 X1069.0009 Y2367.1510 Z-21.0000 F2750
G1 X1068.4806 Y2369.3474 Z-21.0000 F2750
G1 X1067.8649 Y2371.5338 Z-21.0000 F2750
G1 X1067.1536 Y2373.7040 Z-21.0000 F2750
G1 X1066.3474 Y2375.8518 Z-21.0000 F2750
G1 X1065.4472 Y2377.9711 Z-21.0000 F2750
G1 X1064.4547 Y2380.0558 Z-21.0000 F2750
G1 X1063.3718 Y2382.0998 Z-21.0000 F2750
G1 X1062.2014 Y2384.0974 Z-21.0000 F2750
G1 X1060.9463 Y2386.0429 Z-21.0000 F2750
G1 X1059.6103 Y2387.9312 Z-21.0000 F2750
G1 X1058.1973 Y2389.7573 Z-21.0000 F2750
G1 X1056.7118 Y2391.5165 Z-21.0000 F2750
G1 X1055.1583 Y2393.2047 Z-21.0000 F2750
G1 X1053.5422 Y2394.8182 Z-21.0000 F2750
G1 X1051.8685 Y2396.3538 Z-21.0000 F2750
G1 X1050.1428 Y2397.8087 Z-21.0000 F2750
G1 X1050.1428 Y2397.8087 Z10.0000 F9999
G1 X1193.2973 Y2385.9193 Z10.0000 F9999
G1 X1193.2973 Y2385.9193 Z1.0000 F2000
G1 X1191.7061 Y2387.4468 Z0.3774 F2000
G1 X1190.0393 Y2388.9204 Z-0.2506 F2000
G1 X1188.2996 Y2390.3347 Z-0.8834 F2000
G1 X1186.4900 Y2391.6846 Z-1.5207 F2000
G1 X1184.6140 Y2392.9652 Z-2.1618 F2000
G1 X1182.6757 Y2394.1718 Z-2.8062 F2000
G1 X1180.6795 Y2395.3000 Z-3.4534 F2000
G1 X1178.6301 Y2396.3459 Z-4.1029 F2000
G1 X1176.5327 Y2397.3058 Z-4.7540 F2000
G1 X1174.3927 Y2398.1766 Z-5.4061 F2000
G1 X1172.2160 Y2398.9556 Z-6.0586 F2000
G1 X1170.0084 Y2399.6405 Z-6.7111 F2000
G1 X1167.7761 Y2400.2298 Z-7.3627 F2000
G1 X1165.5253 Y2400.7221 Z-8.0131 F2000
G1 X1163.2623 Y2401.1170 Z-8.6615 F2000
G1 X1160.9933 Y2401.4142 Z-9.3074 F2000
G1 X1158.7246 Y2401.6144 Z-9.9502 F2000
G1 X1158.5485 Y2401.6225 Z-10.0000 F2000
G1 X1158.7246 Y2401.6144 Z-10.0498 F2000
G1 X1160.9933 Y2401.4142 Z-10.6926 F2000
G1 X1163.2623 Y2401.1170 Z-11.3385 F2000
G1 X1165.5253 Y2400.7221 Z-11.9869 F2000
G1 X1167.7761 Y2400.2298 Z-12.6373 F2000
G1 X1170.0084 Y2399.6405 Z-13.2889 F2000
G1 X1172.2160 Y2398.9556 Z-13.9414 F2000
G1 X1174.3927 Y2398.1766 Z-14.5939 F2000
G1 X1176.5327 Y2397.3058 Z-15.2460 F2000
G1 X1178.6301 Y2396.3459 Z-15.8971 F2000
G1 X1180.6795 Y2395.3000 Z-16.5466 F2000
G1 X1182.6757 Y2394.1718 Z-17.1938 F2000
G1 X1184.6140 Y2392.9652 Z-17.8382 F2000
G1 X1186.4900 Y2391.6846 Z-18.4793 F2000
G1 X1188.2996 Y2390.3347 Z-19.1166 F2000
G1 X1190.0393 Y2388.9204 Z-19.7494 F2000
G1 X1191.7061 Y2387.4468 Z-20.3774 F2000
G1 X1193.2973 Y2385.9193 Z-21.0000 F2000
G1 X1191.7061 Y2387.4468 Z-21.0000 F2750
G1 X1190.0393 Y2388.9204 Z-21.0000 F2750
G1 X1188.2996 Y2390.3347 Z-21.0000 F2750
G1 X1186.4900 Y2391.6846 Z-21.0000 F2750
G1 X1184.6140 Y2392.9652 Z-21.0000 F2750
G1 X1182.6757 Y2394.1718 Z-21.0000 F2750
G1 X1180.6795 Y2395.3000 Z-21.0000 F2750
G1 X1178.6301 Y2396.3459 Z-21.0000 F2750
G1 X1176.5327 Y2397.3058 Z-21.0000 F2750
G1 X1174.3927 Y2398.1766 Z-21.0000 F2750
G1 X1172.2160 Y2398.9556 Z-21.0000 F2750
G1 X1170.0084 Y2399.6405 Z-21.0000 F2750
G1 X1167.7761 Y2400.2298 Z-21.0000 F2750
G1 X1165.5253 Y2400.7221 Z-21.0000 F2750
G1 X1163.2623 Y2401.1170 Z-21.0000 F2750
G1 X1160.9933 Y2401.4142 Z-21.0000 F2750
G1 X1158.7246 Y2401.6144 Z-21.0000 F2750
G1 X1156.4623 Y2401.7184 Z-21.0000 F2750
G1 X1154.2122 Y2401.7277 Z-21.0000 F2750
G1 X1151.9802 Y2401.6442 Z-21.0000 F2750
G1 X1149.7715 Y2401.4703 Z-21.0000 F2750
G1 X1147.5864 Y2401.2079 Z-21.0000 F2750
G1 X1145.3993 Y2400.8541 Z-21.0000 F2750
G1 X1143.2109 Y2400.4069 Z-21.0000 F2750
G1 X1141.0270 Y2399.8653 Z-21.0000 F2750
G1 X1138.8536 Y2399.2288 Z-21.0000 F2750
G1 X1136.6967 Y2398.4973 Z-21.0000 F2750
G1 X1134.5626 Y2397.6714 Z-21.0000 F2750
G1 X1132.4574 Y2396.7521 Z-21.0000 F2750
G1 X1130.3871 Y2395.7410 Z-21.0000 F2750
G1 X1128.3577 Y2394.6401 Z-21.0000 F2750
G1 X1126.3750 Y2393.4521 Z-21.0000 F2750
G1 X1124.4444 Y2392.1800 Z-21.0000 F2750
G1 X1122.5714 Y2390.8275 Z-21.0000 F2750
G1 X1120.7608 Y2389.3983 Z-21.0000 F2750
G1 X1119.0172 Y2387.8971 Z-21.0000 F2750
G1 X1117.3448 Y2386.3284 Z-21.0000 F2750
G1 X1115.7471 Y2384.6973 Z-21.0000 F2750
G1 X1114.2276 Y2383.0091 Z-21.0000 F2750
G1 X1112.7890 Y2381.2692 Z-21.0000 F2750
G1 X1111.4335 Y2379.4833 Z-21.0000 F2750
G1 X1110.1628 Y2377.6571 Z-21.0000 F2750
G1 X1108.9783 Y2375.7963 Z-21.0000 F2750
G1 X1108.9783 Y2375.7963 Z-15.0000 F9999
G1 X1107.9493 Y2374.0299 Z-15.0000 F2750
G1 X1106.9865 Y2372.2231 Z-15.0000 F2750
G1 X1106.0923 Y2370.3799 Z-15.0000 F2750
G1 X1105.2686 Y2368.5040 Z-15.0000 F2750
G1 X1104.5172 Y2366.5996 Z-15.0000 F2750
G1 X1103.8395 Y2364.6709 Z-15.0000 F2750
G1 X1103.2243 Y2362.6801 Z-15.0000 F2750
G1 X1102.6856 Y2360.6639 Z-15.0000 F2750
G1 X1102.2249 Y2358.6269 Z-15.0000 F2750
G1 X1101.8433 Y2356.5736 Z-15.0000 F2750
G1 X1101.5417 Y2354.5086 Z-15.0000 F2750
G1 X1101.3203 Y2352.4367 Z-15.0000 F2750
G1 X1101.3203 Y2352.4367 Z-21.0000 F2000
G1 X1101.2064 Y2350.8722 Z-21.0000 F2750
G1 X1101.1381 Y2349.3047 Z-21.0000 F2750
G1 X1101.1153 Y2347.7362 Z-21.0000 F2750
G1 X1101.1508 Y2345.7775 Z-21.0000 F2750
G1 X1101.2575 Y2343.8195 Z-21.0000 F2750
G1 X1101.4353 Y2341.8660 Z-21.0000 F2750
G1 X1101.6838 Y2339.9208 Z-21.0000 F2750
G1 X1102.0025 Y2337.9879 Z-21.0000 F2750
G1 X1102.4504 Y2335.8027 Z-21.0000 F2750
G1 X1102.9928 Y2333.6210 Z-21.0000 F2750
G1 X1103.6302 Y2331.4488 Z-21.0000 F2750
G1 X1104.3628 Y2329.2923 Z-21.0000 F2750
G1 X1105.1903 Y2327.1575 Z-21.0000 F2750
G1 X1106.1116 Y2325.0507 Z-21.0000 F2750
G1 X1107.1255 Y2322.9780 Z-21.0000 F2750
G1 X1108.2299 Y2320.9455 Z-21.0000 F2750
G1 X1109.4223 Y2318.9589 Z-21.0000 F2750
G1 X1110.6997 Y2317.0241 Z-21.0000 F2750
G1 X1112.0587 Y2315.1462 Z-21.0000 F2750
G1 X1113.4953 Y2313.3305 Z-21.0000 F2750
G1 X1115.0053 Y2311.5816 Z-21.0000 F2750
G1 X1116.5838 Y2309.9037 Z-21.0000 F2750
G1 X1118.2260 Y2308.3009 Z-21.0000 F2750
G1 X1119.9265 Y2306.7764 Z-21.0000 F2750
G1 X1121.6798 Y2305.3331 Z-21.0000 F2750
G1 X1123.4802 Y2303.9735 Z-21.0000 F2750
G1 X1125.3221 Y2302.6994 Z-21.0000 F2750
G1 X1127.2036 Y2301.5098 Z-21.0000 F2750
G1 X1129.1444 Y2300.3922 Z-21.0000 F2750
G1 X1131.1447 Y2299.3487 Z-21.0000 F2750
G1 X1133.2004 Y2298.3837 Z-21.0000 F2750
G1 X1135.3068 Y2297.5012 Z-21.0000 F2750
G1 X1137.4590 Y2296.7050 Z-21.0000 F2750
G1 X1139.6517 Y2295.9984 Z-21.0000 F2750
G1 X1141.8791 Y2295.3843 Z-21.0000 F2750
G1 X1144.1355 Y2294.8651 Z-21.0000 F2750
G1 X1146.4146 Y2294.4426 Z-21.0000 F2750
G1 X1148.7104 Y2294.1183 Z-21.0000 F2750
G1 X1151.0163 Y2293.8929 Z-21.0000 F2750
G1 X1153.3261 Y2293.7668 Z-21.0000 F2750
G1 X1155.6333 Y2293.7397 Z-21.0000 F2750
G1 X1157.9317 Y2293.8108 Z-21.0000 F2750
G1 X1160.2150 Y2293.9787 Z-21.0000 F2750
G1 X1162.4774 Y2294.2416 Z-21.0000 F2750
G1 X1164.7131 Y2294.5972 Z-21.0000 F2750
G1 X1166.9165 Y2295.0428 Z-21.0000 F2750
G1 X1169.0827 Y2295.5752 Z-21.0000 F2750
G1 X1169.0827 Y2295.5752 Z-15.0000 F9999
G1 X1171.2712 Y2296.2110 Z-15.0000 F2750
G1 X1173.4348 Y2296.9401 Z-15.0000 F2750
G1 X1175.5676 Y2297.7607 Z-15.0000 F2750
G1 X1177.6636 Y2298.6708 Z-15.0000 F2750
G1 X1179.7175 Y2299.6678 Z-15.0000 F2750
G1 X1181.7239 Y2300.7488 Z-15.0000 F2750
G1 X1183.7074 Y2301.9287 Z-15.0000 F2750
G1 X1185.6421 Y2303.1947 Z-15.0000 F2750
G1 X1187.5225 Y2304.5437 Z-15.0000 F2750
G1 X1189.3435 Y2305.9719 Z-15.0000 F2750
G1 X1191.0999 Y2307.4755 Z-15.0000 F2750
G1 X1192.7874 Y2309.0500 Z-15.0000 F2750
G1 X1192.7874 Y2309.0500 Z-21.0000 F2000
G1 X1194.3365 Y2310.6215 Z-21.0000 F2750
G1 X1195.8232 Y2312.2584 Z-21.0000 F2750
G1 X1197.2434 Y2313.9571 Z-21.0000 F2750
G1 X1198.5933 Y2315.7133 Z-21.0000 F2750
G1 X1199.8695 Y2317.5225 Z-21.0000 F2750
G1 X1201.0690 Y2319.3803 Z-21.0000 F2750
G1 X1202.1891 Y2321.2815 Z-21.0000 F2750
G1 X1203.1904 Y2323.1481 Z-21.0000 F2750
G1 X1204.1289 Y2325.0765 Z-21.0000 F2750
G1 X1204.9997 Y2327.0640 Z-21.0000 F2750
G1 X1205.7982 Y2329.1073 Z-21.0000 F2750
G1 X1206.5199 Y2331.2028 Z-21.0000 F2750
G1 X1207.1606 Y2333.3462 Z-21.0000 F2750
G1 X1207.7163 Y2335.5331 Z-21.0000 F2750
G1 X1208.1835 Y2337.7585 Z-21.0000 F2750
G1 X1208.5587 Y2340.0172 Z-21.0000 F2750
G1 X1208.8393 Y2342.3034 Z-21.0000 F2750
G1 X1209.0228 Y2344.6113 Z-21.0000 F2750
G1 X1209.1073 Y2346.9346 Z-21.0000 F2750
G1 X1209.0916 Y2349.2670 Z-21.0000 F2750
G1 X1208.9747 Y2351.6021 Z-21.0000 F2750
G1 X1208.7565 Y2353.9332 Z-21.0000 F2750
G1 X1208.4373 Y2356.2537 Z-21.0000 F2750
G1 X1208.0180 Y2358.5571 Z-21.0000 F2750
G1 X1207.5000 Y2360.8370 Z-21.0000 F2750
G1 X1206.8853 Y2363.0871 Z-21.0000 F2750
G1 X1206.1766 Y2365.3013 Z-21.0000 F2750
G1 X1205.3768 Y2367.4739 Z-21.0000 F2750
G1 X1204.4893 Y2369.5994 Z-21.0000 F2750
G1 X1203.5181 Y2371.6729 Z-21.0000 F2750
G1 X1202.4674 Y2373.6895 Z-21.0000 F2750
G1 X1201.3418 Y2375.6451 Z-21.0000 F2750
G1 X1200.1462 Y2377.5359 Z-21.0000 F2750
G1 X1198.8854 Y2379.3586 Z-21.0000 F2750
G1 X1197.5649 Y2381.1104 Z-21.0000 F2750
G1 X1196.1898 Y2382.7890 Z-21.0000 F2750
G1 X1194.7655 Y2384.3924 Z-21.0000 F2750
G1 X1193.2973 Y2385.9193 Z-21.0000 F2750
G1 X1193.2973 Y2385.9193 Z10.0000 F9999
G1 X5.9010 Y1142.7727 Z10.0000 F9999
G1 X5.9010 Y1142.7727 Z1.0000 F2000
G1 X5.9010 Y1103.8016 Z-10.0000 F2000
G1 X5.9010 Y1142.7727 Z-21.0000 F2000
G1 X5.9010 Y5.9010 Z-21.0000 F2750
G1 X1213.8967 Y5.9010 Z-21.0000 F2750
G1 X1213.8967 Y2279.6445 Z-21.0000 F2750
G1 X1148.8988 Y2279.6445 Z-21.0000 F2750
G1 X1148.8988 Y2200.8966 Z-21.0000 F2750
G1 X1153.8988 Y2200.8966 Z-21.0000 F2750
G1 X1153.8988 Y2198.8946 Z-21.0000 F2750
G1 X1133.8969 Y2198.8946 Z-21.0000 F2750
G1 X1133.8969 Y2200.8966 Z-21.0000 F2750
G1 X1138.8968 Y2200.8966 Z-21.0000 F2750
G1 X1138.8968 Y2279.6445 Z-21.0000 F2750
G1 X1120.8467 Y2279.6635 Z-21.0000 F2750
G1 X1119.9591 Y2279.8944 Z-21.0000 F2750
G1 X1109.8989 Y2279.8944 Z-21.0000 F2750
G1 X1109.8989 Y2274.8945 Z-21.0000 F2750
G1 X1107.8969 Y2274.8945 Z-21.0000 F2750
G1 X1107.8969 Y2297.6445 Z-21.0000 F2750
G1 X1054.2708 Y2297.6445 Z-21.0000 F2750
G1 X1051.9663 Y2297.3078 Z-21.0000 F2750
G1 X1049.5114 Y2296.1466 Z-21.0000 F2750
G1 X1047.5157 Y2294.3050 Z-21.0000 F2750
G1 X1046.1927 Y2292.0406 Z-21.0000 F2750
G1 X1045.5728 Y2289.4923 Z-21.0000 F2750
G1 X1045.7306 Y2286.7811 Z-21.0000 F2750
G1 X1046.6913 Y2284.2411 Z-21.0000 F2750
G1 X1048.5424 Y2281.8478 Z-21.0000 F2750
G1 X1048.6833 Y2281.5081 Z-21.0000 F2750
G1 X1048.7338 Y2281.1343 Z-21.0000 F2750
G1 X1048.6864 Y2280.7633 Z-21.0000 F2750
G1 X1048.5501 Y2280.4258 Z-21.0000 F2750
G1 X1048.3267 Y2280.1259 Z-21.0000 F2750
G1 X1048.0309 Y2279.8919 Z-21.0000 F2750
G1 X1047.6937 Y2279.7452 Z-21.0000 F2750
G1 X1047.0041 Y2279.6445 Z-21.0000 F2750
G1 X983.9105 Y2279.6445 Z-21.0000 F2750
G1 X983.2791 Y2279.7440 Z-21.0000 F2750
G1 X983.0058 Y2279.8722 Z-21.0000 F2750
G1 X982.7721 Y2280.0776 Z-21.0000 F2750
G1 X982.6073 Y2280.3377 Z-21.0000 F2750
G1 X982.5233 Y2280.6237 Z-21.0000 F2750
G1 X982.5213 Y2280.9317 Z-21.0000 F2750
G1 X982.6067 Y2281.2307 Z-21.0000 F2750
G1 X982.7672 Y2281.4864 Z-21.0000 F2750
G1 X985.0408 Y2283.5123 Z-21.0000 F2750
G1 X986.4540 Y2285.9710 Z-21.0000 F2750
G1 X986.9949 Y2288.7550 Z-21.0000 F2750
G1 X986.6436 Y2291.4556 Z-21.0000 F2750
G1 X985.4784 Y2293.9170 Z-21.0000 F2750
G1 X983.5176 Y2295.9660 Z-21.0000 F2750
G1 X980.9991 Y2297.2697 Z-21.0000 F2750
G1 X978.6224 Y2297.6445 Z-21.0000 F2750
G1 X914.3212 Y2297.6445 Z-21.0000 F2750
G1 X912.0165 Y2297.3078 Z-21.0000 F2750
G1 X909.5618 Y2296.1466 Z-21.0000 F2750
G1 X907.5659 Y2294.3050 Z-21.0000 F2750
G1 X906.2428 Y2292.0403 Z-21.0000 F2750
G1 X905.6232 Y2289.4922 Z-21.0000 F2750
G1 X905.7807 Y2286.7813 Z-21.0000 F2750
G1 X906.7415 Y2284.2412 Z-21.0000 F2750
G1 X908.5927 Y2281.8477 Z-21.0000 F2750
G1 X908.7336 Y2281.5080 Z-21.0000 F2750
G1 X908.7841 Y2281.1342 Z-21.0000 F2750
G1 X908.7367 Y2280.7632 Z-21.0000 F2750
G1 X908.6004 Y2280.4258 Z-21.0000 F2750
G1 X908.3770 Y2280.1259 Z-21.0000 F2750
G1 X908.0812 Y2279.8919 Z-21.0000 F2750
G1 X907.7439 Y2279.7452 Z-21.0000 F2750
G1 X907.0543 Y2279.6445 Z-21.0000 F2750
G1 X843.9607 Y2279.6445 Z-21.0000 F2750
G1 X843.3294 Y2279.7440 Z-21.0000 F2750
G1 X843.0561 Y2279.8722 Z-21.0000 F2750
G1 X842.8225 Y2280.0775 Z-21.0000 F2750
G1 X842.6577 Y2280.3376 Z-21.0000 F2750
G1 X842.5736 Y2280.6236 Z-21.0000 F2750
G1 X842.5716 Y2280.9316 Z-21.0000 F2750
G1 X842.6570 Y2281.2306 Z-21.0000 F2750
G1 X842.8175 Y2281.4863 Z-21.0000 F2750
G1 X845.0912 Y2283.5123 Z-21.0000 F2750
G1 X846.5044 Y2285.9712 Z-21.0000 F2750
G1 X847.0450 Y2288.7549 Z-21.0000 F2750
G1 X846.6941 Y2291.4555 Z-21.0000 F2750
G1 X845.5287 Y2293.9171 Z-21.0000 F2750
G1 X843.5679 Y2295.9660 Z-21.0000 F2750
G1 X841.0493 Y2297.2697 Z-21.0000 F2750
G1 X838.6725 Y2297.6445 Z-21.0000 F2750
G1 X774.3713 Y2297.6445 Z-21.0000 F2750
G1 X772.0668 Y2297.3078 Z-21.0000 F2750
G1 X769.6121 Y2296.1466 Z-21.0000 F2750
G1 X767.6163 Y2294.3050 Z-21.0000 F2750
G1 X766.2931 Y2292.0403 Z-21.0000 F2750
G1 X765.6736 Y2289.4922 Z-21.0000 F2750
G1 X765.8310 Y2286.7813 Z-21.0000 F2750
G1 X766.7918 Y2284.2411 Z-21.0000 F2750
G1 X768.6430 Y2281.8477 Z-21.0000 F2750
G1 X768.7839 Y2281.5080 Z-21.0000 F2750
G1 X768.8344 Y2281.1342 Z-21.0000 F2750
G1 X768.7870 Y2280.7632 Z-21.0000 F2750
G1 X768.6507 Y2280.4258 Z-21.0000 F2750
G1 X768.4273 Y2280.1259 Z-21.0000 F2750
G1 X768.1315 Y2279.8919 Z-21.0000 F2750
G1 X767.7942 Y2279.7452 Z-21.0000 F2750
G1 X767.1046 Y2279.6445 Z-21.0000 F2750
G1 X704.0110 Y2279.6445 Z-21.0000 F2750
G1 X703.3797 Y2279.7440 Z-21.0000 F2750
G1 X703.1064 Y2279.8722 Z-21.0000 F2750
G1 X702.8727 Y2280.0776 Z-21.0000 F2750
G1 X702.7079 Y2280.3377 Z-21.0000 F2750
G1 X702.6238 Y2280.6237 Z-21.0000 F2750
G1 X702.6218 Y2280.9317 Z-21.0000 F2750
G1 X702.7072 Y2281.2308 Z-21.0000 F2750
G1 X702.8678 Y2281.4865 Z-21.0000 F2750
G1 X705.1410 Y2283.5121 Z-21.0000 F2750
G1 X706.5546 Y2285.9709 Z-21.0000 F2750
G1 X707.0955 Y2288.7552 Z-21.0000 F2750
G1 X706.7441 Y2291.4555 Z-21.0000 F2750
G1 X705.5792 Y2293.9169 Z-21.0000 F2750
G1 X703.6182 Y2295.9660 Z-21.0000 F2750
G1 X701.0996 Y2297.2697 Z-21.0000 F2750
G1 X698.7229 Y2297.6445 Z-21.0000 F2750
G1 X650.8998 Y2297.6445 Z-21.0000 F2750
G1 X650.8998 Y2287.8944 Z-21.0000 F2750
G1 X645.8998 Y2287.8944 Z-21.0000 F2750
G1 X645.8998 Y2274.8945 Z-21.0000 F2750
G1 X643.8978 Y2274.8945 Z-21.0000 F2750
G1 X643.8978 Y2279.8944 Z-21.0000 F2750
G1 X575.9000 Y2279.8944 Z-21.0000 F2750
G1 X575.9000 Y2274.8945 Z-21.0000 F2750
G1 X573.8980 Y2274.8945 Z-21.0000 F2750
G1 X573.8980 Y2287.8944 Z-21.0000 F2750
G1 X568.8980 Y2287.8944 Z-21.0000 F2750
G1 X568.8980 Y2297.6445 Z-21.0000 F2750
G1 X521.0750 Y2297.6445 Z-21.0000 F2750
G1 X518.6982 Y2297.2697 Z-21.0000 F2750
G1 X516.1797 Y2295.9661 Z-21.0000 F2750
G1 X514.2186 Y2293.9170 Z-21.0000 F2750
G1 X513.0537 Y2291.4555 Z-21.0000 F2750
G1 X512.7023 Y2288.7552 Z-21.0000 F2750
G1 X513.2431 Y2285.9712 Z-21.0000 F2750
G1 X514.6564 Y2283.5122 Z-21.0000 F2750
G1 X516.9301 Y2281.4864 Z-21.0000 F2750
G1 X517.0905 Y2281.2307 Z-21.0000 F2750
G1 X517.1759 Y2280.9316 Z-21.0000 F2750
G1 X517.1738 Y2280.6237 Z-21.0000 F2750
G1 X517.0898 Y2280.3377 Z-21.0000 F2750
G1 X516.9250 Y2280.0776 Z-21.0000 F2750
G1 X516.6913 Y2279.8722 Z-21.0000 F2750
G1 X516.4181 Y2279.7440 Z-21.0000 F2750
G1 X515.7868 Y2279.6445 Z-21.0000 F2750
G1 X452.6932 Y2279.6445 Z-21.0000 F2750
G1 X452.0036 Y2279.7452 Z-21.0000 F2750
G1 X451.6663 Y2279.8919 Z-21.0000 F2750
G1 X451.3705 Y2280.1259 Z-21.0000 F2750
G1 X451.1471 Y2280.4258 Z-21.0000 F2750
G1 X451.0109 Y2280.7632 Z-21.0000 F2750
G1 X450.9635 Y2281.1342 Z-21.0000 F2750
G1 X451.0139 Y2281.5080 Z-21.0000 F2750
G1 X451.1548 Y2281.8477 Z-21.0000 F2750
G1 X453.0060 Y2284.2412 Z-21.0000 F2750
G1 X453.9666 Y2286.7809 Z-21.0000 F2750
G1 X454.1247 Y2289.4922 Z-21.0000 F2750
G1 X453.5045 Y2292.0407 Z-21.0000 F2750
G1 X452.1815 Y2294.3051 Z-21.0000 F2750
G1 X450.1857 Y2296.1466 Z-21.0000 F2750
G1 X447.7311 Y2297.3078 Z-21.0000 F2750
G1 X445.4265 Y2297.6445 Z-21.0000 F2750
G1 X381.1253 Y2297.6445 Z-21.0000 F2750
G1 X378.7482 Y2297.2697 Z-21.0000 F2750
G1 X376.2299 Y2295.9659 Z-21.0000 F2750
G1 X374.2689 Y2293.9170 Z-21.0000 F2750
G1 X373.1040 Y2291.4554 Z-21.0000 F2750
G1 X372.7527 Y2288.7552 Z-21.0000 F2750
G1 X373.2934 Y2285.9712 Z-21.0000 F2750
G1 X374.7067 Y2283.5123 Z-21.0000 F2750
G1 X376.9803 Y2281.4863 Z-21.0000 F2750
G1 X377.1408 Y2281.2307 Z-21.0000 F2750
G1 X377.2263 Y2280.9316 Z-21.0000 F2750
G1 X377.2242 Y2280.6237 Z-21.0000 F2750
G1 X377.1402 Y2280.3376 Z-21.0000 F2750
G1 X376.9754 Y2280.0775 Z-21.0000 F2750
G1 X376.7417 Y2279.8722 Z-21.0000 F2750
G1 X376.4684 Y2279.7440 Z-21.0000 F2750
G1 X375.8371 Y2279.6445 Z-21.0000 F2750
G1 X312.7435 Y2279.6445 Z-21.0000 F2750
G1 X312.0537 Y2279.7452 Z-21.0000 F2750
G1 X311.7165 Y2279.8919 Z-21.0000 F2750
G1 X311.4207 Y2280.1260 Z-21.0000 F2750
G1 X311.1973 Y2280.4259 Z-21.0000 F2750
G1 X311.0611 Y2280.7634 Z-21.0000 F2750
G1 X311.0138 Y2281.1343 Z-21.0000 F2750
G1 X311.0642 Y2281.5081 Z-21.0000 F2750
G1 X311.2052 Y2281.8478 Z-21.0000 F2750
G1 X313.0563 Y2284.2411 Z-21.0000 F2750
G1 X314.0171 Y2286.7812 Z-21.0000 F2750
G1 X314.1746 Y2289.4925 Z-21.0000 F2750
G1 X313.5547 Y2292.0403 Z-21.0000 F2750
G1 X312.2321 Y2294.3048 Z-21.0000 F2750
G1 X310.2360 Y2296.1467 Z-21.0000 F2750
G1 X307.7809 Y2297.3078 Z-21.0000 F2750
G1 X305.4769 Y2297.6445 Z-21.0000 F2750
G1 X241.1753 Y2297.6445 Z-21.0000 F2750
G1 X238.7988 Y2297.2697 Z-21.0000 F2750
G1 X236.2803 Y2295.9661 Z-21.0000 F2750
G1 X234.3192 Y2293.9170 Z-21.0000 F2750
G1 X233.1543 Y2291.4554 Z-21.0000 F2750
G1 X232.8030 Y2288.7551 Z-21.0000 F2750
G1 X233.3438 Y2285.9712 Z-21.0000 F2750
G1 X234.7569 Y2283.5123 Z-21.0000 F2750
G1 X237.0306 Y2281.4863 Z-21.0000 F2750
G1 X237.1911 Y2281.2306 Z-21.0000 F2750
G1 X237.2766 Y2280.9316 Z-21.0000 F2750
G1 X237.2745 Y2280.6236 Z-21.0000 F2750
G1 X237.1905 Y2280.3376 Z-21.0000 F2750
G1 X237.0256 Y2280.0775 Z-21.0000 F2750
G1 X236.7920 Y2279.8722 Z-21.0000 F2750
G1 X236.5187 Y2279.7440 Z-21.0000 F2750
G1 X235.8874 Y2279.6445 Z-21.0000 F2750
G1 X172.7938 Y2279.6445 Z-21.0000 F2750
G1 X172.1040 Y2279.7452 Z-21.0000 F2750
G1 X171.7668 Y2279.8919 Z-21.0000 F2750
G1 X171.4710 Y2280.1259 Z-21.0000 F2750
G1 X171.2477 Y2280.4258 Z-21.0000 F2750
G1 X171.1115 Y2280.7633 Z-21.0000 F2750
G1 X171.0641 Y2281.1342 Z-21.0000 F2750
G1 X171.1146 Y2281.5080 Z-21.0000 F2750
G1 X171.2555 Y2281.8476 Z-21.0000 F2750
G1 X173.1067 Y2284.2413 Z-21.0000 F2750
G1 X174.0674 Y2286.7813 Z-21.0000 F2750
G1 X174.2249 Y2289.4925 Z-21.0000 F2750
G1 X173.6050 Y2292.0406 Z-21.0000 F2750
G1 X172.2821 Y2294.3048 Z-21.0000 F2750
G1 X170.2865 Y2296.1466 Z-21.0000 F2750
G1 X167.8313 Y2297.3078 Z-21.0000 F2750
G1 X165.5269 Y2297.6445 Z-21.0000 F2750
G1 X111.9009 Y2297.6445 Z-21.0000 F2750
G1 X111.9009 Y2274.8945 Z-21.0000 F2750
G1 X109.8990 Y2274.8945 Z-21.0000 F2750
G1 X109.8990 Y2279.8944 Z-21.0000 F2750
G1 X100.0094 Y2279.8944 Z-21.0000 F2750
G1 X98.5540 Y2279.6445 Z-21.0000 F2750
G1 X80.9010 Y2279.6445 Z-21.0000 F2750
G1 X80.9010 Y2200.8966 Z-21.0000 F2750
G1 X85.9010 Y2200.8966 Z-21.0000 F2750
G1 X85.9010 Y2198.8946 Z-21.0000 F2750
G1 X65.8990 Y2198.8946 Z-21.0000 F2750
G1 X65.8990 Y2200.8966 Z-21.0000 F2750
G1 X70.8990 Y2200.8966 Z-21.0000 F2750
G1 X70.8990 Y2279.6445 Z-21.0000 F2750
G1 X5.9010 Y2279.6445 Z-21.0000 F2750
G1 X5.9010 Y1142.7727 Z-21.0000 F2750
G1 X5.9010 Y1142.7727 Z10.0000 F9999
G1 X1900.0000 Y2800.0000 Z80.0000 F9999
G1 Z80.0000 F9999
G1 X1900.0000 Y2800.0000 F9999
M5
M30
