(plotsheet 2n3_nested_153 sheets_final v1_0_sheet 74 to 78_S74.0_10 screws_CC8 - stepover 1mm)
(Material Size) (X=1220.000, Y=2440.000, Z=21.000)
(LinuxCNC_NoArcs_MM_TC_medium_50um_G1_verbose.con)
G90 G80 G21 G49
G64 P0.050
M6 T1
(Tool Number:1) (7.998 mm dia. slot drill)
G43 H1 G0Z80.0000
M3 S19000
G04 P10
G1 X81.1033 Y81.2588 Z10.0000 F9999
G1 X81.1033 Y81.2588 Z2.0000 F9999
G1 X81.1033 Y81.2588 Z-1.0000 F2000
G1 X81.1033 Y81.2588 Z10.0000 F9999
G1 X590.1556 Y210.6789 Z10.0000 F9999
G1 X590.1556 Y210.6789 Z2.0000 F9999
G1 X590.1556 Y210.6789 Z-1.0000 F2000
G1 X590.1556 Y210.6789 Z10.0000 F9999
G1 X1009.4767 Y226.2093 Z10.0000 F9999
G1 X1009.4767 Y226.2093 Z2.0000 F9999
G1 X1009.4767 Y226.2093 Z-1.0000 F2000
G1 X1009.4767 Y226.2093 Z10.0000 F9999
G1 X864.5262 Y745.6153 Z10.0000 F9999
G1 X864.5262 Y745.6153 Z2.0000 F9999
G1 X864.5262 Y745.6153 Z-1.0000 F2000
G1 X864.5262 Y745.6153 Z10.0000 F9999
G1 X552.1924 Y747.3409 Z10.0000 F9999
G1 X552.1924 Y747.3409 Z2.0000 F9999
G1 X552.1924 Y747.3409 Z-1.0000 F2000
G1 X552.1924 Y747.3409 Z10.0000 F9999
G1 X136.3225 Y728.3593 Z10.0000 F9999
G1 X136.3225 Y728.3593 Z2.0000 F9999
G1 X136.3225 Y728.3593 Z-1.0000 F2000
G1 X136.3225 Y728.3593 Z10.0000 F9999
G1 X82.8289 Y1896.5912 Z10.0000 F9999
G1 X82.8289 Y1896.5912 Z2.0000 F9999
G1 X82.8289 Y1896.5912 Z-1.0000 F2000
G1 X82.8289 Y1896.5912 Z10.0000 F9999
G1 X354.3107 Y2266.0376 Z10.0000 F9999
G1 X354.3107 Y2266.0376 Z2.0000 F9999
G1 X354.3107 Y2266.0376 Z-1.0000 F2000
G1 X354.3107 Y2266.0376 Z10.0000 F9999
G1 X767.8925 Y2286.5771 Z10.0000 F9999
G1 X767.8925 Y2286.5771 Z2.0000 F9999
G1 X767.8925 Y2286.5771 Z-1.0000 F2000
G1 X767.8925 Y2286.5771 Z10.0000 F9999
G1 X1081.9519 Y1437.5813 Z10.0000 F9999
G1 X1081.9519 Y1437.5813 Z2.0000 F9999
G1 X1081.9519 Y1437.5813 Z-1.0000 F2000
G1 X1081.9519 Y1437.5813 Z10.0000 F9999
G1 X1900.0000 Y2800.0000 Z80.0000 F9999
G1 Z80.0000 F9999
G1 X1900.0000 Y2800.0000 F9999
M5
M30
