(plotsheet 2n3_nested_153 sheets_final v1_0_sheet 107a_S107.0_12 screws_CC8 - stepover 1mm)
(Material Size) (X=1220.000, Y=2440.000, Z=21.000)
(LinuxCNC_NoArcs_MM_TC_medium_50um_G1_verbose.con)
G90 G80 G21 G49
G64 P0.050
M6 T1
(Tool Number:1) (7.998 mm dia. slot drill)
G43 H1 G0Z80.0000
M3 S9000
G04 P10
G1 X717.8501 Y296.9590 Z10.0000 F9999
G1 X717.8501 Y296.9590 Z2.0000 F9999
G1 X717.8501 Y296.9590 Z-1.0000 F2500
G1 X717.8501 Y296.9590 Z10.0000 F9999
G1 X438.3027 Y869.8586 Z10.0000 F9999
G1 X438.3027 Y869.8586 Z2.0000 F9999
G1 X438.3027 Y869.8586 Z-1.0000 F2500
G1 X438.3027 Y869.8586 Z10.0000 F9999
G1 X84.5545 Y833.6209 Z10.0000 F9999
G1 X84.5545 Y833.6209 Z2.0000 F9999
G1 X84.5545 Y833.6209 Z-1.0000 F2500
G1 X84.5545 Y833.6209 Z10.0000 F9999
G1 X84.5545 Y1147.6803 Z10.0000 F9999
G1 X84.5545 Y1147.6803 Z2.0000 F9999
G1 X84.5545 Y1147.6803 Z-1.0000 F2500
G1 X84.5545 Y1147.6803 Z10.0000 F9999
G1 X84.5545 Y1496.2517 Z10.0000 F9999
G1 X84.5545 Y1496.2517 Z2.0000 F9999
G1 X84.5545 Y1496.2517 Z-1.0000 F2500
G1 X84.5545 Y1496.2517 Z10.0000 F9999
G1 X578.0764 Y1480.7213 Z10.0000 F9999
G1 X578.0764 Y1480.7213 Z2.0000 F9999
G1 X578.0764 Y1480.7213 Z-1.0000 F2500
G1 X578.0764 Y1480.7213 Z10.0000 F9999
G1 X728.2037 Y1201.1740 Z10.0000 F9999
G1 X728.2037 Y1201.1740 Z2.0000 F9999
G1 X728.2037 Y1201.1740 Z-1.0000 F2500
G1 X728.2037 Y1201.1740 Z10.0000 F9999
G1 X871.4286 Y1701.5983 Z10.0000 F9999
G1 X871.4286 Y1701.5983 Z2.0000 F9999
G1 X871.4286 Y1701.5983 Z-1.0000 F2500
G1 X871.4286 Y1701.5983 Z10.0000 F9999
G1 X891.0417 Y1962.3900 Z10.0000 F9999
G1 X891.0417 Y1962.3900 Z2.0000 F9999
G1 X891.0417 Y1962.3900 Z-1.0000 F2500
G1 X891.0417 Y1962.3900 Z10.0000 F9999
G1 X540.1132 Y2012.2065 Z10.0000 F9999
G1 X540.1132 Y2012.2065 Z2.0000 F9999
G1 X540.1132 Y2012.2065 Z-1.0000 F2500
G1 X540.1132 Y2012.2065 Z10.0000 F9999
G1 X232.9561 Y2055.3464 Z10.0000 F9999
G1 X232.9561 Y2055.3464 Z2.0000 F9999
G1 X232.9561 Y2055.3464 Z-1.0000 F2500
G1 X232.9561 Y2055.3464 Z10.0000 F9999
G1 X700.5941 Y2312.4612 Z10.0000 F9999
G1 X700.5941 Y2312.4612 Z2.0000 F9999
G1 X700.5941 Y2312.4612 Z-1.0000 F2500
G1 X700.5941 Y2312.4612 Z10.0000 F9999
G1 X1900.0000 Y2800.0000 Z80.0000 F9999
G1 Z80.0000 F9999
G1 X1900.0000 Y2800.0000 F9999
M5
M30
