(plotsheet 2n3_nested_153 sheets_final v1_0_sheet 86 to 87_S86.0_8 screws_CC9.53 - PCD - stepover 1mm)
(Material Size) (X=1220.000, Y=2440.000, Z=21.000)
(LinuxCNC_NoArcs_MM_TC_medium_50um_G1_verbose.con)
G90 G80 G21 G49
G64 P0.050
M6 T1
(Tool Number:1) (9.530 mm dia. slot drill)
G43 H1 G0Z80.0000
M3 S17444
G04 P10
G1 X76.3578 Y74.3564 Z10.0000 F9999
G1 X76.3578 Y74.3564 Z2.0000 F9999
G1 X76.3578 Y74.3564 Z-1.0000 F2500
G1 X76.3578 Y74.3564 Z10.0000 F9999
G1 X522.8571 Y395.3182 Z10.0000 F9999
G1 X522.8571 Y395.3182 Z2.0000 F9999
G1 X522.8571 Y395.3182 Z-1.0000 F2500
G1 X522.8571 Y395.3182 Z10.0000 F9999
G1 X521.1315 Y1001.0043 Z10.0000 F9999
G1 X521.1315 Y1001.0043 Z2.0000 F9999
G1 X521.1315 Y1001.0043 Z-1.0000 F2500
G1 X521.1315 Y1001.0043 Z10.0000 F9999
G1 X517.6804 Y1598.0623 Z10.0000 F9999
G1 X517.6804 Y1598.0623 Z2.0000 F9999
G1 X517.6804 Y1598.0623 Z-1.0000 F2500
G1 X517.6804 Y1598.0623 Z10.0000 F9999
G1 X526.3083 Y2202.0227 Z10.0000 F9999
G1 X526.3083 Y2202.0227 Z2.0000 F9999
G1 X526.3083 Y2202.0227 Z-1.0000 F2500
G1 X526.3083 Y2202.0227 Z10.0000 F9999
G1 X181.6195 Y2248.6138 Z10.0000 F9999
G1 X181.6195 Y2248.6138 Z2.0000 F9999
G1 X181.6195 Y2248.6138 Z-1.0000 F2500
G1 X181.6195 Y2248.6138 Z10.0000 F9999
G1 X1027.1641 Y2252.0652 Z10.0000 F9999
G1 X1027.1641 Y2252.0652 Z2.0000 F9999
G1 X1027.1641 Y2252.0652 Z-1.0000 F2500
G1 X1027.1641 Y2252.0652 Z10.0000 F9999
G1 X1151.4073 Y69.1796 Z10.0000 F9999
G1 X1151.4073 Y69.1796 Z2.0000 F9999
G1 X1151.4073 Y69.1796 Z-1.0000 F2500
G1 X1151.4073 Y69.1796 Z10.0000 F9999
G1 X1900.0000 Y2800.0000 Z80.0000 F9999
G1 Z80.0000 F9999
G1 X1900.0000 Y2800.0000 F9999
M5
M30
