(plotsheet 2n3_nested_153 sheets_final v1_0_sheet 141a_S141.0_10 screws_CC8 - stepover 1mm)
(Material Size) (X=1220.000, Y=2440.000, Z=20.000)
(LinuxCNC_NoArcs_MM_TC_medium_50um_G1_verbose.con)
G90 G80 G21 G49
G64 P0.050
M6 T1
(Tool Number:1) (7.998 mm dia. slot drill)
G43 H1 G0Z80.0000
M3 S9000
G04 P10
G1 X58.6704 Y57.5318 Z10.0000 F9999
G1 X58.6704 Y57.5318 Z2.0000 F9999
G1 X58.6704 Y57.5318 Z-1.0000 F2500
G1 X58.6704 Y57.5318 Z10.0000 F9999
G1 X446.9307 Y138.6351 Z10.0000 F9999
G1 X446.9307 Y138.6351 Z2.0000 F9999
G1 X446.9307 Y138.6351 Z-1.0000 F2500
G1 X446.9307 Y138.6351 Z10.0000 F9999
G1 X438.3027 Y402.6520 Z10.0000 F9999
G1 X438.3027 Y402.6520 Z2.0000 F9999
G1 X438.3027 Y402.6520 Z-1.0000 F2500
G1 X438.3027 Y402.6520 Z10.0000 F9999
G1 X438.3027 Y677.0226 Z10.0000 F9999
G1 X438.3027 Y677.0226 Z2.0000 F9999
G1 X438.3027 Y677.0226 Z-1.0000 F2500
G1 X438.3027 Y677.0226 Z10.0000 F9999
G1 X438.3027 Y949.6676 Z10.0000 F9999
G1 X438.3027 Y949.6676 Z2.0000 F9999
G1 X438.3027 Y949.6676 Z-1.0000 F2500
G1 X438.3027 Y949.6676 Z10.0000 F9999
G1 X434.8515 Y1224.0382 Z10.0000 F9999
G1 X434.8515 Y1224.0382 Z2.0000 F9999
G1 X434.8515 Y1224.0382 Z-1.0000 F2500
G1 X434.8515 Y1224.0382 Z10.0000 F9999
G1 X436.5771 Y1496.6832 Z10.0000 F9999
G1 X436.5771 Y1496.6832 Z2.0000 F9999
G1 X436.5771 Y1496.6832 Z-1.0000 F2500
G1 X436.5771 Y1496.6832 Z10.0000 F9999
G1 X434.8515 Y1769.3281 Z10.0000 F9999
G1 X434.8515 Y1769.3281 Z2.0000 F9999
G1 X434.8515 Y1769.3281 Z-1.0000 F2500
G1 X434.8515 Y1769.3281 Z10.0000 F9999
G1 X62.1216 Y1841.8033 Z10.0000 F9999
G1 X62.1216 Y1841.8033 Z2.0000 F9999
G1 X62.1216 Y1841.8033 Z-1.0000 F2500
G1 X62.1216 Y1841.8033 Z10.0000 F9999
G1 X1009.4767 Y54.0806 Z10.0000 F9999
G1 X1009.4767 Y54.0806 Z2.0000 F9999
G1 X1009.4767 Y54.0806 Z-1.0000 F2500
G1 X1009.4767 Y54.0806 Z10.0000 F9999
G1 X1900.0000 Y2800.0000 Z80.0000 F9999
G1 Z80.0000 F9999
G1 X1900.0000 Y2800.0000 F9999
M5
M30
