(plotsheet 2n3_nested_153 sheets_final v1_0_sheet 107a_S107.1_text_CC8 - stepover 1mm)
(Material Size) (X=1220.000, Y=2440.000, Z=21.000)
(LinuxCNC_NoArcs_MM_TC_medium_50um_G1_verbose.con)
G90 G80 G21 G49
G64 P0.050
M6 T1
(Tool Number:1) (7.998 mm dia. slot drill)
G43 H1 G0Z80.0000
M3 S18000
G04 P10
G1 X393.9265 Y299.6342 Z10.0000 F9999
G1 X393.9265 Y299.6342 Z-1.0000 F2500
G1 X408.3669 Y299.6342 Z-1.0000 F4000
G1 X393.9265 Y299.6342 Z-1.0000 F4000
G1 X393.9265 Y317.9278 Z-1.0000 F4000
G1 X409.0458 Y317.9278 Z-1.0000 F4000
G1 X393.9265 Y317.9278 Z-1.0000 F4000
G1 X393.9265 Y276.8269 Z-1.0000 F4000
G1 X393.9265 Y276.8269 Z10.0000 F9999
G1 X437.0824 Y276.8269 Z10.0000 F9999
G1 X437.0824 Y276.8269 Z-1.0000 F2500
G1 X424.4586 Y276.8269 Z-1.0000 F4000
G1 X424.4586 Y317.9278 Z-1.0000 F4000
G1 X424.4586 Y276.8269 Z-1.0000 F4000
G1 X424.4586 Y276.8269 Z10.0000 F9999
G1 X469.0458 Y276.8269 Z10.0000 F9999
G1 X469.0458 Y276.8269 Z-1.0000 F2500
G1 X460.8439 Y278.4232 Z-1.0000 F4000
G1 X454.1100 Y282.8269 Z-1.0000 F4000
G1 X449.5412 Y289.3590 Z-1.0000 F4000
G1 X447.8531 Y297.3406 Z-1.0000 F4000
G1 X449.5412 Y305.3223 Z-1.0000 F4000
G1 X454.1100 Y311.8727 Z-1.0000 F4000
G1 X460.8439 Y316.2947 Z-1.0000 F4000
G1 X469.0458 Y317.9278 Z-1.0000 F4000
G1 X477.3026 Y316.2947 Z-1.0000 F4000
G1 X484.0366 Y311.8727 Z-1.0000 F4000
G1 X488.5687 Y305.3223 Z-1.0000 F4000
G1 X490.2384 Y297.3406 Z-1.0000 F4000
G1 X488.5687 Y289.3590 Z-1.0000 F4000
G1 X484.0366 Y282.8269 Z-1.0000 F4000
G1 X477.3026 Y278.4232 Z-1.0000 F4000
G1 X469.0458 Y276.8269 Z-1.0000 F4000
G1 X460.8439 Y278.4232 Z-1.0000 F4000
G1 X454.1100 Y282.8269 Z-1.0000 F4000
G1 X449.5412 Y289.3590 Z-1.0000 F4000
G1 X447.8531 Y297.3406 Z-1.0000 F4000
G1 X449.5412 Y305.3223 Z-1.0000 F4000
G1 X454.1100 Y311.8727 Z-1.0000 F4000
G1 X460.8439 Y316.2947 Z-1.0000 F4000
G1 X469.0458 Y317.9278 Z-1.0000 F4000
G1 X477.3026 Y316.2947 Z-1.0000 F4000
G1 X484.0366 Y311.8727 Z-1.0000 F4000
G1 X488.5687 Y305.3223 Z-1.0000 F4000
G1 X490.2384 Y297.3406 Z-1.0000 F4000
G1 X488.5687 Y289.3590 Z-1.0000 F4000
G1 X484.0366 Y282.8269 Z-1.0000 F4000
G1 X477.3026 Y278.4232 Z-1.0000 F4000
G1 X469.0458 Y276.8269 Z-1.0000 F4000
G1 X469.0458 Y276.8269 Z10.0000 F9999
G1 X523.0641 Y276.8269 Z10.0000 F9999
G1 X523.0641 Y276.8269 Z-1.0000 F2500
G1 X514.8623 Y278.4232 Z-1.0000 F4000
G1 X508.1283 Y282.8269 Z-1.0000 F4000
G1 X503.5595 Y289.3590 Z-1.0000 F4000
G1 X501.8714 Y297.3406 Z-1.0000 F4000
G1 X503.5595 Y305.3223 Z-1.0000 F4000
G1 X508.1283 Y311.8727 Z-1.0000 F4000
G1 X514.8623 Y316.2947 Z-1.0000 F4000
G1 X523.0641 Y317.9278 Z-1.0000 F4000
G1 X531.3210 Y316.2947 Z-1.0000 F4000
G1 X538.0549 Y311.8727 Z-1.0000 F4000
G1 X542.5870 Y305.3223 Z-1.0000 F4000
G1 X544.2568 Y297.3406 Z-1.0000 F4000
G1 X542.5870 Y289.3590 Z-1.0000 F4000
G1 X538.0549 Y282.8269 Z-1.0000 F4000
G1 X531.3210 Y278.4232 Z-1.0000 F4000
G1 X523.0641 Y276.8269 Z-1.0000 F4000
G1 X514.8623 Y278.4232 Z-1.0000 F4000
G1 X508.1283 Y282.8269 Z-1.0000 F4000
G1 X503.5595 Y289.3590 Z-1.0000 F4000
G1 X501.8714 Y297.3406 Z-1.0000 F4000
G1 X503.5595 Y305.3223 Z-1.0000 F4000
G1 X508.1283 Y311.8727 Z-1.0000 F4000
G1 X514.8623 Y316.2947 Z-1.0000 F4000
G1 X523.0641 Y317.9278 Z-1.0000 F4000
G1 X531.3210 Y316.2947 Z-1.0000 F4000
G1 X538.0549 Y311.8727 Z-1.0000 F4000
G1 X542.5870 Y305.3223 Z-1.0000 F4000
G1 X544.2568 Y297.3406 Z-1.0000 F4000
G1 X542.5870 Y289.3590 Z-1.0000 F4000
G1 X538.0549 Y282.8269 Z-1.0000 F4000
G1 X531.3210 Y278.4232 Z-1.0000 F4000
G1 X523.0641 Y276.8269 Z-1.0000 F4000
G1 X523.0641 Y276.8269 Z10.0000 F9999
G1 X560.6788 Y276.8269 Z10.0000 F9999
G1 X560.6788 Y276.8269 Z-1.0000 F2500
G1 X560.6788 Y317.9278 Z-1.0000 F4000
G1 X567.8347 Y317.9278 Z-1.0000 F4000
G1 X571.7063 Y317.3223 Z-1.0000 F4000
G1 X574.9173 Y315.5058 Z-1.0000 F4000
G1 X577.1375 Y312.3498 Z-1.0000 F4000
G1 X577.9815 Y307.7076 Z-1.0000 F4000
G1 X576.8256 Y303.0287 Z-1.0000 F4000
G1 X574.0549 Y299.7076 Z-1.0000 F4000
G1 X570.7338 Y297.7443 Z-1.0000 F4000
G1 X567.8347 Y297.0837 Z-1.0000 F4000
G1 X560.6788 Y297.0837 Z-1.0000 F4000
G1 X567.8347 Y297.0837 Z-1.0000 F4000
G1 X570.7338 Y297.7443 Z-1.0000 F4000
G1 X574.0549 Y299.7076 Z-1.0000 F4000
G1 X576.8256 Y303.0287 Z-1.0000 F4000
G1 X577.9815 Y307.7076 Z-1.0000 F4000
G1 X577.1375 Y312.3498 Z-1.0000 F4000
G1 X574.9173 Y315.5058 Z-1.0000 F4000
G1 X571.7063 Y317.3223 Z-1.0000 F4000
G1 X567.8347 Y317.9278 Z-1.0000 F4000
G1 X560.6788 Y317.9278 Z-1.0000 F4000
G1 X560.6788 Y317.9278 Z10.0000 F9999
G1 X578.0916 Y276.8269 Z10.0000 F9999
G1 X578.0916 Y276.8269 Z-1.0000 F2500
G1 X564.8623 Y296.9736 Z-1.0000 F4000
G1 X578.0916 Y276.8269 Z-1.0000 F4000
G1 X578.0916 Y276.8269 Z10.0000 F9999
G1 X619.1558 Y327.3223 Z10.0000 F9999
G1 X619.1558 Y327.3223 Z-1.0000 F2500
G1 X588.7705 Y274.4782 Z-1.0000 F4000
G1 X619.1558 Y327.3223 Z-1.0000 F4000
G1 X619.1558 Y327.3223 Z10.0000 F9999
G1 X635.7980 Y317.9278 Z10.0000 F9999
G1 X635.7980 Y317.9278 Z-1.0000 F2500
G1 X654.0549 Y276.8269 Z-1.0000 F4000
G1 X672.3118 Y317.9278 Z-1.0000 F4000
G1 X675.8714 Y276.8269 Z-1.0000 F4000
G1 X672.3118 Y317.9278 Z-1.0000 F4000
G1 X654.0549 Y276.8269 Z-1.0000 F4000
G1 X635.7980 Y317.9278 Z-1.0000 F4000
G1 X632.2935 Y276.8269 Z-1.0000 F4000
G1 X632.2935 Y276.8269 Z10.0000 F9999
G1 X571.3450 Y814.2076 Z10.0000 F9999
G1 X571.3450 Y814.2076 Z-1.0000 F2500
G1 X561.1341 Y824.4185 Z-1.0000 F4000
G1 X571.3450 Y814.2076 Z-1.0000 F4000
G1 X558.4095 Y801.2721 Z-1.0000 F4000
G1 X547.7185 Y811.9630 Z-1.0000 F4000
G1 X558.4095 Y801.2721 Z-1.0000 F4000
G1 X587.4722 Y830.3348 Z-1.0000 F4000
G1 X587.4722 Y830.3348 Z10.0000 F9999
G1 X565.8828 Y851.9243 Z10.0000 F9999
G1 X565.8828 Y851.9243 Z-1.0000 F2500
G1 X536.8200 Y822.8616 Z-1.0000 F4000
G1 X531.7600 Y827.9216 Z-1.0000 F4000
G1 X529.4505 Y831.0874 Z-1.0000 F4000
G1 X528.4645 Y834.6423 Z-1.0000 F4000
G1 X529.1262 Y838.4439 Z-1.0000 F4000
G1 X531.8119 Y842.3232 Z-1.0000 F4000
G1 X535.9378 Y844.8143 Z-1.0000 F4000
G1 X540.2453 Y845.2035 Z-1.0000 F4000
G1 X543.9819 Y844.2434 Z-1.0000 F4000
G1 X546.4989 Y842.6605 Z-1.0000 F4000
G1 X551.5590 Y837.6005 Z-1.0000 F4000
G1 X546.4989 Y842.6605 Z-1.0000 F4000
G1 X543.9819 Y844.2434 Z-1.0000 F4000
G1 X540.2453 Y845.2035 Z-1.0000 F4000
G1 X535.9378 Y844.8143 Z-1.0000 F4000
G1 X531.8119 Y842.3232 Z-1.0000 F4000
G1 X529.1262 Y838.4439 Z-1.0000 F4000
G1 X528.4645 Y834.6423 Z-1.0000 F4000
G1 X529.4505 Y831.0874 Z-1.0000 F4000
G1 X531.7600 Y827.9216 Z-1.0000 F4000
G1 X536.8200 Y822.8616 Z-1.0000 F4000
G1 X536.8200 Y822.8616 Z10.0000 F9999
G1 X505.6295 Y854.0521 Z10.0000 F9999
G1 X505.6295 Y854.0521 Z-1.0000 F2500
G1 X523.3396 Y894.4675 Z-1.0000 F4000
G1 X505.6295 Y854.0521 Z-1.0000 F4000
G1 X546.0189 Y871.7882 Z-1.0000 F4000
G1 X546.0189 Y871.7882 Z10.0000 F9999
G1 X553.5700 Y864.2370 Z10.0000 F9999
G1 X553.5700 Y864.2370 Z-1.0000 F2500
G1 X548.6787 Y840.6365 Z-1.0000 F4000
G1 X553.5700 Y864.2370 Z-1.0000 F4000
G1 X553.5700 Y864.2370 Z10.0000 F9999
G1 X517.0081 Y880.0140 Z10.0000 F9999
G1 X517.0081 Y880.0140 Z-1.0000 F2500
G1 X531.6432 Y865.3788 Z-1.0000 F4000
G1 X517.0081 Y880.0140 Z-1.0000 F4000
G1 X517.0081 Y880.0140 Z10.0000 F9999
G1 X477.1765 Y905.7552 Z10.0000 F9999
G1 X477.1765 Y905.7552 Z-1.0000 F2500
G1 X497.8578 Y885.0740 Z-1.0000 F4000
G1 X477.1765 Y905.7552 Z-1.0000 F4000
G1 X477.1765 Y905.7552 Z10.0000 F9999
G1 X446.6736 Y913.0079 Z10.0000 F9999
G1 X446.6736 Y913.0079 Z-1.0000 F2500
G1 X464.3837 Y953.4233 Z-1.0000 F4000
G1 X446.6736 Y913.0079 Z-1.0000 F4000
G1 X487.0631 Y930.7440 Z-1.0000 F4000
G1 X487.0631 Y930.7440 Z10.0000 F9999
G1 X458.0522 Y938.9698 Z10.0000 F9999
G1 X458.0522 Y938.9698 Z-1.0000 F2500
G1 X472.6874 Y924.3346 Z-1.0000 F4000
G1 X458.0522 Y938.9698 Z-1.0000 F4000
G1 X458.0522 Y938.9698 Z10.0000 F9999
G1 X399.1483 Y947.2475 Z10.0000 F9999
G1 X399.1483 Y947.2475 Z-1.0000 F2500
G1 X458.0003 Y963.1282 Z-1.0000 F4000
G1 X399.1483 Y947.2475 Z-1.0000 F4000
G1 X399.1483 Y947.2475 Z10.0000 F9999
G1 X407.7633 Y977.7893 Z10.0000 F9999
G1 X407.7633 Y977.7893 Z-1.0000 F2500
G1 X397.5524 Y988.0002 Z-1.0000 F4000
G1 X407.7633 Y977.7893 Z-1.0000 F4000
G1 X394.8278 Y964.8538 Z-1.0000 F4000
G1 X384.1369 Y975.5447 Z-1.0000 F4000
G1 X394.8278 Y964.8538 Z-1.0000 F4000
G1 X423.8905 Y993.9165 Z-1.0000 F4000
G1 X423.8905 Y993.9165 Z10.0000 F9999
G1 X360.9256 Y998.7560 Z10.0000 F9999
G1 X360.9256 Y998.7560 Z-1.0000 F2500
G1 X400.2381 Y1006.6704 Z-1.0000 F4000
G1 X379.8683 Y1027.0403 Z-1.0000 F4000
G1 X400.2381 Y1006.6704 Z-1.0000 F4000
G1 X360.9256 Y998.7560 Z-1.0000 F4000
G1 X389.9883 Y1027.8187 Z-1.0000 F4000
G1 X389.9883 Y1027.8187 Z10.0000 F9999
G1 X102.1659 Y1014.9903 Z10.0000 F9999
G1 X102.1659 Y1014.9903 Z-1.0000 F2500
G1 X105.2117 Y1016.9353 Z-1.0000 F4000
G1 X107.2668 Y1019.3573 Z-1.0000 F4000
G1 X108.5145 Y1022.4765 Z-1.0000 F4000
G1 X108.9916 Y1026.6050 Z-1.0000 F4000
G1 X108.5328 Y1031.1004 Z-1.0000 F4000
G1 X106.7897 Y1034.9169 Z-1.0000 F4000
G1 X103.7989 Y1037.5958 Z-1.0000 F4000
G1 X99.6338 Y1038.7151 Z-1.0000 F4000
G1 X95.6338 Y1038.1830 Z-1.0000 F4000
G1 X92.9549 Y1036.6417 Z-1.0000 F4000
G1 X91.2668 Y1034.6050 Z-1.0000 F4000
G1 X90.1659 Y1032.6967 Z-1.0000 F4000
G1 X85.4319 Y1023.5041 Z-1.0000 F4000
G1 X84.0191 Y1021.1371 Z-1.0000 F4000
G1 X82.3677 Y1019.2839 Z-1.0000 F4000
G1 X80.1842 Y1018.0362 Z-1.0000 F4000
G1 X77.3035 Y1017.5224 Z-1.0000 F4000
G1 X74.0191 Y1018.0545 Z-1.0000 F4000
G1 X70.9916 Y1019.8894 Z-1.0000 F4000
G1 X68.7714 Y1023.0270 Z-1.0000 F4000
G1 X67.8906 Y1027.3940 Z-1.0000 F4000
G1 X68.5695 Y1031.6508 Z-1.0000 F4000
G1 X70.0374 Y1034.4949 Z-1.0000 F4000
G1 X72.1842 Y1036.5866 Z-1.0000 F4000
G1 X70.0374 Y1034.4949 Z-1.0000 F4000
G1 X68.5695 Y1031.6508 Z-1.0000 F4000
G1 X67.8906 Y1027.3940 Z-1.0000 F4000
G1 X68.7714 Y1023.0270 Z-1.0000 F4000
G1 X70.9916 Y1019.8894 Z-1.0000 F4000
G1 X74.0191 Y1018.0545 Z-1.0000 F4000
G1 X77.3035 Y1017.5224 Z-1.0000 F4000
G1 X80.1842 Y1018.0362 Z-1.0000 F4000
G1 X82.3677 Y1019.2839 Z-1.0000 F4000
G1 X84.0191 Y1021.1371 Z-1.0000 F4000
G1 X85.4319 Y1023.5041 Z-1.0000 F4000
G1 X90.1659 Y1032.6967 Z-1.0000 F4000
G1 X91.2668 Y1034.6050 Z-1.0000 F4000
G1 X92.9549 Y1036.6417 Z-1.0000 F4000
G1 X95.6338 Y1038.1830 Z-1.0000 F4000
G1 X99.6338 Y1038.7151 Z-1.0000 F4000
G1 X103.7989 Y1037.5958 Z-1.0000 F4000
G1 X106.7897 Y1034.9169 Z-1.0000 F4000
G1 X108.5328 Y1031.1004 Z-1.0000 F4000
G1 X108.9916 Y1026.6050 Z-1.0000 F4000
G1 X108.5145 Y1022.4765 Z-1.0000 F4000
G1 X107.2668 Y1019.3573 Z-1.0000 F4000
G1 X105.2117 Y1016.9353 Z-1.0000 F4000
G1 X105.2117 Y1016.9353 Z10.0000 F9999
G1 X102.1659 Y1091.3206 Z10.0000 F9999
G1 X102.1659 Y1091.3206 Z-1.0000 F2500
G1 X105.2117 Y1093.2655 Z-1.0000 F4000
G1 X107.2668 Y1095.6875 Z-1.0000 F4000
G1 X108.5145 Y1098.8068 Z-1.0000 F4000
G1 X108.9916 Y1102.9353 Z-1.0000 F4000
G1 X108.5328 Y1107.4307 Z-1.0000 F4000
G1 X106.7897 Y1111.2472 Z-1.0000 F4000
G1 X103.7989 Y1113.9261 Z-1.0000 F4000
G1 X99.6338 Y1115.0453 Z-1.0000 F4000
G1 X95.6338 Y1114.5132 Z-1.0000 F4000
G1 X92.9549 Y1112.9719 Z-1.0000 F4000
G1 X91.2668 Y1110.9353 Z-1.0000 F4000
G1 X90.1659 Y1109.0270 Z-1.0000 F4000
G1 X85.4319 Y1099.8343 Z-1.0000 F4000
G1 X84.0191 Y1097.4674 Z-1.0000 F4000
G1 X82.3677 Y1095.6142 Z-1.0000 F4000
G1 X80.1842 Y1094.3664 Z-1.0000 F4000
G1 X77.3035 Y1093.8527 Z-1.0000 F4000
G1 X74.0191 Y1094.3848 Z-1.0000 F4000
G1 X70.9916 Y1096.2197 Z-1.0000 F4000
G1 X68.7714 Y1099.3573 Z-1.0000 F4000
G1 X67.8906 Y1103.7242 Z-1.0000 F4000
G1 X68.5695 Y1107.9811 Z-1.0000 F4000
G1 X70.0374 Y1110.8252 Z-1.0000 F4000
G1 X72.1842 Y1112.9169 Z-1.0000 F4000
G1 X70.0374 Y1110.8252 Z-1.0000 F4000
G1 X68.5695 Y1107.9811 Z-1.0000 F4000
G1 X67.8906 Y1103.7242 Z-1.0000 F4000
G1 X68.7714 Y1099.3573 Z-1.0000 F4000
G1 X70.9916 Y1096.2197 Z-1.0000 F4000
G1 X74.0191 Y1094.3848 Z-1.0000 F4000
G1 X77.3035 Y1093.8527 Z-1.0000 F4000
G1 X80.1842 Y1094.3664 Z-1.0000 F4000
G1 X82.3677 Y1095.6142 Z-1.0000 F4000
G1 X84.0191 Y1097.4674 Z-1.0000 F4000
G1 X85.4319 Y1099.8343 Z-1.0000 F4000
G1 X90.1659 Y1109.0270 Z-1.0000 F4000
G1 X91.2668 Y1110.9353 Z-1.0000 F4000
G1 X92.9549 Y1112.9719 Z-1.0000 F4000
G1 X95.6338 Y1114.5132 Z-1.0000 F4000
G1 X99.6338 Y1115.0453 Z-1.0000 F4000
G1 X103.7989 Y1113.9261 Z-1.0000 F4000
G1 X106.7897 Y1111.2472 Z-1.0000 F4000
G1 X108.5328 Y1107.4307 Z-1.0000 F4000
G1 X108.9916 Y1102.9353 Z-1.0000 F4000
G1 X108.5145 Y1098.8068 Z-1.0000 F4000
G1 X107.2668 Y1095.6875 Z-1.0000 F4000
G1 X105.2117 Y1093.2655 Z-1.0000 F4000
G1 X105.2117 Y1093.2655 Z10.0000 F9999
G1 X58.4961 Y1080.6050 Z10.0000 F9999
G1 X58.4961 Y1080.6050 Z-1.0000 F2500
G1 X111.3402 Y1050.2197 Z-1.0000 F4000
G1 X58.4961 Y1080.6050 Z-1.0000 F4000
G1 X58.4961 Y1080.6050 Z10.0000 F9999
G1 X102.1659 Y1368.8864 Z10.0000 F9999
G1 X102.1659 Y1368.8864 Z-1.0000 F2500
G1 X105.2117 Y1370.8313 Z-1.0000 F4000
G1 X107.2668 Y1373.2533 Z-1.0000 F4000
G1 X108.5145 Y1376.3726 Z-1.0000 F4000
G1 X108.9916 Y1380.5010 Z-1.0000 F4000
G1 X108.5328 Y1384.9965 Z-1.0000 F4000
G1 X106.7897 Y1388.8130 Z-1.0000 F4000
G1 X103.7989 Y1391.4919 Z-1.0000 F4000
G1 X99.6338 Y1392.6111 Z-1.0000 F4000
G1 X95.6338 Y1392.0790 Z-1.0000 F4000
G1 X92.9549 Y1390.5377 Z-1.0000 F4000
G1 X91.2668 Y1388.5010 Z-1.0000 F4000
G1 X90.1659 Y1386.5928 Z-1.0000 F4000
G1 X85.4319 Y1377.4001 Z-1.0000 F4000
G1 X84.0191 Y1375.0331 Z-1.0000 F4000
G1 X82.3677 Y1373.1799 Z-1.0000 F4000
G1 X80.1842 Y1371.9322 Z-1.0000 F4000
G1 X77.3035 Y1371.4185 Z-1.0000 F4000
G1 X74.0191 Y1371.9506 Z-1.0000 F4000
G1 X70.9916 Y1373.7854 Z-1.0000 F4000
G1 X68.7714 Y1376.9231 Z-1.0000 F4000
G1 X67.8906 Y1381.2900 Z-1.0000 F4000
G1 X68.5695 Y1385.5469 Z-1.0000 F4000
G1 X70.0374 Y1388.3909 Z-1.0000 F4000
G1 X72.1842 Y1390.4827 Z-1.0000 F4000
G1 X70.0374 Y1388.3909 Z-1.0000 F4000
G1 X68.5695 Y1385.5469 Z-1.0000 F4000
G1 X67.8906 Y1381.2900 Z-1.0000 F4000
G1 X68.7714 Y1376.9231 Z-1.0000 F4000
G1 X70.9916 Y1373.7854 Z-1.0000 F4000
G1 X74.0191 Y1371.9506 Z-1.0000 F4000
G1 X77.3035 Y1371.4185 Z-1.0000 F4000
G1 X80.1842 Y1371.9322 Z-1.0000 F4000
G1 X82.3677 Y1373.1799 Z-1.0000 F4000
G1 X84.0191 Y1375.0331 Z-1.0000 F4000
G1 X85.4319 Y1377.4001 Z-1.0000 F4000
G1 X90.1659 Y1386.5928 Z-1.0000 F4000
G1 X91.2668 Y1388.5010 Z-1.0000 F4000
G1 X92.9549 Y1390.5377 Z-1.0000 F4000
G1 X95.6338 Y1392.0790 Z-1.0000 F4000
G1 X99.6338 Y1392.6111 Z-1.0000 F4000
G1 X103.7989 Y1391.4919 Z-1.0000 F4000
G1 X106.7897 Y1388.8130 Z-1.0000 F4000
G1 X108.5328 Y1384.9965 Z-1.0000 F4000
G1 X108.9916 Y1380.5010 Z-1.0000 F4000
G1 X108.5145 Y1376.3726 Z-1.0000 F4000
G1 X107.2668 Y1373.2533 Z-1.0000 F4000
G1 X105.2117 Y1370.8313 Z-1.0000 F4000
G1 X105.2117 Y1370.8313 Z10.0000 F9999
G1 X102.1659 Y1445.2166 Z10.0000 F9999
G1 X102.1659 Y1445.2166 Z-1.0000 F2500
G1 X105.2117 Y1447.1616 Z-1.0000 F4000
G1 X107.2668 Y1449.5836 Z-1.0000 F4000
G1 X108.5145 Y1452.7029 Z-1.0000 F4000
G1 X108.9916 Y1456.8313 Z-1.0000 F4000
G1 X108.5328 Y1461.3267 Z-1.0000 F4000
G1 X106.7897 Y1465.1432 Z-1.0000 F4000
G1 X103.7989 Y1467.8221 Z-1.0000 F4000
G1 X99.6338 Y1468.9414 Z-1.0000 F4000
G1 X95.6338 Y1468.4093 Z-1.0000 F4000
G1 X92.9549 Y1466.8680 Z-1.0000 F4000
G1 X91.2668 Y1464.8313 Z-1.0000 F4000
G1 X90.1659 Y1462.9231 Z-1.0000 F4000
G1 X85.4319 Y1453.7304 Z-1.0000 F4000
G1 X84.0191 Y1451.3634 Z-1.0000 F4000
G1 X82.3677 Y1449.5102 Z-1.0000 F4000
G1 X80.1842 Y1448.2625 Z-1.0000 F4000
G1 X77.3035 Y1447.7487 Z-1.0000 F4000
G1 X74.0191 Y1448.2809 Z-1.0000 F4000
G1 X70.9916 Y1450.1157 Z-1.0000 F4000
G1 X68.7714 Y1453.2533 Z-1.0000 F4000
G1 X67.8906 Y1457.6203 Z-1.0000 F4000
G1 X68.5695 Y1461.8772 Z-1.0000 F4000
G1 X70.0374 Y1464.7212 Z-1.0000 F4000
G1 X72.1842 Y1466.8130 Z-1.0000 F4000
G1 X70.0374 Y1464.7212 Z-1.0000 F4000
G1 X68.5695 Y1461.8772 Z-1.0000 F4000
G1 X67.8906 Y1457.6203 Z-1.0000 F4000
G1 X68.7714 Y1453.2533 Z-1.0000 F4000
G1 X70.9916 Y1450.1157 Z-1.0000 F4000
G1 X74.0191 Y1448.2809 Z-1.0000 F4000
G1 X77.3035 Y1447.7487 Z-1.0000 F4000
G1 X80.1842 Y1448.2625 Z-1.0000 F4000
G1 X82.3677 Y1449.5102 Z-1.0000 F4000
G1 X84.0191 Y1451.3634 Z-1.0000 F4000
G1 X85.4319 Y1453.7304 Z-1.0000 F4000
G1 X90.1659 Y1462.9231 Z-1.0000 F4000
G1 X91.2668 Y1464.8313 Z-1.0000 F4000
G1 X92.9549 Y1466.8680 Z-1.0000 F4000
G1 X95.6338 Y1468.4093 Z-1.0000 F4000
G1 X99.6338 Y1468.9414 Z-1.0000 F4000
G1 X103.7989 Y1467.8221 Z-1.0000 F4000
G1 X106.7897 Y1465.1432 Z-1.0000 F4000
G1 X108.5328 Y1461.3267 Z-1.0000 F4000
G1 X108.9916 Y1456.8313 Z-1.0000 F4000
G1 X108.5145 Y1452.7029 Z-1.0000 F4000
G1 X107.2668 Y1449.5836 Z-1.0000 F4000
G1 X105.2117 Y1447.1616 Z-1.0000 F4000
G1 X105.2117 Y1447.1616 Z10.0000 F9999
G1 X58.4961 Y1434.5010 Z10.0000 F9999
G1 X58.4961 Y1434.5010 Z-1.0000 F2500
G1 X111.3402 Y1404.1157 Z-1.0000 F4000
G1 X58.4961 Y1434.5010 Z-1.0000 F4000
G1 X58.4961 Y1434.5010 Z10.0000 F9999
G1 X551.2032 Y1418.2664 Z10.0000 F9999
G1 X551.2032 Y1418.2664 Z-1.0000 F2500
G1 X604.0473 Y1387.8811 Z-1.0000 F4000
G1 X551.2032 Y1418.2664 Z-1.0000 F4000
G1 X551.2032 Y1418.2664 Z10.0000 F9999
G1 X594.8730 Y1428.9820 Z10.0000 F9999
G1 X594.8730 Y1428.9820 Z-1.0000 F2500
G1 X597.9188 Y1430.9269 Z-1.0000 F4000
G1 X599.9739 Y1433.3490 Z-1.0000 F4000
G1 X601.2216 Y1436.4682 Z-1.0000 F4000
G1 X601.6986 Y1440.5967 Z-1.0000 F4000
G1 X601.2399 Y1445.0921 Z-1.0000 F4000
G1 X599.4968 Y1448.9086 Z-1.0000 F4000
G1 X596.5060 Y1451.5875 Z-1.0000 F4000
G1 X592.3408 Y1452.7068 Z-1.0000 F4000
G1 X588.3408 Y1452.1747 Z-1.0000 F4000
G1 X585.6619 Y1450.6334 Z-1.0000 F4000
G1 X583.9739 Y1448.5967 Z-1.0000 F4000
G1 X582.8730 Y1446.6884 Z-1.0000 F4000
G1 X578.1390 Y1437.4958 Z-1.0000 F4000
G1 X576.7262 Y1435.1288 Z-1.0000 F4000
G1 X575.0748 Y1433.2756 Z-1.0000 F4000
G1 X572.8913 Y1432.0279 Z-1.0000 F4000
G1 X570.0106 Y1431.5141 Z-1.0000 F4000
G1 X566.7262 Y1432.0462 Z-1.0000 F4000
G1 X563.6986 Y1433.8811 Z-1.0000 F4000
G1 X561.4785 Y1437.0187 Z-1.0000 F4000
G1 X560.5977 Y1441.3857 Z-1.0000 F4000
G1 X561.2766 Y1445.6425 Z-1.0000 F4000
G1 X562.7445 Y1448.4866 Z-1.0000 F4000
G1 X564.8913 Y1450.5783 Z-1.0000 F4000
G1 X562.7445 Y1448.4866 Z-1.0000 F4000
G1 X561.2766 Y1445.6425 Z-1.0000 F4000
G1 X560.5977 Y1441.3857 Z-1.0000 F4000
G1 X561.4785 Y1437.0187 Z-1.0000 F4000
G1 X563.6986 Y1433.8811 Z-1.0000 F4000
G1 X566.7262 Y1432.0462 Z-1.0000 F4000
G1 X570.0106 Y1431.5141 Z-1.0000 F4000
G1 X572.8913 Y1432.0279 Z-1.0000 F4000
G1 X575.0748 Y1433.2756 Z-1.0000 F4000
G1 X576.7262 Y1435.1288 Z-1.0000 F4000
G1 X578.1390 Y1437.4958 Z-1.0000 F4000
G1 X582.8730 Y1446.6884 Z-1.0000 F4000
G1 X583.9739 Y1448.5967 Z-1.0000 F4000
G1 X585.6619 Y1450.6334 Z-1.0000 F4000
G1 X588.3408 Y1452.1747 Z-1.0000 F4000
G1 X592.3408 Y1452.7068 Z-1.0000 F4000
G1 X596.5060 Y1451.5875 Z-1.0000 F4000
G1 X599.4968 Y1448.9086 Z-1.0000 F4000
G1 X601.2399 Y1445.0921 Z-1.0000 F4000
G1 X601.6986 Y1440.5967 Z-1.0000 F4000
G1 X601.2216 Y1436.4682 Z-1.0000 F4000
G1 X599.9739 Y1433.3490 Z-1.0000 F4000
G1 X597.9188 Y1430.9269 Z-1.0000 F4000
G1 X597.9188 Y1430.9269 Z10.0000 F9999
G1 X594.8730 Y1352.6517 Z10.0000 F9999
G1 X594.8730 Y1352.6517 Z-1.0000 F2500
G1 X597.9188 Y1354.5967 Z-1.0000 F4000
G1 X599.9739 Y1357.0187 Z-1.0000 F4000
G1 X601.2216 Y1360.1380 Z-1.0000 F4000
G1 X601.6986 Y1364.2664 Z-1.0000 F4000
G1 X601.2399 Y1368.7618 Z-1.0000 F4000
G1 X599.4968 Y1372.5783 Z-1.0000 F4000
G1 X596.5060 Y1375.2572 Z-1.0000 F4000
G1 X592.3408 Y1376.3765 Z-1.0000 F4000
G1 X588.3408 Y1375.8444 Z-1.0000 F4000
G1 X585.6619 Y1374.3031 Z-1.0000 F4000
G1 X583.9739 Y1372.2664 Z-1.0000 F4000
G1 X582.8730 Y1370.3581 Z-1.0000 F4000
G1 X578.1390 Y1361.1655 Z-1.0000 F4000
G1 X576.7262 Y1358.7985 Z-1.0000 F4000
G1 X575.0748 Y1356.9453 Z-1.0000 F4000
G1 X572.8913 Y1355.6976 Z-1.0000 F4000
G1 X570.0106 Y1355.1838 Z-1.0000 F4000
G1 X566.7262 Y1355.7159 Z-1.0000 F4000
G1 X563.6986 Y1357.5508 Z-1.0000 F4000
G1 X561.4785 Y1360.6884 Z-1.0000 F4000
G1 X560.5977 Y1365.0554 Z-1.0000 F4000
G1 X561.2766 Y1369.3123 Z-1.0000 F4000
G1 X562.7445 Y1372.1563 Z-1.0000 F4000
G1 X564.8913 Y1374.2480 Z-1.0000 F4000
G1 X562.7445 Y1372.1563 Z-1.0000 F4000
G1 X561.2766 Y1369.3123 Z-1.0000 F4000
G1 X560.5977 Y1365.0554 Z-1.0000 F4000
G1 X561.4785 Y1360.6884 Z-1.0000 F4000
G1 X563.6986 Y1357.5508 Z-1.0000 F4000
G1 X566.7262 Y1355.7159 Z-1.0000 F4000
G1 X570.0106 Y1355.1838 Z-1.0000 F4000
G1 X572.8913 Y1355.6976 Z-1.0000 F4000
G1 X575.0748 Y1356.9453 Z-1.0000 F4000
G1 X576.7262 Y1358.7985 Z-1.0000 F4000
G1 X578.1390 Y1361.1655 Z-1.0000 F4000
G1 X582.8730 Y1370.3581 Z-1.0000 F4000
G1 X583.9739 Y1372.2664 Z-1.0000 F4000
G1 X585.6619 Y1374.3031 Z-1.0000 F4000
G1 X588.3408 Y1375.8444 Z-1.0000 F4000
G1 X592.3408 Y1376.3765 Z-1.0000 F4000
G1 X596.5060 Y1375.2572 Z-1.0000 F4000
G1 X599.4968 Y1372.5783 Z-1.0000 F4000
G1 X601.2399 Y1368.7618 Z-1.0000 F4000
G1 X601.6986 Y1364.2664 Z-1.0000 F4000
G1 X601.2216 Y1360.1380 Z-1.0000 F4000
G1 X599.9739 Y1357.0187 Z-1.0000 F4000
G1 X597.9188 Y1354.5967 Z-1.0000 F4000
G1 X597.9188 Y1354.5967 Z10.0000 F9999
G1 X700.1969 Y1135.7451 Z10.0000 F9999
G1 X700.1969 Y1135.7451 Z-1.0000 F2500
G1 X753.0410 Y1105.3598 Z-1.0000 F4000
G1 X700.1969 Y1135.7451 Z-1.0000 F4000
G1 X700.1969 Y1135.7451 Z10.0000 F9999
G1 X743.8667 Y1146.4607 Z10.0000 F9999
G1 X743.8667 Y1146.4607 Z-1.0000 F2500
G1 X746.9125 Y1148.4057 Z-1.0000 F4000
G1 X748.9676 Y1150.8277 Z-1.0000 F4000
G1 X750.2153 Y1153.9470 Z-1.0000 F4000
G1 X750.6923 Y1158.0754 Z-1.0000 F4000
G1 X750.2336 Y1162.5708 Z-1.0000 F4000
G1 X748.4905 Y1166.3873 Z-1.0000 F4000
G1 X745.4997 Y1169.0662 Z-1.0000 F4000
G1 X741.3345 Y1170.1855 Z-1.0000 F4000
G1 X737.3345 Y1169.6534 Z-1.0000 F4000
G1 X734.6557 Y1168.1121 Z-1.0000 F4000
G1 X732.9676 Y1166.0754 Z-1.0000 F4000
G1 X731.8667 Y1164.1672 Z-1.0000 F4000
G1 X727.1327 Y1154.9745 Z-1.0000 F4000
G1 X725.7199 Y1152.6075 Z-1.0000 F4000
G1 X724.0685 Y1150.7543 Z-1.0000 F4000
G1 X721.8850 Y1149.5066 Z-1.0000 F4000
G1 X719.0043 Y1148.9928 Z-1.0000 F4000
G1 X715.7199 Y1149.5250 Z-1.0000 F4000
G1 X712.6923 Y1151.3598 Z-1.0000 F4000
G1 X710.4722 Y1154.4974 Z-1.0000 F4000
G1 X709.5914 Y1158.8644 Z-1.0000 F4000
G1 X710.2703 Y1163.1213 Z-1.0000 F4000
G1 X711.7382 Y1165.9653 Z-1.0000 F4000
G1 X713.8850 Y1168.0571 Z-1.0000 F4000
G1 X711.7382 Y1165.9653 Z-1.0000 F4000
G1 X710.2703 Y1163.1213 Z-1.0000 F4000
G1 X709.5914 Y1158.8644 Z-1.0000 F4000
G1 X710.4722 Y1154.4974 Z-1.0000 F4000
G1 X712.6923 Y1151.3598 Z-1.0000 F4000
G1 X715.7199 Y1149.5250 Z-1.0000 F4000
G1 X719.0043 Y1148.9928 Z-1.0000 F4000
G1 X721.8850 Y1149.5066 Z-1.0000 F4000
G1 X724.0685 Y1150.7543 Z-1.0000 F4000
G1 X725.7199 Y1152.6075 Z-1.0000 F4000
G1 X727.1327 Y1154.9745 Z-1.0000 F4000
G1 X731.8667 Y1164.1672 Z-1.0000 F4000
G1 X732.9676 Y1166.0754 Z-1.0000 F4000
G1 X734.6557 Y1168.1121 Z-1.0000 F4000
G1 X737.3345 Y1169.6534 Z-1.0000 F4000
G1 X741.3345 Y1170.1855 Z-1.0000 F4000
G1 X745.4997 Y1169.0662 Z-1.0000 F4000
G1 X748.4905 Y1166.3873 Z-1.0000 F4000
G1 X750.2336 Y1162.5708 Z-1.0000 F4000
G1 X750.6923 Y1158.0754 Z-1.0000 F4000
G1 X750.2153 Y1153.9470 Z-1.0000 F4000
G1 X748.9676 Y1150.8277 Z-1.0000 F4000
G1 X746.9125 Y1148.4057 Z-1.0000 F4000
G1 X746.9125 Y1148.4057 Z10.0000 F9999
G1 X743.8667 Y1070.1305 Z10.0000 F9999
G1 X743.8667 Y1070.1305 Z-1.0000 F2500
G1 X746.9125 Y1072.0754 Z-1.0000 F4000
G1 X748.9676 Y1074.4974 Z-1.0000 F4000
G1 X750.2153 Y1077.6167 Z-1.0000 F4000
G1 X750.6923 Y1081.7451 Z-1.0000 F4000
G1 X750.2336 Y1086.2405 Z-1.0000 F4000
G1 X748.4905 Y1090.0571 Z-1.0000 F4000
G1 X745.4997 Y1092.7360 Z-1.0000 F4000
G1 X741.3345 Y1093.8552 Z-1.0000 F4000
G1 X737.3345 Y1093.3231 Z-1.0000 F4000
G1 X734.6557 Y1091.7818 Z-1.0000 F4000
G1 X732.9676 Y1089.7451 Z-1.0000 F4000
G1 X731.8667 Y1087.8369 Z-1.0000 F4000
G1 X727.1327 Y1078.6442 Z-1.0000 F4000
G1 X725.7199 Y1076.2772 Z-1.0000 F4000
G1 X724.0685 Y1074.4240 Z-1.0000 F4000
G1 X721.8850 Y1073.1763 Z-1.0000 F4000
G1 X719.0043 Y1072.6626 Z-1.0000 F4000
G1 X715.7199 Y1073.1947 Z-1.0000 F4000
G1 X712.6923 Y1075.0295 Z-1.0000 F4000
G1 X710.4722 Y1078.1672 Z-1.0000 F4000
G1 X709.5914 Y1082.5341 Z-1.0000 F4000
G1 X710.2703 Y1086.7910 Z-1.0000 F4000
G1 X711.7382 Y1089.6350 Z-1.0000 F4000
G1 X713.8850 Y1091.7268 Z-1.0000 F4000
G1 X711.7382 Y1089.6350 Z-1.0000 F4000
G1 X710.2703 Y1086.7910 Z-1.0000 F4000
G1 X709.5914 Y1082.5341 Z-1.0000 F4000
G1 X710.4722 Y1078.1672 Z-1.0000 F4000
G1 X712.6923 Y1075.0295 Z-1.0000 F4000
G1 X715.7199 Y1073.1947 Z-1.0000 F4000
G1 X719.0043 Y1072.6626 Z-1.0000 F4000
G1 X721.8850 Y1073.1763 Z-1.0000 F4000
G1 X724.0685 Y1074.4240 Z-1.0000 F4000
G1 X725.7199 Y1076.2772 Z-1.0000 F4000
G1 X727.1327 Y1078.6442 Z-1.0000 F4000
G1 X731.8667 Y1087.8369 Z-1.0000 F4000
G1 X732.9676 Y1089.7451 Z-1.0000 F4000
G1 X734.6557 Y1091.7818 Z-1.0000 F4000
G1 X737.3345 Y1093.3231 Z-1.0000 F4000
G1 X741.3345 Y1093.8552 Z-1.0000 F4000
G1 X745.4997 Y1092.7360 Z-1.0000 F4000
G1 X748.4905 Y1090.0571 Z-1.0000 F4000
G1 X750.2336 Y1086.2405 Z-1.0000 F4000
G1 X750.6923 Y1081.7451 Z-1.0000 F4000
G1 X750.2153 Y1077.6167 Z-1.0000 F4000
G1 X748.9676 Y1074.4974 Z-1.0000 F4000
G1 X746.9125 Y1072.0754 Z-1.0000 F4000
G1 X746.9125 Y1072.0754 Z10.0000 F9999
G1 X939.1362 Y1580.9619 Z10.0000 F9999
G1 X939.1362 Y1580.9619 Z-1.0000 F2500
G1 X899.8237 Y1573.0475 Z-1.0000 F4000
G1 X920.1936 Y1552.6776 Z-1.0000 F4000
G1 X899.8237 Y1573.0475 Z-1.0000 F4000
G1 X939.1362 Y1580.9619 Z-1.0000 F4000
G1 X910.0735 Y1551.8991 Z-1.0000 F4000
G1 X910.0735 Y1551.8991 Z10.0000 F9999
G1 X892.2985 Y1601.9286 Z10.0000 F9999
G1 X892.2985 Y1601.9286 Z-1.0000 F2500
G1 X902.5094 Y1591.7177 Z-1.0000 F4000
G1 X892.2985 Y1601.9286 Z-1.0000 F4000
G1 X905.2340 Y1614.8641 Z-1.0000 F4000
G1 X915.9250 Y1604.1732 Z-1.0000 F4000
G1 X905.2340 Y1614.8641 Z-1.0000 F4000
G1 X876.1713 Y1585.8014 Z-1.0000 F4000
G1 X876.1713 Y1585.8014 Z10.0000 F9999
G1 X900.9136 Y1632.4704 Z10.0000 F9999
G1 X900.9136 Y1632.4704 Z-1.0000 F2500
G1 X842.0615 Y1616.5897 Z-1.0000 F4000
G1 X900.9136 Y1632.4704 Z-1.0000 F4000
G1 X900.9136 Y1632.4704 Z10.0000 F9999
G1 X853.3882 Y1666.7099 Z10.0000 F9999
G1 X853.3882 Y1666.7099 Z-1.0000 F2500
G1 X835.6781 Y1626.2946 Z-1.0000 F4000
G1 X853.3882 Y1666.7099 Z-1.0000 F4000
G1 X812.9988 Y1648.9739 Z-1.0000 F4000
G1 X812.9988 Y1648.9739 Z10.0000 F9999
G1 X822.8853 Y1673.9626 Z10.0000 F9999
G1 X822.8853 Y1673.9626 Z-1.0000 F2500
G1 X802.2040 Y1694.6439 Z-1.0000 F4000
G1 X822.8853 Y1673.9626 Z-1.0000 F4000
G1 X822.8853 Y1673.9626 Z10.0000 F9999
G1 X842.0096 Y1640.7481 Z10.0000 F9999
G1 X842.0096 Y1640.7481 Z-1.0000 F2500
G1 X827.3744 Y1655.3833 Z-1.0000 F4000
G1 X842.0096 Y1640.7481 Z-1.0000 F4000
G1 X842.0096 Y1640.7481 Z10.0000 F9999
G1 X783.0538 Y1699.7039 Z10.0000 F9999
G1 X783.0538 Y1699.7039 Z-1.0000 F2500
G1 X768.4186 Y1714.3391 Z-1.0000 F4000
G1 X783.0538 Y1699.7039 Z-1.0000 F4000
G1 X783.0538 Y1699.7039 Z10.0000 F9999
G1 X794.4324 Y1725.6658 Z10.0000 F9999
G1 X794.4324 Y1725.6658 Z-1.0000 F2500
G1 X776.7222 Y1685.2504 Z-1.0000 F4000
G1 X794.4324 Y1725.6658 Z-1.0000 F4000
G1 X754.0429 Y1707.9297 Z-1.0000 F4000
G1 X754.0429 Y1707.9297 Z10.0000 F9999
G1 X746.4918 Y1715.4808 Z10.0000 F9999
G1 X746.4918 Y1715.4808 Z-1.0000 F2500
G1 X751.3832 Y1739.0813 Z-1.0000 F4000
G1 X746.4918 Y1715.4808 Z-1.0000 F4000
G1 X746.4918 Y1715.4808 Z10.0000 F9999
G1 X734.1791 Y1727.7936 Z10.0000 F9999
G1 X734.1791 Y1727.7936 Z-1.0000 F2500
G1 X763.2418 Y1756.8563 Z-1.0000 F4000
G1 X768.3018 Y1751.7963 Z-1.0000 F4000
G1 X770.6113 Y1748.6305 Z-1.0000 F4000
G1 X771.5973 Y1745.0755 Z-1.0000 F4000
G1 X770.9356 Y1741.2740 Z-1.0000 F4000
G1 X768.2499 Y1737.3947 Z-1.0000 F4000
G1 X764.1241 Y1734.9036 Z-1.0000 F4000
G1 X759.8166 Y1734.5143 Z-1.0000 F4000
G1 X756.0799 Y1735.4744 Z-1.0000 F4000
G1 X753.5629 Y1737.0573 Z-1.0000 F4000
G1 X748.5028 Y1742.1174 Z-1.0000 F4000
G1 X753.5629 Y1737.0573 Z-1.0000 F4000
G1 X756.0799 Y1735.4744 Z-1.0000 F4000
G1 X759.8166 Y1734.5143 Z-1.0000 F4000
G1 X764.1241 Y1734.9036 Z-1.0000 F4000
G1 X768.2499 Y1737.3947 Z-1.0000 F4000
G1 X770.9356 Y1741.2740 Z-1.0000 F4000
G1 X771.5973 Y1745.0755 Z-1.0000 F4000
G1 X770.6113 Y1748.6305 Z-1.0000 F4000
G1 X768.3018 Y1751.7963 Z-1.0000 F4000
G1 X763.2418 Y1756.8563 Z-1.0000 F4000
G1 X763.2418 Y1756.8563 Z10.0000 F9999
G1 X728.7168 Y1765.5103 Z10.0000 F9999
G1 X728.7168 Y1765.5103 Z-1.0000 F2500
G1 X738.9277 Y1755.2994 Z-1.0000 F4000
G1 X728.7168 Y1765.5103 Z-1.0000 F4000
G1 X741.6523 Y1778.4458 Z-1.0000 F4000
G1 X752.3433 Y1767.7548 Z-1.0000 F4000
G1 X741.6523 Y1778.4458 Z-1.0000 F4000
G1 X712.5896 Y1749.3830 Z-1.0000 F4000
G1 X712.5896 Y1749.3830 Z10.0000 F9999
G1 X640.2088 Y1998.5960 Z10.0000 F9999
G1 X640.2088 Y1998.5960 Z-1.0000 F2500
G1 X642.1537 Y1995.5501 Z-1.0000 F4000
G1 X644.5757 Y1993.4950 Z-1.0000 F4000
G1 X647.6950 Y1992.2473 Z-1.0000 F4000
G1 X651.8234 Y1991.7703 Z-1.0000 F4000
G1 X656.3189 Y1992.2290 Z-1.0000 F4000
G1 X660.1354 Y1993.9721 Z-1.0000 F4000
G1 X662.8143 Y1996.9629 Z-1.0000 F4000
G1 X663.9335 Y2001.1281 Z-1.0000 F4000
G1 X663.4014 Y2005.1281 Z-1.0000 F4000
G1 X661.8601 Y2007.8070 Z-1.0000 F4000
G1 X659.8234 Y2009.4950 Z-1.0000 F4000
G1 X657.9152 Y2010.5960 Z-1.0000 F4000
G1 X648.7225 Y2015.3299 Z-1.0000 F4000
G1 X646.3556 Y2016.7428 Z-1.0000 F4000
G1 X644.5023 Y2018.3941 Z-1.0000 F4000
G1 X643.2546 Y2020.5776 Z-1.0000 F4000
G1 X642.7409 Y2023.4584 Z-1.0000 F4000
G1 X643.2730 Y2026.7428 Z-1.0000 F4000
G1 X645.1078 Y2029.7703 Z-1.0000 F4000
G1 X648.2455 Y2031.9905 Z-1.0000 F4000
G1 X652.6124 Y2032.8712 Z-1.0000 F4000
G1 X656.8693 Y2032.1923 Z-1.0000 F4000
G1 X659.7133 Y2030.7244 Z-1.0000 F4000
G1 X661.8051 Y2028.5776 Z-1.0000 F4000
G1 X659.7133 Y2030.7244 Z-1.0000 F4000
G1 X656.8693 Y2032.1923 Z-1.0000 F4000
G1 X652.6124 Y2032.8712 Z-1.0000 F4000
G1 X648.2455 Y2031.9905 Z-1.0000 F4000
G1 X645.1078 Y2029.7703 Z-1.0000 F4000
G1 X643.2730 Y2026.7428 Z-1.0000 F4000
G1 X642.7409 Y2023.4584 Z-1.0000 F4000
G1 X643.2546 Y2020.5776 Z-1.0000 F4000
G1 X644.5023 Y2018.3941 Z-1.0000 F4000
G1 X646.3556 Y2016.7428 Z-1.0000 F4000
G1 X648.7225 Y2015.3299 Z-1.0000 F4000
G1 X657.9152 Y2010.5960 Z-1.0000 F4000
G1 X659.8234 Y2009.4950 Z-1.0000 F4000
G1 X661.8601 Y2007.8070 Z-1.0000 F4000
G1 X663.4014 Y2005.1281 Z-1.0000 F4000
G1 X663.9335 Y2001.1281 Z-1.0000 F4000
G1 X662.8143 Y1996.9629 Z-1.0000 F4000
G1 X660.1354 Y1993.9721 Z-1.0000 F4000
G1 X656.3189 Y1992.2290 Z-1.0000 F4000
G1 X651.8234 Y1991.7703 Z-1.0000 F4000
G1 X647.6950 Y1992.2473 Z-1.0000 F4000
G1 X644.5757 Y1993.4950 Z-1.0000 F4000
G1 X642.1537 Y1995.5501 Z-1.0000 F4000
G1 X642.1537 Y1995.5501 Z10.0000 F9999
G1 X629.4932 Y2042.2657 Z10.0000 F9999
G1 X629.4932 Y2042.2657 Z-1.0000 F2500
G1 X599.1078 Y1989.4217 Z-1.0000 F4000
G1 X629.4932 Y2042.2657 Z-1.0000 F4000
G1 X629.4932 Y2042.2657 Z10.0000 F9999
G1 X563.8785 Y1998.5960 Z10.0000 F9999
G1 X563.8785 Y1998.5960 Z-1.0000 F2500
G1 X565.8234 Y1995.5501 Z-1.0000 F4000
G1 X568.2455 Y1993.4950 Z-1.0000 F4000
G1 X571.3647 Y1992.2473 Z-1.0000 F4000
G1 X575.4932 Y1991.7703 Z-1.0000 F4000
G1 X579.9886 Y1992.2290 Z-1.0000 F4000
G1 X583.8051 Y1993.9721 Z-1.0000 F4000
G1 X586.4840 Y1996.9629 Z-1.0000 F4000
G1 X587.6033 Y2001.1281 Z-1.0000 F4000
G1 X587.0711 Y2005.1281 Z-1.0000 F4000
G1 X585.5299 Y2007.8070 Z-1.0000 F4000
G1 X583.4932 Y2009.4950 Z-1.0000 F4000
G1 X581.5849 Y2010.5960 Z-1.0000 F4000
G1 X572.3922 Y2015.3299 Z-1.0000 F4000
G1 X570.0253 Y2016.7428 Z-1.0000 F4000
G1 X568.1721 Y2018.3941 Z-1.0000 F4000
G1 X566.9244 Y2020.5776 Z-1.0000 F4000
G1 X566.4106 Y2023.4584 Z-1.0000 F4000
G1 X566.9427 Y2026.7428 Z-1.0000 F4000
G1 X568.7776 Y2029.7703 Z-1.0000 F4000
G1 X571.9152 Y2031.9905 Z-1.0000 F4000
G1 X576.2822 Y2032.8712 Z-1.0000 F4000
G1 X580.5390 Y2032.1923 Z-1.0000 F4000
G1 X583.3831 Y2030.7244 Z-1.0000 F4000
G1 X585.4748 Y2028.5776 Z-1.0000 F4000
G1 X583.3831 Y2030.7244 Z-1.0000 F4000
G1 X580.5390 Y2032.1923 Z-1.0000 F4000
G1 X576.2822 Y2032.8712 Z-1.0000 F4000
G1 X571.9152 Y2031.9905 Z-1.0000 F4000
G1 X568.7776 Y2029.7703 Z-1.0000 F4000
G1 X566.9427 Y2026.7428 Z-1.0000 F4000
G1 X566.4106 Y2023.4584 Z-1.0000 F4000
G1 X566.9244 Y2020.5776 Z-1.0000 F4000
G1 X568.1721 Y2018.3941 Z-1.0000 F4000
G1 X570.0253 Y2016.7428 Z-1.0000 F4000
G1 X572.3922 Y2015.3299 Z-1.0000 F4000
G1 X581.5849 Y2010.5960 Z-1.0000 F4000
G1 X583.4932 Y2009.4950 Z-1.0000 F4000
G1 X585.5299 Y2007.8070 Z-1.0000 F4000
G1 X587.0711 Y2005.1281 Z-1.0000 F4000
G1 X587.6033 Y2001.1281 Z-1.0000 F4000
G1 X586.4840 Y1996.9629 Z-1.0000 F4000
G1 X583.8051 Y1993.9721 Z-1.0000 F4000
G1 X579.9886 Y1992.2290 Z-1.0000 F4000
G1 X575.4932 Y1991.7703 Z-1.0000 F4000
G1 X571.3647 Y1992.2473 Z-1.0000 F4000
G1 X568.2455 Y1993.4950 Z-1.0000 F4000
G1 X565.8234 Y1995.5501 Z-1.0000 F4000
G1 X565.8234 Y1995.5501 Z10.0000 F9999
G1 X331.6544 Y2038.8464 Z10.0000 F9999
G1 X331.6544 Y2038.8464 Z-1.0000 F2500
G1 X333.5994 Y2035.8005 Z-1.0000 F4000
G1 X336.0214 Y2033.7454 Z-1.0000 F4000
G1 X339.1407 Y2032.4977 Z-1.0000 F4000
G1 X343.2691 Y2032.0207 Z-1.0000 F4000
G1 X347.7645 Y2032.4794 Z-1.0000 F4000
G1 X351.5810 Y2034.2225 Z-1.0000 F4000
G1 X354.2599 Y2037.2133 Z-1.0000 F4000
G1 X355.3792 Y2041.3785 Z-1.0000 F4000
G1 X354.8471 Y2045.3785 Z-1.0000 F4000
G1 X353.3058 Y2048.0574 Z-1.0000 F4000
G1 X351.2691 Y2049.7454 Z-1.0000 F4000
G1 X349.3609 Y2050.8464 Z-1.0000 F4000
G1 X340.1682 Y2055.5803 Z-1.0000 F4000
G1 X337.8012 Y2056.9931 Z-1.0000 F4000
G1 X335.9480 Y2058.6445 Z-1.0000 F4000
G1 X334.7003 Y2060.8280 Z-1.0000 F4000
G1 X334.1865 Y2063.7087 Z-1.0000 F4000
G1 X334.7187 Y2066.9931 Z-1.0000 F4000
G1 X336.5535 Y2070.0207 Z-1.0000 F4000
G1 X339.6911 Y2072.2409 Z-1.0000 F4000
G1 X344.0581 Y2073.1216 Z-1.0000 F4000
G1 X348.3150 Y2072.4427 Z-1.0000 F4000
G1 X351.1590 Y2070.9748 Z-1.0000 F4000
G1 X353.2508 Y2068.8280 Z-1.0000 F4000
G1 X351.1590 Y2070.9748 Z-1.0000 F4000
G1 X348.3150 Y2072.4427 Z-1.0000 F4000
G1 X344.0581 Y2073.1216 Z-1.0000 F4000
G1 X339.6911 Y2072.2409 Z-1.0000 F4000
G1 X336.5535 Y2070.0207 Z-1.0000 F4000
G1 X334.7187 Y2066.9931 Z-1.0000 F4000
G1 X334.1865 Y2063.7087 Z-1.0000 F4000
G1 X334.7003 Y2060.8280 Z-1.0000 F4000
G1 X335.9480 Y2058.6445 Z-1.0000 F4000
G1 X337.8012 Y2056.9931 Z-1.0000 F4000
G1 X340.1682 Y2055.5803 Z-1.0000 F4000
G1 X349.3609 Y2050.8464 Z-1.0000 F4000
G1 X351.2691 Y2049.7454 Z-1.0000 F4000
G1 X353.3058 Y2048.0574 Z-1.0000 F4000
G1 X354.8471 Y2045.3785 Z-1.0000 F4000
G1 X355.3792 Y2041.3785 Z-1.0000 F4000
G1 X354.2599 Y2037.2133 Z-1.0000 F4000
G1 X351.5810 Y2034.2225 Z-1.0000 F4000
G1 X347.7645 Y2032.4794 Z-1.0000 F4000
G1 X343.2691 Y2032.0207 Z-1.0000 F4000
G1 X339.1407 Y2032.4977 Z-1.0000 F4000
G1 X336.0214 Y2033.7454 Z-1.0000 F4000
G1 X333.5994 Y2035.8005 Z-1.0000 F4000
G1 X333.5994 Y2035.8005 Z10.0000 F9999
G1 X320.9388 Y2082.5161 Z10.0000 F9999
G1 X320.9388 Y2082.5161 Z-1.0000 F2500
G1 X290.5535 Y2029.6720 Z-1.0000 F4000
G1 X320.9388 Y2082.5161 Z-1.0000 F4000
G1 X320.9388 Y2082.5161 Z10.0000 F9999
G1 X255.3242 Y2038.8464 Z10.0000 F9999
G1 X255.3242 Y2038.8464 Z-1.0000 F2500
G1 X257.2691 Y2035.8005 Z-1.0000 F4000
G1 X259.6911 Y2033.7454 Z-1.0000 F4000
G1 X262.8104 Y2032.4977 Z-1.0000 F4000
G1 X266.9388 Y2032.0207 Z-1.0000 F4000
G1 X271.4342 Y2032.4794 Z-1.0000 F4000
G1 X275.2508 Y2034.2225 Z-1.0000 F4000
G1 X277.9297 Y2037.2133 Z-1.0000 F4000
G1 X279.0489 Y2041.3785 Z-1.0000 F4000
G1 X278.5168 Y2045.3785 Z-1.0000 F4000
G1 X276.9755 Y2048.0574 Z-1.0000 F4000
G1 X274.9388 Y2049.7454 Z-1.0000 F4000
G1 X273.0306 Y2050.8464 Z-1.0000 F4000
G1 X263.8379 Y2055.5803 Z-1.0000 F4000
G1 X261.4709 Y2056.9931 Z-1.0000 F4000
G1 X259.6177 Y2058.6445 Z-1.0000 F4000
G1 X258.3700 Y2060.8280 Z-1.0000 F4000
G1 X257.8563 Y2063.7087 Z-1.0000 F4000
G1 X258.3884 Y2066.9931 Z-1.0000 F4000
G1 X260.2232 Y2070.0207 Z-1.0000 F4000
G1 X263.3609 Y2072.2409 Z-1.0000 F4000
G1 X267.7278 Y2073.1216 Z-1.0000 F4000
G1 X271.9847 Y2072.4427 Z-1.0000 F4000
G1 X274.8287 Y2070.9748 Z-1.0000 F4000
G1 X276.9205 Y2068.8280 Z-1.0000 F4000
G1 X274.8287 Y2070.9748 Z-1.0000 F4000
G1 X271.9847 Y2072.4427 Z-1.0000 F4000
G1 X267.7278 Y2073.1216 Z-1.0000 F4000
G1 X263.3609 Y2072.2409 Z-1.0000 F4000
G1 X260.2232 Y2070.0207 Z-1.0000 F4000
G1 X258.3884 Y2066.9931 Z-1.0000 F4000
G1 X257.8563 Y2063.7087 Z-1.0000 F4000
G1 X258.3700 Y2060.8280 Z-1.0000 F4000
G1 X259.6177 Y2058.6445 Z-1.0000 F4000
G1 X261.4709 Y2056.9931 Z-1.0000 F4000
G1 X263.8379 Y2055.5803 Z-1.0000 F4000
G1 X273.0306 Y2050.8464 Z-1.0000 F4000
G1 X274.9388 Y2049.7454 Z-1.0000 F4000
G1 X276.9755 Y2048.0574 Z-1.0000 F4000
G1 X278.5168 Y2045.3785 Z-1.0000 F4000
G1 X279.0489 Y2041.3785 Z-1.0000 F4000
G1 X277.9297 Y2037.2133 Z-1.0000 F4000
G1 X275.2508 Y2034.2225 Z-1.0000 F4000
G1 X271.4342 Y2032.4794 Z-1.0000 F4000
G1 X266.9388 Y2032.0207 Z-1.0000 F4000
G1 X262.8104 Y2032.4977 Z-1.0000 F4000
G1 X259.6911 Y2033.7454 Z-1.0000 F4000
G1 X257.2691 Y2035.8005 Z-1.0000 F4000
G1 X257.2691 Y2035.8005 Z10.0000 F9999
G1 X592.1833 Y2331.7567 Z10.0000 F9999
G1 X592.1833 Y2331.7567 Z-1.0000 F2500
G1 X590.9356 Y2333.0228 Z-1.0000 F4000
G1 X588.6053 Y2334.8393 Z-1.0000 F4000
G1 X585.1375 Y2336.4907 Z-1.0000 F4000
G1 X580.4035 Y2337.2797 Z-1.0000 F4000
G1 X575.2475 Y2336.0870 Z-1.0000 F4000
G1 X570.8806 Y2332.7659 Z-1.0000 F4000
G1 X567.8347 Y2327.8485 Z-1.0000 F4000
G1 X566.6971 Y2321.9035 Z-1.0000 F4000
G1 X568.0365 Y2316.3623 Z-1.0000 F4000
G1 X571.2842 Y2312.3256 Z-1.0000 F4000
G1 X575.3393 Y2309.9035 Z-1.0000 F4000
G1 X579.1008 Y2309.0962 Z-1.0000 F4000
G1 X581.2475 Y2309.0962 Z-1.0000 F4000
G1 X583.5044 Y2309.4999 Z-1.0000 F4000
G1 X586.1466 Y2310.3989 Z-1.0000 F4000
G1 X580.5136 Y2295.0045 Z-1.0000 F4000
G1 X566.3118 Y2295.0045 Z-1.0000 F4000
G1 X580.5136 Y2295.0045 Z-1.0000 F4000
G1 X586.1466 Y2310.3989 Z-1.0000 F4000
G1 X583.5044 Y2309.4999 Z-1.0000 F4000
G1 X581.2475 Y2309.0962 Z-1.0000 F4000
G1 X579.1008 Y2309.0962 Z-1.0000 F4000
G1 X575.3393 Y2309.9035 Z-1.0000 F4000
G1 X571.2842 Y2312.3256 Z-1.0000 F4000
G1 X568.0365 Y2316.3623 Z-1.0000 F4000
G1 X566.6971 Y2321.9035 Z-1.0000 F4000
G1 X567.8347 Y2327.8485 Z-1.0000 F4000
G1 X570.8806 Y2332.7659 Z-1.0000 F4000
G1 X575.2475 Y2336.0870 Z-1.0000 F4000
G1 X580.4035 Y2337.2797 Z-1.0000 F4000
G1 X585.1375 Y2336.4907 Z-1.0000 F4000
G1 X588.6053 Y2334.8393 Z-1.0000 F4000
G1 X590.9356 Y2333.0228 Z-1.0000 F4000
G1 X590.9356 Y2333.0228 Z10.0000 F9999
G1 X649.5595 Y2337.2797 Z10.0000 F9999
G1 X649.5595 Y2337.2797 Z-1.0000 F2500
G1 X633.6145 Y2296.1788 Z-1.0000 F4000
G1 X617.6512 Y2337.2797 Z-1.0000 F4000
G1 X604.5870 Y2296.1788 Z-1.0000 F4000
G1 X617.6512 Y2337.2797 Z-1.0000 F4000
G1 X633.6145 Y2296.1788 Z-1.0000 F4000
G1 X649.5595 Y2337.2797 Z-1.0000 F4000
G1 X662.6420 Y2296.1788 Z-1.0000 F4000
G1 X662.6420 Y2296.1788 Z10.0000 F9999
G1 X919.3116 Y1947.7786 Z10.0000 F9999
G1 X919.3116 Y1947.7786 Z-1.0000 F2500
G1 X921.2565 Y1944.7328 Z-1.0000 F4000
G1 X923.6785 Y1942.6777 Z-1.0000 F4000
G1 X926.7978 Y1941.4300 Z-1.0000 F4000
G1 X930.9262 Y1940.9530 Z-1.0000 F4000
G1 X935.4216 Y1941.4117 Z-1.0000 F4000
G1 X939.2382 Y1943.1548 Z-1.0000 F4000
G1 X941.9171 Y1946.1456 Z-1.0000 F4000
G1 X943.0363 Y1950.3108 Z-1.0000 F4000
G1 X942.5042 Y1954.3108 Z-1.0000 F4000
G1 X940.9629 Y1956.9897 Z-1.0000 F4000
G1 X938.9262 Y1958.6777 Z-1.0000 F4000
G1 X937.0180 Y1959.7786 Z-1.0000 F4000
G1 X927.8253 Y1964.5126 Z-1.0000 F4000
G1 X925.4583 Y1965.9254 Z-1.0000 F4000
G1 X923.6051 Y1967.5768 Z-1.0000 F4000
G1 X922.3574 Y1969.7603 Z-1.0000 F4000
G1 X921.8437 Y1972.6410 Z-1.0000 F4000
G1 X922.3758 Y1975.9254 Z-1.0000 F4000
G1 X924.2106 Y1978.9530 Z-1.0000 F4000
G1 X927.3483 Y1981.1731 Z-1.0000 F4000
G1 X931.7152 Y1982.0539 Z-1.0000 F4000
G1 X935.9721 Y1981.3750 Z-1.0000 F4000
G1 X938.8161 Y1979.9071 Z-1.0000 F4000
G1 X940.9079 Y1977.7603 Z-1.0000 F4000
G1 X938.8161 Y1979.9071 Z-1.0000 F4000
G1 X935.9721 Y1981.3750 Z-1.0000 F4000
G1 X931.7152 Y1982.0539 Z-1.0000 F4000
G1 X927.3483 Y1981.1731 Z-1.0000 F4000
G1 X924.2106 Y1978.9530 Z-1.0000 F4000
G1 X922.3758 Y1975.9254 Z-1.0000 F4000
G1 X921.8437 Y1972.6410 Z-1.0000 F4000
G1 X922.3574 Y1969.7603 Z-1.0000 F4000
G1 X923.6051 Y1967.5768 Z-1.0000 F4000
G1 X925.4583 Y1965.9254 Z-1.0000 F4000
G1 X927.8253 Y1964.5126 Z-1.0000 F4000
G1 X937.0180 Y1959.7786 Z-1.0000 F4000
G1 X938.9262 Y1958.6777 Z-1.0000 F4000
G1 X940.9629 Y1956.9897 Z-1.0000 F4000
G1 X942.5042 Y1954.3108 Z-1.0000 F4000
G1 X943.0363 Y1950.3108 Z-1.0000 F4000
G1 X941.9171 Y1946.1456 Z-1.0000 F4000
G1 X939.2382 Y1943.1548 Z-1.0000 F4000
G1 X935.4216 Y1941.4117 Z-1.0000 F4000
G1 X930.9262 Y1940.9530 Z-1.0000 F4000
G1 X926.7978 Y1941.4300 Z-1.0000 F4000
G1 X923.6785 Y1942.6777 Z-1.0000 F4000
G1 X921.2565 Y1944.7328 Z-1.0000 F4000
G1 X921.2565 Y1944.7328 Z10.0000 F9999
G1 X995.6418 Y1947.7786 Z10.0000 F9999
G1 X995.6418 Y1947.7786 Z-1.0000 F2500
G1 X997.5868 Y1944.7328 Z-1.0000 F4000
G1 X1000.0088 Y1942.6777 Z-1.0000 F4000
G1 X1003.1281 Y1941.4300 Z-1.0000 F4000
G1 X1007.2565 Y1940.9530 Z-1.0000 F4000
G1 X1011.7519 Y1941.4117 Z-1.0000 F4000
G1 X1015.5684 Y1943.1548 Z-1.0000 F4000
G1 X1018.2473 Y1946.1456 Z-1.0000 F4000
G1 X1019.3666 Y1950.3108 Z-1.0000 F4000
G1 X1018.8345 Y1954.3108 Z-1.0000 F4000
G1 X1017.2932 Y1956.9897 Z-1.0000 F4000
G1 X1015.2565 Y1958.6777 Z-1.0000 F4000
G1 X1013.3483 Y1959.7786 Z-1.0000 F4000
G1 X1004.1556 Y1964.5126 Z-1.0000 F4000
G1 X1001.7886 Y1965.9254 Z-1.0000 F4000
G1 X999.9354 Y1967.5768 Z-1.0000 F4000
G1 X998.6877 Y1969.7603 Z-1.0000 F4000
G1 X998.1739 Y1972.6410 Z-1.0000 F4000
G1 X998.7061 Y1975.9254 Z-1.0000 F4000
G1 X1000.5409 Y1978.9530 Z-1.0000 F4000
G1 X1003.6785 Y1981.1731 Z-1.0000 F4000
G1 X1008.0455 Y1982.0539 Z-1.0000 F4000
G1 X1012.3024 Y1981.3750 Z-1.0000 F4000
G1 X1015.1464 Y1979.9071 Z-1.0000 F4000
G1 X1017.2382 Y1977.7603 Z-1.0000 F4000
G1 X1015.1464 Y1979.9071 Z-1.0000 F4000
G1 X1012.3024 Y1981.3750 Z-1.0000 F4000
G1 X1008.0455 Y1982.0539 Z-1.0000 F4000
G1 X1003.6785 Y1981.1731 Z-1.0000 F4000
G1 X1000.5409 Y1978.9530 Z-1.0000 F4000
G1 X998.7061 Y1975.9254 Z-1.0000 F4000
G1 X998.1739 Y1972.6410 Z-1.0000 F4000
G1 X998.6877 Y1969.7603 Z-1.0000 F4000
G1 X999.9354 Y1967.5768 Z-1.0000 F4000
G1 X1001.7886 Y1965.9254 Z-1.0000 F4000
G1 X1004.1556 Y1964.5126 Z-1.0000 F4000
G1 X1013.3483 Y1959.7786 Z-1.0000 F4000
G1 X1015.2565 Y1958.6777 Z-1.0000 F4000
G1 X1017.2932 Y1956.9897 Z-1.0000 F4000
G1 X1018.8345 Y1954.3108 Z-1.0000 F4000
G1 X1019.3666 Y1950.3108 Z-1.0000 F4000
G1 X1018.2473 Y1946.1456 Z-1.0000 F4000
G1 X1015.5684 Y1943.1548 Z-1.0000 F4000
G1 X1011.7519 Y1941.4117 Z-1.0000 F4000
G1 X1007.2565 Y1940.9530 Z-1.0000 F4000
G1 X1003.1281 Y1941.4300 Z-1.0000 F4000
G1 X1000.0088 Y1942.6777 Z-1.0000 F4000
G1 X997.5868 Y1944.7328 Z-1.0000 F4000
G1 X997.5868 Y1944.7328 Z10.0000 F9999
G1 X984.9262 Y1991.4484 Z10.0000 F9999
G1 X984.9262 Y1991.4484 Z-1.0000 F2500
G1 X954.5409 Y1938.6043 Z-1.0000 F4000
G1 X984.9262 Y1991.4484 Z-1.0000 F4000
G1 X984.9262 Y1991.4484 Z10.0000 F9999
G1 X102.1659 Y783.2466 Z10.0000 F9999
G1 X102.1659 Y783.2466 Z-1.0000 F2500
G1 X105.2117 Y785.1915 Z-1.0000 F4000
G1 X107.2668 Y787.6135 Z-1.0000 F4000
G1 X108.5145 Y790.7328 Z-1.0000 F4000
G1 X108.9916 Y794.8612 Z-1.0000 F4000
G1 X108.5328 Y799.3566 Z-1.0000 F4000
G1 X106.7897 Y803.1732 Z-1.0000 F4000
G1 X103.7989 Y805.8521 Z-1.0000 F4000
G1 X99.6338 Y806.9713 Z-1.0000 F4000
G1 X95.6338 Y806.4392 Z-1.0000 F4000
G1 X92.9549 Y804.8979 Z-1.0000 F4000
G1 X91.2668 Y802.8612 Z-1.0000 F4000
G1 X90.1659 Y800.9530 Z-1.0000 F4000
G1 X85.4319 Y791.7603 Z-1.0000 F4000
G1 X84.0191 Y789.3933 Z-1.0000 F4000
G1 X82.3677 Y787.5401 Z-1.0000 F4000
G1 X80.1842 Y786.2924 Z-1.0000 F4000
G1 X77.3035 Y785.7787 Z-1.0000 F4000
G1 X74.0191 Y786.3108 Z-1.0000 F4000
G1 X70.9916 Y788.1456 Z-1.0000 F4000
G1 X68.7714 Y791.2833 Z-1.0000 F4000
G1 X67.8906 Y795.6502 Z-1.0000 F4000
G1 X68.5695 Y799.9071 Z-1.0000 F4000
G1 X70.0374 Y802.7511 Z-1.0000 F4000
G1 X72.1842 Y804.8429 Z-1.0000 F4000
G1 X70.0374 Y802.7511 Z-1.0000 F4000
G1 X68.5695 Y799.9071 Z-1.0000 F4000
G1 X67.8906 Y795.6502 Z-1.0000 F4000
G1 X68.7714 Y791.2833 Z-1.0000 F4000
G1 X70.9916 Y788.1456 Z-1.0000 F4000
G1 X74.0191 Y786.3108 Z-1.0000 F4000
G1 X77.3035 Y785.7787 Z-1.0000 F4000
G1 X80.1842 Y786.2924 Z-1.0000 F4000
G1 X82.3677 Y787.5401 Z-1.0000 F4000
G1 X84.0191 Y789.3933 Z-1.0000 F4000
G1 X85.4319 Y791.7603 Z-1.0000 F4000
G1 X90.1659 Y800.9530 Z-1.0000 F4000
G1 X91.2668 Y802.8612 Z-1.0000 F4000
G1 X92.9549 Y804.8979 Z-1.0000 F4000
G1 X95.6338 Y806.4392 Z-1.0000 F4000
G1 X99.6338 Y806.9713 Z-1.0000 F4000
G1 X103.7989 Y805.8521 Z-1.0000 F4000
G1 X106.7897 Y803.1732 Z-1.0000 F4000
G1 X108.5328 Y799.3566 Z-1.0000 F4000
G1 X108.9916 Y794.8612 Z-1.0000 F4000
G1 X108.5145 Y790.7328 Z-1.0000 F4000
G1 X107.2668 Y787.6135 Z-1.0000 F4000
G1 X105.2117 Y785.1915 Z-1.0000 F4000
G1 X105.2117 Y785.1915 Z10.0000 F9999
G1 X58.4961 Y772.5310 Z10.0000 F9999
G1 X58.4961 Y772.5310 Z-1.0000 F2500
G1 X111.3402 Y742.1456 Z-1.0000 F4000
G1 X58.4961 Y772.5310 Z-1.0000 F4000
G1 X58.4961 Y772.5310 Z10.0000 F9999
G1 X102.1659 Y706.9163 Z10.0000 F9999
G1 X102.1659 Y706.9163 Z-1.0000 F2500
G1 X105.2117 Y708.8612 Z-1.0000 F4000
G1 X107.2668 Y711.2833 Z-1.0000 F4000
G1 X108.5145 Y714.4025 Z-1.0000 F4000
G1 X108.9916 Y718.5310 Z-1.0000 F4000
G1 X108.5328 Y723.0264 Z-1.0000 F4000
G1 X106.7897 Y726.8429 Z-1.0000 F4000
G1 X103.7989 Y729.5218 Z-1.0000 F4000
G1 X99.6338 Y730.6411 Z-1.0000 F4000
G1 X95.6338 Y730.1089 Z-1.0000 F4000
G1 X92.9549 Y728.5677 Z-1.0000 F4000
G1 X91.2668 Y726.5310 Z-1.0000 F4000
G1 X90.1659 Y724.6227 Z-1.0000 F4000
G1 X85.4319 Y715.4300 Z-1.0000 F4000
G1 X84.0191 Y713.0631 Z-1.0000 F4000
G1 X82.3677 Y711.2099 Z-1.0000 F4000
G1 X80.1842 Y709.9622 Z-1.0000 F4000
G1 X77.3035 Y709.4484 Z-1.0000 F4000
G1 X74.0191 Y709.9805 Z-1.0000 F4000
G1 X70.9916 Y711.8154 Z-1.0000 F4000
G1 X68.7714 Y714.9530 Z-1.0000 F4000
G1 X67.8906 Y719.3200 Z-1.0000 F4000
G1 X68.5695 Y723.5768 Z-1.0000 F4000
G1 X70.0374 Y726.4209 Z-1.0000 F4000
G1 X72.1842 Y728.5126 Z-1.0000 F4000
G1 X70.0374 Y726.4209 Z-1.0000 F4000
G1 X68.5695 Y723.5768 Z-1.0000 F4000
G1 X67.8906 Y719.3200 Z-1.0000 F4000
G1 X68.7714 Y714.9530 Z-1.0000 F4000
G1 X70.9916 Y711.8154 Z-1.0000 F4000
G1 X74.0191 Y709.9805 Z-1.0000 F4000
G1 X77.3035 Y709.4484 Z-1.0000 F4000
G1 X80.1842 Y709.9622 Z-1.0000 F4000
G1 X82.3677 Y711.2099 Z-1.0000 F4000
G1 X84.0191 Y713.0631 Z-1.0000 F4000
G1 X85.4319 Y715.4300 Z-1.0000 F4000
G1 X90.1659 Y724.6227 Z-1.0000 F4000
G1 X91.2668 Y726.5310 Z-1.0000 F4000
G1 X92.9549 Y728.5677 Z-1.0000 F4000
G1 X95.6338 Y730.1089 Z-1.0000 F4000
G1 X99.6338 Y730.6411 Z-1.0000 F4000
G1 X103.7989 Y729.5218 Z-1.0000 F4000
G1 X106.7897 Y726.8429 Z-1.0000 F4000
G1 X108.5328 Y723.0264 Z-1.0000 F4000
G1 X108.9916 Y718.5310 Z-1.0000 F4000
G1 X108.5145 Y714.4025 Z-1.0000 F4000
G1 X107.2668 Y711.2833 Z-1.0000 F4000
G1 X105.2117 Y708.8612 Z-1.0000 F4000
G1 X105.2117 Y708.8612 Z10.0000 F9999
(Tool Number:1) (7.998 mm dia. slot drill)
M3 S9000
G1 X687.2878 Y685.6498 Z10.0000 F9999
G1 X687.2878 Y685.6498 Z1.0000 F2500
G1 X656.5478 Y689.6594 Z-6.9547 F2500
G1 X658.5323 Y689.4026 Z-7.4682 F2500
G1 X659.1124 Y689.3695 Z-7.6173 F2500
G1 X659.7202 Y689.4257 Z-7.7739 F2500
G1 X660.3351 Y689.5813 Z-7.9367 F2500
G1 X660.9329 Y689.8403 Z-8.1038 F2500
G1 X661.4877 Y690.1983 Z-8.2733 F2500
G1 X661.9761 Y690.6427 Z-8.4427 F2500
G1 X662.3797 Y691.1541 Z-8.6099 F2500
G1 X662.6879 Y691.7085 Z-8.7726 F2500
G1 X662.8981 Y692.2816 Z-8.9293 F2500
G1 X662.9535 Y692.5517 Z-9.0000 F2500
G1 X662.8981 Y692.2816 Z-9.0707 F2500
G1 X662.6879 Y691.7085 Z-9.2274 F2500
G1 X662.3797 Y691.1541 Z-9.3901 F2500
G1 X661.9761 Y690.6427 Z-9.5573 F2500
G1 X661.4877 Y690.1983 Z-9.7267 F2500
G1 X660.9329 Y689.8403 Z-9.8962 F2500
G1 X660.3351 Y689.5813 Z-10.0633 F2500
G1 X659.7202 Y689.4257 Z-10.2261 F2500
G1 X659.1124 Y689.3695 Z-10.3827 F2500
G1 X658.5323 Y689.4026 Z-10.5318 F2500
G1 X656.5478 Y689.6594 Z-11.0453 F2500
G1 X687.2878 Y685.6498 Z-19.0000 F2500
G1 X656.5478 Y689.6594 Z-19.0000 F4000
G1 X658.5323 Y689.4026 Z-19.0000 F4000
G1 X659.1124 Y689.3695 Z-19.0000 F4000
G1 X659.7202 Y689.4257 Z-19.0000 F4000
G1 X660.3351 Y689.5813 Z-19.0000 F4000
G1 X660.9329 Y689.8403 Z-19.0000 F4000
G1 X661.4877 Y690.1983 Z-19.0000 F4000
G1 X661.9761 Y690.6427 Z-19.0000 F4000
G1 X662.3797 Y691.1541 Z-19.0000 F4000
G1 X662.6879 Y691.7085 Z-19.0000 F4000
G1 X662.8981 Y692.2816 Z-19.0000 F4000
G1 X663.0149 Y692.8508 Z-19.0000 F4000
G1 X664.5671 Y704.7509 Z-19.0000 F4000
G1 X664.3103 Y702.7665 Z-19.0000 F4000
G1 X664.2780 Y702.1476 Z-19.0000 F4000
G1 X664.3438 Y701.5197 Z-19.0000 F4000
G1 X664.5090 Y700.9062 Z-19.0000 F4000
G1 X664.7673 Y700.3300 Z-19.0000 F4000
G1 X665.1060 Y699.8110 Z-19.0000 F4000
G1 X665.5208 Y699.3506 Z-19.0000 F4000
G1 X666.0113 Y698.9531 Z-19.0000 F4000
G1 X666.5620 Y698.6361 Z-19.0000 F4000
G1 X667.1520 Y698.4114 Z-19.0000 F4000
G1 X667.7585 Y698.2838 Z-19.0000 F4000
G1 X711.3886 Y692.5928 Z-19.0000 F4000
G1 X711.9688 Y692.5597 Z-19.0000 F4000
G1 X712.5765 Y692.6159 Z-19.0000 F4000
G1 X713.1915 Y692.7716 Z-19.0000 F4000
G1 X713.7893 Y693.0305 Z-19.0000 F4000
G1 X714.3441 Y693.3885 Z-19.0000 F4000
G1 X714.8325 Y693.8330 Z-19.0000 F4000
G1 X715.2361 Y694.3443 Z-19.0000 F4000
G1 X715.5443 Y694.8988 Z-19.0000 F4000
G1 X715.7545 Y695.4718 Z-19.0000 F4000
G1 X715.8713 Y696.0410 Z-19.0000 F4000
G1 X716.1301 Y698.0252 Z-19.0000 F4000
G1 X714.5798 Y686.1248 Z-19.0000 F4000
G1 X714.5468 Y685.5447 Z-19.0000 F4000
G1 X714.6029 Y684.9369 Z-19.0000 F4000
G1 X714.7586 Y684.3219 Z-19.0000 F4000
G1 X715.0175 Y683.7242 Z-19.0000 F4000
G1 X715.3755 Y683.1693 Z-19.0000 F4000
G1 X715.8200 Y682.6810 Z-19.0000 F4000
G1 X716.3313 Y682.2773 Z-19.0000 F4000
G1 X716.8858 Y681.9691 Z-19.0000 F4000
G1 X717.4588 Y681.7590 Z-19.0000 F4000
G1 X718.0280 Y681.6421 Z-19.0000 F4000
G1 X720.0122 Y681.3833 Z-19.0000 F4000
G1 X703.6489 Y683.5084 Z-19.0000 F4000
G1 X687.2878 Y685.6498 Z-19.0000 F4000
G1 X687.2878 Y685.6498 Z10.0000 F9999
G1 X720.5734 Y925.3595 Z10.0000 F9999
G1 X720.5734 Y925.3595 Z1.0000 F2500
G1 X751.3134 Y921.3500 Z-6.9547 F2500
G1 X749.3290 Y921.6068 Z-7.4682 F2500
G1 X748.7101 Y921.6391 Z-7.6272 F2500
G1 X748.0822 Y921.5733 Z-7.7892 F2500
G1 X747.4686 Y921.4081 Z-7.9522 F2500
G1 X746.8925 Y921.1498 Z-8.1142 F2500
G1 X746.3735 Y920.8111 Z-8.2733 F2500
G1 X745.9131 Y920.3963 Z-8.4323 F2500
G1 X745.5156 Y919.9057 Z-8.5943 F2500
G1 X745.1986 Y919.3551 Z-8.7573 F2500
G1 X744.9739 Y918.7651 Z-8.9193 F2500
G1 X744.9092 Y918.4575 Z-9.0000 F2500
G1 X744.9739 Y918.7651 Z-9.0807 F2500
G1 X745.1986 Y919.3551 Z-9.2427 F2500
G1 X745.5156 Y919.9057 Z-9.4057 F2500
G1 X745.9131 Y920.3963 Z-9.5677 F2500
G1 X746.3735 Y920.8111 Z-9.7267 F2500
G1 X746.8925 Y921.1498 Z-9.8858 F2500
G1 X747.4686 Y921.4081 Z-10.0478 F2500
G1 X748.0822 Y921.5733 Z-10.2108 F2500
G1 X748.7101 Y921.6391 Z-10.3728 F2500
G1 X749.3290 Y921.6068 Z-10.5318 F2500
G1 X751.3134 Y921.3500 Z-11.0453 F2500
G1 X720.5734 Y925.3595 Z-19.0000 F2500
G1 X751.3134 Y921.3500 Z-19.0000 F4000
G1 X749.3290 Y921.6068 Z-19.0000 F4000
G1 X748.7101 Y921.6391 Z-19.0000 F4000
G1 X748.0822 Y921.5733 Z-19.0000 F4000
G1 X747.4686 Y921.4081 Z-19.0000 F4000
G1 X746.8925 Y921.1498 Z-19.0000 F4000
G1 X746.3735 Y920.8111 Z-19.0000 F4000
G1 X745.9131 Y920.3963 Z-19.0000 F4000
G1 X745.5156 Y919.9057 Z-19.0000 F4000
G1 X745.1986 Y919.3551 Z-19.0000 F4000
G1 X744.9739 Y918.7651 Z-19.0000 F4000
G1 X744.8463 Y918.1586 Z-19.0000 F4000
G1 X743.2941 Y906.2584 Z-19.0000 F4000
G1 X743.5510 Y908.2429 Z-19.0000 F4000
G1 X743.5833 Y908.8618 Z-19.0000 F4000
G1 X743.5174 Y909.4897 Z-19.0000 F4000
G1 X743.3523 Y910.1032 Z-19.0000 F4000
G1 X743.0939 Y910.6793 Z-19.0000 F4000
G1 X742.7553 Y911.1984 Z-19.0000 F4000
G1 X742.3405 Y911.6588 Z-19.0000 F4000
G1 X741.8499 Y912.0563 Z-19.0000 F4000
G1 X741.2993 Y912.3733 Z-19.0000 F4000
G1 X740.7093 Y912.5980 Z-19.0000 F4000
G1 X740.1028 Y912.7255 Z-19.0000 F4000
G1 X696.4726 Y918.4164 Z-19.0000 F4000
G1 X695.8537 Y918.4487 Z-19.0000 F4000
G1 X695.2258 Y918.3829 Z-19.0000 F4000
G1 X694.6123 Y918.2177 Z-19.0000 F4000
G1 X694.0362 Y917.9594 Z-19.0000 F4000
G1 X693.5172 Y917.6207 Z-19.0000 F4000
G1 X693.0567 Y917.2059 Z-19.0000 F4000
G1 X692.6592 Y916.7154 Z-19.0000 F4000
G1 X692.3422 Y916.1648 Z-19.0000 F4000
G1 X692.1175 Y915.5747 Z-19.0000 F4000
G1 X691.9900 Y914.9682 Z-19.0000 F4000
G1 X691.7312 Y912.9840 Z-19.0000 F4000
G1 X693.2814 Y924.8845 Z-19.0000 F4000
G1 X693.3145 Y925.4646 Z-19.0000 F4000
G1 X693.2583 Y926.0724 Z-19.0000 F4000
G1 X693.1027 Y926.6874 Z-19.0000 F4000
G1 X692.8437 Y927.2851 Z-19.0000 F4000
G1 X692.4857 Y927.8399 Z-19.0000 F4000
G1 X692.0412 Y928.3283 Z-19.0000 F4000
G1 X691.5299 Y928.7319 Z-19.0000 F4000
G1 X690.9755 Y929.0401 Z-19.0000 F4000
G1 X690.4024 Y929.2503 Z-19.0000 F4000
G1 X689.8332 Y929.3671 Z-19.0000 F4000
G1 X687.8490 Y929.6259 Z-19.0000 F4000
G1 X704.2123 Y927.5009 Z-19.0000 F4000
G1 X720.5734 Y925.3595 Z-19.0000 F4000
G1 X720.5734 Y925.3595 Z10.0000 F9999
G1 X851.0998 Y1125.7942 Z10.0000 F9999
G1 X851.0998 Y1125.7942 Z1.0000 F2500
G1 X847.0902 Y1156.5342 Z-6.9547 F2500
G1 X847.3510 Y1154.5502 Z-7.4682 F2500
G1 X847.4678 Y1153.9810 Z-7.6173 F2500
G1 X847.6780 Y1153.4080 Z-7.7739 F2500
G1 X847.9862 Y1152.8535 Z-7.9367 F2500
G1 X848.3898 Y1152.3422 Z-8.1038 F2500
G1 X848.8782 Y1151.8978 Z-8.2733 F2500
G1 X849.4330 Y1151.5397 Z-8.4427 F2500
G1 X850.0307 Y1151.2808 Z-8.6099 F2500
G1 X850.6457 Y1151.1251 Z-8.7726 F2500
G1 X851.2535 Y1151.0690 Z-8.9293 F2500
G1 X851.5288 Y1151.0847 Z-9.0000 F2500
G1 X851.2535 Y1151.0690 Z-9.0707 F2500
G1 X850.6457 Y1151.1251 Z-9.2274 F2500
G1 X850.0307 Y1151.2808 Z-9.3901 F2500
G1 X849.4330 Y1151.5397 Z-9.5573 F2500
G1 X848.8782 Y1151.8978 Z-9.7267 F2500
G1 X848.3898 Y1152.3422 Z-9.8962 F2500
G1 X847.9862 Y1152.8535 Z-10.0633 F2500
G1 X847.6780 Y1153.4080 Z-10.2261 F2500
G1 X847.4678 Y1153.9810 Z-10.3827 F2500
G1 X847.3510 Y1154.5502 Z-10.5318 F2500
G1 X847.0902 Y1156.5342 Z-11.0453 F2500
G1 X851.0998 Y1125.7942 Z-19.0000 F2500
G1 X847.0902 Y1156.5342 Z-19.0000 F4000
G1 X847.3510 Y1154.5502 Z-19.0000 F4000
G1 X847.4678 Y1153.9810 Z-19.0000 F4000
G1 X847.6780 Y1153.4080 Z-19.0000 F4000
G1 X847.9862 Y1152.8535 Z-19.0000 F4000
G1 X848.3898 Y1152.3422 Z-19.0000 F4000
G1 X848.8782 Y1151.8978 Z-19.0000 F4000
G1 X849.4330 Y1151.5397 Z-19.0000 F4000
G1 X850.0307 Y1151.2808 Z-19.0000 F4000
G1 X850.6457 Y1151.1251 Z-19.0000 F4000
G1 X851.2535 Y1151.0690 Z-19.0000 F4000
G1 X851.8336 Y1151.1021 Z-19.0000 F4000
G1 X863.7338 Y1152.6543 Z-19.0000 F4000
G1 X861.7499 Y1152.3935 Z-19.0000 F4000
G1 X861.1806 Y1152.2766 Z-19.0000 F4000
G1 X860.6076 Y1152.0665 Z-19.0000 F4000
G1 X860.0531 Y1151.7583 Z-19.0000 F4000
G1 X859.5418 Y1151.3546 Z-19.0000 F4000
G1 X859.0974 Y1150.8663 Z-19.0000 F4000
G1 X858.7394 Y1150.3115 Z-19.0000 F4000
G1 X858.4804 Y1149.7137 Z-19.0000 F4000
G1 X858.3247 Y1149.0987 Z-19.0000 F4000
G1 X858.2686 Y1148.4910 Z-19.0000 F4000
G1 X858.3017 Y1147.9108 Z-19.0000 F4000
G1 X863.9926 Y1104.2807 Z-19.0000 F4000
G1 X864.1201 Y1103.6742 Z-19.0000 F4000
G1 X864.3448 Y1103.0841 Z-19.0000 F4000
G1 X864.6618 Y1102.5335 Z-19.0000 F4000
G1 X865.0593 Y1102.0430 Z-19.0000 F4000
G1 X865.5198 Y1101.6282 Z-19.0000 F4000
G1 X866.0388 Y1101.2895 Z-19.0000 F4000
G1 X866.6149 Y1101.0312 Z-19.0000 F4000
G1 X867.2284 Y1100.8660 Z-19.0000 F4000
G1 X867.8563 Y1100.8002 Z-19.0000 F4000
G1 X868.4752 Y1100.8325 Z-19.0000 F4000
G1 X870.4594 Y1101.0913 Z-19.0000 F4000
G1 X858.5595 Y1099.5371 Z-19.0000 F4000
G1 X857.9903 Y1099.4203 Z-19.0000 F4000
G1 X857.4172 Y1099.2101 Z-19.0000 F4000
G1 X856.8628 Y1098.9019 Z-19.0000 F4000
G1 X856.3515 Y1098.4983 Z-19.0000 F4000
G1 X855.9070 Y1098.0099 Z-19.0000 F4000
G1 X855.5490 Y1097.4551 Z-19.0000 F4000
G1 X855.2900 Y1096.8573 Z-19.0000 F4000
G1 X855.1344 Y1096.2424 Z-19.0000 F4000
G1 X855.0782 Y1095.6346 Z-19.0000 F4000
G1 X855.1113 Y1095.0545 Z-19.0000 F4000
G1 X855.3701 Y1093.0703 Z-19.0000 F4000
G1 X853.2268 Y1109.4312 Z-19.0000 F4000
G1 X851.0998 Y1125.7942 Z-19.0000 F4000
G1 X851.0998 Y1125.7942 Z10.0000 F9999
G1 X1091.3274 Y1155.1100 Z10.0000 F9999
G1 X1091.3274 Y1155.1100 Z1.0000 F2500
G1 X1095.3370 Y1124.3700 Z-6.9547 F2500
G1 X1095.0762 Y1126.3539 Z-7.4682 F2500
G1 X1094.9593 Y1126.9231 Z-7.6173 F2500
G1 X1094.7492 Y1127.4962 Z-7.7739 F2500
G1 X1094.4410 Y1128.0506 Z-7.9367 F2500
G1 X1094.0373 Y1128.5619 Z-8.1038 F2500
G1 X1093.5490 Y1129.0064 Z-8.2733 F2500
G1 X1092.9942 Y1129.3644 Z-8.4427 F2500
G1 X1092.3964 Y1129.6234 Z-8.6099 F2500
G1 X1091.7814 Y1129.7790 Z-8.7726 F2500
G1 X1091.1736 Y1129.8352 Z-8.9293 F2500
G1 X1090.8984 Y1129.8195 Z-9.0000 F2500
G1 X1091.1736 Y1129.8352 Z-9.0707 F2500
G1 X1091.7814 Y1129.7790 Z-9.2274 F2500
G1 X1092.3964 Y1129.6234 Z-9.3901 F2500
G1 X1092.9942 Y1129.3644 Z-9.5573 F2500
G1 X1093.5490 Y1129.0064 Z-9.7267 F2500
G1 X1094.0373 Y1128.5619 Z-9.8962 F2500
G1 X1094.4410 Y1128.0506 Z-10.0633 F2500
G1 X1094.7492 Y1127.4962 Z-10.2261 F2500
G1 X1094.9593 Y1126.9231 Z-10.3827 F2500
G1 X1095.0762 Y1126.3539 Z-10.5318 F2500
G1 X1095.3370 Y1124.3700 Z-11.0453 F2500
G1 X1091.3274 Y1155.1100 Z-19.0000 F2500
G1 X1095.3370 Y1124.3700 Z-19.0000 F4000
G1 X1095.0762 Y1126.3539 Z-19.0000 F4000
G1 X1094.9593 Y1126.9231 Z-19.0000 F4000
G1 X1094.7492 Y1127.4962 Z-19.0000 F4000
G1 X1094.4410 Y1128.0506 Z-19.0000 F4000
G1 X1094.0373 Y1128.5619 Z-19.0000 F4000
G1 X1093.5490 Y1129.0064 Z-19.0000 F4000
G1 X1092.9942 Y1129.3644 Z-19.0000 F4000
G1 X1092.3964 Y1129.6234 Z-19.0000 F4000
G1 X1091.7814 Y1129.7790 Z-19.0000 F4000
G1 X1091.1736 Y1129.8352 Z-19.0000 F4000
G1 X1090.5935 Y1129.8021 Z-19.0000 F4000
G1 X1078.6934 Y1128.2499 Z-19.0000 F4000
G1 X1080.6773 Y1128.5107 Z-19.0000 F4000
G1 X1081.2838 Y1128.6382 Z-19.0000 F4000
G1 X1081.8738 Y1128.8629 Z-19.0000 F4000
G1 X1082.4244 Y1129.1799 Z-19.0000 F4000
G1 X1082.9150 Y1129.5774 Z-19.0000 F4000
G1 X1083.3298 Y1130.0379 Z-19.0000 F4000
G1 X1083.6684 Y1130.5569 Z-19.0000 F4000
G1 X1083.9268 Y1131.1330 Z-19.0000 F4000
G1 X1084.0919 Y1131.7465 Z-19.0000 F4000
G1 X1084.1578 Y1132.3744 Z-19.0000 F4000
G1 X1084.1255 Y1132.9933 Z-19.0000 F4000
G1 X1078.4346 Y1176.6235 Z-19.0000 F4000
G1 X1078.3177 Y1177.1927 Z-19.0000 F4000
G1 X1078.1076 Y1177.7658 Z-19.0000 F4000
G1 X1077.7994 Y1178.3202 Z-19.0000 F4000
G1 X1077.3957 Y1178.8315 Z-19.0000 F4000
G1 X1076.9074 Y1179.2760 Z-19.0000 F4000
G1 X1076.3526 Y1179.6340 Z-19.0000 F4000
G1 X1075.7548 Y1179.8930 Z-19.0000 F4000
G1 X1075.1398 Y1180.0486 Z-19.0000 F4000
G1 X1074.5320 Y1180.1048 Z-19.0000 F4000
G1 X1073.9519 Y1180.0717 Z-19.0000 F4000
G1 X1071.9677 Y1179.8129 Z-19.0000 F4000
G1 X1083.8676 Y1181.3671 Z-19.0000 F4000
G1 X1084.4368 Y1181.4839 Z-19.0000 F4000
G1 X1085.0099 Y1181.6940 Z-19.0000 F4000
G1 X1085.5644 Y1182.0022 Z-19.0000 F4000
G1 X1086.0757 Y1182.4059 Z-19.0000 F4000
G1 X1086.5201 Y1182.8942 Z-19.0000 F4000
G1 X1086.8781 Y1183.4491 Z-19.0000 F4000
G1 X1087.1371 Y1184.0468 Z-19.0000 F4000
G1 X1087.2928 Y1184.6618 Z-19.0000 F4000
G1 X1087.3489 Y1185.2696 Z-19.0000 F4000
G1 X1087.3158 Y1185.8497 Z-19.0000 F4000
G1 X1087.0570 Y1187.8339 Z-19.0000 F4000
G1 X1089.2004 Y1171.4730 Z-19.0000 F4000
G1 X1091.3274 Y1155.1100 Z-19.0000 F4000
G1 X1091.3274 Y1155.1100 Z10.0000 F9999
G1 X1018.0530 Y886.5582 Z10.0000 F9999
G1 X1018.0530 Y886.5582 Z1.0000 F2500
G1 X1048.7930 Y882.5486 Z-6.9547 F2500
G1 X1046.8085 Y882.8054 Z-7.4682 F2500
G1 X1046.2284 Y882.8385 Z-7.6173 F2500
G1 X1045.6206 Y882.7824 Z-7.7739 F2500
G1 X1045.0056 Y882.6267 Z-7.9367 F2500
G1 X1044.4079 Y882.3677 Z-8.1038 F2500
G1 X1043.8530 Y882.0097 Z-8.2733 F2500
G1 X1043.3647 Y881.5653 Z-8.4427 F2500
G1 X1042.9611 Y881.0540 Z-8.6099 F2500
G1 X1042.6529 Y880.4995 Z-8.7726 F2500
G1 X1042.4427 Y879.9265 Z-8.9293 F2500
G1 X1042.3873 Y879.6564 Z-9.0000 F2500
G1 X1042.4427 Y879.9265 Z-9.0707 F2500
G1 X1042.6529 Y880.4995 Z-9.2274 F2500
G1 X1042.9611 Y881.0540 Z-9.3901 F2500
G1 X1043.3647 Y881.5653 Z-9.5573 F2500
G1 X1043.8530 Y882.0097 Z-9.7267 F2500
G1 X1044.4079 Y882.3677 Z-9.8962 F2500
G1 X1045.0056 Y882.6267 Z-10.0633 F2500
G1 X1045.6206 Y882.7824 Z-10.2261 F2500
G1 X1046.2284 Y882.8385 Z-10.3827 F2500
G1 X1046.8085 Y882.8054 Z-10.5318 F2500
G1 X1048.7930 Y882.5486 Z-11.0453 F2500
G1 X1018.0530 Y886.5582 Z-19.0000 F2500
G1 X1048.7930 Y882.5486 Z-19.0000 F4000
G1 X1046.8085 Y882.8054 Z-19.0000 F4000
G1 X1046.2284 Y882.8385 Z-19.0000 F4000
G1 X1045.6206 Y882.7824 Z-19.0000 F4000
G1 X1045.0056 Y882.6267 Z-19.0000 F4000
G1 X1044.4079 Y882.3677 Z-19.0000 F4000
G1 X1043.8530 Y882.0097 Z-19.0000 F4000
G1 X1043.3647 Y881.5653 Z-19.0000 F4000
G1 X1042.9611 Y881.0540 Z-19.0000 F4000
G1 X1042.6529 Y880.4995 Z-19.0000 F4000
G1 X1042.4427 Y879.9265 Z-19.0000 F4000
G1 X1042.3259 Y879.3573 Z-19.0000 F4000
G1 X1040.7737 Y867.4571 Z-19.0000 F4000
G1 X1041.0305 Y869.4415 Z-19.0000 F4000
G1 X1041.0628 Y870.0604 Z-19.0000 F4000
G1 X1040.9970 Y870.6884 Z-19.0000 F4000
G1 X1040.8318 Y871.3019 Z-19.0000 F4000
G1 X1040.5735 Y871.8780 Z-19.0000 F4000
G1 X1040.2348 Y872.3970 Z-19.0000 F4000
G1 X1039.8200 Y872.8575 Z-19.0000 F4000
G1 X1039.3294 Y873.2549 Z-19.0000 F4000
G1 X1038.7788 Y873.5719 Z-19.0000 F4000
G1 X1038.1888 Y873.7966 Z-19.0000 F4000
G1 X1037.5823 Y873.9242 Z-19.0000 F4000
G1 X993.9521 Y879.6151 Z-19.0000 F4000
G1 X993.3332 Y879.6474 Z-19.0000 F4000
G1 X992.7053 Y879.5815 Z-19.0000 F4000
G1 X992.0918 Y879.4164 Z-19.0000 F4000
G1 X991.5157 Y879.1580 Z-19.0000 F4000
G1 X990.9967 Y878.8194 Z-19.0000 F4000
G1 X990.5362 Y878.4046 Z-19.0000 F4000
G1 X990.1387 Y877.9140 Z-19.0000 F4000
G1 X989.8217 Y877.3634 Z-19.0000 F4000
G1 X989.5970 Y876.7733 Z-19.0000 F4000
G1 X989.4695 Y876.1669 Z-19.0000 F4000
G1 X989.2107 Y874.1827 Z-19.0000 F4000
G1 X990.7609 Y886.0831 Z-19.0000 F4000
G1 X990.7940 Y886.6632 Z-19.0000 F4000
G1 X990.7379 Y887.2710 Z-19.0000 F4000
G1 X990.5822 Y887.8860 Z-19.0000 F4000
G1 X990.3232 Y888.4837 Z-19.0000 F4000
G1 X989.9652 Y889.0386 Z-19.0000 F4000
G1 X989.5208 Y889.5269 Z-19.0000 F4000
G1 X989.0095 Y889.9306 Z-19.0000 F4000
G1 X988.4550 Y890.2388 Z-19.0000 F4000
G1 X987.8819 Y890.4489 Z-19.0000 F4000
G1 X987.3127 Y890.5657 Z-19.0000 F4000
G1 X985.3285 Y890.8246 Z-19.0000 F4000
G1 X1001.6918 Y888.6995 Z-19.0000 F4000
G1 X1018.0530 Y886.5582 Z-19.0000 F4000
G1 X1018.0530 Y886.5582 Z10.0000 F9999
G1 X984.7673 Y646.8484 Z10.0000 F9999
G1 X984.7673 Y646.8484 Z1.0000 F2500
G1 X954.0273 Y650.8581 Z-6.9547 F2500
G1 X956.0118 Y650.6012 Z-7.4682 F2500
G1 X956.5919 Y650.5682 Z-7.6173 F2500
G1 X957.1997 Y650.6243 Z-7.7739 F2500
G1 X957.8147 Y650.7800 Z-7.9367 F2500
G1 X958.4124 Y651.0389 Z-8.1038 F2500
G1 X958.9672 Y651.3969 Z-8.2733 F2500
G1 X959.4556 Y651.8414 Z-8.4427 F2500
G1 X959.8592 Y652.3527 Z-8.6099 F2500
G1 X960.1674 Y652.9072 Z-8.7726 F2500
G1 X960.3776 Y653.4802 Z-8.9293 F2500
G1 X960.4330 Y653.7503 Z-9.0000 F2500
G1 X960.3776 Y653.4802 Z-9.0707 F2500
G1 X960.1674 Y652.9072 Z-9.2274 F2500
G1 X959.8592 Y652.3527 Z-9.3901 F2500
G1 X959.4556 Y651.8414 Z-9.5573 F2500
G1 X958.9672 Y651.3969 Z-9.7267 F2500
G1 X958.4124 Y651.0389 Z-9.8962 F2500
G1 X957.8147 Y650.7800 Z-10.0633 F2500
G1 X957.1997 Y650.6243 Z-10.2261 F2500
G1 X956.5919 Y650.5682 Z-10.3827 F2500
G1 X956.0118 Y650.6012 Z-10.5318 F2500
G1 X954.0273 Y650.8581 Z-11.0453 F2500
G1 X984.7673 Y646.8484 Z-19.0000 F2500
G1 X954.0273 Y650.8581 Z-19.0000 F4000
G1 X956.0118 Y650.6012 Z-19.0000 F4000
G1 X956.5919 Y650.5682 Z-19.0000 F4000
G1 X957.1997 Y650.6243 Z-19.0000 F4000
G1 X957.8147 Y650.7800 Z-19.0000 F4000
G1 X958.4124 Y651.0389 Z-19.0000 F4000
G1 X958.9672 Y651.3969 Z-19.0000 F4000
G1 X959.4556 Y651.8414 Z-19.0000 F4000
G1 X959.8592 Y652.3527 Z-19.0000 F4000
G1 X960.1674 Y652.9072 Z-19.0000 F4000
G1 X960.3776 Y653.4802 Z-19.0000 F4000
G1 X960.4944 Y654.0494 Z-19.0000 F4000
G1 X962.0467 Y665.9496 Z-19.0000 F4000
G1 X961.7898 Y663.9651 Z-19.0000 F4000
G1 X961.7575 Y663.3462 Z-19.0000 F4000
G1 X961.8234 Y662.7183 Z-19.0000 F4000
G1 X961.9885 Y662.1048 Z-19.0000 F4000
G1 X962.2469 Y661.5287 Z-19.0000 F4000
G1 X962.5855 Y661.0097 Z-19.0000 F4000
G1 X963.0003 Y660.5492 Z-19.0000 F4000
G1 X963.4909 Y660.1517 Z-19.0000 F4000
G1 X964.0415 Y659.8347 Z-19.0000 F4000
G1 X964.6315 Y659.6100 Z-19.0000 F4000
G1 X965.2380 Y659.4825 Z-19.0000 F4000
G1 X1008.8682 Y653.7915 Z-19.0000 F4000
G1 X1009.4483 Y653.7584 Z-19.0000 F4000
G1 X1010.0561 Y653.8145 Z-19.0000 F4000
G1 X1010.6710 Y653.9702 Z-19.0000 F4000
G1 X1011.2688 Y654.2292 Z-19.0000 F4000
G1 X1011.8236 Y654.5872 Z-19.0000 F4000
G1 X1012.3120 Y655.0316 Z-19.0000 F4000
G1 X1012.7156 Y655.5429 Z-19.0000 F4000
G1 X1013.0238 Y656.0974 Z-19.0000 F4000
G1 X1013.2340 Y656.6705 Z-19.0000 F4000
G1 X1013.3508 Y657.2397 Z-19.0000 F4000
G1 X1013.6096 Y659.2238 Z-19.0000 F4000
G1 X1012.0594 Y647.3234 Z-19.0000 F4000
G1 X1012.0263 Y646.7433 Z-19.0000 F4000
G1 X1012.0824 Y646.1355 Z-19.0000 F4000
G1 X1012.2381 Y645.5205 Z-19.0000 F4000
G1 X1012.4971 Y644.9228 Z-19.0000 F4000
G1 X1012.8551 Y644.3680 Z-19.0000 F4000
G1 X1013.2995 Y643.8796 Z-19.0000 F4000
G1 X1013.8108 Y643.4760 Z-19.0000 F4000
G1 X1014.3653 Y643.1678 Z-19.0000 F4000
G1 X1014.9383 Y642.9576 Z-19.0000 F4000
G1 X1015.5075 Y642.8408 Z-19.0000 F4000
G1 X1017.4917 Y642.5820 Z-19.0000 F4000
G1 X1001.1285 Y644.7070 Z-19.0000 F4000
G1 X984.7673 Y646.8484 Z-19.0000 F4000
G1 X984.7673 Y646.8484 Z10.0000 F9999
G1 X487.7633 Y1156.4434 Z10.0000 F9999
G1 X487.7633 Y1156.4434 Z1.0000 F2500
G1 X491.7729 Y1125.7034 Z-6.9547 F2500
G1 X491.5121 Y1127.6873 Z-7.4682 F2500
G1 X491.3953 Y1128.2565 Z-7.6173 F2500
G1 X491.1851 Y1128.8296 Z-7.7739 F2500
G1 X490.8769 Y1129.3841 Z-7.9367 F2500
G1 X490.4733 Y1129.8954 Z-8.1038 F2500
G1 X489.9849 Y1130.3398 Z-8.2733 F2500
G1 X489.4301 Y1130.6978 Z-8.4427 F2500
G1 X488.8324 Y1130.9568 Z-8.6099 F2500
G1 X488.2174 Y1131.1125 Z-8.7726 F2500
G1 X487.6096 Y1131.1686 Z-8.9293 F2500
G1 X487.3343 Y1131.1529 Z-9.0000 F2500
G1 X487.6096 Y1131.1686 Z-9.0707 F2500
G1 X488.2174 Y1131.1125 Z-9.2274 F2500
G1 X488.8324 Y1130.9568 Z-9.3901 F2500
G1 X489.4301 Y1130.6978 Z-9.5573 F2500
G1 X489.9849 Y1130.3398 Z-9.7267 F2500
G1 X490.4733 Y1129.8954 Z-9.8962 F2500
G1 X490.8769 Y1129.3841 Z-10.0633 F2500
G1 X491.1851 Y1128.8296 Z-10.2261 F2500
G1 X491.3953 Y1128.2565 Z-10.3827 F2500
G1 X491.5121 Y1127.6873 Z-10.5318 F2500
G1 X491.7729 Y1125.7034 Z-11.0453 F2500
G1 X487.7633 Y1156.4434 Z-19.0000 F2500
G1 X491.7729 Y1125.7034 Z-19.0000 F4000
G1 X491.5121 Y1127.6873 Z-19.0000 F4000
G1 X491.3953 Y1128.2565 Z-19.0000 F4000
G1 X491.1851 Y1128.8296 Z-19.0000 F4000
G1 X490.8769 Y1129.3841 Z-19.0000 F4000
G1 X490.4733 Y1129.8954 Z-19.0000 F4000
G1 X489.9849 Y1130.3398 Z-19.0000 F4000
G1 X489.4301 Y1130.6978 Z-19.0000 F4000
G1 X488.8324 Y1130.9568 Z-19.0000 F4000
G1 X488.2174 Y1131.1125 Z-19.0000 F4000
G1 X487.6096 Y1131.1686 Z-19.0000 F4000
G1 X487.0295 Y1131.1355 Z-19.0000 F4000
G1 X475.1293 Y1129.5833 Z-19.0000 F4000
G1 X477.1132 Y1129.8441 Z-19.0000 F4000
G1 X477.7197 Y1129.9716 Z-19.0000 F4000
G1 X478.3098 Y1130.1963 Z-19.0000 F4000
G1 X478.8604 Y1130.5134 Z-19.0000 F4000
G1 X479.3509 Y1130.9108 Z-19.0000 F4000
G1 X479.7657 Y1131.3713 Z-19.0000 F4000
G1 X480.1044 Y1131.8903 Z-19.0000 F4000
G1 X480.3627 Y1132.4664 Z-19.0000 F4000
G1 X480.5279 Y1133.0799 Z-19.0000 F4000
G1 X480.5937 Y1133.7079 Z-19.0000 F4000
G1 X480.5614 Y1134.3267 Z-19.0000 F4000
G1 X474.8705 Y1177.9569 Z-19.0000 F4000
G1 X474.7537 Y1178.5261 Z-19.0000 F4000
G1 X474.5435 Y1179.0992 Z-19.0000 F4000
G1 X474.2353 Y1179.6536 Z-19.0000 F4000
G1 X473.8317 Y1180.1650 Z-19.0000 F4000
G1 X473.3433 Y1180.6094 Z-19.0000 F4000
G1 X472.7885 Y1180.9674 Z-19.0000 F4000
G1 X472.1908 Y1181.2264 Z-19.0000 F4000
G1 X471.5758 Y1181.3820 Z-19.0000 F4000
G1 X470.9680 Y1181.4382 Z-19.0000 F4000
G1 X470.3879 Y1181.4051 Z-19.0000 F4000
G1 X468.4037 Y1181.1463 Z-19.0000 F4000
G1 X480.3036 Y1182.7005 Z-19.0000 F4000
G1 X480.9101 Y1182.8280 Z-19.0000 F4000
G1 X481.5001 Y1183.0527 Z-19.0000 F4000
G1 X482.0507 Y1183.3697 Z-19.0000 F4000
G1 X482.5413 Y1183.7672 Z-19.0000 F4000
G1 X482.9561 Y1184.2277 Z-19.0000 F4000
G1 X483.2947 Y1184.7467 Z-19.0000 F4000
G1 X483.5531 Y1185.3228 Z-19.0000 F4000
G1 X483.7182 Y1185.9363 Z-19.0000 F4000
G1 X483.7841 Y1186.5642 Z-19.0000 F4000
G1 X483.7518 Y1187.1831 Z-19.0000 F4000
G1 X483.4930 Y1189.1673 Z-19.0000 F4000
G1 X485.6363 Y1172.8064 Z-19.0000 F4000
G1 X487.7633 Y1156.4434 Z-19.0000 F4000
G1 X487.7633 Y1156.4434 Z10.0000 F9999
G1 X247.5357 Y1127.1276 Z10.0000 F9999
G1 X247.5357 Y1127.1276 Z1.0000 F2500
G1 X243.5261 Y1157.8676 Z-6.9547 F2500
G1 X243.7869 Y1155.8837 Z-7.4682 F2500
G1 X243.9038 Y1155.3145 Z-7.6173 F2500
G1 X244.1139 Y1154.7414 Z-7.7739 F2500
G1 X244.4221 Y1154.1869 Z-7.9367 F2500
G1 X244.8258 Y1153.6756 Z-8.1038 F2500
G1 X245.3141 Y1153.2312 Z-8.2733 F2500
G1 X245.8690 Y1152.8732 Z-8.4427 F2500
G1 X246.4667 Y1152.6142 Z-8.6099 F2500
G1 X247.0817 Y1152.4585 Z-8.7726 F2500
G1 X247.6895 Y1152.4024 Z-8.9293 F2500
G1 X247.9647 Y1152.4181 Z-9.0000 F2500
G1 X247.6895 Y1152.4024 Z-9.0707 F2500
G1 X247.0817 Y1152.4585 Z-9.2274 F2500
G1 X246.4667 Y1152.6142 Z-9.3901 F2500
G1 X245.8690 Y1152.8732 Z-9.5573 F2500
G1 X245.3141 Y1153.2312 Z-9.7267 F2500
G1 X244.8258 Y1153.6756 Z-9.8962 F2500
G1 X244.4221 Y1154.1869 Z-10.0633 F2500
G1 X244.1139 Y1154.7414 Z-10.2261 F2500
G1 X243.9038 Y1155.3145 Z-10.3827 F2500
G1 X243.7869 Y1155.8837 Z-10.5318 F2500
G1 X243.5261 Y1157.8676 Z-11.0453 F2500
G1 X247.5357 Y1127.1276 Z-19.0000 F2500
G1 X243.5261 Y1157.8676 Z-19.0000 F4000
G1 X243.7869 Y1155.8837 Z-19.0000 F4000
G1 X243.9038 Y1155.3145 Z-19.0000 F4000
G1 X244.1139 Y1154.7414 Z-19.0000 F4000
G1 X244.4221 Y1154.1869 Z-19.0000 F4000
G1 X244.8258 Y1153.6756 Z-19.0000 F4000
G1 X245.3141 Y1153.2312 Z-19.0000 F4000
G1 X245.8690 Y1152.8732 Z-19.0000 F4000
G1 X246.4667 Y1152.6142 Z-19.0000 F4000
G1 X247.0817 Y1152.4585 Z-19.0000 F4000
G1 X247.6895 Y1152.4024 Z-19.0000 F4000
G1 X248.2696 Y1152.4355 Z-19.0000 F4000
G1 X260.1697 Y1153.9877 Z-19.0000 F4000
G1 X258.1858 Y1153.7269 Z-19.0000 F4000
G1 X257.6166 Y1153.6101 Z-19.0000 F4000
G1 X257.0436 Y1153.3999 Z-19.0000 F4000
G1 X256.4891 Y1153.0917 Z-19.0000 F4000
G1 X255.9778 Y1152.6881 Z-19.0000 F4000
G1 X255.5333 Y1152.1997 Z-19.0000 F4000
G1 X255.1753 Y1151.6449 Z-19.0000 F4000
G1 X254.9163 Y1151.0471 Z-19.0000 F4000
G1 X254.7607 Y1150.4322 Z-19.0000 F4000
G1 X254.7045 Y1149.8244 Z-19.0000 F4000
G1 X254.7376 Y1149.2442 Z-19.0000 F4000
G1 X260.4285 Y1105.6141 Z-19.0000 F4000
G1 X260.5561 Y1105.0076 Z-19.0000 F4000
G1 X260.7808 Y1104.4176 Z-19.0000 F4000
G1 X261.0978 Y1103.8670 Z-19.0000 F4000
G1 X261.4953 Y1103.3764 Z-19.0000 F4000
G1 X261.9557 Y1102.9616 Z-19.0000 F4000
G1 X262.4747 Y1102.6229 Z-19.0000 F4000
G1 X263.0508 Y1102.3646 Z-19.0000 F4000
G1 X263.6643 Y1102.1994 Z-19.0000 F4000
G1 X264.2923 Y1102.1336 Z-19.0000 F4000
G1 X264.9112 Y1102.1659 Z-19.0000 F4000
G1 X266.8954 Y1102.4247 Z-19.0000 F4000
G1 X254.9955 Y1100.8705 Z-19.0000 F4000
G1 X254.4263 Y1100.7537 Z-19.0000 F4000
G1 X253.8532 Y1100.5435 Z-19.0000 F4000
G1 X253.2987 Y1100.2353 Z-19.0000 F4000
G1 X252.7874 Y1099.8317 Z-19.0000 F4000
G1 X252.3430 Y1099.3433 Z-19.0000 F4000
G1 X251.9850 Y1098.7885 Z-19.0000 F4000
G1 X251.7260 Y1098.1908 Z-19.0000 F4000
G1 X251.5703 Y1097.5758 Z-19.0000 F4000
G1 X251.5142 Y1096.9680 Z-19.0000 F4000
G1 X251.5473 Y1096.3879 Z-19.0000 F4000
G1 X251.8061 Y1094.4037 Z-19.0000 F4000
G1 X249.6627 Y1110.7646 Z-19.0000 F4000
G1 X247.5357 Y1127.1276 Z-19.0000 F4000
G1 X247.5357 Y1127.1276 Z10.0000 F9999
G1 X208.7344 Y1424.6079 Z10.0000 F9999
G1 X208.7344 Y1424.6079 Z1.0000 F2500
G1 X204.7249 Y1455.3479 Z-6.9547 F2500
G1 X204.9857 Y1453.3640 Z-7.4682 F2500
G1 X205.1025 Y1452.7948 Z-7.6173 F2500
G1 X205.3127 Y1452.2217 Z-7.7739 F2500
G1 X205.6208 Y1451.6672 Z-7.9367 F2500
G1 X206.0245 Y1451.1559 Z-8.1038 F2500
G1 X206.5128 Y1450.7115 Z-8.2733 F2500
G1 X207.0677 Y1450.3535 Z-8.4427 F2500
G1 X207.6654 Y1450.0945 Z-8.6099 F2500
G1 X208.2804 Y1449.9388 Z-8.7726 F2500
G1 X208.8882 Y1449.8827 Z-8.9293 F2500
G1 X209.1634 Y1449.8984 Z-9.0000 F2500
G1 X208.8882 Y1449.8827 Z-9.0707 F2500
G1 X208.2804 Y1449.9388 Z-9.2274 F2500
G1 X207.6654 Y1450.0945 Z-9.3901 F2500
G1 X207.0677 Y1450.3535 Z-9.5573 F2500
G1 X206.5128 Y1450.7115 Z-9.7267 F2500
G1 X206.0245 Y1451.1559 Z-9.8962 F2500
G1 X205.6208 Y1451.6672 Z-10.0633 F2500
G1 X205.3127 Y1452.2217 Z-10.2261 F2500
G1 X205.1025 Y1452.7948 Z-10.3827 F2500
G1 X204.9857 Y1453.3640 Z-10.5318 F2500
G1 X204.7249 Y1455.3479 Z-11.0453 F2500
G1 X208.7344 Y1424.6079 Z-19.0000 F2500
G1 X204.7249 Y1455.3479 Z-19.0000 F4000
G1 X204.9857 Y1453.3640 Z-19.0000 F4000
G1 X205.1025 Y1452.7948 Z-19.0000 F4000
G1 X205.3127 Y1452.2217 Z-19.0000 F4000
G1 X205.6208 Y1451.6672 Z-19.0000 F4000
G1 X206.0245 Y1451.1559 Z-19.0000 F4000
G1 X206.5128 Y1450.7115 Z-19.0000 F4000
G1 X207.0677 Y1450.3535 Z-19.0000 F4000
G1 X207.6654 Y1450.0945 Z-19.0000 F4000
G1 X208.2804 Y1449.9388 Z-19.0000 F4000
G1 X208.8882 Y1449.8827 Z-19.0000 F4000
G1 X209.4683 Y1449.9158 Z-19.0000 F4000
G1 X221.3685 Y1451.4680 Z-19.0000 F4000
G1 X219.3845 Y1451.2072 Z-19.0000 F4000
G1 X218.7781 Y1451.0797 Z-19.0000 F4000
G1 X218.1880 Y1450.8550 Z-19.0000 F4000
G1 X217.6374 Y1450.5379 Z-19.0000 F4000
G1 X217.1468 Y1450.1405 Z-19.0000 F4000
G1 X216.7321 Y1449.6800 Z-19.0000 F4000
G1 X216.3934 Y1449.1610 Z-19.0000 F4000
G1 X216.1351 Y1448.5849 Z-19.0000 F4000
G1 X215.9699 Y1447.9714 Z-19.0000 F4000
G1 X215.9041 Y1447.3434 Z-19.0000 F4000
G1 X215.9364 Y1446.7246 Z-19.0000 F4000
G1 X221.6273 Y1403.0944 Z-19.0000 F4000
G1 X221.7441 Y1402.5252 Z-19.0000 F4000
G1 X221.9543 Y1401.9521 Z-19.0000 F4000
G1 X222.2624 Y1401.3977 Z-19.0000 F4000
G1 X222.6661 Y1400.8863 Z-19.0000 F4000
G1 X223.1544 Y1400.4419 Z-19.0000 F4000
G1 X223.7093 Y1400.0839 Z-19.0000 F4000
G1 X224.3070 Y1399.8249 Z-19.0000 F4000
G1 X224.9220 Y1399.6693 Z-19.0000 F4000
G1 X225.5298 Y1399.6131 Z-19.0000 F4000
G1 X226.1099 Y1399.6462 Z-19.0000 F4000
G1 X228.0941 Y1399.9050 Z-19.0000 F4000
G1 X216.1942 Y1398.3508 Z-19.0000 F4000
G1 X215.6250 Y1398.2340 Z-19.0000 F4000
G1 X215.0519 Y1398.0238 Z-19.0000 F4000
G1 X214.4975 Y1397.7156 Z-19.0000 F4000
G1 X213.9861 Y1397.3120 Z-19.0000 F4000
G1 X213.5417 Y1396.8236 Z-19.0000 F4000
G1 X213.1837 Y1396.2688 Z-19.0000 F4000
G1 X212.9247 Y1395.6711 Z-19.0000 F4000
G1 X212.7691 Y1395.0561 Z-19.0000 F4000
G1 X212.7129 Y1394.4483 Z-19.0000 F4000
G1 X212.7460 Y1393.8682 Z-19.0000 F4000
G1 X213.0048 Y1391.8840 Z-19.0000 F4000
G1 X210.8615 Y1408.2449 Z-19.0000 F4000
G1 X208.7344 Y1424.6079 Z-19.0000 F4000
G1 X208.7344 Y1424.6079 Z10.0000 F9999
G1 X448.9621 Y1453.9237 Z10.0000 F9999
G1 X448.9621 Y1453.9237 Z1.0000 F2500
G1 X452.9716 Y1423.1837 Z-6.9547 F2500
G1 X452.7108 Y1425.1676 Z-7.4682 F2500
G1 X452.5940 Y1425.7368 Z-7.6173 F2500
G1 X452.3839 Y1426.3099 Z-7.7739 F2500
G1 X452.0757 Y1426.8644 Z-7.9367 F2500
G1 X451.6720 Y1427.3757 Z-8.1038 F2500
G1 X451.1837 Y1427.8201 Z-8.2733 F2500
G1 X450.6288 Y1428.1781 Z-8.4427 F2500
G1 X450.0311 Y1428.4371 Z-8.6099 F2500
G1 X449.4161 Y1428.5928 Z-8.7726 F2500
G1 X448.8083 Y1428.6489 Z-8.9293 F2500
G1 X448.5331 Y1428.6332 Z-9.0000 F2500
G1 X448.8083 Y1428.6489 Z-9.0707 F2500
G1 X449.4161 Y1428.5928 Z-9.2274 F2500
G1 X450.0311 Y1428.4371 Z-9.3901 F2500
G1 X450.6288 Y1428.1781 Z-9.5573 F2500
G1 X451.1837 Y1427.8201 Z-9.7267 F2500
G1 X451.6720 Y1427.3757 Z-9.8962 F2500
G1 X452.0757 Y1426.8644 Z-10.0633 F2500
G1 X452.3839 Y1426.3099 Z-10.2261 F2500
G1 X452.5940 Y1425.7368 Z-10.3827 F2500
G1 X452.7108 Y1425.1676 Z-10.5318 F2500
G1 X452.9716 Y1423.1837 Z-11.0453 F2500
G1 X448.9621 Y1453.9237 Z-19.0000 F2500
G1 X452.9716 Y1423.1837 Z-19.0000 F4000
G1 X452.7108 Y1425.1676 Z-19.0000 F4000
G1 X452.5940 Y1425.7368 Z-19.0000 F4000
G1 X452.3839 Y1426.3099 Z-19.0000 F4000
G1 X452.0757 Y1426.8644 Z-19.0000 F4000
G1 X451.6720 Y1427.3757 Z-19.0000 F4000
G1 X451.1837 Y1427.8201 Z-19.0000 F4000
G1 X450.6288 Y1428.1781 Z-19.0000 F4000
G1 X450.0311 Y1428.4371 Z-19.0000 F4000
G1 X449.4161 Y1428.5928 Z-19.0000 F4000
G1 X448.8083 Y1428.6489 Z-19.0000 F4000
G1 X448.2282 Y1428.6158 Z-19.0000 F4000
G1 X436.3280 Y1427.0636 Z-19.0000 F4000
G1 X438.3120 Y1427.3244 Z-19.0000 F4000
G1 X438.8812 Y1427.4412 Z-19.0000 F4000
G1 X439.4542 Y1427.6514 Z-19.0000 F4000
G1 X440.0087 Y1427.9596 Z-19.0000 F4000
G1 X440.5200 Y1428.3632 Z-19.0000 F4000
G1 X440.9644 Y1428.8516 Z-19.0000 F4000
G1 X441.3225 Y1429.4064 Z-19.0000 F4000
G1 X441.5814 Y1430.0042 Z-19.0000 F4000
G1 X441.7371 Y1430.6191 Z-19.0000 F4000
G1 X441.7932 Y1431.2269 Z-19.0000 F4000
G1 X441.7602 Y1431.8070 Z-19.0000 F4000
G1 X436.0692 Y1475.4372 Z-19.0000 F4000
G1 X435.9417 Y1476.0437 Z-19.0000 F4000
G1 X435.7170 Y1476.6337 Z-19.0000 F4000
G1 X435.4000 Y1477.1843 Z-19.0000 F4000
G1 X435.0025 Y1477.6749 Z-19.0000 F4000
G1 X434.5421 Y1478.0897 Z-19.0000 F4000
G1 X434.0230 Y1478.4284 Z-19.0000 F4000
G1 X433.4469 Y1478.6867 Z-19.0000 F4000
G1 X432.8334 Y1478.8519 Z-19.0000 F4000
G1 X432.2055 Y1478.9177 Z-19.0000 F4000
G1 X431.5866 Y1478.8854 Z-19.0000 F4000
G1 X429.6024 Y1478.6266 Z-19.0000 F4000
G1 X441.5023 Y1480.1808 Z-19.0000 F4000
G1 X442.0715 Y1480.2976 Z-19.0000 F4000
G1 X442.6446 Y1480.5078 Z-19.0000 F4000
G1 X443.1990 Y1480.8160 Z-19.0000 F4000
G1 X443.7104 Y1481.2196 Z-19.0000 F4000
G1 X444.1548 Y1481.7080 Z-19.0000 F4000
G1 X444.5128 Y1482.2628 Z-19.0000 F4000
G1 X444.7718 Y1482.8605 Z-19.0000 F4000
G1 X444.9274 Y1483.4755 Z-19.0000 F4000
G1 X444.9836 Y1484.0833 Z-19.0000 F4000
G1 X444.9505 Y1484.6634 Z-19.0000 F4000
G1 X444.6917 Y1486.6476 Z-19.0000 F4000
G1 X446.8351 Y1470.2867 Z-19.0000 F4000
G1 X448.9621 Y1453.9237 Z-19.0000 F4000
G1 X448.9621 Y1453.9237 Z10.0000 F9999
G1 X579.4884 Y1654.3583 Z10.0000 F9999
G1 X579.4884 Y1654.3583 Z1.0000 F2500
G1 X548.7484 Y1658.3679 Z-6.9547 F2500
G1 X550.7328 Y1658.1111 Z-7.4682 F2500
G1 X551.3517 Y1658.0788 Z-7.6272 F2500
G1 X551.9797 Y1658.1446 Z-7.7892 F2500
G1 X552.5932 Y1658.3098 Z-7.9522 F2500
G1 X553.1693 Y1658.5681 Z-8.1142 F2500
G1 X553.6883 Y1658.9068 Z-8.2733 F2500
G1 X554.1488 Y1659.3216 Z-8.4323 F2500
G1 X554.5462 Y1659.8121 Z-8.5943 F2500
G1 X554.8633 Y1660.3628 Z-8.7573 F2500
G1 X555.0880 Y1660.9528 Z-8.9193 F2500
G1 X555.1526 Y1661.2604 Z-9.0000 F2500
G1 X555.0880 Y1660.9528 Z-9.0807 F2500
G1 X554.8633 Y1660.3628 Z-9.2427 F2500
G1 X554.5462 Y1659.8121 Z-9.4057 F2500
G1 X554.1488 Y1659.3216 Z-9.5677 F2500
G1 X553.6883 Y1658.9068 Z-9.7267 F2500
G1 X553.1693 Y1658.5681 Z-9.8858 F2500
G1 X552.5932 Y1658.3098 Z-10.0478 F2500
G1 X551.9797 Y1658.1446 Z-10.2108 F2500
G1 X551.3517 Y1658.0788 Z-10.3728 F2500
G1 X550.7328 Y1658.1111 Z-10.5318 F2500
G1 X548.7484 Y1658.3679 Z-11.0453 F2500
G1 X579.4884 Y1654.3583 Z-19.0000 F2500
G1 X548.7484 Y1658.3679 Z-19.0000 F4000
G1 X550.7328 Y1658.1111 Z-19.0000 F4000
G1 X551.3517 Y1658.0788 Z-19.0000 F4000
G1 X551.9797 Y1658.1446 Z-19.0000 F4000
G1 X552.5932 Y1658.3098 Z-19.0000 F4000
G1 X553.1693 Y1658.5681 Z-19.0000 F4000
G1 X553.6883 Y1658.9068 Z-19.0000 F4000
G1 X554.1488 Y1659.3216 Z-19.0000 F4000
G1 X554.5462 Y1659.8121 Z-19.0000 F4000
G1 X554.8633 Y1660.3628 Z-19.0000 F4000
G1 X555.0880 Y1660.9528 Z-19.0000 F4000
G1 X555.2155 Y1661.5593 Z-19.0000 F4000
G1 X556.7677 Y1673.4594 Z-19.0000 F4000
G1 X556.5109 Y1671.4750 Z-19.0000 F4000
G1 X556.4786 Y1670.8561 Z-19.0000 F4000
G1 X556.5444 Y1670.2282 Z-19.0000 F4000
G1 X556.7096 Y1669.6146 Z-19.0000 F4000
G1 X556.9679 Y1669.0385 Z-19.0000 F4000
G1 X557.3066 Y1668.5195 Z-19.0000 F4000
G1 X557.7213 Y1668.0591 Z-19.0000 F4000
G1 X558.2119 Y1667.6616 Z-19.0000 F4000
G1 X558.7625 Y1667.3446 Z-19.0000 F4000
G1 X559.3526 Y1667.1199 Z-19.0000 F4000
G1 X559.9590 Y1666.9923 Z-19.0000 F4000
G1 X603.5892 Y1661.3015 Z-19.0000 F4000
G1 X604.2081 Y1661.2692 Z-19.0000 F4000
G1 X604.8360 Y1661.3350 Z-19.0000 F4000
G1 X605.4496 Y1661.5002 Z-19.0000 F4000
G1 X606.0257 Y1661.7585 Z-19.0000 F4000
G1 X606.5447 Y1662.0972 Z-19.0000 F4000
G1 X607.0051 Y1662.5119 Z-19.0000 F4000
G1 X607.4026 Y1663.0025 Z-19.0000 F4000
G1 X607.7196 Y1663.5531 Z-19.0000 F4000
G1 X607.9443 Y1664.1432 Z-19.0000 F4000
G1 X608.0719 Y1664.7496 Z-19.0000 F4000
G1 X608.3307 Y1666.7338 Z-19.0000 F4000
G1 X606.7804 Y1654.8334 Z-19.0000 F4000
G1 X606.7474 Y1654.2533 Z-19.0000 F4000
G1 X606.8035 Y1653.6455 Z-19.0000 F4000
G1 X606.9592 Y1653.0305 Z-19.0000 F4000
G1 X607.2181 Y1652.4328 Z-19.0000 F4000
G1 X607.5762 Y1651.8779 Z-19.0000 F4000
G1 X608.0206 Y1651.3896 Z-19.0000 F4000
G1 X608.5319 Y1650.9860 Z-19.0000 F4000
G1 X609.0864 Y1650.6778 Z-19.0000 F4000
G1 X609.6594 Y1650.4676 Z-19.0000 F4000
G1 X610.2286 Y1650.3508 Z-19.0000 F4000
G1 X612.2128 Y1650.0920 Z-19.0000 F4000
G1 X595.8495 Y1652.2170 Z-19.0000 F4000
G1 X579.4884 Y1654.3583 Z-19.0000 F4000
G1 X579.4884 Y1654.3583 Z10.0000 F9999
G1 X612.7740 Y1894.0681 Z10.0000 F9999
G1 X612.7740 Y1894.0681 Z1.0000 F2500
G1 X643.5140 Y1890.0584 Z-6.9547 F2500
G1 X641.5296 Y1890.3153 Z-7.4682 F2500
G1 X640.9494 Y1890.3484 Z-7.6173 F2500
G1 X640.3417 Y1890.2922 Z-7.7739 F2500
G1 X639.7267 Y1890.1366 Z-7.9367 F2500
G1 X639.1289 Y1889.8776 Z-8.1038 F2500
G1 X638.5741 Y1889.5196 Z-8.2733 F2500
G1 X638.0857 Y1889.0751 Z-8.4427 F2500
G1 X637.6821 Y1888.5638 Z-8.6099 F2500
G1 X637.3739 Y1888.0094 Z-8.7726 F2500
G1 X637.1637 Y1887.4363 Z-8.9293 F2500
G1 X637.1083 Y1887.1662 Z-9.0000 F2500
G1 X637.1637 Y1887.4363 Z-9.0707 F2500
G1 X637.3739 Y1888.0094 Z-9.2274 F2500
G1 X637.6821 Y1888.5638 Z-9.3901 F2500
G1 X638.0857 Y1889.0751 Z-9.5573 F2500
G1 X638.5741 Y1889.5196 Z-9.7267 F2500
G1 X639.1289 Y1889.8776 Z-9.8962 F2500
G1 X639.7267 Y1890.1366 Z-10.0633 F2500
G1 X640.3417 Y1890.2922 Z-10.2261 F2500
G1 X640.9494 Y1890.3484 Z-10.3827 F2500
G1 X641.5296 Y1890.3153 Z-10.5318 F2500
G1 X643.5140 Y1890.0584 Z-11.0453 F2500
G1 X612.7740 Y1894.0681 Z-19.0000 F2500
G1 X643.5140 Y1890.0584 Z-19.0000 F4000
G1 X641.5296 Y1890.3153 Z-19.0000 F4000
G1 X640.9494 Y1890.3484 Z-19.0000 F4000
G1 X640.3417 Y1890.2922 Z-19.0000 F4000
G1 X639.7267 Y1890.1366 Z-19.0000 F4000
G1 X639.1289 Y1889.8776 Z-19.0000 F4000
G1 X638.5741 Y1889.5196 Z-19.0000 F4000
G1 X638.0857 Y1889.0751 Z-19.0000 F4000
G1 X637.6821 Y1888.5638 Z-19.0000 F4000
G1 X637.3739 Y1888.0094 Z-19.0000 F4000
G1 X637.1637 Y1887.4363 Z-19.0000 F4000
G1 X637.0469 Y1886.8671 Z-19.0000 F4000
G1 X635.4947 Y1874.9669 Z-19.0000 F4000
G1 X635.7515 Y1876.9514 Z-19.0000 F4000
G1 X635.7838 Y1877.5703 Z-19.0000 F4000
G1 X635.7180 Y1878.1982 Z-19.0000 F4000
G1 X635.5528 Y1878.8117 Z-19.0000 F4000
G1 X635.2945 Y1879.3878 Z-19.0000 F4000
G1 X634.9558 Y1879.9068 Z-19.0000 F4000
G1 X634.5410 Y1880.3673 Z-19.0000 F4000
G1 X634.0505 Y1880.7648 Z-19.0000 F4000
G1 X633.4999 Y1881.0818 Z-19.0000 F4000
G1 X632.9098 Y1881.3065 Z-19.0000 F4000
G1 X632.3034 Y1881.4340 Z-19.0000 F4000
G1 X588.6732 Y1887.1250 Z-19.0000 F4000
G1 X588.0931 Y1887.1581 Z-19.0000 F4000
G1 X587.4853 Y1887.1020 Z-19.0000 F4000
G1 X586.8703 Y1886.9463 Z-19.0000 F4000
G1 X586.2726 Y1886.6873 Z-19.0000 F4000
G1 X585.7177 Y1886.3293 Z-19.0000 F4000
G1 X585.2294 Y1885.8849 Z-19.0000 F4000
G1 X584.8257 Y1885.3736 Z-19.0000 F4000
G1 X584.5175 Y1884.8191 Z-19.0000 F4000
G1 X584.3074 Y1884.2461 Z-19.0000 F4000
G1 X584.1905 Y1883.6769 Z-19.0000 F4000
G1 X583.9317 Y1881.6927 Z-19.0000 F4000
G1 X585.4820 Y1893.5931 Z-19.0000 F4000
G1 X585.5151 Y1894.1732 Z-19.0000 F4000
G1 X585.4589 Y1894.7810 Z-19.0000 F4000
G1 X585.3033 Y1895.3960 Z-19.0000 F4000
G1 X585.0443 Y1895.9937 Z-19.0000 F4000
G1 X584.6863 Y1896.5486 Z-19.0000 F4000
G1 X584.2418 Y1897.0369 Z-19.0000 F4000
G1 X583.7305 Y1897.4405 Z-19.0000 F4000
G1 X583.1761 Y1897.7487 Z-19.0000 F4000
G1 X582.6030 Y1897.9589 Z-19.0000 F4000
G1 X582.0338 Y1898.0757 Z-19.0000 F4000
G1 X580.0496 Y1898.3345 Z-19.0000 F4000
G1 X596.4129 Y1896.2095 Z-19.0000 F4000
G1 X612.7740 Y1894.0681 Z-19.0000 F4000
G1 X612.7740 Y1894.0681 Z10.0000 F9999
G1 X315.2945 Y1932.8694 Z10.0000 F9999
G1 X315.2945 Y1932.8694 Z1.0000 F2500
G1 X346.0345 Y1928.8598 Z-6.9547 F2500
G1 X344.0500 Y1929.1166 Z-7.4682 F2500
G1 X343.4699 Y1929.1497 Z-7.6173 F2500
G1 X342.8621 Y1929.0936 Z-7.7739 F2500
G1 X342.2472 Y1928.9379 Z-7.9367 F2500
G1 X341.6494 Y1928.6789 Z-8.1038 F2500
G1 X341.0946 Y1928.3209 Z-8.2733 F2500
G1 X340.6062 Y1927.8765 Z-8.4427 F2500
G1 X340.2026 Y1927.3652 Z-8.6099 F2500
G1 X339.8944 Y1926.8107 Z-8.7726 F2500
G1 X339.6842 Y1926.2377 Z-8.9293 F2500
G1 X339.6288 Y1925.9676 Z-9.0000 F2500
G1 X339.6842 Y1926.2377 Z-9.0707 F2500
G1 X339.8944 Y1926.8107 Z-9.2274 F2500
G1 X340.2026 Y1927.3652 Z-9.3901 F2500
G1 X340.6062 Y1927.8765 Z-9.5573 F2500
G1 X341.0946 Y1928.3209 Z-9.7267 F2500
G1 X341.6494 Y1928.6789 Z-9.8962 F2500
G1 X342.2472 Y1928.9379 Z-10.0633 F2500
G1 X342.8621 Y1929.0936 Z-10.2261 F2500
G1 X343.4699 Y1929.1497 Z-10.3827 F2500
G1 X344.0500 Y1929.1166 Z-10.5318 F2500
G1 X346.0345 Y1928.8598 Z-11.0453 F2500
G1 X315.2945 Y1932.8694 Z-19.0000 F2500
G1 X346.0345 Y1928.8598 Z-19.0000 F4000
G1 X344.0500 Y1929.1166 Z-19.0000 F4000
G1 X343.4699 Y1929.1497 Z-19.0000 F4000
G1 X342.8621 Y1929.0936 Z-19.0000 F4000
G1 X342.2472 Y1928.9379 Z-19.0000 F4000
G1 X341.6494 Y1928.6789 Z-19.0000 F4000
G1 X341.0946 Y1928.3209 Z-19.0000 F4000
G1 X340.6062 Y1927.8765 Z-19.0000 F4000
G1 X340.2026 Y1927.3652 Z-19.0000 F4000
G1 X339.8944 Y1926.8107 Z-19.0000 F4000
G1 X339.6842 Y1926.2377 Z-19.0000 F4000
G1 X339.5674 Y1925.6685 Z-19.0000 F4000
G1 X338.0152 Y1913.7683 Z-19.0000 F4000
G1 X338.2720 Y1915.7527 Z-19.0000 F4000
G1 X338.3043 Y1916.3716 Z-19.0000 F4000
G1 X338.2385 Y1916.9996 Z-19.0000 F4000
G1 X338.0733 Y1917.6131 Z-19.0000 F4000
G1 X337.8150 Y1918.1892 Z-19.0000 F4000
G1 X337.4763 Y1918.7082 Z-19.0000 F4000
G1 X337.0615 Y1919.1687 Z-19.0000 F4000
G1 X336.5710 Y1919.5661 Z-19.0000 F4000
G1 X336.0203 Y1919.8832 Z-19.0000 F4000
G1 X335.4303 Y1920.1079 Z-19.0000 F4000
G1 X334.8238 Y1920.2354 Z-19.0000 F4000
G1 X291.1937 Y1925.9264 Z-19.0000 F4000
G1 X290.6135 Y1925.9595 Z-19.0000 F4000
G1 X290.0058 Y1925.9033 Z-19.0000 F4000
G1 X289.3908 Y1925.7477 Z-19.0000 F4000
G1 X288.7930 Y1925.4887 Z-19.0000 F4000
G1 X288.2382 Y1925.1307 Z-19.0000 F4000
G1 X287.7498 Y1924.6863 Z-19.0000 F4000
G1 X287.3462 Y1924.1749 Z-19.0000 F4000
G1 X287.0380 Y1923.6205 Z-19.0000 F4000
G1 X286.8278 Y1923.0474 Z-19.0000 F4000
G1 X286.7110 Y1922.4782 Z-19.0000 F4000
G1 X286.4522 Y1920.4940 Z-19.0000 F4000
G1 X288.0024 Y1932.3945 Z-19.0000 F4000
G1 X288.0355 Y1932.9746 Z-19.0000 F4000
G1 X287.9794 Y1933.5824 Z-19.0000 F4000
G1 X287.8237 Y1934.1973 Z-19.0000 F4000
G1 X287.5648 Y1934.7951 Z-19.0000 F4000
G1 X287.2067 Y1935.3499 Z-19.0000 F4000
G1 X286.7623 Y1935.8383 Z-19.0000 F4000
G1 X286.2510 Y1936.2419 Z-19.0000 F4000
G1 X285.6965 Y1936.5501 Z-19.0000 F4000
G1 X285.1235 Y1936.7603 Z-19.0000 F4000
G1 X284.5543 Y1936.8771 Z-19.0000 F4000
G1 X282.5701 Y1937.1359 Z-19.0000 F4000
G1 X298.9334 Y1935.0109 Z-19.0000 F4000
G1 X315.2945 Y1932.8694 Z-19.0000 F4000
G1 X315.2945 Y1932.8694 Z10.0000 F9999
G1 X282.0089 Y1693.1597 Z10.0000 F9999
G1 X282.0089 Y1693.1597 Z1.0000 F2500
G1 X251.2689 Y1697.1693 Z-6.9547 F2500
G1 X253.2533 Y1696.9124 Z-7.4682 F2500
G1 X253.8334 Y1696.8793 Z-7.6173 F2500
G1 X254.4412 Y1696.9355 Z-7.7739 F2500
G1 X255.0562 Y1697.0912 Z-7.9367 F2500
G1 X255.6539 Y1697.3501 Z-8.1038 F2500
G1 X256.2088 Y1697.7082 Z-8.2733 F2500
G1 X256.6971 Y1698.1526 Z-8.4427 F2500
G1 X257.1008 Y1698.6639 Z-8.6099 F2500
G1 X257.4090 Y1699.2184 Z-8.7726 F2500
G1 X257.6191 Y1699.7914 Z-8.9293 F2500
G1 X257.6746 Y1700.0615 Z-9.0000 F2500
G1 X257.6191 Y1699.7914 Z-9.0707 F2500
G1 X257.4090 Y1699.2184 Z-9.2274 F2500
G1 X257.1008 Y1698.6639 Z-9.3901 F2500
G1 X256.6971 Y1698.1526 Z-9.5573 F2500
G1 X256.2088 Y1697.7082 Z-9.7267 F2500
G1 X255.6539 Y1697.3501 Z-9.8962 F2500
G1 X255.0562 Y1697.0912 Z-10.0633 F2500
G1 X254.4412 Y1696.9355 Z-10.2261 F2500
G1 X253.8334 Y1696.8793 Z-10.3827 F2500
G1 X253.2533 Y1696.9124 Z-10.5318 F2500
G1 X251.2689 Y1697.1693 Z-11.0453 F2500
G1 X282.0089 Y1693.1597 Z-19.0000 F2500
G1 X251.2689 Y1697.1693 Z-19.0000 F4000
G1 X253.2533 Y1696.9124 Z-19.0000 F4000
G1 X253.8334 Y1696.8793 Z-19.0000 F4000
G1 X254.4412 Y1696.9355 Z-19.0000 F4000
G1 X255.0562 Y1697.0912 Z-19.0000 F4000
G1 X255.6539 Y1697.3501 Z-19.0000 F4000
G1 X256.2088 Y1697.7082 Z-19.0000 F4000
G1 X256.6971 Y1698.1526 Z-19.0000 F4000
G1 X257.1008 Y1698.6639 Z-19.0000 F4000
G1 X257.4090 Y1699.2184 Z-19.0000 F4000
G1 X257.6191 Y1699.7914 Z-19.0000 F4000
G1 X257.7360 Y1700.3606 Z-19.0000 F4000
G1 X259.2881 Y1712.2608 Z-19.0000 F4000
G1 X259.0313 Y1710.2763 Z-19.0000 F4000
G1 X258.9990 Y1709.6574 Z-19.0000 F4000
G1 X259.0649 Y1709.0295 Z-19.0000 F4000
G1 X259.2300 Y1708.4160 Z-19.0000 F4000
G1 X259.4884 Y1707.8399 Z-19.0000 F4000
G1 X259.8270 Y1707.3209 Z-19.0000 F4000
G1 X260.2418 Y1706.8604 Z-19.0000 F4000
G1 X260.7324 Y1706.4629 Z-19.0000 F4000
G1 X261.2830 Y1706.1459 Z-19.0000 F4000
G1 X261.8730 Y1705.9212 Z-19.0000 F4000
G1 X262.4795 Y1705.7937 Z-19.0000 F4000
G1 X306.1097 Y1700.1028 Z-19.0000 F4000
G1 X306.7286 Y1700.0705 Z-19.0000 F4000
G1 X307.3565 Y1700.1363 Z-19.0000 F4000
G1 X307.9700 Y1700.3015 Z-19.0000 F4000
G1 X308.5461 Y1700.5599 Z-19.0000 F4000
G1 X309.0651 Y1700.8985 Z-19.0000 F4000
G1 X309.5256 Y1701.3133 Z-19.0000 F4000
G1 X309.9231 Y1701.8039 Z-19.0000 F4000
G1 X310.2401 Y1702.3545 Z-19.0000 F4000
G1 X310.4648 Y1702.9445 Z-19.0000 F4000
G1 X310.5923 Y1703.5510 Z-19.0000 F4000
G1 X310.8511 Y1705.5352 Z-19.0000 F4000
G1 X309.3009 Y1693.6348 Z-19.0000 F4000
G1 X309.2678 Y1693.0546 Z-19.0000 F4000
G1 X309.3240 Y1692.4469 Z-19.0000 F4000
G1 X309.4796 Y1691.8319 Z-19.0000 F4000
G1 X309.7386 Y1691.2341 Z-19.0000 F4000
G1 X310.0966 Y1690.6793 Z-19.0000 F4000
G1 X310.5411 Y1690.1910 Z-19.0000 F4000
G1 X311.0524 Y1689.7873 Z-19.0000 F4000
G1 X311.6068 Y1689.4791 Z-19.0000 F4000
G1 X312.1799 Y1689.2689 Z-19.0000 F4000
G1 X312.7491 Y1689.1521 Z-19.0000 F4000
G1 X314.7333 Y1688.8933 Z-19.0000 F4000
G1 X298.3700 Y1691.0183 Z-19.0000 F4000
G1 X282.0089 Y1693.1597 Z-19.0000 F4000
G1 X282.0089 Y1693.1597 Z10.0000 F9999
G1 X812.2985 Y1423.2745 Z10.0000 F9999
G1 X812.2985 Y1423.2745 Z1.0000 F2500
G1 X808.2889 Y1454.0145 Z-6.9547 F2500
G1 X808.5497 Y1452.0305 Z-7.4682 F2500
G1 X808.6665 Y1451.4613 Z-7.6173 F2500
G1 X808.8767 Y1450.8883 Z-7.7739 F2500
G1 X809.1849 Y1450.3338 Z-7.9367 F2500
G1 X809.5885 Y1449.8225 Z-8.1038 F2500
G1 X810.0769 Y1449.3781 Z-8.2733 F2500
G1 X810.6317 Y1449.0201 Z-8.4427 F2500
G1 X811.2295 Y1448.7611 Z-8.6099 F2500
G1 X811.8444 Y1448.6054 Z-8.7726 F2500
G1 X812.4522 Y1448.5493 Z-8.9293 F2500
G1 X812.7275 Y1448.5650 Z-9.0000 F2500
G1 X812.4522 Y1448.5493 Z-9.0707 F2500
G1 X811.8444 Y1448.6054 Z-9.2274 F2500
G1 X811.2295 Y1448.7611 Z-9.3901 F2500
G1 X810.6317 Y1449.0201 Z-9.5573 F2500
G1 X810.0769 Y1449.3781 Z-9.7267 F2500
G1 X809.5885 Y1449.8225 Z-9.8962 F2500
G1 X809.1849 Y1450.3338 Z-10.0633 F2500
G1 X808.8767 Y1450.8883 Z-10.2261 F2500
G1 X808.6665 Y1451.4613 Z-10.3827 F2500
G1 X808.5497 Y1452.0305 Z-10.5318 F2500
G1 X808.2889 Y1454.0145 Z-11.0453 F2500
G1 X812.2985 Y1423.2745 Z-19.0000 F2500
G1 X808.2889 Y1454.0145 Z-19.0000 F4000
G1 X808.5497 Y1452.0305 Z-19.0000 F4000
G1 X808.6665 Y1451.4613 Z-19.0000 F4000
G1 X808.8767 Y1450.8883 Z-19.0000 F4000
G1 X809.1849 Y1450.3338 Z-19.0000 F4000
G1 X809.5885 Y1449.8225 Z-19.0000 F4000
G1 X810.0769 Y1449.3781 Z-19.0000 F4000
G1 X810.6317 Y1449.0201 Z-19.0000 F4000
G1 X811.2295 Y1448.7611 Z-19.0000 F4000
G1 X811.8444 Y1448.6054 Z-19.0000 F4000
G1 X812.4522 Y1448.5493 Z-19.0000 F4000
G1 X813.0323 Y1448.5824 Z-19.0000 F4000
G1 X824.9325 Y1450.1346 Z-19.0000 F4000
G1 X822.9486 Y1449.8738 Z-19.0000 F4000
G1 X822.3421 Y1449.7462 Z-19.0000 F4000
G1 X821.7521 Y1449.5215 Z-19.0000 F4000
G1 X821.2015 Y1449.2045 Z-19.0000 F4000
G1 X820.7109 Y1448.8071 Z-19.0000 F4000
G1 X820.2961 Y1448.3466 Z-19.0000 F4000
G1 X819.9574 Y1447.8276 Z-19.0000 F4000
G1 X819.6991 Y1447.2515 Z-19.0000 F4000
G1 X819.5339 Y1446.6380 Z-19.0000 F4000
G1 X819.4681 Y1446.0100 Z-19.0000 F4000
G1 X819.5004 Y1445.3911 Z-19.0000 F4000
G1 X825.1913 Y1401.7610 Z-19.0000 F4000
G1 X825.3081 Y1401.1918 Z-19.0000 F4000
G1 X825.5183 Y1400.6187 Z-19.0000 F4000
G1 X825.8265 Y1400.0642 Z-19.0000 F4000
G1 X826.2301 Y1399.5529 Z-19.0000 F4000
G1 X826.7185 Y1399.1085 Z-19.0000 F4000
G1 X827.2733 Y1398.7505 Z-19.0000 F4000
G1 X827.8711 Y1398.4915 Z-19.0000 F4000
G1 X828.4860 Y1398.3358 Z-19.0000 F4000
G1 X829.0938 Y1398.2797 Z-19.0000 F4000
G1 X829.6739 Y1398.3128 Z-19.0000 F4000
G1 X831.6581 Y1398.5716 Z-19.0000 F4000
G1 X819.7582 Y1397.0174 Z-19.0000 F4000
G1 X819.1518 Y1396.8899 Z-19.0000 F4000
G1 X818.5617 Y1396.6652 Z-19.0000 F4000
G1 X818.0111 Y1396.3482 Z-19.0000 F4000
G1 X817.5205 Y1395.9507 Z-19.0000 F4000
G1 X817.1058 Y1395.4902 Z-19.0000 F4000
G1 X816.7671 Y1394.9712 Z-19.0000 F4000
G1 X816.5088 Y1394.3951 Z-19.0000 F4000
G1 X816.3436 Y1393.7816 Z-19.0000 F4000
G1 X816.2778 Y1393.1537 Z-19.0000 F4000
G1 X816.3100 Y1392.5348 Z-19.0000 F4000
G1 X816.5689 Y1390.5506 Z-19.0000 F4000
G1 X814.4255 Y1406.9115 Z-19.0000 F4000
G1 X812.2985 Y1423.2745 Z-19.0000 F4000
G1 X812.2985 Y1423.2745 Z10.0000 F9999
G1 X1052.5261 Y1452.5903 Z10.0000 F9999
G1 X1052.5261 Y1452.5903 Z1.0000 F2500
G1 X1056.5357 Y1421.8503 Z-6.9547 F2500
G1 X1056.2749 Y1423.8342 Z-7.4682 F2500
G1 X1056.1581 Y1424.4034 Z-7.6173 F2500
G1 X1055.9479 Y1424.9765 Z-7.7739 F2500
G1 X1055.6397 Y1425.5309 Z-7.9367 F2500
G1 X1055.2361 Y1426.0423 Z-8.1038 F2500
G1 X1054.7477 Y1426.4867 Z-8.2733 F2500
G1 X1054.1929 Y1426.8447 Z-8.4427 F2500
G1 X1053.5951 Y1427.1037 Z-8.6099 F2500
G1 X1052.9802 Y1427.2593 Z-8.7726 F2500
G1 X1052.3724 Y1427.3155 Z-8.9293 F2500
G1 X1052.0971 Y1427.2998 Z-9.0000 F2500
G1 X1052.3724 Y1427.3155 Z-9.0707 F2500
G1 X1052.9802 Y1427.2593 Z-9.2274 F2500
G1 X1053.5951 Y1427.1037 Z-9.3901 F2500
G1 X1054.1929 Y1426.8447 Z-9.5573 F2500
G1 X1054.7477 Y1426.4867 Z-9.7267 F2500
G1 X1055.2361 Y1426.0423 Z-9.8962 F2500
G1 X1055.6397 Y1425.5309 Z-10.0633 F2500
G1 X1055.9479 Y1424.9765 Z-10.2261 F2500
G1 X1056.1581 Y1424.4034 Z-10.3827 F2500
G1 X1056.2749 Y1423.8342 Z-10.5318 F2500
G1 X1056.5357 Y1421.8503 Z-11.0453 F2500
G1 X1052.5261 Y1452.5903 Z-19.0000 F2500
G1 X1056.5357 Y1421.8503 Z-19.0000 F4000
G1 X1056.2749 Y1423.8342 Z-19.0000 F4000
G1 X1056.1581 Y1424.4034 Z-19.0000 F4000
G1 X1055.9479 Y1424.9765 Z-19.0000 F4000
G1 X1055.6397 Y1425.5309 Z-19.0000 F4000
G1 X1055.2361 Y1426.0423 Z-19.0000 F4000
G1 X1054.7477 Y1426.4867 Z-19.0000 F4000
G1 X1054.1929 Y1426.8447 Z-19.0000 F4000
G1 X1053.5951 Y1427.1037 Z-19.0000 F4000
G1 X1052.9802 Y1427.2593 Z-19.0000 F4000
G1 X1052.3724 Y1427.3155 Z-19.0000 F4000
G1 X1051.7922 Y1427.2824 Z-19.0000 F4000
G1 X1039.8921 Y1425.7302 Z-19.0000 F4000
G1 X1041.8760 Y1425.9910 Z-19.0000 F4000
G1 X1042.4452 Y1426.1078 Z-19.0000 F4000
G1 X1043.0183 Y1426.3180 Z-19.0000 F4000
G1 X1043.5727 Y1426.6262 Z-19.0000 F4000
G1 X1044.0841 Y1427.0298 Z-19.0000 F4000
G1 X1044.5285 Y1427.5182 Z-19.0000 F4000
G1 X1044.8865 Y1428.0730 Z-19.0000 F4000
G1 X1045.1455 Y1428.6707 Z-19.0000 F4000
G1 X1045.3011 Y1429.2857 Z-19.0000 F4000
G1 X1045.3573 Y1429.8935 Z-19.0000 F4000
G1 X1045.3242 Y1430.4736 Z-19.0000 F4000
G1 X1039.6333 Y1474.1038 Z-19.0000 F4000
G1 X1039.5058 Y1474.7103 Z-19.0000 F4000
G1 X1039.2811 Y1475.3003 Z-19.0000 F4000
G1 X1038.9640 Y1475.8509 Z-19.0000 F4000
G1 X1038.5666 Y1476.3415 Z-19.0000 F4000
G1 X1038.1061 Y1476.7563 Z-19.0000 F4000
G1 X1037.5871 Y1477.0949 Z-19.0000 F4000
G1 X1037.0110 Y1477.3533 Z-19.0000 F4000
G1 X1036.3975 Y1477.5185 Z-19.0000 F4000
G1 X1035.7695 Y1477.5843 Z-19.0000 F4000
G1 X1035.1506 Y1477.5520 Z-19.0000 F4000
G1 X1033.1665 Y1477.2932 Z-19.0000 F4000
G1 X1045.0664 Y1478.8474 Z-19.0000 F4000
G1 X1045.6356 Y1478.9642 Z-19.0000 F4000
G1 X1046.2086 Y1479.1743 Z-19.0000 F4000
G1 X1046.7631 Y1479.4825 Z-19.0000 F4000
G1 X1047.2744 Y1479.8862 Z-19.0000 F4000
G1 X1047.7188 Y1480.3745 Z-19.0000 F4000
G1 X1048.0769 Y1480.9294 Z-19.0000 F4000
G1 X1048.3358 Y1481.5271 Z-19.0000 F4000
G1 X1048.4915 Y1482.1421 Z-19.0000 F4000
G1 X1048.5476 Y1482.7499 Z-19.0000 F4000
G1 X1048.5145 Y1483.3300 Z-19.0000 F4000
G1 X1048.2557 Y1485.3142 Z-19.0000 F4000
G1 X1050.3991 Y1468.9533 Z-19.0000 F4000
G1 X1052.5261 Y1452.5903 Z-19.0000 F4000
G1 X1052.5261 Y1452.5903 Z10.0000 F9999
G1 X609.8971 Y2257.1761 Z10.0000 F9999
G1 X609.8971 Y2257.1761 Z1.0000 F2500
G1 X648.8682 Y2257.1761 Z-9.0000 F2500
G1 X609.8971 Y2257.1761 Z-19.0000 F2500
G1 X650.8981 Y2257.1761 Z-19.0000 F4000
G1 X650.8981 Y2255.1741 Z-19.0000 F4000
G1 X650.0882 Y2255.1815 Z-19.0000 F4000
G1 X649.2802 Y2255.1261 Z-19.0000 F4000
G1 X648.7036 Y2254.9916 Z-19.0000 F4000
G1 X648.1297 Y2254.7619 Z-19.0000 F4000
G1 X647.5814 Y2254.4347 Z-19.0000 F4000
G1 X647.0831 Y2254.0155 Z-19.0000 F4000
G1 X646.6568 Y2253.5174 Z-19.0000 F4000
G1 X646.3196 Y2252.9603 Z-19.0000 F4000
G1 X646.0811 Y2252.3681 Z-19.0000 F4000
G1 X645.9429 Y2251.7655 Z-19.0000 F4000
G1 X645.8990 Y2251.1751 Z-19.0000 F4000
G1 X645.8990 Y2242.1741 Z-19.0000 F4000
G1 X643.8975 Y2242.1741 Z-19.0000 F4000
G1 X643.9049 Y2242.9845 Z-19.0000 F4000
G1 X643.8495 Y2243.7930 Z-19.0000 F4000
G1 X643.7150 Y2244.3695 Z-19.0000 F4000
G1 X643.4853 Y2244.9435 Z-19.0000 F4000
G1 X643.1582 Y2245.4918 Z-19.0000 F4000
G1 X642.7389 Y2245.9901 Z-19.0000 F4000
G1 X642.2409 Y2246.4163 Z-19.0000 F4000
G1 X641.6837 Y2246.7535 Z-19.0000 F4000
G1 X641.0915 Y2246.9920 Z-19.0000 F4000
G1 X640.4889 Y2247.1303 Z-19.0000 F4000
G1 X639.8985 Y2247.1741 Z-19.0000 F4000
G1 X579.8985 Y2247.1741 Z-19.0000 F4000
G1 X579.3081 Y2247.1303 Z-19.0000 F4000
G1 X578.7056 Y2246.9920 Z-19.0000 F4000
G1 X578.1133 Y2246.7535 Z-19.0000 F4000
G1 X577.5562 Y2246.4163 Z-19.0000 F4000
G1 X577.0581 Y2245.9901 Z-19.0000 F4000
G1 X576.6389 Y2245.4918 Z-19.0000 F4000
G1 X576.3118 Y2244.9435 Z-19.0000 F4000
G1 X576.0821 Y2244.3695 Z-19.0000 F4000
G1 X575.9476 Y2243.7930 Z-19.0000 F4000
G1 X575.8921 Y2242.9845 Z-19.0000 F4000
G1 X575.8995 Y2242.1741 Z-19.0000 F4000
G1 X573.8970 Y2242.1741 Z-19.0000 F4000
G1 X573.8970 Y2251.1751 Z-19.0000 F4000
G1 X573.8532 Y2251.7655 Z-19.0000 F4000
G1 X573.7150 Y2252.3681 Z-19.0000 F4000
G1 X573.4765 Y2252.9603 Z-19.0000 F4000
G1 X573.1393 Y2253.5174 Z-19.0000 F4000
G1 X572.7130 Y2254.0155 Z-19.0000 F4000
G1 X572.2147 Y2254.4347 Z-19.0000 F4000
G1 X571.6664 Y2254.7619 Z-19.0000 F4000
G1 X571.0925 Y2254.9916 Z-19.0000 F4000
G1 X570.5159 Y2255.1261 Z-19.0000 F4000
G1 X569.7069 Y2255.1815 Z-19.0000 F4000
G1 X568.8961 Y2255.1741 Z-19.0000 F4000
G1 X568.8961 Y2257.1761 Z-19.0000 F4000
G1 X609.8971 Y2257.1761 Z-19.0000 F4000
G1 X609.8971 Y2257.1761 Z10.0000 F9999
(Tool Number:1) (7.998 mm dia. slot drill)
M3 S9000
G1 X609.8988 Y2388.2745 Z10.0000 F9999
G1 X609.8988 Y2388.2745 Z1.0000 F2500
G1 X570.9276 Y2388.2745 Z-9.0000 F2500
G1 X609.8988 Y2388.2745 Z-19.0000 F2500
G1 X9.9000 Y2388.2745 Z-19.0000 F4000
G1 X9.2821 Y2388.2264 Z-19.0000 F4000
G1 X8.6680 Y2388.0799 Z-19.0000 F4000
G1 X8.0810 Y2387.8368 Z-19.0000 F4000
G1 X7.5431 Y2387.5061 Z-19.0000 F4000
G1 X7.0723 Y2387.1032 Z-19.0000 F4000
G1 X6.6693 Y2386.6323 Z-19.0000 F4000
G1 X6.3387 Y2386.0945 Z-19.0000 F4000
G1 X6.0955 Y2385.5075 Z-19.0000 F4000
G1 X5.9490 Y2384.8933 Z-19.0000 F4000
G1 X5.9010 Y2384.2755 Z-19.0000 F4000
G1 X5.9010 Y1905.4760 Z-19.0000 F4000
G1 X5.9432 Y1904.8965 Z-19.0000 F4000
G1 X6.0775 Y1904.3011 Z-19.0000 F4000
G1 X6.3114 Y1903.7114 Z-19.0000 F4000
G1 X6.6455 Y1903.1522 Z-19.0000 F4000
G1 X7.0723 Y1902.6483 Z-19.0000 F4000
G1 X7.5761 Y1902.2215 Z-19.0000 F4000
G1 X8.1354 Y1901.8874 Z-19.0000 F4000
G1 X8.7250 Y1901.6535 Z-19.0000 F4000
G1 X9.3205 Y1901.5192 Z-19.0000 F4000
G1 X9.9000 Y1901.4770 Z-19.0000 F4000
G1 X62.6612 Y1901.4770 Z-19.0000 F4000
G1 X63.6427 Y1901.2435 Z-19.0000 F4000
G1 X64.0452 Y1900.9035 Z-19.0000 F4000
G1 X64.2521 Y1900.4173 Z-19.0000 F4000
G1 X64.1868 Y1899.4093 Z-19.0000 F4000
G1 X48.3073 Y1847.7990 Z-19.0000 F4000
G1 X48.1962 Y1847.3451 Z-19.0000 F4000
G1 X48.1388 Y1846.8813 Z-19.0000 F4000
G1 X47.9968 Y1844.6864 Z-19.0000 F4000
G1 X48.0048 Y1844.0658 Z-19.0000 F4000
G1 X48.1098 Y1843.4503 Z-19.0000 F4000
G1 X48.3078 Y1842.8621 Z-19.0000 F4000
G1 X49.1691 Y1840.8382 Z-19.0000 F4000
G1 X49.4561 Y1840.2870 Z-19.0000 F4000
G1 X49.8275 Y1839.7841 Z-19.0000 F4000
G1 X50.2699 Y1839.3477 Z-19.0000 F4000
G1 X51.9511 Y1837.9292 Z-19.0000 F4000
G1 X52.4551 Y1837.5670 Z-19.0000 F4000
G1 X53.0127 Y1837.2857 Z-19.0000 F4000
G1 X53.6035 Y1837.0954 Z-19.0000 F4000
G1 X55.7422 Y1836.5862 Z-19.0000 F4000
G1 X56.2022 Y1836.5047 Z-19.0000 F4000
G1 X56.6686 Y1836.4774 Z-19.0000 F4000
G1 X61.0250 Y1836.4774 Z-19.0000 F4000
G1 X61.0250 Y1836.4774 Z-9.0000 F9999
G1 X77.0230 Y1836.4774 Z-9.0000 F4000
G1 X77.0230 Y1836.4774 Z-19.0000 F2500
G1 X84.8980 Y1836.4774 Z-19.0000 F4000
G1 X85.4776 Y1836.5196 Z-19.0000 F4000
G1 X86.0730 Y1836.6539 Z-19.0000 F4000
G1 X86.6627 Y1836.8878 Z-19.0000 F4000
G1 X87.2219 Y1837.2219 Z-19.0000 F4000
G1 X87.7258 Y1837.6487 Z-19.0000 F4000
G1 X88.1525 Y1838.1525 Z-19.0000 F4000
G1 X88.4867 Y1838.7117 Z-19.0000 F4000
G1 X88.7205 Y1839.3014 Z-19.0000 F4000
G1 X88.8548 Y1839.8968 Z-19.0000 F4000
G1 X88.8970 Y1840.4764 Z-19.0000 F4000
G1 X88.8970 Y1932.7260 Z-19.0000 F4000
