(plotsheet 2n3_nested_153 sheets_final v1_0_sheet 153a_S153.0_20 screws_CC8 - stepover 1mm)
(Material Size) (X=1220.000, Y=2440.000, Z=20.000)
(LinuxCNC_NoArcs_MM_TC_medium_50um_G1_verbose.con)
G90 G80 G21 G49
G64 P0.050
M6 T1
(Tool Number:1) (7.998 mm dia. slot drill)
G43 H1 G0Z80.0000
M3 S9000
G04 P10
G1 X51.8249 Y64.8658 Z10.0000 F9999
G1 X51.8249 Y64.8658 Z2.0000 F9999
G1 X51.8249 Y64.8658 Z-1.0000 F2500
G1 X51.8249 Y64.8658 Z10.0000 F9999
G1 X212.3121 Y383.1095 Z10.0000 F9999
G1 X212.3121 Y383.1095 Z2.0000 F9999
G1 X212.3121 Y383.1095 Z-1.0000 F2500
G1 X212.3121 Y383.1095 Z10.0000 F9999
G1 X391.8503 Y383.1095 Z10.0000 F9999
G1 X391.8503 Y383.1095 Z2.0000 F9999
G1 X391.8503 Y383.1095 Z-1.0000 F2500
G1 X391.8503 Y383.1095 Z10.0000 F9999
G1 X577.7468 Y383.1095 Z10.0000 F9999
G1 X577.7468 Y383.1095 Z2.0000 F9999
G1 X577.7468 Y383.1095 Z-1.0000 F2500
G1 X577.7468 Y383.1095 Z10.0000 F9999
G1 X577.7468 Y964.9736 Z10.0000 F9999
G1 X577.7468 Y964.9736 Z2.0000 F9999
G1 X577.7468 Y964.9736 Z-1.0000 F2500
G1 X577.7468 Y964.9736 Z10.0000 F9999
G1 X391.8503 Y964.9736 Z10.0000 F9999
G1 X391.8503 Y964.9736 Z2.0000 F9999
G1 X391.8503 Y964.9736 Z-1.0000 F2500
G1 X391.8503 Y964.9736 Z10.0000 F9999
G1 X212.3121 Y964.9736 Z10.0000 F9999
G1 X212.3121 Y964.9736 Z2.0000 F9999
G1 X212.3121 Y964.9736 Z-1.0000 F2500
G1 X212.3121 Y964.9736 Z10.0000 F9999
G1 X50.0993 Y1000.1416 Z10.0000 F9999
G1 X50.0993 Y1000.1416 Z2.0000 F9999
G1 X50.0993 Y1000.1416 Z-1.0000 F2500
G1 X50.0993 Y1000.1416 Z10.0000 F9999
G1 X46.6481 Y711.9662 Z10.0000 F9999
G1 X46.6481 Y711.9662 Z2.0000 F9999
G1 X46.6481 Y711.9662 Z-1.0000 F2500
G1 X46.6481 Y711.9662 Z10.0000 F9999
G1 X46.6481 Y1317.6522 Z10.0000 F9999
G1 X46.6481 Y1317.6522 Z2.0000 F9999
G1 X46.6481 Y1317.6522 Z-1.0000 F2500
G1 X46.6481 Y1317.6522 Z10.0000 F9999
G1 X212.3121 Y1363.4496 Z10.0000 F9999
G1 X212.3121 Y1363.4496 Z2.0000 F9999
G1 X212.3121 Y1363.4496 Z-1.0000 F2500
G1 X212.3121 Y1363.4496 Z10.0000 F9999
G1 X48.3737 Y1593.7484 Z10.0000 F9999
G1 X48.3737 Y1593.7484 Z2.0000 F9999
G1 X48.3737 Y1593.7484 Z-1.0000 F2500
G1 X48.3737 Y1593.7484 Z10.0000 F9999
G1 X577.7468 Y1363.4496 Z10.0000 F9999
G1 X577.7468 Y1363.4496 Z2.0000 F9999
G1 X577.7468 Y1363.4496 Z-1.0000 F2500
G1 X577.7468 Y1363.4496 Z10.0000 F9999
G1 X1174.1729 Y1309.0242 Z10.0000 F9999
G1 X1174.1729 Y1309.0242 Z2.0000 F9999
G1 X1174.1729 Y1309.0242 Z-1.0000 F2500
G1 X1174.1729 Y1309.0242 Z10.0000 F9999
G1 X1175.1912 Y1593.7484 Z10.0000 F9999
G1 X1175.1912 Y1593.7484 Z2.0000 F9999
G1 X1175.1912 Y1593.7484 Z-1.0000 F2500
G1 X1175.1912 Y1593.7484 Z10.0000 F9999
G1 X1175.9302 Y2177.3210 Z10.0000 F9999
G1 X1175.9302 Y2177.3210 Z2.0000 F9999
G1 X1175.9302 Y2177.3210 Z-1.0000 F2500
G1 X1175.9302 Y2177.3210 Z10.0000 F9999
G1 X41.4712 Y2180.4529 Z10.0000 F9999
G1 X41.4712 Y2180.4529 Z2.0000 F9999
G1 X41.4712 Y2180.4529 Z-1.0000 F2500
G1 X41.4712 Y2180.4529 Z10.0000 F9999
G1 X1175.1912 Y1001.8672 Z10.0000 F9999
G1 X1175.1912 Y1001.8672 Z2.0000 F9999
G1 X1175.1912 Y1001.8672 Z-1.0000 F2500
G1 X1175.1912 Y1001.8672 Z10.0000 F9999
G1 X1176.9167 Y706.7894 Z10.0000 F9999
G1 X1176.9167 Y706.7894 Z2.0000 F9999
G1 X1176.9167 Y706.7894 Z-1.0000 F2500
G1 X1176.9167 Y706.7894 Z10.0000 F9999
G1 X1173.4656 Y68.3170 Z10.0000 F9999
G1 X1173.4656 Y68.3170 Z2.0000 F9999
G1 X1173.4656 Y68.3170 Z-1.0000 F2500
G1 X1173.4656 Y68.3170 Z10.0000 F9999
G1 X1900.0000 Y2800.0000 Z80.0000 F9999
G1 Z80.0000 F9999
G1 X1900.0000 Y2800.0000 F9999
M5
M30
