(plotsheet 2n3_nested_153 sheets_final v1_0_sheet 79_S79.0_9 screws_CC8 - stepover 1mm)
(Material Size) (X=1220.000, Y=2440.000, Z=21.000)
(LinuxCNC_NoArcs_MM_TC_medium_50um_G1_verbose.con)
G90 G80 G21 G49
G64 P0.050
M6 T1
(Tool Number:1) (7.998 mm dia. slot drill)
G43 H1 G0Z80.0000
M3 S19000
G04 P10
G1 X169.3216 Y478.0733 Z10.0000 F9999
G1 X169.3216 Y478.0733 Z2.0000 F9999
G1 X169.3216 Y478.0733 Z-1.0000 F2000
G1 X169.3216 Y478.0733 Z10.0000 F9999
G1 X450.3819 Y735.2617 Z10.0000 F9999
G1 X450.3819 Y735.2617 Z2.0000 F9999
G1 X450.3819 Y735.2617 Z-1.0000 F2000
G1 X450.3819 Y735.2617 Z10.0000 F9999
G1 X724.7525 Y840.5233 Z10.0000 F9999
G1 X724.7525 Y840.5233 Z2.0000 F9999
G1 X724.7525 Y840.5233 Z-1.0000 F2000
G1 X724.7525 Y840.5233 Z10.0000 F9999
G1 X840.7991 Y147.2631 Z10.0000 F9999
G1 X840.7991 Y147.2631 Z2.0000 F9999
G1 X840.7991 Y147.2631 Z-1.0000 F2000
G1 X840.7991 Y147.2631 Z10.0000 F9999
G1 X1009.4767 Y1497.9774 Z10.0000 F9999
G1 X1009.4767 Y1497.9774 Z2.0000 F9999
G1 X1009.4767 Y1497.9774 Z-1.0000 F2000
G1 X1009.4767 Y1497.9774 Z10.0000 F9999
G1 X393.4371 Y1682.6167 Z10.0000 F9999
G1 X393.4371 Y1682.6167 Z2.0000 F9999
G1 X393.4371 Y1682.6167 Z-1.0000 F2000
G1 X393.4371 Y1682.6167 Z10.0000 F9999
G1 X144.9505 Y1535.5092 Z10.0000 F9999
G1 X144.9505 Y1535.5092 Z2.0000 F9999
G1 X144.9505 Y1535.5092 Z-1.0000 F2000
G1 X144.9505 Y1535.5092 Z10.0000 F9999
G1 X163.9321 Y2241.7114 Z10.0000 F9999
G1 X163.9321 Y2241.7114 Z2.0000 F9999
G1 X163.9321 Y2241.7114 Z-1.0000 F2000
G1 X163.9321 Y2241.7114 Z10.0000 F9999
G1 X797.2277 Y2238.2603 Z10.0000 F9999
G1 X797.2277 Y2238.2603 Z2.0000 F9999
G1 X797.2277 Y2238.2603 Z-1.0000 F2000
G1 X797.2277 Y2238.2603 Z10.0000 F9999
G1 X1900.0000 Y2800.0000 Z80.0000 F9999
G1 Z80.0000 F9999
G1 X1900.0000 Y2800.0000 F9999
M5
M30
