(plotsheet 2n3_nested_153 sheets_final v1_0_sheet 100_S100.0_7 screws_CC9.53 - PCD - stepover 1mm)
(Material Size) (X=1220.000, Y=2440.000, Z=21.000)
(LinuxCNC_NoArcs_MM_TC_medium_50um_G1_verbose.con)
G90 G80 G21 G49
G64 P0.050
M6 T1
(Tool Number:1) (9.530 mm dia. slot drill)
G43 H1 G0Z80.0000
M3 S17444
G04 P10
G1 X63.8472 Y64.0028 Z10.0000 F9999
G1 X63.8472 Y64.0028 Z2.0000 F9999
G1 X63.8472 Y64.0028 Z-1.0000 F2500
G1 X63.8472 Y64.0028 Z10.0000 F9999
G1 X696.3847 Y282.0394 Z10.0000 F9999
G1 X696.3847 Y282.0394 Z2.0000 F9999
G1 X696.3847 Y282.0394 Z-1.0000 F2500
G1 X696.3847 Y282.0394 Z10.0000 F9999
G1 X1161.3296 Y57.1004 Z10.0000 F9999
G1 X1161.3296 Y57.1004 Z2.0000 F9999
G1 X1161.3296 Y57.1004 Z-1.0000 F2500
G1 X1161.3296 Y57.1004 Z10.0000 F9999
G1 X698.8685 Y850.8770 Z10.0000 F9999
G1 X698.8685 Y850.8770 Z2.0000 F9999
G1 X698.8685 Y850.8770 Z-1.0000 F2500
G1 X698.8685 Y850.8770 Z10.0000 F9999
G1 X716.1245 Y1428.9534 Z10.0000 F9999
G1 X716.1245 Y1428.9534 Z2.0000 F9999
G1 X716.1245 Y1428.9534 Z-1.0000 F2500
G1 X716.1245 Y1428.9534 Z10.0000 F9999
G1 X717.8501 Y2034.6393 Z10.0000 F9999
G1 X717.8501 Y2034.6393 Z2.0000 F9999
G1 X717.8501 Y2034.6393 Z-1.0000 F2500
G1 X717.8501 Y2034.6393 Z10.0000 F9999
G1 X74.2009 Y2272.7722 Z10.0000 F9999
G1 X74.2009 Y2272.7722 Z2.0000 F9999
G1 X74.2009 Y2272.7722 Z-1.0000 F2500
G1 X74.2009 Y2272.7722 Z10.0000 F9999
G1 X1900.0000 Y2800.0000 Z80.0000 F9999
G1 Z80.0000 F9999
G1 X1900.0000 Y2800.0000 F9999
M5
M30
