(plotsheet 2n3_nested_153 sheets_final v1_0_sheet 113a_S113.1_text_CC8 - stepover 1mm)
(Material Size) (X=1220.000, Y=2440.000, Z=21.000)
(LinuxCNC_NoArcs_MM_TC_medium_50um_G1_verbose.con)
G90 G80 G21 G49
G64 P0.050
M6 T1
(Tool Number:1) (7.998 mm dia. slot drill)
G43 H1 G0Z80.0000
M3 S18000
G04 P10
G1 X694.7362 Y167.1790 Z10.0000 F9999
G1 X694.7362 Y167.1790 Z-1.0000 F2500
G1 X686.8218 Y206.4916 Z-1.0000 F4000
G1 X666.4519 Y186.1217 Z-1.0000 F4000
G1 X686.8218 Y206.4916 Z-1.0000 F4000
G1 X694.7362 Y167.1790 Z-1.0000 F4000
G1 X665.6734 Y196.2418 Z-1.0000 F4000
G1 X665.6734 Y196.2418 Z10.0000 F9999
G1 X715.7028 Y214.0168 Z10.0000 F9999
G1 X715.7028 Y214.0168 Z-1.0000 F2500
G1 X705.4920 Y203.8059 Z-1.0000 F4000
G1 X715.7028 Y214.0168 Z-1.0000 F4000
G1 X728.6384 Y201.0812 Z-1.0000 F4000
G1 X717.9474 Y190.3903 Z-1.0000 F4000
G1 X728.6384 Y201.0812 Z-1.0000 F4000
G1 X699.5756 Y230.1440 Z-1.0000 F4000
G1 X699.5756 Y230.1440 Z10.0000 F9999
G1 X746.2447 Y205.4017 Z10.0000 F9999
G1 X746.2447 Y205.4017 Z-1.0000 F2500
G1 X730.3640 Y264.2538 Z-1.0000 F4000
G1 X746.2447 Y205.4017 Z-1.0000 F4000
G1 X746.2447 Y205.4017 Z10.0000 F9999
G1 X780.4842 Y252.9271 Z10.0000 F9999
G1 X780.4842 Y252.9271 Z-1.0000 F2500
G1 X740.0688 Y270.6372 Z-1.0000 F4000
G1 X780.4842 Y252.9271 Z-1.0000 F4000
G1 X762.7482 Y293.3165 Z-1.0000 F4000
G1 X762.7482 Y293.3165 Z10.0000 F9999
G1 X787.7369 Y283.4300 Z10.0000 F9999
G1 X787.7369 Y283.4300 Z-1.0000 F2500
G1 X808.4182 Y304.1112 Z-1.0000 F4000
G1 X787.7369 Y283.4300 Z-1.0000 F4000
G1 X787.7369 Y283.4300 Z10.0000 F9999
G1 X754.5224 Y264.3057 Z10.0000 F9999
G1 X754.5224 Y264.3057 Z-1.0000 F2500
G1 X769.1575 Y278.9408 Z-1.0000 F4000
G1 X754.5224 Y264.3057 Z-1.0000 F4000
G1 X754.5224 Y264.3057 Z10.0000 F9999
G1 X813.4782 Y323.2615 Z10.0000 F9999
G1 X813.4782 Y323.2615 Z-1.0000 F2500
G1 X828.1134 Y337.8967 Z-1.0000 F4000
G1 X813.4782 Y323.2615 Z-1.0000 F4000
G1 X813.4782 Y323.2615 Z10.0000 F9999
G1 X839.4400 Y311.8829 Z10.0000 F9999
G1 X839.4400 Y311.8829 Z-1.0000 F2500
G1 X799.0247 Y329.5930 Z-1.0000 F4000
G1 X839.4400 Y311.8829 Z-1.0000 F4000
G1 X821.7040 Y352.2723 Z-1.0000 F4000
G1 X821.7040 Y352.2723 Z10.0000 F9999
G1 X829.2551 Y359.8235 Z10.0000 F9999
G1 X829.2551 Y359.8235 Z-1.0000 F2500
G1 X852.8556 Y354.9321 Z-1.0000 F4000
G1 X829.2551 Y359.8235 Z-1.0000 F4000
G1 X829.2551 Y359.8235 Z10.0000 F9999
G1 X841.5679 Y372.1362 Z10.0000 F9999
G1 X841.5679 Y372.1362 Z-1.0000 F2500
G1 X870.6306 Y343.0735 Z-1.0000 F4000
G1 X865.5706 Y338.0134 Z-1.0000 F4000
G1 X862.4048 Y335.7040 Z-1.0000 F4000
G1 X858.8498 Y334.7179 Z-1.0000 F4000
G1 X855.0483 Y335.3796 Z-1.0000 F4000
G1 X851.1689 Y338.0653 Z-1.0000 F4000
G1 X848.6778 Y342.1912 Z-1.0000 F4000
G1 X848.2886 Y346.4987 Z-1.0000 F4000
G1 X849.2487 Y350.2354 Z-1.0000 F4000
G1 X850.8316 Y352.7524 Z-1.0000 F4000
G1 X855.8916 Y357.8124 Z-1.0000 F4000
G1 X850.8316 Y352.7524 Z-1.0000 F4000
G1 X849.2487 Y350.2354 Z-1.0000 F4000
G1 X848.2886 Y346.4987 Z-1.0000 F4000
G1 X848.6778 Y342.1912 Z-1.0000 F4000
G1 X851.1689 Y338.0653 Z-1.0000 F4000
G1 X855.0483 Y335.3796 Z-1.0000 F4000
G1 X858.8498 Y334.7179 Z-1.0000 F4000
G1 X862.4048 Y335.7040 Z-1.0000 F4000
G1 X865.5706 Y338.0134 Z-1.0000 F4000
G1 X870.6306 Y343.0735 Z-1.0000 F4000
G1 X870.6306 Y343.0735 Z10.0000 F9999
G1 X879.2845 Y377.5984 Z10.0000 F9999
G1 X879.2845 Y377.5984 Z-1.0000 F2500
G1 X869.0737 Y367.3876 Z-1.0000 F4000
G1 X879.2845 Y377.5984 Z-1.0000 F4000
G1 X892.2201 Y364.6629 Z-1.0000 F4000
G1 X881.5291 Y353.9720 Z-1.0000 F4000
G1 X892.2201 Y364.6629 Z-1.0000 F4000
G1 X863.1573 Y393.7257 Z-1.0000 F4000
G1 X863.1573 Y393.7257 Z10.0000 F9999
G1 X861.8948 Y1170.4373 Z10.0000 F9999
G1 X861.8948 Y1170.4373 Z-1.0000 F2500
G1 X848.6654 Y1190.5841 Z-1.0000 F4000
G1 X861.8948 Y1170.4373 Z-1.0000 F4000
G1 X861.8948 Y1170.4373 Z10.0000 F9999
G1 X844.4819 Y1170.4373 Z10.0000 F9999
G1 X844.4819 Y1170.4373 Z-1.0000 F2500
G1 X844.4819 Y1211.5382 Z-1.0000 F4000
G1 X851.6379 Y1211.5382 Z-1.0000 F4000
G1 X855.5094 Y1210.9327 Z-1.0000 F4000
G1 X858.7204 Y1209.1162 Z-1.0000 F4000
G1 X860.9406 Y1205.9602 Z-1.0000 F4000
G1 X861.7847 Y1201.3180 Z-1.0000 F4000
G1 X860.6287 Y1196.6391 Z-1.0000 F4000
G1 X857.8581 Y1193.3180 Z-1.0000 F4000
G1 X854.5370 Y1191.3547 Z-1.0000 F4000
G1 X851.6379 Y1190.6942 Z-1.0000 F4000
G1 X844.4819 Y1190.6942 Z-1.0000 F4000
G1 X851.6379 Y1190.6942 Z-1.0000 F4000
G1 X854.5370 Y1191.3547 Z-1.0000 F4000
G1 X857.8581 Y1193.3180 Z-1.0000 F4000
G1 X860.6287 Y1196.6391 Z-1.0000 F4000
G1 X861.7847 Y1201.3180 Z-1.0000 F4000
G1 X860.9406 Y1205.9602 Z-1.0000 F4000
G1 X858.7204 Y1209.1162 Z-1.0000 F4000
G1 X855.5094 Y1210.9327 Z-1.0000 F4000
G1 X851.6379 Y1211.5382 Z-1.0000 F4000
G1 X844.4819 Y1211.5382 Z-1.0000 F4000
G1 X844.4819 Y1211.5382 Z10.0000 F9999
G1 X828.9773 Y1220.9327 Z10.0000 F9999
G1 X828.9773 Y1220.9327 Z-1.0000 F2500
G1 X798.5920 Y1168.0887 Z-1.0000 F4000
G1 X828.9773 Y1220.9327 Z-1.0000 F4000
G1 X828.9773 Y1220.9327 Z10.0000 F9999
G1 X880.8122 Y1211.5382 Z10.0000 F9999
G1 X880.8122 Y1211.5382 Z-1.0000 F2500
G1 X874.9957 Y1211.5382 Z-1.0000 F4000
G1 X880.8122 Y1211.5382 Z-1.0000 F4000
G1 X880.8122 Y1170.4373 Z-1.0000 F4000
G1 X880.8122 Y1170.4373 Z10.0000 F9999
G1 X781.4727 Y1185.1346 Z10.0000 F9999
G1 X781.4727 Y1185.1346 Z-1.0000 F2500
G1 X760.7755 Y1185.1346 Z-1.0000 F4000
G1 X781.4727 Y1185.1346 Z-1.0000 F4000
G1 X781.4727 Y1185.1346 Z10.0000 F9999
G1 X771.1608 Y1211.5382 Z10.0000 F9999
G1 X771.1608 Y1211.5382 Z-1.0000 F2500
G1 X787.2159 Y1170.4373 Z-1.0000 F4000
G1 X771.1608 Y1211.5382 Z-1.0000 F4000
G1 X755.1425 Y1170.4373 Z-1.0000 F4000
G1 X755.1425 Y1170.4373 Z10.0000 F9999
G1 X744.4636 Y1195.0979 Z10.0000 F9999
G1 X744.4636 Y1195.0979 Z-1.0000 F2500
G1 X715.2159 Y1195.0979 Z-1.0000 F4000
G1 X744.4636 Y1195.0979 Z-1.0000 F4000
G1 X744.4636 Y1195.0979 Z10.0000 F9999
G1 X698.0966 Y1185.1346 Z10.0000 F9999
G1 X698.0966 Y1185.1346 Z-1.0000 F2500
G1 X677.3993 Y1185.1346 Z-1.0000 F4000
G1 X698.0966 Y1185.1346 Z-1.0000 F4000
G1 X698.0966 Y1185.1346 Z10.0000 F9999
G1 X687.7847 Y1211.5382 Z10.0000 F9999
G1 X687.7847 Y1211.5382 Z-1.0000 F2500
G1 X703.8397 Y1170.4373 Z-1.0000 F4000
G1 X687.7847 Y1211.5382 Z-1.0000 F4000
G1 X671.7663 Y1170.4373 Z-1.0000 F4000
G1 X671.7663 Y1170.4373 Z10.0000 F9999
G1 X661.0874 Y1170.4373 Z10.0000 F9999
G1 X661.0874 Y1170.4373 Z-1.0000 F2500
G1 X647.8581 Y1190.5841 Z-1.0000 F4000
G1 X661.0874 Y1170.4373 Z-1.0000 F4000
G1 X661.0874 Y1170.4373 Z10.0000 F9999
G1 X643.6746 Y1170.4373 Z10.0000 F9999
G1 X643.6746 Y1170.4373 Z-1.0000 F2500
G1 X643.6746 Y1211.5382 Z-1.0000 F4000
G1 X650.8305 Y1211.5382 Z-1.0000 F4000
G1 X654.7021 Y1210.9327 Z-1.0000 F4000
G1 X657.9131 Y1209.1162 Z-1.0000 F4000
G1 X660.1333 Y1205.9602 Z-1.0000 F4000
G1 X660.9773 Y1201.3180 Z-1.0000 F4000
G1 X659.8214 Y1196.6391 Z-1.0000 F4000
G1 X657.0507 Y1193.3180 Z-1.0000 F4000
G1 X653.7296 Y1191.3547 Z-1.0000 F4000
G1 X650.8305 Y1190.6942 Z-1.0000 F4000
G1 X643.6746 Y1190.6942 Z-1.0000 F4000
G1 X650.8305 Y1190.6942 Z-1.0000 F4000
G1 X653.7296 Y1191.3547 Z-1.0000 F4000
G1 X657.0507 Y1193.3180 Z-1.0000 F4000
G1 X659.8214 Y1196.6391 Z-1.0000 F4000
G1 X660.9773 Y1201.3180 Z-1.0000 F4000
G1 X660.1333 Y1205.9602 Z-1.0000 F4000
G1 X657.9131 Y1209.1162 Z-1.0000 F4000
G1 X654.7021 Y1210.9327 Z-1.0000 F4000
G1 X650.8305 Y1211.5382 Z-1.0000 F4000
G1 X643.6746 Y1211.5382 Z-1.0000 F4000
G1 X643.6746 Y1211.5382 Z10.0000 F9999
G1 X613.1425 Y1193.2446 Z10.0000 F9999
G1 X613.1425 Y1193.2446 Z-1.0000 F2500
G1 X627.5828 Y1193.2446 Z-1.0000 F4000
G1 X613.1425 Y1193.2446 Z-1.0000 F4000
G1 X613.1425 Y1211.5382 Z-1.0000 F4000
G1 X628.2617 Y1211.5382 Z-1.0000 F4000
G1 X613.1425 Y1211.5382 Z-1.0000 F4000
G1 X613.1425 Y1170.4373 Z-1.0000 F4000
G1 X613.1425 Y1170.4373 Z10.0000 F9999
G1 X490.2339 Y1507.4636 Z10.0000 F9999
G1 X490.2339 Y1507.4636 Z-1.0000 F2500
G1 X475.7936 Y1507.4636 Z-1.0000 F4000
G1 X490.2339 Y1507.4636 Z-1.0000 F4000
G1 X490.2339 Y1489.1700 Z-1.0000 F4000
G1 X475.1147 Y1489.1700 Z-1.0000 F4000
G1 X490.2339 Y1489.1700 Z-1.0000 F4000
G1 X490.2339 Y1530.2709 Z-1.0000 F4000
G1 X490.2339 Y1530.2709 Z10.0000 F9999
G1 X459.7018 Y1530.2709 Z10.0000 F9999
G1 X459.7018 Y1530.2709 Z-1.0000 F2500
G1 X459.7018 Y1489.1700 Z-1.0000 F4000
G1 X452.5459 Y1489.1700 Z-1.0000 F4000
G1 X448.6743 Y1489.7755 Z-1.0000 F4000
G1 X445.4633 Y1491.5920 Z-1.0000 F4000
G1 X443.2431 Y1494.7480 Z-1.0000 F4000
G1 X442.3991 Y1499.3902 Z-1.0000 F4000
G1 X443.5550 Y1504.0691 Z-1.0000 F4000
G1 X446.3257 Y1507.3902 Z-1.0000 F4000
G1 X449.6468 Y1509.3535 Z-1.0000 F4000
G1 X452.5459 Y1510.0140 Z-1.0000 F4000
G1 X459.7018 Y1510.0140 Z-1.0000 F4000
G1 X452.5459 Y1510.0140 Z-1.0000 F4000
G1 X449.6468 Y1509.3535 Z-1.0000 F4000
G1 X446.3257 Y1507.3902 Z-1.0000 F4000
G1 X443.5550 Y1504.0691 Z-1.0000 F4000
G1 X442.3991 Y1499.3902 Z-1.0000 F4000
G1 X443.2431 Y1494.7480 Z-1.0000 F4000
G1 X445.4633 Y1491.5920 Z-1.0000 F4000
G1 X448.6743 Y1489.7755 Z-1.0000 F4000
G1 X452.5459 Y1489.1700 Z-1.0000 F4000
G1 X459.7018 Y1489.1700 Z-1.0000 F4000
G1 X459.7018 Y1489.1700 Z10.0000 F9999
G1 X415.5917 Y1489.1700 Z10.0000 F9999
G1 X415.5917 Y1489.1700 Z-1.0000 F2500
G1 X399.5367 Y1530.2709 Z-1.0000 F4000
G1 X415.5917 Y1489.1700 Z-1.0000 F4000
G1 X431.6101 Y1530.2709 Z-1.0000 F4000
G1 X431.6101 Y1530.2709 Z10.0000 F9999
G1 X442.2890 Y1530.2709 Z10.0000 F9999
G1 X442.2890 Y1530.2709 Z-1.0000 F2500
G1 X455.5184 Y1510.1241 Z-1.0000 F4000
G1 X442.2890 Y1530.2709 Z-1.0000 F4000
G1 X442.2890 Y1530.2709 Z10.0000 F9999
G1 X405.2798 Y1515.5737 Z10.0000 F9999
G1 X405.2798 Y1515.5737 Z-1.0000 F2500
G1 X425.9771 Y1515.5737 Z-1.0000 F4000
G1 X405.2798 Y1515.5737 Z-1.0000 F4000
G1 X405.2798 Y1515.5737 Z10.0000 F9999
G1 X358.9128 Y1505.6104 Z10.0000 F9999
G1 X358.9128 Y1505.6104 Z-1.0000 F2500
G1 X388.1606 Y1505.6104 Z-1.0000 F4000
G1 X358.9128 Y1505.6104 Z-1.0000 F4000
G1 X358.9128 Y1505.6104 Z10.0000 F9999
G1 X332.2156 Y1489.1700 Z10.0000 F9999
G1 X332.2156 Y1489.1700 Z-1.0000 F2500
G1 X316.1606 Y1530.2709 Z-1.0000 F4000
G1 X332.2156 Y1489.1700 Z-1.0000 F4000
G1 X348.2339 Y1530.2709 Z-1.0000 F4000
G1 X348.2339 Y1530.2709 Z10.0000 F9999
G1 X321.9037 Y1515.5737 Z10.0000 F9999
G1 X321.9037 Y1515.5737 Z-1.0000 F2500
G1 X342.6009 Y1515.5737 Z-1.0000 F4000
G1 X321.9037 Y1515.5737 Z-1.0000 F4000
G1 X321.9037 Y1515.5737 Z10.0000 F9999
G1 X274.3991 Y1479.7755 Z10.0000 F9999
G1 X274.3991 Y1479.7755 Z-1.0000 F2500
G1 X304.7844 Y1532.6195 Z-1.0000 F4000
G1 X274.3991 Y1479.7755 Z-1.0000 F4000
G1 X274.3991 Y1479.7755 Z10.0000 F9999
G1 X222.5642 Y1489.1700 Z10.0000 F9999
G1 X222.5642 Y1489.1700 Z-1.0000 F2500
G1 X228.3807 Y1489.1700 Z-1.0000 F4000
G1 X222.5642 Y1489.1700 Z-1.0000 F4000
G1 X222.5642 Y1530.2709 Z-1.0000 F4000
G1 X222.5642 Y1530.2709 Z10.0000 F9999
G1 X241.4817 Y1530.2709 Z10.0000 F9999
G1 X241.4817 Y1530.2709 Z-1.0000 F2500
G1 X254.7110 Y1510.1241 Z-1.0000 F4000
G1 X241.4817 Y1530.2709 Z-1.0000 F4000
G1 X241.4817 Y1530.2709 Z10.0000 F9999
G1 X258.8945 Y1530.2709 Z10.0000 F9999
G1 X258.8945 Y1530.2709 Z-1.0000 F2500
G1 X258.8945 Y1489.1700 Z-1.0000 F4000
G1 X251.7385 Y1489.1700 Z-1.0000 F4000
G1 X247.8670 Y1489.7755 Z-1.0000 F4000
G1 X244.6560 Y1491.5920 Z-1.0000 F4000
G1 X242.4358 Y1494.7480 Z-1.0000 F4000
G1 X241.5917 Y1499.3902 Z-1.0000 F4000
G1 X242.7477 Y1504.0691 Z-1.0000 F4000
G1 X245.5184 Y1507.3902 Z-1.0000 F4000
G1 X248.8395 Y1509.3535 Z-1.0000 F4000
G1 X251.7385 Y1510.0140 Z-1.0000 F4000
G1 X258.8945 Y1510.0140 Z-1.0000 F4000
G1 X251.7385 Y1510.0140 Z-1.0000 F4000
G1 X248.8395 Y1509.3535 Z-1.0000 F4000
G1 X245.5184 Y1507.3902 Z-1.0000 F4000
G1 X242.7477 Y1504.0691 Z-1.0000 F4000
G1 X241.5917 Y1499.3902 Z-1.0000 F4000
G1 X242.4358 Y1494.7480 Z-1.0000 F4000
G1 X244.6560 Y1491.5920 Z-1.0000 F4000
G1 X247.8670 Y1489.7755 Z-1.0000 F4000
G1 X251.7385 Y1489.1700 Z-1.0000 F4000
G1 X258.8945 Y1489.1700 Z-1.0000 F4000
G1 X258.8945 Y1489.1700 Z10.0000 F9999
G1 X1037.2944 Y1863.9137 Z10.0000 F9999
G1 X1037.2944 Y1863.9137 Z-1.0000 F2500
G1 X1034.6155 Y1863.1614 Z-1.0000 F4000
G1 X1032.0467 Y1861.4366 Z-1.0000 F4000
G1 X1030.1018 Y1858.4825 Z-1.0000 F4000
G1 X1029.3495 Y1853.9321 Z-1.0000 F4000
G1 X1031.9733 Y1845.4183 Z-1.0000 F4000
G1 X1039.9550 Y1842.3174 Z-1.0000 F4000
G1 X1044.6889 Y1843.1981 Z-1.0000 F4000
G1 X1048.0467 Y1845.5100 Z-1.0000 F4000
G1 X1050.0467 Y1848.7211 Z-1.0000 F4000
G1 X1050.7256 Y1852.2990 Z-1.0000 F4000
G1 X1051.4596 Y1848.8311 Z-1.0000 F4000
G1 X1053.6798 Y1845.8770 Z-1.0000 F4000
G1 X1057.0559 Y1843.7853 Z-1.0000 F4000
G1 X1061.2577 Y1842.9963 Z-1.0000 F4000
G1 X1062.8357 Y1843.0330 Z-1.0000 F4000
G1 X1064.8174 Y1843.3082 Z-1.0000 F4000
G1 X1066.8357 Y1844.0972 Z-1.0000 F4000
G1 X1068.6706 Y1845.6201 Z-1.0000 F4000
G1 X1069.9733 Y1848.1706 Z-1.0000 F4000
G1 X1070.4504 Y1851.9137 Z-1.0000 F4000
G1 X1069.6247 Y1857.2899 Z-1.0000 F4000
G1 X1067.6064 Y1860.3908 Z-1.0000 F4000
G1 X1064.9458 Y1861.9137 Z-1.0000 F4000
G1 X1062.2119 Y1862.5009 Z-1.0000 F4000
G1 X1064.9458 Y1861.9137 Z-1.0000 F4000
G1 X1067.6064 Y1860.3908 Z-1.0000 F4000
G1 X1069.6247 Y1857.2899 Z-1.0000 F4000
G1 X1070.4504 Y1851.9137 Z-1.0000 F4000
G1 X1069.9733 Y1848.1706 Z-1.0000 F4000
G1 X1068.6706 Y1845.6201 Z-1.0000 F4000
G1 X1066.8357 Y1844.0972 Z-1.0000 F4000
G1 X1064.8174 Y1843.3082 Z-1.0000 F4000
G1 X1062.8724 Y1843.0330 Z-1.0000 F4000
G1 X1061.2577 Y1842.9963 Z-1.0000 F4000
G1 X1057.0559 Y1843.7853 Z-1.0000 F4000
G1 X1053.6798 Y1845.8770 Z-1.0000 F4000
G1 X1051.4596 Y1848.8311 Z-1.0000 F4000
G1 X1050.7256 Y1852.2990 Z-1.0000 F4000
G1 X1050.0467 Y1848.7211 Z-1.0000 F4000
G1 X1048.0467 Y1845.5100 Z-1.0000 F4000
G1 X1044.6889 Y1843.1981 Z-1.0000 F4000
G1 X1039.9550 Y1842.3174 Z-1.0000 F4000
G1 X1031.9733 Y1845.4183 Z-1.0000 F4000
G1 X1029.3495 Y1853.9321 Z-1.0000 F4000
G1 X1030.1018 Y1858.4825 Z-1.0000 F4000
G1 X1032.0467 Y1861.4366 Z-1.0000 F4000
G1 X1034.6155 Y1863.1614 Z-1.0000 F4000
G1 X1034.6155 Y1863.1614 Z10.0000 F9999
G1 X1070.4504 Y1881.6385 Z10.0000 F9999
G1 X1070.4504 Y1881.6385 Z-1.0000 F2500
G1 X1037.0559 Y1903.8403 Z-1.0000 F4000
G1 X1037.0559 Y1875.0330 Z-1.0000 F4000
G1 X1037.0559 Y1903.8403 Z-1.0000 F4000
G1 X1070.4504 Y1881.6385 Z-1.0000 F4000
G1 X1029.3495 Y1881.6385 Z-1.0000 F4000
G1 X1029.3495 Y1881.6385 Z10.0000 F9999
G1 X1029.3495 Y1914.6110 Z10.0000 F9999
G1 X1029.3495 Y1914.6110 Z-1.0000 F2500
G1 X1029.3495 Y1927.2348 Z-1.0000 F4000
G1 X1070.4504 Y1927.2348 Z-1.0000 F4000
G1 X1029.3495 Y1927.2348 Z-1.0000 F4000
G1 X1029.3495 Y1927.2348 Z10.0000 F9999
(Tool Number:1) (7.998 mm dia. slot drill)
M3 S9000
G1 X232.5210 Y43.8904 Z10.0000 F9999
G1 X232.5210 Y43.8904 Z1.0000 F2500
G1 X201.7810 Y39.8808 Z-7.3524 F2500
G1 X207.7303 Y40.6588 Z-8.9690 F2500
G1 X207.4754 Y42.6130 Z-9.5000 F2500
G1 X207.7303 Y40.6588 Z-10.0310 F2500
G1 X201.7810 Y39.8808 Z-11.6476 F2500
G1 X232.5210 Y43.8904 Z-20.0000 F2500
G1 X201.7810 Y39.8808 Z-20.0000 F4000
G1 X207.7303 Y40.6588 Z-20.0000 F4000
G1 X205.6609 Y56.5244 Z-20.0000 F4000
G1 X206.4389 Y50.5750 Z-20.0000 F4000
G1 X257.9999 Y57.3004 Z-20.0000 F4000
G1 X257.2239 Y63.2500 Z-20.0000 F4000
G1 X259.2953 Y47.3847 Z-20.0000 F4000
G1 X265.2449 Y48.1607 Z-20.0000 F4000
G1 X248.8840 Y46.0174 Z-20.0000 F4000
G1 X232.5210 Y43.8904 Z-20.0000 F4000
G1 X232.5210 Y43.8904 Z10.0000 F9999
G1 X203.2052 Y284.1180 Z10.0000 F9999
G1 X203.2052 Y284.1180 Z1.0000 F2500
G1 X233.9452 Y288.1275 Z-7.3524 F2500
G1 X227.9959 Y287.3495 Z-8.9690 F2500
G1 X228.2508 Y285.3953 Z-9.5000 F2500
G1 X227.9959 Y287.3495 Z-10.0310 F2500
G1 X233.9452 Y288.1275 Z-11.6476 F2500
G1 X203.2052 Y284.1180 Z-20.0000 F2500
G1 X233.9452 Y288.1275 Z-20.0000 F4000
G1 X227.9959 Y287.3495 Z-20.0000 F4000
G1 X230.0653 Y271.4839 Z-20.0000 F4000
G1 X229.2873 Y277.4333 Z-20.0000 F4000
G1 X177.7263 Y270.7079 Z-20.0000 F4000
G1 X178.5023 Y264.7583 Z-20.0000 F4000
G1 X176.4309 Y280.6236 Z-20.0000 F4000
G1 X170.4813 Y279.8476 Z-20.0000 F4000
G1 X186.8422 Y281.9910 Z-20.0000 F4000
G1 X203.2052 Y284.1180 Z-20.0000 F4000
G1 X203.2052 Y284.1180 Z10.0000 F9999
G1 X500.6855 Y322.9192 Z10.0000 F9999
G1 X500.6855 Y322.9192 Z1.0000 F2500
G1 X531.4255 Y326.9288 Z-7.3524 F2500
G1 X525.4762 Y326.1508 Z-8.9690 F2500
G1 X525.7311 Y324.1966 Z-9.5000 F2500
G1 X525.4762 Y326.1508 Z-10.0310 F2500
G1 X531.4255 Y326.9288 Z-11.6476 F2500
G1 X500.6855 Y322.9192 Z-20.0000 F2500
G1 X531.4255 Y326.9288 Z-20.0000 F4000
G1 X525.4762 Y326.1508 Z-20.0000 F4000
G1 X527.5456 Y310.2852 Z-20.0000 F4000
G1 X526.7676 Y316.2346 Z-20.0000 F4000
G1 X475.2066 Y309.5092 Z-20.0000 F4000
G1 X475.9826 Y303.5596 Z-20.0000 F4000
G1 X473.9112 Y319.4249 Z-20.0000 F4000
G1 X467.9616 Y318.6489 Z-20.0000 F4000
G1 X484.3225 Y320.7922 Z-20.0000 F4000
G1 X500.6855 Y322.9192 Z-20.0000 F4000
G1 X500.6855 Y322.9192 Z10.0000 F9999
G1 X530.0013 Y82.6916 Z10.0000 F9999
G1 X530.0013 Y82.6916 Z1.0000 F2500
G1 X499.2613 Y78.6821 Z-7.3524 F2500
G1 X505.2107 Y79.4601 Z-8.9690 F2500
G1 X504.9558 Y81.4143 Z-9.5000 F2500
G1 X505.2107 Y79.4601 Z-10.0310 F2500
G1 X499.2613 Y78.6821 Z-11.6476 F2500
G1 X530.0013 Y82.6916 Z-20.0000 F2500
G1 X499.2613 Y78.6821 Z-20.0000 F4000
G1 X505.2107 Y79.4601 Z-20.0000 F4000
G1 X503.1412 Y95.3257 Z-20.0000 F4000
G1 X503.9192 Y89.3763 Z-20.0000 F4000
G1 X555.4802 Y96.1017 Z-20.0000 F4000
G1 X554.7042 Y102.0513 Z-20.0000 F4000
G1 X556.7756 Y86.1860 Z-20.0000 F4000
G1 X562.7252 Y86.9620 Z-20.0000 F4000
G1 X546.3643 Y84.8186 Z-20.0000 F4000
G1 X530.0013 Y82.6916 Z-20.0000 F4000
G1 X530.0013 Y82.6916 Z10.0000 F9999
G1 X731.7694 Y555.7293 Z10.0000 F9999
G1 X731.7694 Y555.7293 Z1.0000 F2500
G1 X735.7789 Y586.4693 Z-7.3524 F2500
G1 X735.0049 Y580.5195 Z-8.9690 F2500
G1 X736.9591 Y580.2646 Z-9.5000 F2500
G1 X735.0049 Y580.5195 Z-10.0310 F2500
G1 X735.7789 Y586.4693 Z-11.6476 F2500
G1 X731.7694 Y555.7293 Z-20.0000 F2500
G1 X735.7789 Y586.4693 Z-20.0000 F4000
G1 X735.0049 Y580.5195 Z-20.0000 F4000
G1 X750.8705 Y578.4501 Z-20.0000 F4000
G1 X744.9206 Y579.2241 Z-20.0000 F4000
G1 X738.1953 Y527.6631 Z-20.0000 F4000
G1 X744.1449 Y526.8871 Z-20.0000 F4000
G1 X728.2790 Y528.9545 Z-20.0000 F4000
G1 X727.5030 Y523.0049 Z-20.0000 F4000
G1 X729.6280 Y539.3682 Z-20.0000 F4000
G1 X731.7694 Y555.7293 Z-20.0000 F4000
G1 X731.7694 Y555.7293 Z10.0000 F9999
G1 X971.4791 Y522.4437 Z10.0000 F9999
G1 X971.4791 Y522.4437 Z1.0000 F2500
G1 X967.4695 Y491.7037 Z-7.3524 F2500
G1 X968.2435 Y497.6536 Z-8.9690 F2500
G1 X966.2893 Y497.9085 Z-9.5000 F2500
G1 X968.2435 Y497.6536 Z-10.0310 F2500
G1 X967.4695 Y491.7037 Z-11.6476 F2500
G1 X971.4791 Y522.4437 Z-20.0000 F2500
G1 X967.4695 Y491.7037 Z-20.0000 F4000
G1 X968.2435 Y497.6536 Z-20.0000 F4000
G1 X952.3780 Y499.7230 Z-20.0000 F4000
G1 X958.3278 Y498.9490 Z-20.0000 F4000
G1 X965.0533 Y550.5099 Z-20.0000 F4000
G1 X959.1037 Y551.2860 Z-20.0000 F4000
G1 X974.9695 Y549.2185 Z-20.0000 F4000
G1 X975.7456 Y555.1681 Z-20.0000 F4000
G1 X973.6205 Y538.8048 Z-20.0000 F4000
G1 X971.4791 Y522.4437 Z-20.0000 F4000
G1 X971.4791 Y522.4437 Z10.0000 F9999
G1 X1010.2805 Y819.9232 Z10.0000 F9999
G1 X1010.2805 Y819.9232 Z1.0000 F2500
G1 X1006.2708 Y789.1832 Z-7.3524 F2500
G1 X1007.0449 Y795.1331 Z-8.9690 F2500
G1 X1005.0907 Y795.3880 Z-9.5000 F2500
G1 X1007.0449 Y795.1331 Z-10.0310 F2500
G1 X1006.2708 Y789.1832 Z-11.6476 F2500
G1 X1010.2805 Y819.9232 Z-20.0000 F2500
G1 X1006.2708 Y789.1832 Z-20.0000 F4000
G1 X1007.0449 Y795.1331 Z-20.0000 F4000
G1 X991.1793 Y797.2026 Z-20.0000 F4000
G1 X997.1292 Y796.4285 Z-20.0000 F4000
G1 X1003.8547 Y847.9895 Z-20.0000 F4000
G1 X997.9051 Y848.7655 Z-20.0000 F4000
G1 X1013.7709 Y846.6980 Z-20.0000 F4000
G1 X1014.5469 Y852.6476 Z-20.0000 F4000
G1 X1012.4219 Y836.2844 Z-20.0000 F4000
G1 X1010.2805 Y819.9232 Z-20.0000 F4000
G1 X1010.2805 Y819.9232 Z10.0000 F9999
G1 X770.5707 Y853.2089 Z10.0000 F9999
G1 X770.5707 Y853.2089 Z1.0000 F2500
G1 X774.5803 Y883.9489 Z-7.3524 F2500
G1 X773.8062 Y877.9990 Z-8.9690 F2500
G1 X775.7605 Y877.7441 Z-9.5000 F2500
G1 X773.8062 Y877.9990 Z-10.0310 F2500
G1 X774.5803 Y883.9489 Z-11.6476 F2500
G1 X770.5707 Y853.2089 Z-20.0000 F2500
G1 X774.5803 Y883.9489 Z-20.0000 F4000
G1 X773.8062 Y877.9990 Z-20.0000 F4000
G1 X789.6718 Y875.9296 Z-20.0000 F4000
G1 X783.7220 Y876.7036 Z-20.0000 F4000
G1 X776.9966 Y825.1426 Z-20.0000 F4000
G1 X782.9462 Y824.3666 Z-20.0000 F4000
G1 X767.0804 Y826.4340 Z-20.0000 F4000
G1 X766.3043 Y820.4844 Z-20.0000 F4000
G1 X768.4294 Y836.8477 Z-20.0000 F4000
G1 X770.5707 Y853.2089 Z-20.0000 F4000
G1 X770.5707 Y853.2089 Z10.0000 F9999
G1 X644.6970 Y1073.7748 Z10.0000 F9999
G1 X644.6970 Y1073.7748 Z1.0000 F2500
G1 X613.6966 Y1073.7748 Z-7.3524 F2500
G1 X619.6966 Y1073.7768 Z-8.9690 F2500
G1 X619.6966 Y1075.7476 Z-9.5000 F2500
G1 X619.6966 Y1073.7768 Z-10.0310 F2500
G1 X613.6966 Y1073.7748 Z-11.6476 F2500
G1 X644.6970 Y1073.7748 Z-20.0000 F2500
G1 X613.6966 Y1073.7748 Z-20.0000 F4000
G1 X619.6966 Y1073.7768 Z-20.0000 F4000
G1 X619.6966 Y1089.7768 Z-20.0000 F4000
G1 X619.6986 Y1083.7768 Z-20.0000 F4000
G1 X671.6964 Y1083.7768 Z-20.0000 F4000
G1 X671.6964 Y1089.7768 Z-20.0000 F4000
G1 X671.6984 Y1073.7768 Z-20.0000 F4000
G1 X677.6984 Y1073.7768 Z-20.0000 F4000
G1 X661.1977 Y1073.7676 Z-20.0000 F4000
G1 X644.6970 Y1073.7748 Z-20.0000 F4000
G1 X644.6970 Y1073.7748 Z10.0000 F9999
G1 X646.6980 Y1315.7763 Z10.0000 F9999
G1 X646.6980 Y1315.7763 Z1.0000 F2500
G1 X677.6984 Y1315.7763 Z-7.3524 F2500
G1 X671.6984 Y1315.7743 Z-8.9690 F2500
G1 X671.6984 Y1313.8036 Z-9.5000 F2500
G1 X671.6984 Y1315.7743 Z-10.0310 F2500
G1 X677.6984 Y1315.7763 Z-11.6476 F2500
G1 X646.6980 Y1315.7763 Z-20.0000 F2500
G1 X677.6984 Y1315.7763 Z-20.0000 F4000
G1 X671.6984 Y1315.7743 Z-20.0000 F4000
G1 X671.6984 Y1299.7744 Z-20.0000 F4000
G1 X671.6964 Y1305.7744 Z-20.0000 F4000
G1 X619.6986 Y1305.7744 Z-20.0000 F4000
G1 X619.6986 Y1299.7744 Z-20.0000 F4000
G1 X619.6966 Y1315.7743 Z-20.0000 F4000
G1 X613.6966 Y1315.7743 Z-20.0000 F4000
G1 X630.1973 Y1315.7836 Z-20.0000 F4000
G1 X646.6980 Y1315.7763 Z-20.0000 F4000
G1 X646.6980 Y1315.7763 Z10.0000 F9999
G1 X758.8980 Y1381.7759 Z10.0000 F9999
G1 X758.8980 Y1381.7759 Z1.0000 F2500
G1 X727.8976 Y1381.7759 Z-7.3524 F2500
G1 X733.8976 Y1381.7779 Z-8.9690 F2500
G1 X733.8976 Y1383.7487 Z-9.5000 F2500
G1 X733.8976 Y1381.7779 Z-10.0310 F2500
G1 X727.8976 Y1381.7759 Z-11.6476 F2500
G1 X758.8980 Y1381.7759 Z-20.0000 F2500
G1 X727.8976 Y1381.7759 Z-20.0000 F4000
G1 X733.8976 Y1381.7779 Z-20.0000 F4000
G1 X733.8976 Y1397.7779 Z-20.0000 F4000
G1 X733.8996 Y1391.7779 Z-20.0000 F4000
G1 X785.8973 Y1391.7779 Z-20.0000 F4000
G1 X785.8973 Y1397.7779 Z-20.0000 F4000
G1 X785.8993 Y1381.7779 Z-20.0000 F4000
G1 X791.8993 Y1381.7779 Z-20.0000 F4000
G1 X775.3986 Y1381.7687 Z-20.0000 F4000
G1 X758.8980 Y1381.7759 Z-20.0000 F4000
G1 X758.8980 Y1381.7759 Z10.0000 F9999
G1 X680.3986 Y1497.7757 Z10.0000 F9999
G1 X680.3986 Y1497.7757 Z1.0000 F2500
G1 X641.4275 Y1497.7757 Z-9.5000 F2500
G1 X680.3986 Y1497.7757 Z-20.0000 F2500
G1 X605.8998 Y1497.7757 Z-20.0000 F4000
G1 X605.8998 Y1491.7757 Z-20.0000 F4000
G1 X605.8978 Y1513.7778 Z-20.0000 F4000
G1 X605.8998 Y1507.7778 Z-20.0000 F4000
G1 X754.8975 Y1507.7778 Z-20.0000 F4000
G1 X754.8975 Y1532.7757 Z-20.0000 F4000
G1 X749.8975 Y1532.7757 Z-20.0000 F4000
G1 X749.8975 Y1534.7777 Z-20.0000 F4000
G1 X769.8994 Y1534.7777 Z-20.0000 F4000
G1 X769.8994 Y1532.7757 Z-20.0000 F4000
G1 X764.8994 Y1532.7757 Z-20.0000 F4000
G1 X764.8994 Y1507.7778 Z-20.0000 F4000
G1 X823.8973 Y1507.7778 Z-20.0000 F4000
G1 X823.8973 Y1512.7777 Z-20.0000 F4000
G1 X825.8993 Y1512.7777 Z-20.0000 F4000
G1 X825.8993 Y1492.7758 Z-20.0000 F4000
G1 X823.8973 Y1492.7758 Z-20.0000 F4000
G1 X823.8973 Y1497.7757 Z-20.0000 F4000
G1 X764.8994 Y1497.7757 Z-20.0000 F4000
G1 X764.8994 Y1472.7778 Z-20.0000 F4000
G1 X769.8994 Y1472.7778 Z-20.0000 F4000
G1 X769.8994 Y1470.7758 Z-20.0000 F4000
G1 X749.8975 Y1470.7758 Z-20.0000 F4000
G1 X749.8975 Y1472.7778 Z-20.0000 F4000
G1 X754.8975 Y1472.7778 Z-20.0000 F4000
G1 X754.8975 Y1497.7757 Z-20.0000 F4000
G1 X680.3986 Y1497.7757 Z-20.0000 F4000
G1 X680.3986 Y1497.7757 Z10.0000 F9999
G1 X458.8986 Y1381.7759 Z10.0000 F9999
G1 X458.8986 Y1381.7759 Z1.0000 F2500
G1 X427.8982 Y1381.7759 Z-7.3524 F2500
G1 X433.8982 Y1381.7779 Z-8.9690 F2500
G1 X433.8982 Y1383.7487 Z-9.5000 F2500
G1 X433.8982 Y1381.7779 Z-10.0310 F2500
G1 X427.8982 Y1381.7759 Z-11.6476 F2500
G1 X458.8986 Y1381.7759 Z-20.0000 F2500
G1 X427.8982 Y1381.7759 Z-20.0000 F4000
G1 X433.8982 Y1381.7779 Z-20.0000 F4000
G1 X433.8982 Y1397.7779 Z-20.0000 F4000
G1 X433.9002 Y1391.7779 Z-20.0000 F4000
G1 X485.8980 Y1391.7779 Z-20.0000 F4000
G1 X485.8980 Y1397.7779 Z-20.0000 F4000
G1 X485.9000 Y1381.7779 Z-20.0000 F4000
G1 X491.9000 Y1381.7779 Z-20.0000 F4000
G1 X475.3993 Y1381.7687 Z-20.0000 F4000
G1 X458.8986 Y1381.7759 Z-20.0000 F4000
G1 X458.8986 Y1381.7759 Z10.0000 F9999
G1 X346.6986 Y1315.7763 Z10.0000 F9999
G1 X346.6986 Y1315.7763 Z1.0000 F2500
G1 X377.6990 Y1315.7763 Z-7.3524 F2500
G1 X371.6990 Y1315.7743 Z-8.9690 F2500
G1 X371.6990 Y1313.8036 Z-9.5000 F2500
G1 X371.6990 Y1315.7743 Z-10.0310 F2500
G1 X377.6990 Y1315.7763 Z-11.6476 F2500
G1 X346.6986 Y1315.7763 Z-20.0000 F2500
G1 X377.6990 Y1315.7763 Z-20.0000 F4000
G1 X371.6990 Y1315.7743 Z-20.0000 F4000
G1 X371.6990 Y1299.7744 Z-20.0000 F4000
G1 X371.6970 Y1305.7744 Z-20.0000 F4000
G1 X319.6993 Y1305.7744 Z-20.0000 F4000
G1 X319.6993 Y1299.7744 Z-20.0000 F4000
G1 X319.6973 Y1315.7743 Z-20.0000 F4000
G1 X313.6973 Y1315.7743 Z-20.0000 F4000
G1 X330.1979 Y1315.7836 Z-20.0000 F4000
G1 X346.6986 Y1315.7763 Z-20.0000 F4000
G1 X346.6986 Y1315.7763 Z10.0000 F9999
G1 X425.1980 Y1199.7766 Z10.0000 F9999
G1 X425.1980 Y1199.7766 Z1.0000 F2500
G1 X464.1691 Y1199.7766 Z-9.5000 F2500
G1 X425.1980 Y1199.7766 Z-20.0000 F2500
G1 X499.6968 Y1199.7766 Z-20.0000 F4000
G1 X499.6968 Y1205.7766 Z-20.0000 F4000
G1 X499.6988 Y1183.7745 Z-20.0000 F4000
G1 X499.6968 Y1189.7745 Z-20.0000 F4000
G1 X350.6991 Y1189.7745 Z-20.0000 F4000
G1 X350.6991 Y1164.7766 Z-20.0000 F4000
G1 X355.6991 Y1164.7766 Z-20.0000 F4000
G1 X355.6991 Y1162.7746 Z-20.0000 F4000
G1 X335.6972 Y1162.7746 Z-20.0000 F4000
G1 X335.6972 Y1164.7766 Z-20.0000 F4000
G1 X340.6972 Y1164.7766 Z-20.0000 F4000
G1 X340.6972 Y1189.7745 Z-20.0000 F4000
G1 X281.6993 Y1189.7745 Z-20.0000 F4000
G1 X281.6993 Y1184.7746 Z-20.0000 F4000
G1 X279.6973 Y1184.7746 Z-20.0000 F4000
G1 X279.6973 Y1204.7765 Z-20.0000 F4000
G1 X281.6993 Y1204.7765 Z-20.0000 F4000
G1 X281.6993 Y1199.7766 Z-20.0000 F4000
G1 X340.6972 Y1199.7766 Z-20.0000 F4000
G1 X340.6972 Y1224.7745 Z-20.0000 F4000
G1 X335.6972 Y1224.7745 Z-20.0000 F4000
G1 X335.6972 Y1226.7765 Z-20.0000 F4000
G1 X355.6991 Y1226.7765 Z-20.0000 F4000
G1 X355.6991 Y1224.7745 Z-20.0000 F4000
G1 X350.6991 Y1224.7745 Z-20.0000 F4000
G1 X350.6991 Y1199.7766 Z-20.0000 F4000
G1 X425.1980 Y1199.7766 Z-20.0000 F4000
G1 X425.1980 Y1199.7766 Z10.0000 F9999
G1 X466.6989 Y893.7757 Z10.0000 F9999
G1 X466.6989 Y893.7757 Z1.0000 F2500
G1 X466.6989 Y862.7753 Z-7.3524 F2500
G1 X466.6969 Y868.7753 Z-8.9690 F2500
G1 X464.7261 Y868.7753 Z-9.5000 F2500
G1 X466.6969 Y868.7753 Z-10.0310 F2500
G1 X466.6989 Y862.7753 Z-11.6476 F2500
G1 X466.6989 Y893.7757 Z-20.0000 F2500
G1 X466.6989 Y862.7753 Z-20.0000 F4000
G1 X466.6969 Y868.7753 Z-20.0000 F4000
G1 X450.6969 Y868.7753 Z-20.0000 F4000
G1 X456.6969 Y868.7773 Z-20.0000 F4000
G1 X456.6969 Y920.7751 Z-20.0000 F4000
G1 X450.6969 Y920.7751 Z-20.0000 F4000
G1 X466.6969 Y920.7771 Z-20.0000 F4000
G1 X466.6969 Y926.7771 Z-20.0000 F4000
G1 X466.7061 Y910.2764 Z-20.0000 F4000
G1 X466.6989 Y893.7757 Z-20.0000 F4000
G1 X466.6989 Y893.7757 Z10.0000 F9999
G1 X345.6981 Y889.7752 Z10.0000 F9999
G1 X345.6981 Y889.7752 Z1.0000 F2500
G1 X315.6992 Y889.7752 Z-7.0826 F2500
G1 X315.6992 Y884.7751 Z-8.4298 F2500
G1 X313.6972 Y884.7751 Z-8.9692 F2500
G1 X313.6972 Y886.7452 Z-9.5000 F2500
G1 X313.6972 Y884.7751 Z-10.0308 F2500
G1 X315.6992 Y884.7751 Z-10.5702 F2500
G1 X315.6992 Y889.7752 Z-11.9174 F2500
G1 X345.6981 Y889.7752 Z-20.0000 F2500
G1 X315.6992 Y889.7752 Z-20.0000 F4000
G1 X315.6992 Y884.7751 Z-20.0000 F4000
G1 X313.6972 Y884.7751 Z-20.0000 F4000
G1 X313.6972 Y904.7772 Z-20.0000 F4000
G1 X315.6992 Y904.7772 Z-20.0000 F4000
G1 X315.6992 Y899.7771 Z-20.0000 F4000
G1 X375.6971 Y899.7771 Z-20.0000 F4000
G1 X375.6971 Y904.7772 Z-20.0000 F4000
G1 X377.6991 Y904.7772 Z-20.0000 F4000
G1 X377.6991 Y884.7751 Z-20.0000 F4000
G1 X375.6971 Y884.7751 Z-20.0000 F4000
G1 X375.6971 Y889.7752 Z-20.0000 F4000
G1 X345.6981 Y889.7752 Z-20.0000 F4000
G1 X345.6981 Y889.7752 Z10.0000 F9999
G1 X224.6974 Y895.7767 Z10.0000 F9999
G1 X224.6974 Y895.7767 Z1.0000 F2500
G1 X224.6974 Y926.7771 Z-7.3524 F2500
G1 X224.6994 Y920.7771 Z-8.9690 F2500
G1 X226.6702 Y920.7771 Z-9.5000 F2500
G1 X224.6994 Y920.7771 Z-10.0310 F2500
G1 X224.6974 Y926.7771 Z-11.6476 F2500
G1 X224.6974 Y895.7767 Z-20.0000 F2500
G1 X224.6974 Y926.7771 Z-20.0000 F4000
G1 X224.6994 Y920.7771 Z-20.0000 F4000
G1 X240.6994 Y920.7771 Z-20.0000 F4000
G1 X234.6994 Y920.7751 Z-20.0000 F4000
G1 X234.6994 Y868.7773 Z-20.0000 F4000
G1 X240.6994 Y868.7773 Z-20.0000 F4000
G1 X224.6994 Y868.7753 Z-20.0000 F4000
G1 X224.6994 Y862.7753 Z-20.0000 F4000
G1 X224.6901 Y879.2760 Z-20.0000 F4000
G1 X224.6974 Y895.7767 Z-20.0000 F4000
G1 X224.6974 Y895.7767 Z10.0000 F9999
G1 X224.6974 Y595.7772 Z10.0000 F9999
G1 X224.6974 Y595.7772 Z1.0000 F2500
G1 X224.6974 Y626.7776 Z-7.3524 F2500
G1 X224.6994 Y620.7776 Z-8.9690 F2500
G1 X226.6702 Y620.7776 Z-9.5000 F2500
G1 X224.6994 Y620.7776 Z-10.0310 F2500
G1 X224.6974 Y626.7776 Z-11.6476 F2500
G1 X224.6974 Y595.7772 Z-20.0000 F2500
G1 X224.6974 Y626.7776 Z-20.0000 F4000
G1 X224.6994 Y620.7776 Z-20.0000 F4000
G1 X240.6994 Y620.7776 Z-20.0000 F4000
G1 X234.6994 Y620.7756 Z-20.0000 F4000
G1 X234.6994 Y568.7779 Z-20.0000 F4000
G1 X240.6994 Y568.7779 Z-20.0000 F4000
G1 X224.6994 Y568.7759 Z-20.0000 F4000
G1 X224.6994 Y562.7759 Z-20.0000 F4000
G1 X224.6901 Y579.2765 Z-20.0000 F4000
G1 X224.6974 Y595.7772 Z-20.0000 F4000
G1 X224.6974 Y595.7772 Z10.0000 F9999
G1 X466.6989 Y593.7762 Z10.0000 F9999
G1 X466.6989 Y593.7762 Z1.0000 F2500
G1 X466.6989 Y562.7759 Z-7.3524 F2500
G1 X466.6969 Y568.7759 Z-8.9690 F2500
G1 X464.7261 Y568.7759 Z-9.5000 F2500
G1 X466.6969 Y568.7759 Z-10.0310 F2500
G1 X466.6989 Y562.7759 Z-11.6476 F2500
G1 X466.6989 Y593.7762 Z-20.0000 F2500
G1 X466.6989 Y562.7759 Z-20.0000 F4000
G1 X466.6969 Y568.7759 Z-20.0000 F4000
G1 X450.6969 Y568.7759 Z-20.0000 F4000
G1 X456.6969 Y568.7779 Z-20.0000 F4000
G1 X456.6969 Y620.7756 Z-20.0000 F4000
G1 X450.6969 Y620.7756 Z-20.0000 F4000
G1 X466.6969 Y620.7776 Z-20.0000 F4000
G1 X466.6969 Y626.7776 Z-20.0000 F4000
G1 X466.7061 Y610.2769 Z-20.0000 F4000
G1 X466.6989 Y593.7762 Z-20.0000 F4000
G1 X466.6989 Y593.7762 Z10.0000 F9999
G1 X944.6964 Y1073.7748 Z10.0000 F9999
G1 X944.6964 Y1073.7748 Z1.0000 F2500
G1 X913.6960 Y1073.7748 Z-7.3524 F2500
G1 X919.6960 Y1073.7768 Z-8.9690 F2500
G1 X919.6960 Y1075.7476 Z-9.5000 F2500
G1 X919.6960 Y1073.7768 Z-10.0310 F2500
G1 X913.6960 Y1073.7748 Z-11.6476 F2500
G1 X944.6964 Y1073.7748 Z-20.0000 F2500
G1 X913.6960 Y1073.7748 Z-20.0000 F4000
G1 X919.6960 Y1073.7768 Z-20.0000 F4000
G1 X919.6960 Y1089.7768 Z-20.0000 F4000
G1 X919.6980 Y1083.7768 Z-20.0000 F4000
G1 X971.6958 Y1083.7768 Z-20.0000 F4000
G1 X971.6958 Y1089.7768 Z-20.0000 F4000
G1 X971.6978 Y1073.7768 Z-20.0000 F4000
G1 X977.6978 Y1073.7768 Z-20.0000 F4000
G1 X961.1971 Y1073.7676 Z-20.0000 F4000
G1 X944.6964 Y1073.7748 Z-20.0000 F4000
G1 X944.6964 Y1073.7748 Z10.0000 F9999
G1 X946.6974 Y1315.7763 Z10.0000 F9999
G1 X946.6974 Y1315.7763 Z1.0000 F2500
G1 X977.6978 Y1315.7763 Z-7.3524 F2500
G1 X971.6978 Y1315.7743 Z-8.9690 F2500
G1 X971.6978 Y1313.8036 Z-9.5000 F2500
G1 X971.6978 Y1315.7743 Z-10.0310 F2500
G1 X977.6978 Y1315.7763 Z-11.6476 F2500
G1 X946.6974 Y1315.7763 Z-20.0000 F2500
G1 X977.6978 Y1315.7763 Z-20.0000 F4000
G1 X971.6978 Y1315.7743 Z-20.0000 F4000
G1 X971.6978 Y1299.7744 Z-20.0000 F4000
G1 X971.6958 Y1305.7744 Z-20.0000 F4000
G1 X919.6980 Y1305.7744 Z-20.0000 F4000
G1 X919.6980 Y1299.7744 Z-20.0000 F4000
G1 X919.6960 Y1315.7743 Z-20.0000 F4000
G1 X913.6960 Y1315.7743 Z-20.0000 F4000
G1 X930.1967 Y1315.7836 Z-20.0000 F4000
G1 X946.6974 Y1315.7763 Z-20.0000 F4000
G1 X946.6974 Y1315.7763 Z10.0000 F9999
G1 X880.8992 Y1801.7756 Z10.0000 F9999
G1 X880.8992 Y1801.7756 Z1.0000 F2500
G1 X880.8992 Y1770.7752 Z-7.3524 F2500
G1 X880.8972 Y1776.7752 Z-8.9690 F2500
G1 X878.9264 Y1776.7752 Z-9.5000 F2500
G1 X880.8972 Y1776.7752 Z-10.0310 F2500
G1 X880.8992 Y1770.7752 Z-11.6476 F2500
G1 X880.8992 Y1801.7756 Z-20.0000 F2500
G1 X880.8992 Y1770.7752 Z-20.0000 F4000
G1 X880.8972 Y1776.7752 Z-20.0000 F4000
G1 X864.8972 Y1776.7752 Z-20.0000 F4000
G1 X870.8972 Y1776.7772 Z-20.0000 F4000
G1 X870.8972 Y1828.7749 Z-20.0000 F4000
G1 X864.8972 Y1828.7749 Z-20.0000 F4000
G1 X880.8972 Y1828.7769 Z-20.0000 F4000
G1 X880.8972 Y1834.7769 Z-20.0000 F4000
G1 X880.9065 Y1818.2763 Z-20.0000 F4000
G1 X880.8992 Y1801.7756 Z-20.0000 F4000
G1 X880.8992 Y1801.7756 Z10.0000 F9999
G1 X759.8985 Y1807.7771 Z10.0000 F9999
G1 X759.8985 Y1807.7771 Z1.0000 F2500
G1 X789.8974 Y1807.7771 Z-7.0826 F2500
G1 X789.8974 Y1812.7772 Z-8.4298 F2500
G1 X791.8994 Y1812.7772 Z-8.9692 F2500
G1 X791.8994 Y1810.8071 Z-9.5000 F2500
G1 X791.8994 Y1812.7772 Z-10.0308 F2500
G1 X789.8974 Y1812.7772 Z-10.5702 F2500
G1 X789.8974 Y1807.7771 Z-11.9174 F2500
G1 X759.8985 Y1807.7771 Z-20.0000 F2500
G1 X789.8974 Y1807.7771 Z-20.0000 F4000
G1 X789.8974 Y1812.7772 Z-20.0000 F4000
G1 X791.8994 Y1812.7772 Z-20.0000 F4000
G1 X791.8994 Y1792.7751 Z-20.0000 F4000
G1 X789.8974 Y1792.7751 Z-20.0000 F4000
G1 X789.8974 Y1797.7752 Z-20.0000 F4000
G1 X729.8995 Y1797.7752 Z-20.0000 F4000
G1 X729.8995 Y1792.7751 Z-20.0000 F4000
G1 X727.8975 Y1792.7751 Z-20.0000 F4000
G1 X727.8975 Y1812.7772 Z-20.0000 F4000
G1 X729.8995 Y1812.7772 Z-20.0000 F4000
G1 X729.8995 Y1807.7771 Z-20.0000 F4000
G1 X759.8985 Y1807.7771 Z-20.0000 F4000
G1 X759.8985 Y1807.7771 Z10.0000 F9999
G1 X638.8977 Y1803.7766 Z10.0000 F9999
G1 X638.8977 Y1803.7766 Z1.0000 F2500
G1 X638.8977 Y1834.7769 Z-7.3524 F2500
G1 X638.8997 Y1828.7769 Z-8.9690 F2500
G1 X640.8705 Y1828.7769 Z-9.5000 F2500
G1 X638.8997 Y1828.7769 Z-10.0310 F2500
G1 X638.8977 Y1834.7769 Z-11.6476 F2500
G1 X638.8977 Y1803.7766 Z-20.0000 F2500
G1 X638.8977 Y1834.7769 Z-20.0000 F4000
G1 X638.8997 Y1828.7769 Z-20.0000 F4000
G1 X654.8997 Y1828.7769 Z-20.0000 F4000
G1 X648.8997 Y1828.7749 Z-20.0000 F4000
G1 X648.8997 Y1776.7772 Z-20.0000 F4000
G1 X654.8997 Y1776.7772 Z-20.0000 F4000
G1 X638.8997 Y1776.7752 Z-20.0000 F4000
G1 X638.8997 Y1770.7752 Z-20.0000 F4000
G1 X638.8905 Y1787.2759 Z-20.0000 F4000
G1 X638.8977 Y1803.7766 Z-20.0000 F4000
G1 X638.8977 Y1803.7766 Z10.0000 F9999
G1 X460.8996 Y1623.7774 Z10.0000 F9999
G1 X460.8996 Y1623.7774 Z1.0000 F2500
G1 X491.9000 Y1623.7774 Z-7.3524 F2500
G1 X485.9000 Y1623.7754 Z-8.9690 F2500
G1 X485.9000 Y1621.8046 Z-9.5000 F2500
G1 X485.9000 Y1623.7754 Z-10.0310 F2500
G1 X491.9000 Y1623.7774 Z-11.6476 F2500
G1 X460.8996 Y1623.7774 Z-20.0000 F2500
G1 X491.9000 Y1623.7774 Z-20.0000 F4000
G1 X485.9000 Y1623.7754 Z-20.0000 F4000
G1 X485.9000 Y1607.7754 Z-20.0000 F4000
G1 X485.8980 Y1613.7754 Z-20.0000 F4000
G1 X433.9002 Y1613.7754 Z-20.0000 F4000
G1 X433.9002 Y1607.7754 Z-20.0000 F4000
G1 X433.8982 Y1623.7754 Z-20.0000 F4000
G1 X427.8982 Y1623.7754 Z-20.0000 F4000
G1 X444.3989 Y1623.7847 Z-20.0000 F4000
G1 X460.8996 Y1623.7774 Z-20.0000 F4000
G1 X460.8996 Y1623.7774 Z10.0000 F9999
G1 X160.9002 Y1623.7774 Z10.0000 F9999
G1 X160.9002 Y1623.7774 Z1.0000 F2500
G1 X191.9006 Y1623.7774 Z-7.3524 F2500
G1 X185.9006 Y1623.7754 Z-8.9690 F2500
G1 X185.9006 Y1621.8046 Z-9.5000 F2500
G1 X185.9006 Y1623.7754 Z-10.0310 F2500
G1 X191.9006 Y1623.7774 Z-11.6476 F2500
G1 X160.9002 Y1623.7774 Z-20.0000 F2500
G1 X191.9006 Y1623.7774 Z-20.0000 F4000
G1 X185.9006 Y1623.7754 Z-20.0000 F4000
G1 X185.9006 Y1607.7754 Z-20.0000 F4000
G1 X185.8986 Y1613.7754 Z-20.0000 F4000
G1 X133.9008 Y1613.7754 Z-20.0000 F4000
G1 X133.9008 Y1607.7754 Z-20.0000 F4000
G1 X133.8988 Y1623.7754 Z-20.0000 F4000
G1 X127.8988 Y1623.7754 Z-20.0000 F4000
G1 X144.3995 Y1623.7847 Z-20.0000 F4000
G1 X160.9002 Y1623.7774 Z-20.0000 F4000
G1 X160.9002 Y1623.7774 Z10.0000 F9999
G1 X158.8992 Y1381.7759 Z10.0000 F9999
G1 X158.8992 Y1381.7759 Z1.0000 F2500
G1 X127.8988 Y1381.7759 Z-7.3524 F2500
G1 X133.8988 Y1381.7779 Z-8.9690 F2500
G1 X133.8988 Y1383.7487 Z-9.5000 F2500
G1 X133.8988 Y1381.7779 Z-10.0310 F2500
G1 X127.8988 Y1381.7759 Z-11.6476 F2500
G1 X158.8992 Y1381.7759 Z-20.0000 F2500
G1 X127.8988 Y1381.7759 Z-20.0000 F4000
G1 X133.8988 Y1381.7779 Z-20.0000 F4000
G1 X133.8988 Y1397.7779 Z-20.0000 F4000
G1 X133.9008 Y1391.7779 Z-20.0000 F4000
G1 X185.8986 Y1391.7779 Z-20.0000 F4000
G1 X185.8986 Y1397.7779 Z-20.0000 F4000
G1 X185.9006 Y1381.7779 Z-20.0000 F4000
G1 X191.9006 Y1381.7779 Z-20.0000 F4000
G1 X175.3999 Y1381.7687 Z-20.0000 F4000
G1 X158.8992 Y1381.7759 Z-20.0000 F4000
G1 X158.8992 Y1381.7759 Z10.0000 F9999
G1 X638.8977 Y2103.7760 Z10.0000 F9999
G1 X638.8977 Y2103.7760 Z1.0000 F2500
G1 X638.8977 Y2134.7764 Z-7.3524 F2500
G1 X638.8997 Y2128.7764 Z-8.9690 F2500
G1 X640.8705 Y2128.7764 Z-9.5000 F2500
G1 X638.8997 Y2128.7764 Z-10.0310 F2500
G1 X638.8977 Y2134.7764 Z-11.6476 F2500
G1 X638.8977 Y2103.7760 Z-20.0000 F2500
G1 X638.8977 Y2134.7764 Z-20.0000 F4000
G1 X638.8997 Y2128.7764 Z-20.0000 F4000
G1 X654.8997 Y2128.7764 Z-20.0000 F4000
G1 X648.8997 Y2128.7744 Z-20.0000 F4000
G1 X648.8997 Y2076.7766 Z-20.0000 F4000
G1 X654.8997 Y2076.7766 Z-20.0000 F4000
G1 X638.8997 Y2076.7746 Z-20.0000 F4000
G1 X638.8997 Y2070.7746 Z-20.0000 F4000
G1 X638.8905 Y2087.2753 Z-20.0000 F4000
G1 X638.8977 Y2103.7760 Z-20.0000 F4000
G1 X638.8977 Y2103.7760 Z10.0000 F9999
G1 X880.8992 Y2101.7750 Z10.0000 F9999
G1 X880.8992 Y2101.7750 Z1.0000 F2500
G1 X880.8992 Y2070.7746 Z-7.3524 F2500
G1 X880.8972 Y2076.7746 Z-8.9690 F2500
G1 X878.9264 Y2076.7746 Z-9.5000 F2500
G1 X880.8972 Y2076.7746 Z-10.0310 F2500
G1 X880.8992 Y2070.7746 Z-11.6476 F2500
G1 X880.8992 Y2101.7750 Z-20.0000 F2500
G1 X880.8992 Y2070.7746 Z-20.0000 F4000
G1 X880.8972 Y2076.7746 Z-20.0000 F4000
G1 X864.8972 Y2076.7746 Z-20.0000 F4000
G1 X870.8972 Y2076.7766 Z-20.0000 F4000
G1 X870.8972 Y2128.7744 Z-20.0000 F4000
G1 X864.8972 Y2128.7744 Z-20.0000 F4000
G1 X880.8972 Y2128.7764 Z-20.0000 F4000
G1 X880.8972 Y2134.7764 Z-20.0000 F4000
G1 X880.9065 Y2118.2757 Z-20.0000 F4000
G1 X880.8992 Y2101.7750 Z-20.0000 F4000
G1 X880.8992 Y2101.7750 Z10.0000 F9999
(Tool Number:1) (7.998 mm dia. slot drill)
M3 S9000
G1 X1178.8986 Y1884.7762 Z10.0000 F9999
G1 X1178.8986 Y1884.7762 Z1.0000 F2500
G1 X1178.8986 Y1923.7473 Z-9.5000 F2500
G1 X1178.8986 Y1884.7762 Z-20.0000 F2500
G1 X1178.8984 Y2413.7740 Z-20.0000 F4000
G1 X920.9010 Y2413.7740 Z-20.0000 F4000
G1 X920.9010 Y2375.9552 Z-20.0000 F4000
G1 X920.9010 Y2375.9552 Z-10.0000 F9999
G1 X920.9010 Y2359.9572 Z-10.0000 F4000
G1 X920.9010 Y2359.9572 Z-20.0000 F2500
G1 X920.9014 Y1355.7782 Z-20.0000 F4000
G1 X957.4748 Y1355.7782 Z-20.0000 F4000
G1 X957.4748 Y1355.7782 Z-10.0000 F9999
G1 X973.4728 Y1355.7782 Z-10.0000 F4000
G1 X973.4728 Y1355.7782 Z-20.0000 F2500
G1 X1131.7605 Y1355.7783 Z-20.0000 F4000
G1 X1131.7605 Y1355.7783 Z-10.0000 F9999
G1 X1147.7585 Y1355.7783 Z-10.0000 F4000
G1 X1147.7585 Y1355.7783 Z-20.0000 F2500
G1 X1178.8989 Y1355.7783 Z-20.0000 F4000
G1 X1178.8986 Y1884.7762 Z-20.0000 F4000
G1 X1178.8986 Y1884.7762 Z10.0000 F9999
G1 X947.9203 Y279.9956 Z10.0000 F9999
G1 X947.9203 Y279.9956 Z1.0000 F2500
G1 X952.9611 Y318.6394 Z-9.5000 F2500
G1 X947.9203 Y279.9956 Z-20.0000 F2500
G1 X967.1228 Y427.2072 Z-20.0000 F4000
G1 X962.1647 Y427.8539 Z-20.0000 F4000
G1 X962.4237 Y429.8391 Z-20.0000 F4000
G1 X985.2306 Y426.8643 Z-20.0000 F4000
G1 X1009.5459 Y613.2828 Z-20.0000 F4000
G1 X986.7392 Y616.2575 Z-20.0000 F4000
G1 X986.9981 Y618.2427 Z-20.0000 F4000
G1 X991.9561 Y617.5959 Z-20.0000 F4000
G1 X1005.9241 Y724.6871 Z-20.0000 F4000
G1 X1000.9662 Y725.3338 Z-20.0000 F4000
G1 X1001.2251 Y727.3189 Z-20.0000 F4000
G1 X1024.0319 Y724.3441 Z-20.0000 F4000
G1 X1044.0064 Y877.4832 Z-20.0000 F4000
G1 X1044.0064 Y877.4832 Z-10.0000 F9999
G1 X1046.0756 Y893.3468 Z-10.0000 F4000
G1 X1046.0756 Y893.3468 Z-20.0000 F2500
G1 X1048.3472 Y910.7626 Z-20.0000 F4000
G1 X1025.5404 Y913.7375 Z-20.0000 F4000
G1 X1025.7993 Y915.7226 Z-20.0000 F4000
G1 X1030.7574 Y915.0759 Z-20.0000 F4000
G1 X1043.7878 Y1014.9775 Z-20.0000 F4000
G1 X999.5357 Y1020.7495 Z-20.0000 F4000
G1 X994.6234 Y1020.4604 Z-20.0000 F4000
G1 X989.5128 Y1017.9824 Z-20.0000 F4000
G1 X985.8069 Y1013.6784 Z-20.0000 F4000
G1 X984.2674 Y1009.0047 Z-20.0000 F4000
G1 X975.8606 Y944.5506 Z-20.0000 F4000
G1 X975.0554 Y942.1062 Z-20.0000 F4000
G1 X973.4681 Y940.2629 Z-20.0000 F4000
G1 X971.2793 Y939.2016 Z-20.0000 F4000
G1 X968.7101 Y939.0503 Z-20.0000 F4000
G1 X940.2076 Y942.7679 Z-20.0000 F4000
G1 X937.7631 Y943.5732 Z-20.0000 F4000
G1 X935.9196 Y945.1604 Z-20.0000 F4000
G1 X934.8584 Y947.3491 Z-20.0000 F4000
G1 X934.7072 Y949.9184 Z-20.0000 F4000
G1 X943.1143 Y1014.3724 Z-20.0000 F4000
G1 X942.8252 Y1019.2846 Z-20.0000 F4000
G1 X940.3471 Y1024.3952 Z-20.0000 F4000
G1 X936.0430 Y1028.1012 Z-20.0000 F4000
G1 X931.3693 Y1029.6407 Z-20.0000 F4000
G1 X900.3760 Y1033.6831 Z-20.0000 F4000
G1 X895.4638 Y1033.3941 Z-20.0000 F4000
G1 X890.3532 Y1030.9161 Z-20.0000 F4000
G1 X886.6469 Y1026.6122 Z-20.0000 F4000
G1 X885.1077 Y1021.9382 Z-20.0000 F4000
G1 X876.7007 Y957.4844 Z-20.0000 F4000
G1 X875.8955 Y955.0399 Z-20.0000 F4000
G1 X874.3082 Y953.1966 Z-20.0000 F4000
G1 X872.1196 Y952.1353 Z-20.0000 F4000
G1 X869.5502 Y951.9841 Z-20.0000 F4000
G1 X841.0478 Y955.7017 Z-20.0000 F4000
G1 X838.6031 Y956.5070 Z-20.0000 F4000
G1 X836.7597 Y958.0942 Z-20.0000 F4000
G1 X835.6985 Y960.2829 Z-20.0000 F4000
G1 X835.5473 Y962.8522 Z-20.0000 F4000
G1 X843.9544 Y1027.3063 Z-20.0000 F4000
G1 X843.6651 Y1032.2182 Z-20.0000 F4000
G1 X841.1872 Y1037.3289 Z-20.0000 F4000
G1 X836.8831 Y1041.0350 Z-20.0000 F4000
G1 X832.2094 Y1042.5745 Z-20.0000 F4000
G1 X787.9574 Y1048.3462 Z-20.0000 F4000
G1 X774.9268 Y948.4448 Z-20.0000 F4000
G1 X779.8848 Y947.7981 Z-20.0000 F4000
G1 X779.6259 Y945.8129 Z-20.0000 F4000
G1 X756.8191 Y948.7878 Z-20.0000 F4000
G1 X754.0953 Y927.9050 Z-20.0000 F4000
G1 X754.0953 Y927.9050 Z-10.0000 F9999
G1 X752.0261 Y912.0413 Z-10.0000 F4000
G1 X752.0261 Y912.0413 Z-20.0000 F2500
G1 X732.5039 Y762.3691 Z-20.0000 F4000
G1 X755.3107 Y759.3943 Z-20.0000 F4000
G1 X755.0518 Y757.4092 Z-20.0000 F4000
G1 X750.0938 Y758.0559 Z-20.0000 F4000
G1 X736.1257 Y650.9650 Z-20.0000 F4000
G1 X741.0836 Y650.3185 Z-20.0000 F4000
G1 X740.8246 Y648.3334 Z-20.0000 F4000
G1 X718.0180 Y651.3081 Z-20.0000 F4000
G1 X693.7024 Y464.8897 Z-20.0000 F4000
G1 X716.5092 Y461.9148 Z-20.0000 F4000
G1 X716.2503 Y459.9297 Z-20.0000 F4000
G1 X711.2924 Y460.5762 Z-20.0000 F4000
G1 X697.7410 Y356.6883 Z-20.0000 F4000
G1 X593.8534 Y343.1373 Z-20.0000 F4000
G1 X594.5001 Y338.1793 Z-20.0000 F4000
G1 X592.5150 Y337.9203 Z-20.0000 F4000
G1 X589.5401 Y360.7271 Z-20.0000 F4000
G1 X403.1215 Y336.4117 Z-20.0000 F4000
G1 X406.0965 Y313.6049 Z-20.0000 F4000
G1 X404.1112 Y313.3460 Z-20.0000 F4000
G1 X403.4645 Y318.3040 Z-20.0000 F4000
G1 X296.3731 Y304.3360 Z-20.0000 F4000
G1 X297.0198 Y299.3780 Z-20.0000 F4000
G1 X295.0347 Y299.1190 Z-20.0000 F4000
G1 X292.0599 Y321.9257 Z-20.0000 F4000
G1 X105.6412 Y297.6106 Z-20.0000 F4000
G1 X108.6161 Y274.8038 Z-20.0000 F4000
G1 X106.6309 Y274.5448 Z-20.0000 F4000
G1 X105.9842 Y279.5029 Z-20.0000 F4000
G1 X6.0825 Y266.4724 Z-20.0000 F4000
G1 X11.8545 Y222.2203 Z-20.0000 F4000
G1 X13.3940 Y217.5466 Z-20.0000 F4000
G1 X17.1001 Y213.2425 Z-20.0000 F4000
G1 X22.2107 Y210.7644 Z-20.0000 F4000
G1 X27.1229 Y210.4754 Z-20.0000 F4000
G1 X91.5768 Y218.8824 Z-20.0000 F4000
G1 X94.1461 Y218.7312 Z-20.0000 F4000
G1 X96.3348 Y217.6699 Z-20.0000 F4000
G1 X97.9220 Y215.8266 Z-20.0000 F4000
G1 X98.7273 Y213.3819 Z-20.0000 F4000
G1 X102.4449 Y184.8795 Z-20.0000 F4000
G1 X102.2936 Y182.3102 Z-20.0000 F4000
G1 X101.2324 Y180.1213 Z-20.0000 F4000
G1 X99.3892 Y178.5343 Z-20.0000 F4000
G1 X96.9446 Y177.7290 Z-20.0000 F4000
G1 X32.4906 Y169.3222 Z-20.0000 F4000
G1 X27.8169 Y167.7828 Z-20.0000 F4000
G1 X23.5129 Y164.0768 Z-20.0000 F4000
G1 X21.0348 Y158.9662 Z-20.0000 F4000
G1 X20.7457 Y154.0539 Z-20.0000 F4000
G1 X24.7883 Y123.0604 Z-20.0000 F4000
G1 X26.3278 Y118.3867 Z-20.0000 F4000
G1 X30.0339 Y114.0826 Z-20.0000 F4000
G1 X35.1444 Y111.6047 Z-20.0000 F4000
G1 X40.0565 Y111.3157 Z-20.0000 F4000
G1 X104.5106 Y119.7225 Z-20.0000 F4000
G1 X107.0799 Y119.5713 Z-20.0000 F4000
G1 X109.2686 Y118.5100 Z-20.0000 F4000
G1 X110.8557 Y116.6669 Z-20.0000 F4000
G1 X111.6609 Y114.2222 Z-20.0000 F4000
G1 X115.3786 Y85.7197 Z-20.0000 F4000
G1 X115.2274 Y83.1503 Z-20.0000 F4000
G1 X114.1661 Y80.9616 Z-20.0000 F4000
G1 X112.3230 Y79.3744 Z-20.0000 F4000
G1 X109.8783 Y78.5693 Z-20.0000 F4000
G1 X45.4243 Y70.1623 Z-20.0000 F4000
G1 X40.7507 Y68.6229 Z-20.0000 F4000
G1 X36.4466 Y64.9169 Z-20.0000 F4000
G1 X33.9686 Y59.8063 Z-20.0000 F4000
G1 X33.6795 Y54.8940 Z-20.0000 F4000
G1 X39.4515 Y10.6419 Z-20.0000 F4000
G1 X139.3531 Y23.6725 Z-20.0000 F4000
G1 X138.7063 Y28.6305 Z-20.0000 F4000
G1 X140.6915 Y28.8894 Z-20.0000 F4000
G1 X143.6664 Y6.0825 Z-20.0000 F4000
G1 X330.0849 Y30.3978 Z-20.0000 F4000
G1 X327.1102 Y53.2045 Z-20.0000 F4000
G1 X329.0953 Y53.4634 Z-20.0000 F4000
G1 X329.7418 Y48.5056 Z-20.0000 F4000
G1 X436.8337 Y62.4736 Z-20.0000 F4000
G1 X436.1870 Y67.4316 Z-20.0000 F4000
G1 X438.1722 Y67.6905 Z-20.0000 F4000
G1 X441.1471 Y44.8836 Z-20.0000 F4000
G1 X627.5655 Y69.1992 Z-20.0000 F4000
G1 X624.5908 Y92.0060 Z-20.0000 F4000
G1 X626.5759 Y92.2649 Z-20.0000 F4000
G1 X627.2228 Y87.3068 Z-20.0000 F4000
G1 X921.6452 Y125.7114 Z-20.0000 F4000
G1 X888.3272 Y159.0296 Z-20.0000 F4000
G1 X884.7918 Y155.4942 Z-20.0000 F4000
G1 X883.3762 Y156.9098 Z-20.0000 F4000
G1 X897.5196 Y171.0532 Z-20.0000 F4000
G1 X898.9352 Y169.6376 Z-20.0000 F4000
G1 X895.3998 Y166.1022 Z-20.0000 F4000
G1 X928.7178 Y132.7841 Z-20.0000 F4000
G1 X947.9203 Y279.9956 Z-20.0000 F4000
G1 X947.9203 Y279.9956 Z10.0000 F9999
G1 X1099.6956 Y1194.7756 Z10.0000 F9999
G1 X1099.6956 Y1194.7756 Z1.0000 F2500
G1 X1099.6956 Y1233.7467 Z-9.5000 F2500
G1 X1099.6956 Y1194.7756 Z-20.0000 F2500
G1 X1099.6956 Y1323.7743 Z-20.0000 F4000
G1 X1041.6978 Y1323.7743 Z-20.0000 F4000
G1 X1041.6978 Y1318.7741 Z-20.0000 F4000
G1 X1039.6957 Y1318.7741 Z-20.0000 F4000
G1 X1039.6957 Y1341.7741 Z-20.0000 F4000
G1 X851.6981 Y1341.7741 Z-20.0000 F4000
G1 X851.6981 Y1318.7741 Z-20.0000 F4000
G1 X849.6961 Y1318.7741 Z-20.0000 F4000
G1 X849.6961 Y1323.7743 Z-20.0000 F4000
G1 X741.6984 Y1323.7743 Z-20.0000 F4000
G1 X741.6984 Y1318.7741 Z-20.0000 F4000
G1 X739.6963 Y1318.7741 Z-20.0000 F4000
G1 X739.6963 Y1341.7741 Z-20.0000 F4000
G1 X551.6987 Y1341.7741 Z-20.0000 F4000
G1 X551.6987 Y1318.7741 Z-20.0000 F4000
G1 X549.6968 Y1318.7741 Z-20.0000 F4000
G1 X549.6968 Y1323.7743 Z-20.0000 F4000
G1 X441.6989 Y1323.7743 Z-20.0000 F4000
G1 X441.6989 Y1318.7741 Z-20.0000 F4000
G1 X439.6970 Y1318.7741 Z-20.0000 F4000
G1 X439.6970 Y1341.7741 Z-20.0000 F4000
G1 X295.3116 Y1341.7741 Z-20.0000 F4000
G1 X295.3116 Y1341.7741 Z-10.0000 F9999
G1 X279.3136 Y1341.7741 Z-10.0000 F4000
G1 X279.3136 Y1341.7741 Z-20.0000 F2500
G1 X251.6993 Y1341.7741 Z-20.0000 F4000
G1 X251.6993 Y1318.7741 Z-20.0000 F4000
G1 X249.6973 Y1318.7741 Z-20.0000 F4000
G1 X249.6973 Y1323.7743 Z-20.0000 F4000
G1 X216.6994 Y1323.7743 Z-20.0000 F4000
G1 X216.6994 Y1271.7762 Z-20.0000 F4000
G1 X221.6994 Y1271.7762 Z-20.0000 F4000
G1 X221.6994 Y1269.7743 Z-20.0000 F4000
G1 X198.6994 Y1269.7743 Z-20.0000 F4000
G1 X198.6994 Y1231.7763 Z-20.0000 F4000
G1 X250.6973 Y1231.7763 Z-20.0000 F4000
G1 X250.6973 Y1236.7765 Z-20.0000 F4000
G1 X252.6993 Y1236.7765 Z-20.0000 F4000
G1 X252.6993 Y1152.7747 Z-20.0000 F4000
G1 X250.6973 Y1152.7747 Z-20.0000 F4000
G1 X250.6973 Y1157.7746 Z-20.0000 F4000
G1 X216.6994 Y1157.7746 Z-20.0000 F4000
G1 X216.6994 Y1130.0711 Z-20.0000 F4000
G1 X216.6994 Y1130.0711 Z-10.0000 F9999
G1 X216.6994 Y1114.0731 Z-10.0000 F4000
G1 X216.6994 Y1114.0731 Z-20.0000 F2500
G1 X216.6994 Y990.7769 Z-20.0000 F4000
G1 X221.6994 Y990.7769 Z-20.0000 F4000
G1 X221.6994 Y988.7749 Z-20.0000 F4000
G1 X198.6994 Y988.7749 Z-20.0000 F4000
G1 X198.6994 Y800.7773 Z-20.0000 F4000
G1 X221.6994 Y800.7773 Z-20.0000 F4000
G1 X221.6994 Y798.7753 Z-20.0000 F4000
G1 X216.6994 Y798.7753 Z-20.0000 F4000
G1 X216.6994 Y690.7776 Z-20.0000 F4000
G1 X221.6994 Y690.7776 Z-20.0000 F4000
G1 X221.6994 Y688.7756 Z-20.0000 F4000
G1 X198.6994 Y688.7756 Z-20.0000 F4000
G1 X198.6994 Y500.7779 Z-20.0000 F4000
G1 X221.6994 Y500.7779 Z-20.0000 F4000
G1 X221.6994 Y498.7759 Z-20.0000 F4000
G1 X216.6994 Y498.7759 Z-20.0000 F4000
G1 X216.6994 Y440.7782 Z-20.0000 F4000
G1 X474.6969 Y440.7782 Z-20.0000 F4000
G1 X474.6969 Y498.7759 Z-20.0000 F4000
G1 X469.6969 Y498.7759 Z-20.0000 F4000
G1 X469.6969 Y500.7779 Z-20.0000 F4000
G1 X492.6968 Y500.7779 Z-20.0000 F4000
G1 X492.6968 Y688.7756 Z-20.0000 F4000
G1 X469.6969 Y688.7756 Z-20.0000 F4000
G1 X469.6969 Y690.7776 Z-20.0000 F4000
G1 X474.6969 Y690.7776 Z-20.0000 F4000
G1 X474.6969 Y798.7753 Z-20.0000 F4000
G1 X469.6969 Y798.7753 Z-20.0000 F4000
G1 X469.6969 Y800.7773 Z-20.0000 F4000
G1 X492.6968 Y800.7773 Z-20.0000 F4000
G1 X492.6968 Y988.7749 Z-20.0000 F4000
G1 X469.6969 Y988.7749 Z-20.0000 F4000
G1 X469.6969 Y990.7769 Z-20.0000 F4000
G1 X474.6969 Y990.7769 Z-20.0000 F4000
G1 X474.6969 Y1065.7748 Z-20.0000 F4000
G1 X468.6969 Y1065.7768 Z-20.0000 F4000
G1 X549.6968 Y1065.7768 Z-20.0000 F4000
G1 X549.6968 Y1070.7767 Z-20.0000 F4000
G1 X551.6987 Y1070.7767 Z-20.0000 F4000
G1 X551.6987 Y1047.7767 Z-20.0000 F4000
G1 X739.6963 Y1047.7767 Z-20.0000 F4000
G1 X739.6963 Y1070.7767 Z-20.0000 F4000
G1 X741.6984 Y1070.7767 Z-20.0000 F4000
G1 X741.6984 Y1065.7768 Z-20.0000 F4000
G1 X849.6961 Y1065.7768 Z-20.0000 F4000
G1 X849.6961 Y1070.7767 Z-20.0000 F4000
G1 X851.6981 Y1070.7767 Z-20.0000 F4000
G1 X851.6981 Y1047.7767 Z-20.0000 F4000
G1 X1039.6957 Y1047.7767 Z-20.0000 F4000
G1 X1039.6957 Y1070.7767 Z-20.0000 F4000
G1 X1041.6978 Y1070.7767 Z-20.0000 F4000
G1 X1041.6978 Y1065.7768 Z-20.0000 F4000
G1 X1099.6956 Y1065.7768 Z-20.0000 F4000
G1 X1099.6956 Y1194.7756 Z-20.0000 F4000
G1 X1099.6956 Y1194.7756 Z10.0000 F9999
G1 X5.9010 Y1502.7767 Z10.0000 F9999
G1 X5.9010 Y1502.7767 Z1.0000 F2500
G1 X5.9010 Y1463.8055 Z-9.5000 F2500
G1 X5.9010 Y1502.7767 Z-20.0000 F2500
G1 X5.9010 Y1373.7779 Z-20.0000 F4000
G1 X63.8988 Y1373.7779 Z-20.0000 F4000
G1 X63.8988 Y1378.7782 Z-20.0000 F4000
G1 X65.9009 Y1378.7782 Z-20.0000 F4000
G1 X65.9009 Y1355.7782 Z-20.0000 F4000
G1 X253.8985 Y1355.7782 Z-20.0000 F4000
G1 X253.8985 Y1378.7782 Z-20.0000 F4000
G1 X255.9005 Y1378.7782 Z-20.0000 F4000
G1 X255.9005 Y1373.7779 Z-20.0000 F4000
G1 X363.8982 Y1373.7779 Z-20.0000 F4000
G1 X363.8982 Y1378.7782 Z-20.0000 F4000
G1 X365.9003 Y1378.7782 Z-20.0000 F4000
G1 X365.9003 Y1355.7782 Z-20.0000 F4000
G1 X553.8979 Y1355.7782 Z-20.0000 F4000
G1 X553.8979 Y1378.7782 Z-20.0000 F4000
G1 X555.8998 Y1378.7782 Z-20.0000 F4000
G1 X555.8998 Y1373.7779 Z-20.0000 F4000
G1 X663.8977 Y1373.7779 Z-20.0000 F4000
G1 X663.8977 Y1378.7782 Z-20.0000 F4000
G1 X665.8996 Y1378.7782 Z-20.0000 F4000
G1 X665.8996 Y1355.7782 Z-20.0000 F4000
G1 X853.8973 Y1355.7782 Z-20.0000 F4000
G1 X853.8973 Y1378.7782 Z-20.0000 F4000
G1 X855.8993 Y1378.7782 Z-20.0000 F4000
G1 X855.8993 Y1373.7779 Z-20.0000 F4000
G1 X888.8972 Y1373.7779 Z-20.0000 F4000
G1 X888.8972 Y1425.7760 Z-20.0000 F4000
G1 X883.8972 Y1425.7760 Z-20.0000 F4000
G1 X883.8972 Y1427.7779 Z-20.0000 F4000
G1 X906.8972 Y1427.7779 Z-20.0000 F4000
G1 X906.8972 Y1465.7759 Z-20.0000 F4000
G1 X854.8993 Y1465.7759 Z-20.0000 F4000
G1 X854.8993 Y1460.7758 Z-20.0000 F4000
G1 X852.8973 Y1460.7758 Z-20.0000 F4000
G1 X852.8973 Y1544.7776 Z-20.0000 F4000
G1 X854.8993 Y1544.7776 Z-20.0000 F4000
G1 X854.8993 Y1539.7777 Z-20.0000 F4000
G1 X888.8972 Y1539.7777 Z-20.0000 F4000
G1 X888.8972 Y1706.7753 Z-20.0000 F4000
G1 X883.8972 Y1706.7753 Z-20.0000 F4000
G1 X883.8972 Y1708.7773 Z-20.0000 F4000
G1 X906.8972 Y1708.7773 Z-20.0000 F4000
G1 X906.8972 Y1896.7749 Z-20.0000 F4000
G1 X883.8972 Y1896.7749 Z-20.0000 F4000
G1 X883.8972 Y1898.7769 Z-20.0000 F4000
G1 X888.8972 Y1898.7769 Z-20.0000 F4000
G1 X888.8972 Y2006.7747 Z-20.0000 F4000
G1 X883.8972 Y2006.7747 Z-20.0000 F4000
G1 X883.8972 Y2008.7767 Z-20.0000 F4000
G1 X906.8972 Y2008.7767 Z-20.0000 F4000
G1 X906.8972 Y2196.7743 Z-20.0000 F4000
G1 X883.8972 Y2196.7743 Z-20.0000 F4000
G1 X883.8972 Y2198.7763 Z-20.0000 F4000
G1 X888.8972 Y2198.7763 Z-20.0000 F4000
G1 X888.8972 Y2256.7741 Z-20.0000 F4000
G1 X630.8997 Y2256.7741 Z-20.0000 F4000
G1 X630.8997 Y2198.7763 Z-20.0000 F4000
G1 X635.8997 Y2198.7763 Z-20.0000 F4000
G1 X635.8997 Y2196.7743 Z-20.0000 F4000
G1 X612.8997 Y2196.7743 Z-20.0000 F4000
G1 X612.8997 Y2008.7767 Z-20.0000 F4000
G1 X635.8997 Y2008.7767 Z-20.0000 F4000
G1 X635.8997 Y2006.7747 Z-20.0000 F4000
G1 X630.8997 Y2006.7747 Z-20.0000 F4000
G1 X630.8997 Y1898.7769 Z-20.0000 F4000
G1 X635.8997 Y1898.7769 Z-20.0000 F4000
G1 X635.8997 Y1896.7749 Z-20.0000 F4000
G1 X612.8997 Y1896.7749 Z-20.0000 F4000
G1 X612.8997 Y1708.7773 Z-20.0000 F4000
G1 X635.8997 Y1708.7773 Z-20.0000 F4000
G1 X635.8997 Y1706.7753 Z-20.0000 F4000
G1 X630.8997 Y1706.7753 Z-20.0000 F4000
G1 X630.8997 Y1631.7774 Z-20.0000 F4000
G1 X636.8997 Y1631.7754 Z-20.0000 F4000
G1 X555.8998 Y1631.7754 Z-20.0000 F4000
G1 X555.8998 Y1626.7756 Z-20.0000 F4000
G1 X553.8979 Y1626.7756 Z-20.0000 F4000
G1 X553.8979 Y1649.7756 Z-20.0000 F4000
G1 X365.9003 Y1649.7756 Z-20.0000 F4000
G1 X365.9003 Y1626.7756 Z-20.0000 F4000
G1 X363.8982 Y1626.7756 Z-20.0000 F4000
G1 X363.8982 Y1631.7754 Z-20.0000 F4000
G1 X255.9005 Y1631.7754 Z-20.0000 F4000
G1 X255.9005 Y1626.7756 Z-20.0000 F4000
G1 X253.8985 Y1626.7756 Z-20.0000 F4000
G1 X253.8985 Y1649.7756 Z-20.0000 F4000
G1 X65.9009 Y1649.7756 Z-20.0000 F4000
G1 X65.9009 Y1626.7756 Z-20.0000 F4000
G1 X63.8988 Y1626.7756 Z-20.0000 F4000
G1 X63.8988 Y1631.7754 Z-20.0000 F4000
G1 X5.9010 Y1631.7754 Z-20.0000 F4000
G1 X5.9010 Y1502.7767 Z-20.0000 F4000
G1 X5.9010 Y1502.7767 Z10.0000 F9999
G1 X1900.0000 Y2800.0000 Z80.0000 F9999
G1 Z80.0000 F9999
G1 X1900.0000 Y2800.0000 F9999
M5
M30
