(plotsheet 2n3_nested_153 sheets_final v1_0_sheet 95 to 98a_S95.1_text_CC8 - stepover 1mm)
(Material Size) (X=1220.000, Y=2440.000, Z=21.000)
(LinuxCNC_NoArcs_MM_TC_medium_50um_G1_verbose.con)
G90 G80 G21 G49
G64 P0.050
M6 T1
(Tool Number:1) (7.998 mm dia. slot drill)
G43 H1 G0Z80.0000
M3 S9000
G04 P10
G1 X154.1658 Y1084.6119 Z10.0000 F9999
G1 X154.1658 Y1084.6119 Z1.0000 F2500
G1 X154.1658 Y1099.0523 Z0.6295 F2500
G1 X154.1658 Y1084.6119 Z0.2589 F2500
G1 X144.0754 Y1084.6119 Z0.0000 F2500
G1 X154.1658 Y1084.6119 Z-0.2589 F2500
G1 X154.1658 Y1099.0523 Z-0.6295 F2500
G1 X154.1658 Y1084.6119 Z-1.0000 F2500
G1 X154.1658 Y1099.0523 Z-1.0000 F4000
G1 X154.1658 Y1084.6119 Z-1.0000 F4000
G1 X135.8722 Y1084.6119 Z-1.0000 F4000
G1 X135.8722 Y1099.7312 Z-1.0000 F4000
G1 X135.8722 Y1084.6119 Z-1.0000 F4000
G1 X176.9731 Y1084.6119 Z-1.0000 F4000
G1 X176.9731 Y1084.6119 Z10.0000 F9999
G1 X176.9731 Y1115.1440 Z10.0000 F9999
G1 X176.9731 Y1115.1440 Z1.0000 F2500
G1 X138.0020 Y1115.1440 Z0.0000 F2500
G1 X176.9731 Y1115.1440 Z-1.0000 F2500
G1 X135.8722 Y1115.1440 Z-1.0000 F4000
G1 X135.8722 Y1122.3000 Z-1.0000 F4000
G1 X136.4777 Y1126.1715 Z-1.0000 F4000
G1 X138.2942 Y1129.3825 Z-1.0000 F4000
G1 X141.4502 Y1131.6027 Z-1.0000 F4000
G1 X146.0924 Y1132.4467 Z-1.0000 F4000
G1 X150.7713 Y1131.2908 Z-1.0000 F4000
G1 X154.0924 Y1128.5201 Z-1.0000 F4000
G1 X156.0557 Y1125.1990 Z-1.0000 F4000
G1 X156.7162 Y1122.3000 Z-1.0000 F4000
G1 X156.7162 Y1115.1440 Z-1.0000 F4000
G1 X156.7162 Y1122.3000 Z-1.0000 F4000
G1 X156.0557 Y1125.1990 Z-1.0000 F4000
G1 X154.0924 Y1128.5201 Z-1.0000 F4000
G1 X150.7713 Y1131.2908 Z-1.0000 F4000
G1 X146.0924 Y1132.4467 Z-1.0000 F4000
G1 X141.4502 Y1131.6027 Z-1.0000 F4000
G1 X138.2942 Y1129.3825 Z-1.0000 F4000
G1 X136.4777 Y1126.1715 Z-1.0000 F4000
G1 X135.8722 Y1122.3000 Z-1.0000 F4000
G1 X135.8722 Y1115.1440 Z-1.0000 F4000
G1 X135.8722 Y1115.1440 Z10.0000 F9999
G1 X135.8722 Y1159.2541 Z10.0000 F9999
G1 X135.8722 Y1159.2541 Z1.0000 F2500
G1 X172.1722 Y1173.4338 Z0.0000 F2500
G1 X135.8722 Y1159.2541 Z-1.0000 F2500
G1 X176.9731 Y1175.3091 Z-1.0000 F4000
G1 X135.8722 Y1159.2541 Z-1.0000 F4000
G1 X176.9731 Y1143.2357 Z-1.0000 F4000
G1 X176.9731 Y1143.2357 Z10.0000 F9999
G1 X176.9731 Y1132.5568 Z10.0000 F9999
G1 X176.9731 Y1132.5568 Z1.0000 F2500
G1 X156.8263 Y1119.3275 Z0.3815 F2500
G1 X169.2553 Y1127.4890 Z0.0000 F2500
G1 X156.8263 Y1119.3275 Z-0.3815 F2500
G1 X176.9731 Y1132.5568 Z-1.0000 F2500
G1 X156.8263 Y1119.3275 Z-1.0000 F4000
G1 X176.9731 Y1132.5568 Z-1.0000 F4000
G1 X176.9731 Y1132.5568 Z10.0000 F9999
G1 X162.2759 Y1169.5660 Z10.0000 F9999
G1 X162.2759 Y1169.5660 Z1.0000 F2500
G1 X162.2759 Y1148.8688 Z0.4689 F2500
G1 X162.2759 Y1167.1427 Z0.0000 F2500
G1 X162.2759 Y1148.8688 Z-0.4689 F2500
G1 X162.2759 Y1169.5660 Z-1.0000 F2500
G1 X162.2759 Y1148.8688 Z-1.0000 F4000
G1 X162.2759 Y1169.5660 Z-1.0000 F4000
G1 X162.2759 Y1169.5660 Z10.0000 F9999
G1 X152.3126 Y1215.9330 Z10.0000 F9999
G1 X152.3126 Y1215.9330 Z1.0000 F2500
G1 X152.3126 Y1186.6853 Z0.2495 F2500
G1 X152.3126 Y1196.4087 Z0.0000 F2500
G1 X152.3126 Y1186.6853 Z-0.2495 F2500
G1 X152.3126 Y1215.9330 Z-1.0000 F2500
G1 X152.3126 Y1186.6853 Z-1.0000 F4000
G1 X152.3126 Y1215.9330 Z-1.0000 F4000
G1 X152.3126 Y1215.9330 Z10.0000 F9999
G1 X135.8722 Y1242.6302 Z10.0000 F9999
G1 X135.8722 Y1242.6302 Z1.0000 F2500
G1 X172.1722 Y1256.8099 Z0.0000 F2500
G1 X135.8722 Y1242.6302 Z-1.0000 F2500
G1 X176.9731 Y1258.6853 Z-1.0000 F4000
G1 X135.8722 Y1242.6302 Z-1.0000 F4000
G1 X176.9731 Y1226.6119 Z-1.0000 F4000
G1 X176.9731 Y1226.6119 Z10.0000 F9999
G1 X162.2759 Y1252.9422 Z10.0000 F9999
G1 X162.2759 Y1252.9422 Z1.0000 F2500
G1 X162.2759 Y1232.2449 Z0.4689 F2500
G1 X162.2759 Y1250.5188 Z0.0000 F2500
G1 X162.2759 Y1232.2449 Z-0.4689 F2500
G1 X162.2759 Y1252.9422 Z-1.0000 F2500
G1 X162.2759 Y1232.2449 Z-1.0000 F4000
G1 X162.2759 Y1252.9422 Z-1.0000 F4000
G1 X162.2759 Y1252.9422 Z10.0000 F9999
G1 X126.4777 Y1300.4467 Z10.0000 F9999
G1 X126.4777 Y1300.4467 Z1.0000 F2500
G1 X160.2620 Y1281.0208 Z0.0000 F2500
G1 X126.4777 Y1300.4467 Z-1.0000 F2500
G1 X179.3217 Y1270.0614 Z-1.0000 F4000
G1 X126.4777 Y1300.4467 Z-1.0000 F4000
G1 X126.4777 Y1300.4467 Z10.0000 F9999
G1 X154.1658 Y1315.9513 Z10.0000 F9999
G1 X154.1658 Y1315.9513 Z1.0000 F2500
G1 X154.1658 Y1330.3917 Z0.6295 F2500
G1 X154.1658 Y1315.9513 Z0.2589 F2500
G1 X144.0754 Y1315.9513 Z0.0000 F2500
G1 X154.1658 Y1315.9513 Z-0.2589 F2500
G1 X154.1658 Y1330.3917 Z-0.6295 F2500
G1 X154.1658 Y1315.9513 Z-1.0000 F2500
G1 X154.1658 Y1330.3917 Z-1.0000 F4000
G1 X154.1658 Y1315.9513 Z-1.0000 F4000
G1 X135.8722 Y1315.9513 Z-1.0000 F4000
G1 X135.8722 Y1331.0706 Z-1.0000 F4000
G1 X135.8722 Y1315.9513 Z-1.0000 F4000
G1 X176.9731 Y1315.9513 Z-1.0000 F4000
G1 X176.9731 Y1315.9513 Z10.0000 F9999
G1 X135.8722 Y1349.9330 Z10.0000 F9999
G1 X135.8722 Y1349.9330 Z1.0000 F2500
G1 X135.8722 Y1344.1165 Z0.8507 F2500
G1 X135.8722 Y1349.9330 Z0.7015 F2500
G1 X163.2103 Y1349.9330 Z0.0000 F2500
G1 X135.8722 Y1349.9330 Z-0.7015 F2500
G1 X135.8722 Y1344.1165 Z-0.8507 F2500
G1 X135.8722 Y1349.9330 Z-1.0000 F2500
G1 X135.8722 Y1344.1165 Z-1.0000 F4000
G1 X135.8722 Y1349.9330 Z-1.0000 F4000
G1 X176.9731 Y1349.9330 Z-1.0000 F4000
G1 X176.9731 Y1349.9330 Z10.0000 F9999
G1 X434.5517 Y1300.4467 Z10.0000 F9999
G1 X434.5517 Y1300.4467 Z1.0000 F2500
G1 X468.3360 Y1281.0208 Z0.0000 F2500
G1 X434.5517 Y1300.4467 Z-1.0000 F2500
G1 X487.3958 Y1270.0614 Z-1.0000 F4000
G1 X434.5517 Y1300.4467 Z-1.0000 F4000
G1 X434.5517 Y1300.4467 Z10.0000 F9999
G1 X462.2398 Y1315.9513 Z10.0000 F9999
G1 X462.2398 Y1315.9513 Z1.0000 F2500
G1 X462.2398 Y1330.3917 Z0.6295 F2500
G1 X462.2398 Y1315.9513 Z0.2589 F2500
G1 X452.1494 Y1315.9513 Z0.0000 F2500
G1 X462.2398 Y1315.9513 Z-0.2589 F2500
G1 X462.2398 Y1330.3917 Z-0.6295 F2500
G1 X462.2398 Y1315.9513 Z-1.0000 F2500
G1 X462.2398 Y1330.3917 Z-1.0000 F4000
G1 X462.2398 Y1315.9513 Z-1.0000 F4000
G1 X443.9462 Y1315.9513 Z-1.0000 F4000
G1 X443.9462 Y1331.0706 Z-1.0000 F4000
G1 X443.9462 Y1315.9513 Z-1.0000 F4000
G1 X485.0471 Y1315.9513 Z-1.0000 F4000
G1 X485.0471 Y1315.9513 Z10.0000 F9999
G1 X443.9462 Y1349.9330 Z10.0000 F9999
G1 X443.9462 Y1349.9330 Z1.0000 F2500
G1 X443.9462 Y1344.1165 Z0.8507 F2500
G1 X443.9462 Y1349.9330 Z0.7015 F2500
G1 X471.2843 Y1349.9330 Z0.0000 F2500
G1 X443.9462 Y1349.9330 Z-0.7015 F2500
G1 X443.9462 Y1344.1165 Z-0.8507 F2500
G1 X443.9462 Y1349.9330 Z-1.0000 F2500
G1 X443.9462 Y1344.1165 Z-1.0000 F4000
G1 X443.9462 Y1349.9330 Z-1.0000 F4000
G1 X485.0471 Y1349.9330 Z-1.0000 F4000
G1 X485.0471 Y1349.9330 Z10.0000 F9999
G1 X470.3499 Y1252.9422 Z10.0000 F9999
G1 X470.3499 Y1252.9422 Z1.0000 F2500
G1 X470.3499 Y1232.2449 Z0.4689 F2500
G1 X470.3499 Y1250.5188 Z0.0000 F2500
G1 X470.3499 Y1232.2449 Z-0.4689 F2500
G1 X470.3499 Y1252.9422 Z-1.0000 F2500
G1 X470.3499 Y1232.2449 Z-1.0000 F4000
G1 X470.3499 Y1252.9422 Z-1.0000 F4000
G1 X470.3499 Y1252.9422 Z10.0000 F9999
G1 X443.9462 Y1242.6302 Z10.0000 F9999
G1 X443.9462 Y1242.6302 Z1.0000 F2500
G1 X480.2462 Y1256.8099 Z0.0000 F2500
G1 X443.9462 Y1242.6302 Z-1.0000 F2500
G1 X485.0471 Y1258.6853 Z-1.0000 F4000
G1 X443.9462 Y1242.6302 Z-1.0000 F4000
G1 X485.0471 Y1226.6119 Z-1.0000 F4000
G1 X485.0471 Y1226.6119 Z10.0000 F9999
G1 X460.3866 Y1215.9330 Z10.0000 F9999
G1 X460.3866 Y1215.9330 Z1.0000 F2500
G1 X460.3866 Y1186.6853 Z0.2495 F2500
G1 X460.3866 Y1196.4087 Z0.0000 F2500
G1 X460.3866 Y1186.6853 Z-0.2495 F2500
G1 X460.3866 Y1215.9330 Z-1.0000 F2500
G1 X460.3866 Y1186.6853 Z-1.0000 F4000
G1 X460.3866 Y1215.9330 Z-1.0000 F4000
G1 X460.3866 Y1215.9330 Z10.0000 F9999
G1 X470.3499 Y1169.5660 Z10.0000 F9999
G1 X470.3499 Y1169.5660 Z1.0000 F2500
G1 X470.3499 Y1148.8688 Z0.4689 F2500
G1 X470.3499 Y1167.1427 Z0.0000 F2500
G1 X470.3499 Y1148.8688 Z-0.4689 F2500
G1 X470.3499 Y1169.5660 Z-1.0000 F2500
G1 X470.3499 Y1148.8688 Z-1.0000 F4000
G1 X470.3499 Y1169.5660 Z-1.0000 F4000
G1 X470.3499 Y1169.5660 Z10.0000 F9999
G1 X443.9462 Y1159.2541 Z10.0000 F9999
G1 X443.9462 Y1159.2541 Z1.0000 F2500
G1 X480.2462 Y1173.4338 Z0.0000 F2500
G1 X443.9462 Y1159.2541 Z-1.0000 F2500
G1 X485.0471 Y1175.3091 Z-1.0000 F4000
G1 X443.9462 Y1159.2541 Z-1.0000 F4000
G1 X485.0471 Y1143.2357 Z-1.0000 F4000
G1 X485.0471 Y1143.2357 Z10.0000 F9999
G1 X485.0471 Y1132.5568 Z10.0000 F9999
G1 X485.0471 Y1132.5568 Z1.0000 F2500
G1 X464.9003 Y1119.3275 Z0.3815 F2500
G1 X477.3293 Y1127.4890 Z0.0000 F2500
G1 X464.9003 Y1119.3275 Z-0.3815 F2500
G1 X485.0471 Y1132.5568 Z-1.0000 F2500
G1 X464.9003 Y1119.3275 Z-1.0000 F4000
G1 X485.0471 Y1132.5568 Z-1.0000 F4000
G1 X485.0471 Y1132.5568 Z10.0000 F9999
G1 X485.0471 Y1115.1440 Z10.0000 F9999
G1 X485.0471 Y1115.1440 Z1.0000 F2500
G1 X446.0760 Y1115.1440 Z0.0000 F2500
G1 X485.0471 Y1115.1440 Z-1.0000 F2500
G1 X443.9462 Y1115.1440 Z-1.0000 F4000
G1 X443.9462 Y1122.3000 Z-1.0000 F4000
G1 X444.5517 Y1126.1715 Z-1.0000 F4000
G1 X446.3682 Y1129.3825 Z-1.0000 F4000
G1 X449.5242 Y1131.6027 Z-1.0000 F4000
G1 X454.1664 Y1132.4467 Z-1.0000 F4000
G1 X458.8453 Y1131.2908 Z-1.0000 F4000
G1 X462.1664 Y1128.5201 Z-1.0000 F4000
G1 X464.1297 Y1125.1990 Z-1.0000 F4000
G1 X464.7902 Y1122.3000 Z-1.0000 F4000
G1 X464.7902 Y1115.1440 Z-1.0000 F4000
G1 X464.7902 Y1122.3000 Z-1.0000 F4000
G1 X464.1297 Y1125.1990 Z-1.0000 F4000
G1 X462.1664 Y1128.5201 Z-1.0000 F4000
G1 X458.8453 Y1131.2908 Z-1.0000 F4000
G1 X454.1664 Y1132.4467 Z-1.0000 F4000
G1 X449.5242 Y1131.6027 Z-1.0000 F4000
G1 X446.3682 Y1129.3825 Z-1.0000 F4000
G1 X444.5517 Y1126.1715 Z-1.0000 F4000
G1 X443.9462 Y1122.3000 Z-1.0000 F4000
G1 X443.9462 Y1115.1440 Z-1.0000 F4000
G1 X443.9462 Y1115.1440 Z10.0000 F9999
G1 X462.2398 Y1084.6119 Z10.0000 F9999
G1 X462.2398 Y1084.6119 Z1.0000 F2500
G1 X462.2398 Y1099.0523 Z0.6295 F2500
G1 X462.2398 Y1084.6119 Z0.2589 F2500
G1 X452.1494 Y1084.6119 Z0.0000 F2500
G1 X462.2398 Y1084.6119 Z-0.2589 F2500
G1 X462.2398 Y1099.0523 Z-0.6295 F2500
G1 X462.2398 Y1084.6119 Z-1.0000 F2500
G1 X462.2398 Y1099.0523 Z-1.0000 F4000
G1 X462.2398 Y1084.6119 Z-1.0000 F4000
G1 X443.9462 Y1084.6119 Z-1.0000 F4000
G1 X443.9462 Y1099.7312 Z-1.0000 F4000
G1 X443.9462 Y1084.6119 Z-1.0000 F4000
G1 X485.0471 Y1084.6119 Z-1.0000 F4000
G1 X485.0471 Y1084.6119 Z10.0000 F9999
G1 X752.0202 Y1159.2541 Z10.0000 F9999
G1 X752.0202 Y1159.2541 Z1.0000 F2500
G1 X788.3202 Y1173.4338 Z0.0000 F2500
G1 X752.0202 Y1159.2541 Z-1.0000 F2500
G1 X793.1211 Y1175.3091 Z-1.0000 F4000
G1 X752.0202 Y1159.2541 Z-1.0000 F4000
G1 X793.1211 Y1143.2357 Z-1.0000 F4000
G1 X793.1211 Y1143.2357 Z10.0000 F9999
G1 X793.1211 Y1132.5568 Z10.0000 F9999
G1 X793.1211 Y1132.5568 Z1.0000 F2500
G1 X772.9744 Y1119.3275 Z0.3815 F2500
G1 X785.4034 Y1127.4890 Z0.0000 F2500
G1 X772.9744 Y1119.3275 Z-0.3815 F2500
G1 X793.1211 Y1132.5568 Z-1.0000 F2500
G1 X772.9744 Y1119.3275 Z-1.0000 F4000
G1 X793.1211 Y1132.5568 Z-1.0000 F4000
G1 X793.1211 Y1132.5568 Z10.0000 F9999
G1 X793.1211 Y1115.1440 Z10.0000 F9999
G1 X793.1211 Y1115.1440 Z1.0000 F2500
G1 X754.1500 Y1115.1440 Z0.0000 F2500
G1 X793.1211 Y1115.1440 Z-1.0000 F2500
G1 X752.0202 Y1115.1440 Z-1.0000 F4000
G1 X752.0202 Y1122.3000 Z-1.0000 F4000
G1 X752.6257 Y1126.1715 Z-1.0000 F4000
G1 X754.4422 Y1129.3825 Z-1.0000 F4000
G1 X757.5982 Y1131.6027 Z-1.0000 F4000
G1 X762.2404 Y1132.4467 Z-1.0000 F4000
G1 X766.9193 Y1131.2908 Z-1.0000 F4000
G1 X770.2404 Y1128.5201 Z-1.0000 F4000
G1 X772.2037 Y1125.1990 Z-1.0000 F4000
G1 X772.8643 Y1122.3000 Z-1.0000 F4000
G1 X772.8643 Y1115.1440 Z-1.0000 F4000
G1 X772.8643 Y1122.3000 Z-1.0000 F4000
G1 X772.2037 Y1125.1990 Z-1.0000 F4000
G1 X770.2404 Y1128.5201 Z-1.0000 F4000
G1 X766.9193 Y1131.2908 Z-1.0000 F4000
G1 X762.2404 Y1132.4467 Z-1.0000 F4000
G1 X757.5982 Y1131.6027 Z-1.0000 F4000
G1 X754.4422 Y1129.3825 Z-1.0000 F4000
G1 X752.6257 Y1126.1715 Z-1.0000 F4000
G1 X752.0202 Y1122.3000 Z-1.0000 F4000
G1 X752.0202 Y1115.1440 Z-1.0000 F4000
G1 X752.0202 Y1115.1440 Z10.0000 F9999
G1 X770.3138 Y1084.6119 Z10.0000 F9999
G1 X770.3138 Y1084.6119 Z1.0000 F2500
G1 X770.3138 Y1099.0523 Z0.6295 F2500
G1 X770.3138 Y1084.6119 Z0.2589 F2500
G1 X760.2234 Y1084.6119 Z0.0000 F2500
G1 X770.3138 Y1084.6119 Z-0.2589 F2500
G1 X770.3138 Y1099.0523 Z-0.6295 F2500
G1 X770.3138 Y1084.6119 Z-1.0000 F2500
G1 X770.3138 Y1099.0523 Z-1.0000 F4000
G1 X770.3138 Y1084.6119 Z-1.0000 F4000
G1 X752.0202 Y1084.6119 Z-1.0000 F4000
G1 X752.0202 Y1099.7312 Z-1.0000 F4000
G1 X752.0202 Y1084.6119 Z-1.0000 F4000
G1 X793.1211 Y1084.6119 Z-1.0000 F4000
G1 X793.1211 Y1084.6119 Z10.0000 F9999
G1 X778.4239 Y1169.5660 Z10.0000 F9999
G1 X778.4239 Y1169.5660 Z1.0000 F2500
G1 X778.4239 Y1148.8688 Z0.4689 F2500
G1 X778.4239 Y1167.1427 Z0.0000 F2500
G1 X778.4239 Y1148.8688 Z-0.4689 F2500
G1 X778.4239 Y1169.5660 Z-1.0000 F2500
G1 X778.4239 Y1148.8688 Z-1.0000 F4000
G1 X778.4239 Y1169.5660 Z-1.0000 F4000
G1 X778.4239 Y1169.5660 Z10.0000 F9999
G1 X768.4606 Y1215.9330 Z10.0000 F9999
G1 X768.4606 Y1215.9330 Z1.0000 F2500
G1 X768.4606 Y1186.6853 Z0.2495 F2500
G1 X768.4606 Y1196.4087 Z0.0000 F2500
G1 X768.4606 Y1186.6853 Z-0.2495 F2500
G1 X768.4606 Y1215.9330 Z-1.0000 F2500
G1 X768.4606 Y1186.6853 Z-1.0000 F4000
G1 X768.4606 Y1215.9330 Z-1.0000 F4000
G1 X768.4606 Y1215.9330 Z10.0000 F9999
G1 X752.0202 Y1242.6302 Z10.0000 F9999
G1 X752.0202 Y1242.6302 Z1.0000 F2500
G1 X788.3202 Y1256.8099 Z0.0000 F2500
G1 X752.0202 Y1242.6302 Z-1.0000 F2500
G1 X793.1211 Y1258.6853 Z-1.0000 F4000
G1 X752.0202 Y1242.6302 Z-1.0000 F4000
G1 X793.1211 Y1226.6119 Z-1.0000 F4000
G1 X793.1211 Y1226.6119 Z10.0000 F9999
G1 X778.4239 Y1252.9422 Z10.0000 F9999
G1 X778.4239 Y1252.9422 Z1.0000 F2500
G1 X778.4239 Y1232.2449 Z0.4689 F2500
G1 X778.4239 Y1250.5188 Z0.0000 F2500
G1 X778.4239 Y1232.2449 Z-0.4689 F2500
G1 X778.4239 Y1252.9422 Z-1.0000 F2500
G1 X778.4239 Y1232.2449 Z-1.0000 F4000
G1 X778.4239 Y1252.9422 Z-1.0000 F4000
G1 X778.4239 Y1252.9422 Z10.0000 F9999
G1 X742.6257 Y1300.4467 Z10.0000 F9999
G1 X742.6257 Y1300.4467 Z1.0000 F2500
G1 X776.4101 Y1281.0208 Z0.0000 F2500
G1 X742.6257 Y1300.4467 Z-1.0000 F2500
G1 X795.4698 Y1270.0614 Z-1.0000 F4000
G1 X742.6257 Y1300.4467 Z-1.0000 F4000
G1 X742.6257 Y1300.4467 Z10.0000 F9999
G1 X770.3138 Y1315.9513 Z10.0000 F9999
G1 X770.3138 Y1315.9513 Z1.0000 F2500
G1 X770.3138 Y1330.3917 Z0.6295 F2500
G1 X770.3138 Y1315.9513 Z0.2589 F2500
G1 X760.2234 Y1315.9513 Z0.0000 F2500
G1 X770.3138 Y1315.9513 Z-0.2589 F2500
G1 X770.3138 Y1330.3917 Z-0.6295 F2500
G1 X770.3138 Y1315.9513 Z-1.0000 F2500
G1 X770.3138 Y1330.3917 Z-1.0000 F4000
G1 X770.3138 Y1315.9513 Z-1.0000 F4000
G1 X752.0202 Y1315.9513 Z-1.0000 F4000
G1 X752.0202 Y1331.0706 Z-1.0000 F4000
G1 X752.0202 Y1315.9513 Z-1.0000 F4000
G1 X793.1211 Y1315.9513 Z-1.0000 F4000
G1 X793.1211 Y1315.9513 Z10.0000 F9999
G1 X752.0202 Y1349.9330 Z10.0000 F9999
G1 X752.0202 Y1349.9330 Z1.0000 F2500
G1 X752.0202 Y1344.1165 Z0.8507 F2500
G1 X752.0202 Y1349.9330 Z0.7015 F2500
G1 X779.3583 Y1349.9330 Z0.0000 F2500
G1 X752.0202 Y1349.9330 Z-0.7015 F2500
G1 X752.0202 Y1344.1165 Z-0.8507 F2500
G1 X752.0202 Y1349.9330 Z-1.0000 F2500
G1 X752.0202 Y1344.1165 Z-1.0000 F4000
G1 X752.0202 Y1349.9330 Z-1.0000 F4000
G1 X793.1211 Y1349.9330 Z-1.0000 F4000
G1 X793.1211 Y1349.9330 Z10.0000 F9999
G1 X1046.5165 Y1736.0539 Z10.0000 F9999
G1 X1046.5165 Y1736.0539 Z1.0000 F2500
G1 X1043.8376 Y1735.3016 Z0.9286 F2500
G1 X1041.2688 Y1733.5768 Z0.8492 F2500
G1 X1039.3238 Y1730.6227 Z0.7584 F2500
G1 X1038.5715 Y1726.0722 Z0.6401 F2500
G1 X1041.1954 Y1717.5585 Z0.4115 F2500
G1 X1049.1770 Y1714.4575 Z0.1918 F2500
G1 X1053.9110 Y1715.3383 Z0.0682 F2500
G1 X1056.1006 Y1716.8459 Z-0.0000 F2500
G1 X1053.9110 Y1715.3383 Z-0.0682 F2500
G1 X1049.1770 Y1714.4575 Z-0.1918 F2500
G1 X1041.1954 Y1717.5585 Z-0.4115 F2500
G1 X1038.5715 Y1726.0722 Z-0.6401 F2500
G1 X1039.3238 Y1730.6227 Z-0.7584 F2500
G1 X1041.2688 Y1733.5768 Z-0.8492 F2500
G1 X1043.8376 Y1735.3016 Z-0.9286 F2500
G1 X1046.5165 Y1736.0539 Z-1.0000 F2500
G1 X1043.8376 Y1735.3016 Z-1.0000 F4000
G1 X1041.2688 Y1733.5768 Z-1.0000 F4000
G1 X1039.3238 Y1730.6227 Z-1.0000 F4000
G1 X1038.5715 Y1726.0722 Z-1.0000 F4000
G1 X1041.1954 Y1717.5585 Z-1.0000 F4000
G1 X1049.1770 Y1714.4575 Z-1.0000 F4000
G1 X1053.9110 Y1715.3383 Z-1.0000 F4000
G1 X1057.2688 Y1717.6502 Z-1.0000 F4000
G1 X1059.2688 Y1720.8612 Z-1.0000 F4000
G1 X1059.9477 Y1724.4392 Z-1.0000 F4000
G1 X1060.6816 Y1720.9713 Z-1.0000 F4000
G1 X1062.9018 Y1718.0172 Z-1.0000 F4000
G1 X1066.2780 Y1715.9254 Z-1.0000 F4000
G1 X1070.4798 Y1715.1364 Z-1.0000 F4000
G1 X1072.0578 Y1715.1731 Z-1.0000 F4000
G1 X1074.0394 Y1715.4484 Z-1.0000 F4000
G1 X1076.0578 Y1716.2374 Z-1.0000 F4000
G1 X1077.8926 Y1717.7603 Z-1.0000 F4000
G1 X1079.1954 Y1720.3108 Z-1.0000 F4000
G1 X1079.6724 Y1724.0539 Z-1.0000 F4000
G1 X1078.8468 Y1729.4300 Z-1.0000 F4000
G1 X1076.8284 Y1732.5309 Z-1.0000 F4000
G1 X1074.1679 Y1734.0539 Z-1.0000 F4000
G1 X1071.4339 Y1734.6410 Z-1.0000 F4000
G1 X1074.1679 Y1734.0539 Z-1.0000 F4000
G1 X1076.8284 Y1732.5309 Z-1.0000 F4000
G1 X1078.8468 Y1729.4300 Z-1.0000 F4000
G1 X1079.6724 Y1724.0539 Z-1.0000 F4000
G1 X1079.1954 Y1720.3108 Z-1.0000 F4000
G1 X1077.8926 Y1717.7603 Z-1.0000 F4000
G1 X1076.0578 Y1716.2374 Z-1.0000 F4000
G1 X1074.0394 Y1715.4484 Z-1.0000 F4000
G1 X1072.0945 Y1715.1731 Z-1.0000 F4000
G1 X1070.4798 Y1715.1364 Z-1.0000 F4000
G1 X1066.2780 Y1715.9254 Z-1.0000 F4000
G1 X1062.9018 Y1718.0172 Z-1.0000 F4000
G1 X1060.6816 Y1720.9713 Z-1.0000 F4000
G1 X1059.9477 Y1724.4392 Z-1.0000 F4000
G1 X1059.2688 Y1720.8612 Z-1.0000 F4000
G1 X1057.2688 Y1717.6502 Z-1.0000 F4000
G1 X1053.9110 Y1715.3383 Z-1.0000 F4000
G1 X1049.1770 Y1714.4575 Z-1.0000 F4000
G1 X1041.1954 Y1717.5585 Z-1.0000 F4000
G1 X1038.5715 Y1726.0722 Z-1.0000 F4000
G1 X1039.3238 Y1730.6227 Z-1.0000 F4000
G1 X1041.2688 Y1733.5768 Z-1.0000 F4000
G1 X1043.8376 Y1735.3016 Z-1.0000 F4000
G1 X1043.8376 Y1735.3016 Z10.0000 F9999
G1 X1079.6724 Y1753.7786 Z10.0000 F9999
G1 X1079.6724 Y1753.7786 Z1.0000 F2500
G1 X1047.2191 Y1775.3548 Z0.0000 F2500
G1 X1079.6724 Y1753.7786 Z-1.0000 F2500
G1 X1046.2780 Y1775.9805 Z-1.0000 F4000
G1 X1046.2780 Y1747.1731 Z-1.0000 F4000
G1 X1046.2780 Y1775.9805 Z-1.0000 F4000
G1 X1079.6724 Y1753.7786 Z-1.0000 F4000
G1 X1038.5715 Y1753.7786 Z-1.0000 F4000
G1 X1038.5715 Y1753.7786 Z10.0000 F9999
G1 X1038.5715 Y1786.7511 Z10.0000 F9999
G1 X1038.5715 Y1786.7511 Z1.0000 F2500
G1 X1038.5715 Y1799.3750 Z0.6761 F2500
G1 X1064.9188 Y1799.3750 Z0.0000 F2500
G1 X1038.5715 Y1799.3750 Z-0.6761 F2500
G1 X1038.5715 Y1786.7511 Z-1.0000 F2500
G1 X1038.5715 Y1799.3750 Z-1.0000 F4000
G1 X1079.6724 Y1799.3750 Z-1.0000 F4000
G1 X1038.5715 Y1799.3750 Z-1.0000 F4000
G1 X1038.5715 Y1799.3750 Z10.0000 F9999
G1 X1069.3878 Y738.0181 Z10.0000 F9999
G1 X1069.3878 Y738.0181 Z1.0000 F2500
G1 X1069.3878 Y752.4585 Z0.6295 F2500
G1 X1069.3878 Y738.0181 Z0.2589 F2500
G1 X1059.2974 Y738.0181 Z0.0000 F2500
G1 X1069.3878 Y738.0181 Z-0.2589 F2500
G1 X1069.3878 Y752.4585 Z-0.6295 F2500
G1 X1069.3878 Y738.0181 Z-1.0000 F2500
G1 X1069.3878 Y752.4585 Z-1.0000 F4000
G1 X1069.3878 Y738.0181 Z-1.0000 F4000
G1 X1051.0942 Y738.0181 Z-1.0000 F4000
G1 X1051.0942 Y753.1374 Z-1.0000 F4000
G1 X1051.0942 Y738.0181 Z-1.0000 F4000
G1 X1092.1951 Y738.0181 Z-1.0000 F4000
G1 X1092.1951 Y738.0181 Z10.0000 F9999
G1 X1041.6997 Y722.5135 Z10.0000 F9999
G1 X1041.6997 Y722.5135 Z1.0000 F2500
G1 X1075.4841 Y703.0875 Z0.0000 F2500
G1 X1041.6997 Y722.5135 Z-1.0000 F2500
G1 X1094.5438 Y692.1282 Z-1.0000 F4000
G1 X1041.6997 Y722.5135 Z-1.0000 F4000
G1 X1041.6997 Y722.5135 Z10.0000 F9999
G1 X1092.1951 Y681.4493 Z10.0000 F9999
G1 X1092.1951 Y681.4493 Z1.0000 F2500
G1 X1072.0483 Y668.2199 Z0.3815 F2500
G1 X1084.4773 Y676.3814 Z0.0000 F2500
G1 X1072.0483 Y668.2199 Z-0.3815 F2500
G1 X1092.1951 Y681.4493 Z-1.0000 F2500
G1 X1072.0483 Y668.2199 Z-1.0000 F4000
G1 X1092.1951 Y681.4493 Z-1.0000 F4000
G1 X1092.1951 Y681.4493 Z10.0000 F9999
G1 X1092.1951 Y664.0365 Z10.0000 F9999
G1 X1092.1951 Y664.0365 Z1.0000 F2500
G1 X1053.2240 Y664.0365 Z0.0000 F2500
G1 X1092.1951 Y664.0365 Z-1.0000 F2500
G1 X1051.0942 Y664.0365 Z-1.0000 F4000
G1 X1051.0942 Y671.1924 Z-1.0000 F4000
G1 X1051.6997 Y675.0640 Z-1.0000 F4000
G1 X1053.5162 Y678.2750 Z-1.0000 F4000
G1 X1056.6722 Y680.4952 Z-1.0000 F4000
G1 X1061.3144 Y681.3392 Z-1.0000 F4000
G1 X1065.9933 Y680.1832 Z-1.0000 F4000
G1 X1069.3144 Y677.4126 Z-1.0000 F4000
G1 X1071.2777 Y674.0915 Z-1.0000 F4000
G1 X1071.9383 Y671.1924 Z-1.0000 F4000
G1 X1071.9383 Y664.0365 Z-1.0000 F4000
G1 X1071.9383 Y671.1924 Z-1.0000 F4000
G1 X1071.2777 Y674.0915 Z-1.0000 F4000
G1 X1069.3144 Y677.4126 Z-1.0000 F4000
G1 X1065.9933 Y680.1832 Z-1.0000 F4000
G1 X1061.3144 Y681.3392 Z-1.0000 F4000
G1 X1056.6722 Y680.4952 Z-1.0000 F4000
G1 X1053.5162 Y678.2750 Z-1.0000 F4000
G1 X1051.6997 Y675.0640 Z-1.0000 F4000
G1 X1051.0942 Y671.1924 Z-1.0000 F4000
G1 X1051.0942 Y664.0365 Z-1.0000 F4000
G1 X1051.0942 Y664.0365 Z10.0000 F9999
G1 X1092.1951 Y631.1557 Z10.0000 F9999
G1 X1092.1951 Y631.1557 Z1.0000 F2500
G1 X1069.3878 Y631.1557 Z0.4148 F2500
G1 X1069.3878 Y647.3195 Z0.0000 F2500
G1 X1069.3878 Y631.1557 Z-0.4148 F2500
G1 X1092.1951 Y631.1557 Z-1.0000 F2500
G1 X1069.3878 Y631.1557 Z-1.0000 F4000
G1 X1069.3878 Y647.6144 Z-1.0000 F4000
G1 X1069.3878 Y631.1557 Z-1.0000 F4000
G1 X1051.0942 Y631.1557 Z-1.0000 F4000
G1 X1051.0942 Y648.9172 Z-1.0000 F4000
G1 X1051.0942 Y631.1557 Z-1.0000 F4000
G1 X1092.1951 Y631.1557 Z-1.0000 F4000
G1 X1092.1951 Y648.9172 Z-1.0000 F4000
G1 X1092.1951 Y648.9172 Z10.0000 F9999
G1 X1086.5071 Y615.3025 Z10.0000 F9999
G1 X1086.5071 Y615.3025 Z1.0000 F2500
G1 X1090.6722 Y608.6787 Z0.7992 F2500
G1 X1092.1951 Y600.6970 Z0.5907 F2500
G1 X1090.5621 Y592.4218 Z0.3743 F2500
G1 X1086.1401 Y585.6511 Z0.1668 F2500
G1 X1080.8142 Y581.9260 Z-0.0000 F2500
G1 X1086.1401 Y585.6511 Z-0.1668 F2500
G1 X1090.5621 Y592.4218 Z-0.3743 F2500
G1 X1092.1951 Y600.6970 Z-0.5907 F2500
G1 X1090.6722 Y608.6787 Z-0.7992 F2500
G1 X1086.5071 Y615.3025 Z-1.0000 F2500
G1 X1090.6722 Y608.6787 Z-1.0000 F4000
G1 X1092.1951 Y600.6970 Z-1.0000 F4000
G1 X1090.5621 Y592.4218 Z-1.0000 F4000
G1 X1086.1401 Y585.6511 Z-1.0000 F4000
G1 X1079.6080 Y581.0823 Z-1.0000 F4000
G1 X1071.6080 Y579.3943 Z-1.0000 F4000
G1 X1063.6630 Y581.0823 Z-1.0000 F4000
G1 X1057.1493 Y585.6511 Z-1.0000 F4000
G1 X1052.7272 Y592.4218 Z-1.0000 F4000
G1 X1051.0942 Y600.6970 Z-1.0000 F4000
G1 X1052.5071 Y608.4768 Z-1.0000 F4000
G1 X1056.4520 Y615.0273 Z-1.0000 F4000
G1 X1052.5071 Y608.4768 Z-1.0000 F4000
G1 X1051.0942 Y600.6970 Z-1.0000 F4000
G1 X1052.7272 Y592.4218 Z-1.0000 F4000
G1 X1057.1493 Y585.6511 Z-1.0000 F4000
G1 X1063.6630 Y581.0823 Z-1.0000 F4000
G1 X1071.6080 Y579.3943 Z-1.0000 F4000
G1 X1079.6080 Y581.0823 Z-1.0000 F4000
G1 X1086.1401 Y585.6511 Z-1.0000 F4000
G1 X1090.5621 Y592.4218 Z-1.0000 F4000
G1 X1092.1951 Y600.6970 Z-1.0000 F4000
G1 X1090.6722 Y608.6787 Z-1.0000 F4000
G1 X1090.6722 Y608.6787 Z10.0000 F9999
G1 X1077.4979 Y562.2750 Z10.0000 F9999
G1 X1077.4979 Y562.2750 Z1.0000 F2500
G1 X1077.4979 Y541.5777 Z0.4689 F2500
G1 X1077.4979 Y559.8516 Z0.0000 F2500
G1 X1077.4979 Y541.5777 Z-0.4689 F2500
G1 X1077.4979 Y562.2750 Z-1.0000 F2500
G1 X1077.4979 Y541.5777 Z-1.0000 F4000
G1 X1077.4979 Y562.2750 Z-1.0000 F4000
G1 X1077.4979 Y562.2750 Z10.0000 F9999
G1 X1051.0942 Y551.9631 Z10.0000 F9999
G1 X1051.0942 Y551.9631 Z1.0000 F2500
G1 X1087.3942 Y566.1427 Z0.0000 F2500
G1 X1051.0942 Y551.9631 Z-1.0000 F2500
G1 X1092.1951 Y568.0181 Z-1.0000 F4000
G1 X1051.0942 Y551.9631 Z-1.0000 F4000
G1 X1092.1951 Y535.9447 Z-1.0000 F4000
G1 X1092.1951 Y535.9447 Z10.0000 F9999
G1 X1051.0942 Y506.6787 Z10.0000 F9999
G1 X1051.0942 Y506.6787 Z1.0000 F2500
G1 X1051.0942 Y513.1007 Z0.8352 F2500
G1 X1053.6630 Y521.7245 Z0.6043 F2500
G1 X1061.2594 Y524.7154 Z0.3948 F2500
G1 X1069.1309 Y521.6328 Z0.1779 F2500
G1 X1071.3803 Y515.0745 Z0.0000 F2500
G1 X1069.1309 Y521.6328 Z-0.1779 F2500
G1 X1061.2594 Y524.7154 Z-0.3948 F2500
G1 X1053.6630 Y521.7245 Z-0.6043 F2500
G1 X1051.0942 Y513.1007 Z-0.8352 F2500
G1 X1051.0942 Y506.6787 Z-1.0000 F2500
G1 X1051.0942 Y513.1007 Z-1.0000 F4000
G1 X1053.6630 Y521.7245 Z-1.0000 F4000
G1 X1061.2594 Y524.7154 Z-1.0000 F4000
G1 X1069.1309 Y521.6328 Z-1.0000 F4000
G1 X1071.9566 Y513.3943 Z-1.0000 F4000
G1 X1071.9566 Y506.6787 Z-1.0000 F4000
G1 X1071.9566 Y513.3943 Z-1.0000 F4000
G1 X1069.1309 Y521.6328 Z-1.0000 F4000
G1 X1061.2594 Y524.7154 Z-1.0000 F4000
G1 X1053.6630 Y521.7245 Z-1.0000 F4000
G1 X1051.0942 Y513.1007 Z-1.0000 F4000
G1 X1051.0942 Y506.6787 Z-1.0000 F4000
G1 X1092.1951 Y506.6787 Z-1.0000 F4000
G1 X1092.1951 Y506.6787 Z10.0000 F9999
G1 X1085.3694 Y466.6603 Z10.0000 F9999
G1 X1085.3694 Y466.6603 Z1.0000 F2500
G1 X1088.4153 Y468.6053 Z0.9073 F2500
G1 X1090.4704 Y471.0273 Z0.8258 F2500
G1 X1091.7181 Y474.1465 Z0.7396 F2500
G1 X1092.1951 Y478.2750 Z0.6329 F2500
G1 X1091.7364 Y482.7704 Z0.5170 F2500
G1 X1089.9933 Y486.5869 Z0.4093 F2500
G1 X1087.0025 Y489.2658 Z0.3063 F2500
G1 X1082.8373 Y490.3851 Z0.1956 F2500
G1 X1078.8373 Y489.8530 Z0.0921 F2500
G1 X1076.1584 Y488.3117 Z0.0128 F2500
G1 X1075.8413 Y487.9291 Z-0.0000 F2500
G1 X1076.1584 Y488.3117 Z-0.0128 F2500
G1 X1078.8373 Y489.8530 Z-0.0921 F2500
G1 X1082.8373 Y490.3851 Z-0.1956 F2500
G1 X1087.0025 Y489.2658 Z-0.3063 F2500
G1 X1089.9933 Y486.5869 Z-0.4093 F2500
G1 X1091.7364 Y482.7704 Z-0.5170 F2500
G1 X1092.1951 Y478.2750 Z-0.6329 F2500
G1 X1091.7181 Y474.1465 Z-0.7396 F2500
G1 X1090.4704 Y471.0273 Z-0.8258 F2500
G1 X1088.4153 Y468.6053 Z-0.9073 F2500
G1 X1085.3694 Y466.6603 Z-1.0000 F2500
G1 X1088.4153 Y468.6053 Z-1.0000 F4000
G1 X1090.4704 Y471.0273 Z-1.0000 F4000
G1 X1091.7181 Y474.1465 Z-1.0000 F4000
G1 X1092.1951 Y478.2750 Z-1.0000 F4000
G1 X1091.7364 Y482.7704 Z-1.0000 F4000
G1 X1089.9933 Y486.5869 Z-1.0000 F4000
G1 X1087.0025 Y489.2658 Z-1.0000 F4000
G1 X1082.8373 Y490.3851 Z-1.0000 F4000
G1 X1078.8373 Y489.8530 Z-1.0000 F4000
G1 X1076.1584 Y488.3117 Z-1.0000 F4000
G1 X1074.4704 Y486.2750 Z-1.0000 F4000
G1 X1073.3694 Y484.3667 Z-1.0000 F4000
G1 X1068.6355 Y475.1741 Z-1.0000 F4000
G1 X1067.2227 Y472.8071 Z-1.0000 F4000
G1 X1065.5713 Y470.9539 Z-1.0000 F4000
G1 X1063.3878 Y469.7062 Z-1.0000 F4000
G1 X1060.5071 Y469.1924 Z-1.0000 F4000
G1 X1057.2227 Y469.7245 Z-1.0000 F4000
G1 X1054.1951 Y471.5594 Z-1.0000 F4000
G1 X1051.9750 Y474.6970 Z-1.0000 F4000
G1 X1051.0942 Y479.0640 Z-1.0000 F4000
G1 X1051.7731 Y483.3209 Z-1.0000 F4000
G1 X1053.2410 Y486.1649 Z-1.0000 F4000
G1 X1055.3878 Y488.2566 Z-1.0000 F4000
G1 X1053.2410 Y486.1649 Z-1.0000 F4000
G1 X1051.7731 Y483.3209 Z-1.0000 F4000
G1 X1051.0942 Y479.0640 Z-1.0000 F4000
G1 X1051.9750 Y474.6970 Z-1.0000 F4000
G1 X1054.1951 Y471.5594 Z-1.0000 F4000
G1 X1057.2227 Y469.7245 Z-1.0000 F4000
G1 X1060.5071 Y469.1924 Z-1.0000 F4000
G1 X1063.3878 Y469.7062 Z-1.0000 F4000
G1 X1065.5713 Y470.9539 Z-1.0000 F4000
G1 X1067.2227 Y472.8071 Z-1.0000 F4000
G1 X1068.6355 Y475.1741 Z-1.0000 F4000
G1 X1073.3694 Y484.3667 Z-1.0000 F4000
G1 X1074.4704 Y486.2750 Z-1.0000 F4000
G1 X1076.1584 Y488.3117 Z-1.0000 F4000
G1 X1078.8373 Y489.8530 Z-1.0000 F4000
G1 X1082.8373 Y490.3851 Z-1.0000 F4000
G1 X1087.0025 Y489.2658 Z-1.0000 F4000
G1 X1089.9933 Y486.5869 Z-1.0000 F4000
G1 X1091.7364 Y482.7704 Z-1.0000 F4000
G1 X1092.1951 Y478.2750 Z-1.0000 F4000
G1 X1091.7181 Y474.1465 Z-1.0000 F4000
G1 X1090.4704 Y471.0273 Z-1.0000 F4000
G1 X1088.4153 Y468.6053 Z-1.0000 F4000
G1 X1088.4153 Y468.6053 Z10.0000 F9999
(Tool Number:1) (7.998 mm dia. slot drill)
M3 S9000
G1 X31.8999 Y131.6496 Z10.0000 F9999
G1 X31.8999 Y131.6496 Z1.0000 F2500
G1 X31.8989 Y164.6509 Z-7.4682 F2500
G1 X31.9009 Y158.6812 Z-9.0000 F2500
G1 X31.8989 Y164.6509 Z-10.5318 F2500
G1 X31.8999 Y131.6496 Z-19.0000 F2500
G1 X31.8989 Y164.6509 Z-19.0000 F4000
G1 X31.9009 Y158.6509 Z-19.0000 F4000
G1 X47.9009 Y158.6509 Z-19.0000 F4000
G1 X41.9009 Y158.6489 Z-19.0000 F4000
G1 X41.9009 Y106.6512 Z-19.0000 F4000
G1 X47.9009 Y106.6512 Z-19.0000 F4000
G1 X31.9009 Y106.6492 Z-19.0000 F4000
G1 X31.9009 Y100.6492 Z-19.0000 F4000
G1 X31.8999 Y131.6496 Z-19.0000 F4000
G1 X31.8999 Y131.6496 Z10.0000 F9999
G1 X152.8997 Y127.6488 Z10.0000 F9999
G1 X152.8997 Y127.6488 Z1.0000 F2500
G1 X122.9008 Y127.6488 Z-6.6977 F2500
G1 X122.9008 Y122.6486 Z-7.9808 F2500
G1 X120.8988 Y122.6486 Z-8.4945 F2500
G1 X120.8988 Y124.6187 Z-9.0000 F2500
G1 X120.8988 Y122.6486 Z-9.5055 F2500
G1 X122.9008 Y122.6486 Z-10.0192 F2500
G1 X122.9008 Y127.6488 Z-11.3023 F2500
G1 X152.8997 Y127.6488 Z-19.0000 F2500
G1 X122.9008 Y127.6488 Z-19.0000 F4000
G1 X122.9008 Y122.6486 Z-19.0000 F4000
G1 X120.8988 Y122.6486 Z-19.0000 F4000
G1 X120.8988 Y142.6506 Z-19.0000 F4000
G1 X122.9008 Y142.6506 Z-19.0000 F4000
G1 X122.9008 Y137.6508 Z-19.0000 F4000
G1 X182.8986 Y137.6508 Z-19.0000 F4000
G1 X182.8986 Y142.6506 Z-19.0000 F4000
G1 X184.9006 Y142.6506 Z-19.0000 F4000
G1 X184.9006 Y122.6486 Z-19.0000 F4000
G1 X182.8986 Y122.6486 Z-19.0000 F4000
G1 X182.8986 Y127.6488 Z-19.0000 F4000
G1 X152.8997 Y127.6488 Z-19.0000 F4000
G1 X152.8997 Y127.6488 Z10.0000 F9999
G1 X273.8994 Y133.6506 Z10.0000 F9999
G1 X273.8994 Y133.6506 Z1.0000 F2500
G1 X273.9004 Y100.6492 Z-7.4682 F2500
G1 X273.8984 Y106.6189 Z-9.0000 F2500
G1 X273.9004 Y100.6492 Z-10.5318 F2500
G1 X273.8994 Y133.6506 Z-19.0000 F2500
G1 X273.9004 Y100.6492 Z-19.0000 F4000
G1 X273.8984 Y106.6492 Z-19.0000 F4000
G1 X257.8985 Y106.6492 Z-19.0000 F4000
G1 X263.8985 Y106.6512 Z-19.0000 F4000
G1 X263.8985 Y158.6489 Z-19.0000 F4000
G1 X257.8985 Y158.6489 Z-19.0000 F4000
G1 X273.8984 Y158.6509 Z-19.0000 F4000
G1 X273.8984 Y164.6509 Z-19.0000 F4000
G1 X273.8994 Y133.6506 Z-19.0000 F4000
G1 X273.8994 Y133.6506 Z10.0000 F9999
G1 X339.9740 Y131.6496 Z10.0000 F9999
G1 X339.9740 Y131.6496 Z1.0000 F2500
G1 X339.9730 Y164.6509 Z-7.4682 F2500
G1 X339.9749 Y158.6812 Z-9.0000 F2500
G1 X339.9730 Y164.6509 Z-10.5318 F2500
G1 X339.9740 Y131.6496 Z-19.0000 F2500
G1 X339.9730 Y164.6509 Z-19.0000 F4000
G1 X339.9750 Y158.6509 Z-19.0000 F4000
G1 X355.9749 Y158.6509 Z-19.0000 F4000
G1 X349.9749 Y158.6489 Z-19.0000 F4000
G1 X349.9749 Y106.6512 Z-19.0000 F4000
G1 X355.9749 Y106.6512 Z-19.0000 F4000
G1 X339.9750 Y106.6492 Z-19.0000 F4000
G1 X339.9750 Y100.6492 Z-19.0000 F4000
G1 X339.9740 Y131.6496 Z-19.0000 F4000
G1 X339.9740 Y131.6496 Z10.0000 F9999
G1 X460.9737 Y127.6488 Z10.0000 F9999
G1 X460.9737 Y127.6488 Z1.0000 F2500
G1 X430.9748 Y127.6488 Z-6.6977 F2500
G1 X430.9748 Y122.6486 Z-7.9808 F2500
G1 X428.9728 Y122.6486 Z-8.4945 F2500
G1 X428.9728 Y124.6187 Z-9.0000 F2500
G1 X428.9728 Y122.6486 Z-9.5055 F2500
G1 X430.9748 Y122.6486 Z-10.0192 F2500
G1 X430.9748 Y127.6488 Z-11.3023 F2500
G1 X460.9737 Y127.6488 Z-19.0000 F2500
G1 X430.9748 Y127.6488 Z-19.0000 F4000
G1 X430.9748 Y122.6486 Z-19.0000 F4000
G1 X428.9728 Y122.6486 Z-19.0000 F4000
G1 X428.9728 Y142.6506 Z-19.0000 F4000
G1 X430.9748 Y142.6506 Z-19.0000 F4000
G1 X430.9748 Y137.6508 Z-19.0000 F4000
G1 X490.9727 Y137.6508 Z-19.0000 F4000
G1 X490.9727 Y142.6506 Z-19.0000 F4000
G1 X492.9746 Y142.6506 Z-19.0000 F4000
G1 X492.9746 Y122.6486 Z-19.0000 F4000
G1 X490.9727 Y122.6486 Z-19.0000 F4000
G1 X490.9727 Y127.6488 Z-19.0000 F4000
G1 X460.9737 Y127.6488 Z-19.0000 F4000
G1 X460.9737 Y127.6488 Z10.0000 F9999
G1 X581.9734 Y133.6506 Z10.0000 F9999
G1 X581.9734 Y133.6506 Z1.0000 F2500
G1 X581.9744 Y100.6492 Z-7.4682 F2500
G1 X581.9724 Y106.6189 Z-9.0000 F2500
G1 X581.9744 Y100.6492 Z-10.5318 F2500
G1 X581.9734 Y133.6506 Z-19.0000 F2500
G1 X581.9744 Y100.6492 Z-19.0000 F4000
G1 X581.9724 Y106.6492 Z-19.0000 F4000
G1 X565.9725 Y106.6492 Z-19.0000 F4000
G1 X571.9725 Y106.6512 Z-19.0000 F4000
G1 X571.9725 Y158.6489 Z-19.0000 F4000
G1 X565.9725 Y158.6489 Z-19.0000 F4000
G1 X581.9724 Y158.6509 Z-19.0000 F4000
G1 X581.9724 Y164.6509 Z-19.0000 F4000
G1 X581.9734 Y133.6506 Z-19.0000 F4000
G1 X581.9734 Y133.6506 Z10.0000 F9999
G1 X648.0480 Y131.6496 Z10.0000 F9999
G1 X648.0480 Y131.6496 Z1.0000 F2500
G1 X648.0470 Y164.6509 Z-7.4682 F2500
G1 X648.0490 Y158.6812 Z-9.0000 F2500
G1 X648.0470 Y164.6509 Z-10.5318 F2500
G1 X648.0480 Y131.6496 Z-19.0000 F2500
G1 X648.0470 Y164.6509 Z-19.0000 F4000
G1 X648.0490 Y158.6509 Z-19.0000 F4000
G1 X664.0489 Y158.6509 Z-19.0000 F4000
G1 X658.0489 Y158.6489 Z-19.0000 F4000
G1 X658.0489 Y106.6512 Z-19.0000 F4000
G1 X664.0489 Y106.6512 Z-19.0000 F4000
G1 X648.0490 Y106.6492 Z-19.0000 F4000
G1 X648.0490 Y100.6492 Z-19.0000 F4000
G1 X648.0480 Y131.6496 Z-19.0000 F4000
G1 X648.0480 Y131.6496 Z10.0000 F9999
G1 X769.0477 Y127.6488 Z10.0000 F9999
G1 X769.0477 Y127.6488 Z1.0000 F2500
G1 X739.0488 Y127.6488 Z-6.6977 F2500
G1 X739.0488 Y122.6486 Z-7.9808 F2500
G1 X737.0468 Y122.6486 Z-8.4945 F2500
G1 X737.0468 Y124.6187 Z-9.0000 F2500
G1 X737.0468 Y122.6486 Z-9.5055 F2500
G1 X739.0488 Y122.6486 Z-10.0192 F2500
G1 X739.0488 Y127.6488 Z-11.3023 F2500
G1 X769.0477 Y127.6488 Z-19.0000 F2500
G1 X739.0488 Y127.6488 Z-19.0000 F4000
G1 X739.0488 Y122.6486 Z-19.0000 F4000
G1 X737.0468 Y122.6486 Z-19.0000 F4000
G1 X737.0468 Y142.6506 Z-19.0000 F4000
G1 X739.0488 Y142.6506 Z-19.0000 F4000
G1 X739.0488 Y137.6508 Z-19.0000 F4000
G1 X799.0467 Y137.6508 Z-19.0000 F4000
G1 X799.0467 Y142.6506 Z-19.0000 F4000
G1 X801.0487 Y142.6506 Z-19.0000 F4000
G1 X801.0487 Y122.6486 Z-19.0000 F4000
G1 X799.0467 Y122.6486 Z-19.0000 F4000
G1 X799.0467 Y127.6488 Z-19.0000 F4000
G1 X769.0477 Y127.6488 Z-19.0000 F4000
G1 X769.0477 Y127.6488 Z10.0000 F9999
G1 X890.0475 Y133.6506 Z10.0000 F9999
G1 X890.0475 Y133.6506 Z1.0000 F2500
G1 X890.0485 Y100.6492 Z-7.4682 F2500
G1 X890.0465 Y106.6189 Z-9.0000 F2500
G1 X890.0485 Y100.6492 Z-10.5318 F2500
G1 X890.0475 Y133.6506 Z-19.0000 F2500
G1 X890.0485 Y100.6492 Z-19.0000 F4000
G1 X890.0465 Y106.6492 Z-19.0000 F4000
G1 X874.0465 Y106.6492 Z-19.0000 F4000
G1 X880.0465 Y106.6512 Z-19.0000 F4000
G1 X880.0465 Y158.6489 Z-19.0000 F4000
G1 X874.0465 Y158.6489 Z-19.0000 F4000
G1 X890.0465 Y158.6509 Z-19.0000 F4000
G1 X890.0465 Y164.6509 Z-19.0000 F4000
G1 X890.0475 Y133.6506 Z-19.0000 F4000
G1 X890.0475 Y133.6506 Z10.0000 F9999
G1 X1064.1228 Y47.3999 Z10.0000 F9999
G1 X1064.1228 Y47.3999 Z1.0000 F2500
G1 X1064.1228 Y33.9009 Z-2.4638 F2500
G1 X1069.1228 Y33.9009 Z-3.7468 F2500
G1 X1069.1228 Y31.8989 Z-4.2606 F2500
G1 X1050.6526 Y31.8989 Z-9.0000 F2500
G1 X1069.1228 Y31.8989 Z-13.7394 F2500
G1 X1069.1228 Y33.9009 Z-14.2532 F2500
G1 X1064.1228 Y33.9009 Z-15.5362 F2500
G1 X1064.1228 Y47.3999 Z-19.0000 F2500
G1 X1064.1228 Y33.9009 Z-19.0000 F4000
G1 X1069.1228 Y33.9009 Z-19.0000 F4000
G1 X1069.1228 Y31.8989 Z-19.0000 F4000
G1 X1049.1208 Y31.8989 Z-19.0000 F4000
G1 X1049.1208 Y33.9009 Z-19.0000 F4000
G1 X1054.1208 Y33.9009 Z-19.0000 F4000
G1 X1054.1208 Y60.8989 Z-19.0000 F4000
G1 X1049.1208 Y60.8989 Z-19.0000 F4000
G1 X1049.1208 Y62.9009 Z-19.0000 F4000
G1 X1069.1228 Y62.9009 Z-19.0000 F4000
G1 X1069.1228 Y60.8989 Z-19.0000 F4000
G1 X1064.1228 Y60.8989 Z-19.0000 F4000
G1 X1064.1228 Y47.3999 Z-19.0000 F4000
G1 X1064.1228 Y47.3999 Z10.0000 F9999
G1 X890.0475 Y433.6497 Z10.0000 F9999
G1 X890.0475 Y433.6497 Z1.0000 F2500
G1 X890.0485 Y400.6483 Z-7.4682 F2500
G1 X890.0465 Y406.6181 Z-9.0000 F2500
G1 X890.0485 Y400.6483 Z-10.5318 F2500
G1 X890.0475 Y433.6497 Z-19.0000 F2500
G1 X890.0485 Y400.6483 Z-19.0000 F4000
G1 X890.0465 Y406.6483 Z-19.0000 F4000
G1 X874.0465 Y406.6483 Z-19.0000 F4000
G1 X880.0465 Y406.6503 Z-19.0000 F4000
G1 X880.0465 Y458.6481 Z-19.0000 F4000
G1 X874.0465 Y458.6481 Z-19.0000 F4000
G1 X890.0465 Y458.6501 Z-19.0000 F4000
G1 X890.0465 Y464.6501 Z-19.0000 F4000
G1 X890.0475 Y433.6497 Z-19.0000 F4000
G1 X890.0475 Y433.6497 Z10.0000 F9999
G1 X769.0477 Y427.6546 Z10.0000 F9999
G1 X769.0477 Y427.6546 Z1.0000 F2500
G1 X753.0487 Y427.6457 Z-3.1053 F2500
G1 X753.0487 Y421.6702 Z-4.6386 F2500
G1 X753.0472 Y438.6669 Z-9.0000 F2500
G1 X753.0487 Y421.6702 Z-13.3614 F2500
G1 X753.0487 Y427.6457 Z-14.8947 F2500
G1 X769.0477 Y427.6546 Z-19.0000 F2500
G1 X753.0487 Y427.6457 Z-19.0000 F4000
G1 X753.0487 Y421.6702 Z-19.0000 F4000
G1 X753.0467 Y443.6499 Z-19.0000 F4000
G1 X753.0487 Y437.6499 Z-19.0000 F4000
G1 X785.0467 Y437.6499 Z-19.0000 F4000
G1 X785.0467 Y443.6499 Z-19.0000 F4000
G1 X785.0487 Y421.6702 Z-19.0000 F4000
G1 X785.0467 Y421.6702 Z-19.0000 F4000
G1 X785.0467 Y427.6635 Z-19.0000 F4000
G1 X769.0477 Y427.6546 Z-19.0000 F4000
G1 X769.0477 Y427.6546 Z10.0000 F9999
G1 X648.0480 Y431.6487 Z10.0000 F9999
G1 X648.0480 Y431.6487 Z1.0000 F2500
G1 X648.0470 Y464.6501 Z-7.4682 F2500
G1 X648.0490 Y458.6803 Z-9.0000 F2500
G1 X648.0470 Y464.6501 Z-10.5318 F2500
G1 X648.0480 Y431.6487 Z-19.0000 F2500
G1 X648.0470 Y464.6501 Z-19.0000 F4000
G1 X648.0490 Y458.6501 Z-19.0000 F4000
G1 X664.0490 Y458.6501 Z-19.0000 F4000
G1 X658.0490 Y458.6481 Z-19.0000 F4000
G1 X658.0490 Y406.6503 Z-19.0000 F4000
G1 X664.0490 Y406.6503 Z-19.0000 F4000
G1 X648.0490 Y406.6483 Z-19.0000 F4000
G1 X648.0490 Y400.6483 Z-19.0000 F4000
G1 X648.0480 Y431.6487 Z-19.0000 F4000
G1 X648.0480 Y431.6487 Z10.0000 F9999
G1 X581.9735 Y433.6497 Z10.0000 F9999
G1 X581.9735 Y433.6497 Z1.0000 F2500
G1 X581.9745 Y400.6483 Z-7.4682 F2500
G1 X581.9725 Y406.6181 Z-9.0000 F2500
G1 X581.9745 Y400.6483 Z-10.5318 F2500
G1 X581.9735 Y433.6497 Z-19.0000 F2500
G1 X581.9745 Y400.6483 Z-19.0000 F4000
G1 X581.9725 Y406.6483 Z-19.0000 F4000
G1 X565.9725 Y406.6483 Z-19.0000 F4000
G1 X571.9725 Y406.6503 Z-19.0000 F4000
G1 X571.9725 Y458.6481 Z-19.0000 F4000
G1 X565.9725 Y458.6481 Z-19.0000 F4000
G1 X581.9725 Y458.6501 Z-19.0000 F4000
G1 X581.9725 Y464.6501 Z-19.0000 F4000
G1 X581.9735 Y433.6497 Z-19.0000 F4000
G1 X581.9735 Y433.6497 Z10.0000 F9999
G1 X460.9737 Y427.6546 Z10.0000 F9999
G1 X460.9737 Y427.6546 Z1.0000 F2500
G1 X444.9747 Y427.6457 Z-3.1053 F2500
G1 X444.9747 Y421.6702 Z-4.6386 F2500
G1 X444.9732 Y438.6669 Z-9.0000 F2500
G1 X444.9747 Y421.6702 Z-13.3614 F2500
G1 X444.9747 Y427.6457 Z-14.8947 F2500
G1 X460.9737 Y427.6546 Z-19.0000 F2500
G1 X444.9747 Y427.6457 Z-19.0000 F4000
G1 X444.9747 Y421.6702 Z-19.0000 F4000
G1 X444.9727 Y443.6499 Z-19.0000 F4000
G1 X444.9747 Y437.6499 Z-19.0000 F4000
G1 X476.9727 Y437.6499 Z-19.0000 F4000
G1 X476.9727 Y443.6499 Z-19.0000 F4000
G1 X476.9747 Y421.6702 Z-19.0000 F4000
G1 X476.9727 Y421.6702 Z-19.0000 F4000
G1 X476.9727 Y427.6635 Z-19.0000 F4000
G1 X460.9737 Y427.6546 Z-19.0000 F4000
G1 X460.9737 Y427.6546 Z10.0000 F9999
G1 X339.9740 Y431.6487 Z10.0000 F9999
G1 X339.9740 Y431.6487 Z1.0000 F2500
G1 X339.9730 Y464.6501 Z-7.4682 F2500
G1 X339.9750 Y458.6803 Z-9.0000 F2500
G1 X339.9730 Y464.6501 Z-10.5318 F2500
G1 X339.9740 Y431.6487 Z-19.0000 F2500
G1 X339.9730 Y464.6501 Z-19.0000 F4000
G1 X339.9750 Y458.6501 Z-19.0000 F4000
G1 X355.9749 Y458.6501 Z-19.0000 F4000
G1 X349.9749 Y458.6481 Z-19.0000 F4000
G1 X349.9749 Y406.6503 Z-19.0000 F4000
G1 X355.9749 Y406.6503 Z-19.0000 F4000
G1 X339.9750 Y406.6483 Z-19.0000 F4000
G1 X339.9750 Y400.6483 Z-19.0000 F4000
G1 X339.9740 Y431.6487 Z-19.0000 F4000
G1 X339.9740 Y431.6487 Z10.0000 F9999
G1 X273.8994 Y433.6497 Z10.0000 F9999
G1 X273.8994 Y433.6497 Z1.0000 F2500
G1 X273.9004 Y400.6483 Z-7.4682 F2500
G1 X273.8984 Y406.6181 Z-9.0000 F2500
G1 X273.9004 Y400.6483 Z-10.5318 F2500
G1 X273.8994 Y433.6497 Z-19.0000 F2500
G1 X273.9004 Y400.6483 Z-19.0000 F4000
G1 X273.8984 Y406.6483 Z-19.0000 F4000
G1 X257.8985 Y406.6483 Z-19.0000 F4000
G1 X263.8985 Y406.6503 Z-19.0000 F4000
G1 X263.8985 Y458.6481 Z-19.0000 F4000
G1 X257.8985 Y458.6481 Z-19.0000 F4000
G1 X273.8984 Y458.6501 Z-19.0000 F4000
G1 X273.8984 Y464.6501 Z-19.0000 F4000
G1 X273.8994 Y433.6497 Z-19.0000 F4000
G1 X273.8994 Y433.6497 Z10.0000 F9999
G1 X152.8997 Y427.6546 Z10.0000 F9999
G1 X152.8997 Y427.6546 Z1.0000 F2500
G1 X136.9007 Y427.6457 Z-3.1053 F2500
G1 X136.9007 Y421.6702 Z-4.6386 F2500
G1 X136.8992 Y438.6669 Z-9.0000 F2500
G1 X136.9007 Y421.6702 Z-13.3614 F2500
G1 X136.9007 Y427.6457 Z-14.8947 F2500
G1 X152.8997 Y427.6546 Z-19.0000 F2500
G1 X136.9007 Y427.6457 Z-19.0000 F4000
G1 X136.9007 Y421.6702 Z-19.0000 F4000
G1 X136.8987 Y443.6499 Z-19.0000 F4000
G1 X136.9007 Y437.6499 Z-19.0000 F4000
G1 X168.8987 Y437.6499 Z-19.0000 F4000
G1 X168.8987 Y443.6499 Z-19.0000 F4000
G1 X168.9007 Y421.6702 Z-19.0000 F4000
G1 X168.8987 Y421.6702 Z-19.0000 F4000
G1 X168.8987 Y427.6635 Z-19.0000 F4000
G1 X152.8997 Y427.6546 Z-19.0000 F4000
G1 X152.8997 Y427.6546 Z10.0000 F9999
G1 X31.9000 Y431.6487 Z10.0000 F9999
G1 X31.9000 Y431.6487 Z1.0000 F2500
G1 X31.8990 Y464.6501 Z-7.4682 F2500
G1 X31.9009 Y458.6803 Z-9.0000 F2500
G1 X31.8990 Y464.6501 Z-10.5318 F2500
G1 X31.9000 Y431.6487 Z-19.0000 F2500
G1 X31.8990 Y464.6501 Z-19.0000 F4000
G1 X31.9010 Y458.6501 Z-19.0000 F4000
G1 X47.9009 Y458.6501 Z-19.0000 F4000
G1 X41.9009 Y458.6481 Z-19.0000 F4000
G1 X41.9009 Y406.6503 Z-19.0000 F4000
G1 X47.9009 Y406.6503 Z-19.0000 F4000
G1 X31.9010 Y406.6483 Z-19.0000 F4000
G1 X31.9010 Y400.6483 Z-19.0000 F4000
G1 X31.9000 Y431.6487 Z-19.0000 F4000
G1 X31.9000 Y431.6487 Z10.0000 F9999
G1 X31.9000 Y731.6482 Z10.0000 F9999
G1 X31.9000 Y731.6482 Z1.0000 F2500
G1 X31.8990 Y764.6496 Z-7.4682 F2500
G1 X31.9009 Y758.6798 Z-9.0000 F2500
G1 X31.8990 Y764.6496 Z-10.5318 F2500
G1 X31.9000 Y731.6482 Z-19.0000 F2500
G1 X31.8990 Y764.6496 Z-19.0000 F4000
G1 X31.9010 Y758.6496 Z-19.0000 F4000
G1 X47.9009 Y758.6496 Z-19.0000 F4000
G1 X41.9009 Y758.6476 Z-19.0000 F4000
G1 X41.9009 Y706.6498 Z-19.0000 F4000
G1 X47.9009 Y706.6498 Z-19.0000 F4000
G1 X31.9010 Y706.6478 Z-19.0000 F4000
G1 X31.9010 Y700.6478 Z-19.0000 F4000
G1 X31.9000 Y731.6482 Z-19.0000 F4000
G1 X31.9000 Y731.6482 Z10.0000 F9999
G1 X152.8997 Y737.6493 Z10.0000 F9999
G1 X152.8997 Y737.6493 Z1.0000 F2500
G1 X182.8986 Y737.6493 Z-6.6977 F2500
G1 X182.8986 Y742.6493 Z-7.9807 F2500
G1 X184.9006 Y742.6493 Z-8.4944 F2500
G1 X184.9006 Y740.6791 Z-9.0000 F2500
G1 X184.9006 Y742.6493 Z-9.5056 F2500
G1 X182.8986 Y742.6493 Z-10.0193 F2500
G1 X182.8986 Y737.6493 Z-11.3023 F2500
G1 X152.8997 Y737.6493 Z-19.0000 F2500
G1 X182.8986 Y737.6493 Z-19.0000 F4000
G1 X182.8986 Y742.6493 Z-19.0000 F4000
G1 X184.9006 Y742.6493 Z-19.0000 F4000
G1 X184.9006 Y722.6474 Z-19.0000 F4000
G1 X182.8986 Y722.6474 Z-19.0000 F4000
G1 X182.8986 Y727.6473 Z-19.0000 F4000
G1 X122.9008 Y727.6473 Z-19.0000 F4000
G1 X122.9008 Y722.6474 Z-19.0000 F4000
G1 X120.8988 Y722.6474 Z-19.0000 F4000
G1 X120.8988 Y742.6493 Z-19.0000 F4000
G1 X122.9008 Y742.6493 Z-19.0000 F4000
G1 X122.9008 Y737.6493 Z-19.0000 F4000
G1 X152.8997 Y737.6493 Z-19.0000 F4000
G1 X152.8997 Y737.6493 Z10.0000 F9999
G1 X273.8994 Y733.6492 Z10.0000 F9999
G1 X273.8994 Y733.6492 Z1.0000 F2500
G1 X273.9004 Y700.6478 Z-7.4682 F2500
G1 X273.8984 Y706.6176 Z-9.0000 F2500
G1 X273.9004 Y700.6478 Z-10.5318 F2500
G1 X273.8994 Y733.6492 Z-19.0000 F2500
G1 X273.9004 Y700.6478 Z-19.0000 F4000
G1 X273.8984 Y706.6478 Z-19.0000 F4000
G1 X257.8985 Y706.6478 Z-19.0000 F4000
G1 X263.8985 Y706.6498 Z-19.0000 F4000
G1 X263.8985 Y758.6476 Z-19.0000 F4000
G1 X257.8985 Y758.6476 Z-19.0000 F4000
G1 X273.8984 Y758.6496 Z-19.0000 F4000
G1 X273.8984 Y764.6496 Z-19.0000 F4000
G1 X273.8994 Y733.6492 Z-19.0000 F4000
G1 X273.8994 Y733.6492 Z10.0000 F9999
G1 X339.9740 Y731.6482 Z10.0000 F9999
G1 X339.9740 Y731.6482 Z1.0000 F2500
G1 X339.9730 Y764.6496 Z-7.4682 F2500
G1 X339.9750 Y758.6798 Z-9.0000 F2500
G1 X339.9730 Y764.6496 Z-10.5318 F2500
G1 X339.9740 Y731.6482 Z-19.0000 F2500
G1 X339.9730 Y764.6496 Z-19.0000 F4000
G1 X339.9750 Y758.6496 Z-19.0000 F4000
G1 X355.9749 Y758.6496 Z-19.0000 F4000
G1 X349.9749 Y758.6476 Z-19.0000 F4000
G1 X349.9749 Y706.6498 Z-19.0000 F4000
G1 X355.9749 Y706.6498 Z-19.0000 F4000
G1 X339.9750 Y706.6478 Z-19.0000 F4000
G1 X339.9750 Y700.6478 Z-19.0000 F4000
G1 X339.9740 Y731.6482 Z-19.0000 F4000
G1 X339.9740 Y731.6482 Z10.0000 F9999
G1 X460.9737 Y737.6493 Z10.0000 F9999
G1 X460.9737 Y737.6493 Z1.0000 F2500
G1 X490.9727 Y737.6493 Z-6.6977 F2500
G1 X490.9727 Y742.6493 Z-7.9807 F2500
G1 X492.9746 Y742.6493 Z-8.4944 F2500
G1 X492.9746 Y740.6791 Z-9.0000 F2500
G1 X492.9746 Y742.6493 Z-9.5056 F2500
G1 X490.9727 Y742.6493 Z-10.0193 F2500
G1 X490.9727 Y737.6493 Z-11.3023 F2500
G1 X460.9737 Y737.6493 Z-19.0000 F2500
G1 X490.9727 Y737.6493 Z-19.0000 F4000
G1 X490.9727 Y742.6493 Z-19.0000 F4000
G1 X492.9746 Y742.6493 Z-19.0000 F4000
G1 X492.9746 Y722.6474 Z-19.0000 F4000
G1 X490.9727 Y722.6474 Z-19.0000 F4000
G1 X490.9727 Y727.6473 Z-19.0000 F4000
G1 X430.9748 Y727.6473 Z-19.0000 F4000
G1 X430.9748 Y722.6474 Z-19.0000 F4000
G1 X428.9728 Y722.6474 Z-19.0000 F4000
G1 X428.9728 Y742.6493 Z-19.0000 F4000
G1 X430.9748 Y742.6493 Z-19.0000 F4000
G1 X430.9748 Y737.6493 Z-19.0000 F4000
G1 X460.9737 Y737.6493 Z-19.0000 F4000
G1 X460.9737 Y737.6493 Z10.0000 F9999
G1 X581.9735 Y733.6492 Z10.0000 F9999
G1 X581.9735 Y733.6492 Z1.0000 F2500
G1 X581.9745 Y700.6478 Z-7.4682 F2500
G1 X581.9725 Y706.6176 Z-9.0000 F2500
G1 X581.9745 Y700.6478 Z-10.5318 F2500
G1 X581.9735 Y733.6492 Z-19.0000 F2500
G1 X581.9745 Y700.6478 Z-19.0000 F4000
G1 X581.9725 Y706.6478 Z-19.0000 F4000
G1 X565.9725 Y706.6478 Z-19.0000 F4000
G1 X571.9725 Y706.6498 Z-19.0000 F4000
G1 X571.9725 Y758.6476 Z-19.0000 F4000
G1 X565.9725 Y758.6476 Z-19.0000 F4000
G1 X581.9725 Y758.6496 Z-19.0000 F4000
G1 X581.9725 Y764.6496 Z-19.0000 F4000
G1 X581.9735 Y733.6492 Z-19.0000 F4000
G1 X581.9735 Y733.6492 Z10.0000 F9999
G1 X648.0480 Y731.6482 Z10.0000 F9999
G1 X648.0480 Y731.6482 Z1.0000 F2500
G1 X648.0470 Y764.6496 Z-7.4682 F2500
G1 X648.0490 Y758.6798 Z-9.0000 F2500
G1 X648.0470 Y764.6496 Z-10.5318 F2500
G1 X648.0480 Y731.6482 Z-19.0000 F2500
G1 X648.0470 Y764.6496 Z-19.0000 F4000
G1 X648.0490 Y758.6496 Z-19.0000 F4000
G1 X664.0490 Y758.6496 Z-19.0000 F4000
G1 X658.0490 Y758.6476 Z-19.0000 F4000
G1 X658.0490 Y706.6498 Z-19.0000 F4000
G1 X664.0490 Y706.6498 Z-19.0000 F4000
G1 X648.0490 Y706.6478 Z-19.0000 F4000
G1 X648.0490 Y700.6478 Z-19.0000 F4000
G1 X648.0480 Y731.6482 Z-19.0000 F4000
G1 X648.0480 Y731.6482 Z10.0000 F9999
G1 X769.0477 Y737.6493 Z10.0000 F9999
G1 X769.0477 Y737.6493 Z1.0000 F2500
G1 X799.0467 Y737.6493 Z-6.6977 F2500
G1 X799.0467 Y742.6493 Z-7.9807 F2500
G1 X801.0487 Y742.6493 Z-8.4944 F2500
G1 X801.0487 Y740.6791 Z-9.0000 F2500
G1 X801.0487 Y742.6493 Z-9.5056 F2500
G1 X799.0467 Y742.6493 Z-10.0193 F2500
G1 X799.0467 Y737.6493 Z-11.3023 F2500
G1 X769.0477 Y737.6493 Z-19.0000 F2500
G1 X799.0467 Y737.6493 Z-19.0000 F4000
G1 X799.0467 Y742.6493 Z-19.0000 F4000
G1 X801.0487 Y742.6493 Z-19.0000 F4000
G1 X801.0487 Y722.6474 Z-19.0000 F4000
G1 X799.0467 Y722.6474 Z-19.0000 F4000
G1 X799.0467 Y727.6473 Z-19.0000 F4000
G1 X739.0488 Y727.6473 Z-19.0000 F4000
G1 X739.0488 Y722.6474 Z-19.0000 F4000
G1 X737.0468 Y722.6474 Z-19.0000 F4000
G1 X737.0468 Y742.6493 Z-19.0000 F4000
G1 X739.0488 Y742.6493 Z-19.0000 F4000
G1 X739.0488 Y737.6493 Z-19.0000 F4000
G1 X769.0477 Y737.6493 Z-19.0000 F4000
G1 X769.0477 Y737.6493 Z10.0000 F9999
G1 X890.0475 Y733.6492 Z10.0000 F9999
G1 X890.0475 Y733.6492 Z1.0000 F2500
G1 X890.0485 Y700.6478 Z-7.4682 F2500
G1 X890.0465 Y706.6176 Z-9.0000 F2500
G1 X890.0485 Y700.6478 Z-10.5318 F2500
G1 X890.0475 Y733.6492 Z-19.0000 F2500
G1 X890.0485 Y700.6478 Z-19.0000 F4000
G1 X890.0465 Y706.6478 Z-19.0000 F4000
G1 X874.0465 Y706.6478 Z-19.0000 F4000
G1 X880.0465 Y706.6498 Z-19.0000 F4000
G1 X880.0465 Y758.6476 Z-19.0000 F4000
G1 X874.0465 Y758.6476 Z-19.0000 F4000
G1 X890.0465 Y758.6496 Z-19.0000 F4000
G1 X890.0465 Y764.6496 Z-19.0000 F4000
G1 X890.0475 Y733.6492 Z-19.0000 F4000
G1 X890.0475 Y733.6492 Z10.0000 F9999
G1 X890.0475 Y1033.6484 Z10.0000 F9999
G1 X890.0475 Y1033.6484 Z1.0000 F2500
G1 X890.0485 Y1000.6470 Z-7.4682 F2500
G1 X890.0465 Y1006.6168 Z-9.0000 F2500
G1 X890.0485 Y1000.6470 Z-10.5318 F2500
G1 X890.0475 Y1033.6484 Z-19.0000 F2500
G1 X890.0485 Y1000.6470 Z-19.0000 F4000
G1 X890.0465 Y1006.6470 Z-19.0000 F4000
G1 X874.0465 Y1006.6470 Z-19.0000 F4000
G1 X880.0465 Y1006.6490 Z-19.0000 F4000
G1 X880.0465 Y1058.6467 Z-19.0000 F4000
G1 X874.0465 Y1058.6467 Z-19.0000 F4000
G1 X890.0465 Y1058.6487 Z-19.0000 F4000
G1 X890.0465 Y1064.6487 Z-19.0000 F4000
G1 X890.0475 Y1033.6484 Z-19.0000 F4000
G1 X890.0475 Y1033.6484 Z10.0000 F9999
G1 X1054.1208 Y1172.3977 Z10.0000 F9999
G1 X1054.1208 Y1172.3977 Z1.0000 F2500
G1 X1054.1208 Y1185.8967 Z-2.4638 F2500
G1 X1049.1208 Y1185.8967 Z-3.7468 F2500
G1 X1049.1208 Y1187.8986 Z-4.2605 F2500
G1 X1067.5911 Y1187.8986 Z-9.0000 F2500
G1 X1049.1208 Y1187.8986 Z-13.7395 F2500
G1 X1049.1208 Y1185.8967 Z-14.2532 F2500
G1 X1054.1208 Y1185.8967 Z-15.5362 F2500
G1 X1054.1208 Y1172.3977 Z-19.0000 F2500
G1 X1054.1208 Y1185.8967 Z-19.0000 F4000
G1 X1049.1208 Y1185.8967 Z-19.0000 F4000
G1 X1049.1208 Y1187.8986 Z-19.0000 F4000
G1 X1069.1228 Y1187.8986 Z-19.0000 F4000
G1 X1069.1228 Y1185.8967 Z-19.0000 F4000
G1 X1064.1228 Y1185.8967 Z-19.0000 F4000
G1 X1064.1228 Y1158.8987 Z-19.0000 F4000
G1 X1069.1228 Y1158.8987 Z-19.0000 F4000
G1 X1069.1228 Y1156.8967 Z-19.0000 F4000
G1 X1049.1208 Y1156.8967 Z-19.0000 F4000
G1 X1049.1208 Y1158.8987 Z-19.0000 F4000
G1 X1054.1208 Y1158.8987 Z-19.0000 F4000
G1 X1054.1208 Y1172.3977 Z-19.0000 F4000
G1 X1054.1208 Y1172.3977 Z10.0000 F9999
G1 X890.0475 Y1333.6480 Z10.0000 F9999
G1 X890.0475 Y1333.6480 Z1.0000 F2500
G1 X890.0485 Y1300.6466 Z-7.4682 F2500
G1 X890.0465 Y1306.6164 Z-9.0000 F2500
G1 X890.0485 Y1300.6466 Z-10.5318 F2500
G1 X890.0475 Y1333.6480 Z-19.0000 F2500
G1 X890.0485 Y1300.6466 Z-19.0000 F4000
G1 X890.0465 Y1306.6466 Z-19.0000 F4000
G1 X874.0465 Y1306.6466 Z-19.0000 F4000
G1 X880.0465 Y1306.6486 Z-19.0000 F4000
G1 X880.0465 Y1358.6464 Z-19.0000 F4000
G1 X874.0465 Y1358.6464 Z-19.0000 F4000
G1 X890.0465 Y1358.6484 Z-19.0000 F4000
G1 X890.0465 Y1364.6484 Z-19.0000 F4000
G1 X890.0475 Y1333.6480 Z-19.0000 F4000
G1 X890.0475 Y1333.6480 Z10.0000 F9999
G1 X648.0480 Y1331.6470 Z10.0000 F9999
G1 X648.0480 Y1331.6470 Z1.0000 F2500
G1 X648.0470 Y1364.6484 Z-7.4682 F2500
G1 X648.0490 Y1358.6786 Z-9.0000 F2500
G1 X648.0470 Y1364.6484 Z-10.5318 F2500
G1 X648.0480 Y1331.6470 Z-19.0000 F2500
G1 X648.0470 Y1364.6484 Z-19.0000 F4000
G1 X648.0490 Y1358.6484 Z-19.0000 F4000
G1 X664.0490 Y1358.6484 Z-19.0000 F4000
G1 X658.0490 Y1358.6464 Z-19.0000 F4000
G1 X658.0490 Y1306.6486 Z-19.0000 F4000
G1 X664.0490 Y1306.6486 Z-19.0000 F4000
G1 X648.0490 Y1306.6466 Z-19.0000 F4000
G1 X648.0490 Y1300.6466 Z-19.0000 F4000
G1 X648.0480 Y1331.6470 Z-19.0000 F4000
G1 X648.0480 Y1331.6470 Z10.0000 F9999
G1 X581.9735 Y1333.6480 Z10.0000 F9999
G1 X581.9735 Y1333.6480 Z1.0000 F2500
G1 X581.9745 Y1300.6466 Z-7.4682 F2500
G1 X581.9725 Y1306.6164 Z-9.0000 F2500
G1 X581.9745 Y1300.6466 Z-10.5318 F2500
G1 X581.9735 Y1333.6480 Z-19.0000 F2500
G1 X581.9745 Y1300.6466 Z-19.0000 F4000
G1 X581.9725 Y1306.6466 Z-19.0000 F4000
G1 X565.9725 Y1306.6466 Z-19.0000 F4000
G1 X571.9725 Y1306.6486 Z-19.0000 F4000
G1 X571.9725 Y1358.6464 Z-19.0000 F4000
G1 X565.9725 Y1358.6464 Z-19.0000 F4000
G1 X581.9725 Y1358.6484 Z-19.0000 F4000
G1 X581.9725 Y1364.6484 Z-19.0000 F4000
G1 X581.9735 Y1333.6480 Z-19.0000 F4000
G1 X581.9735 Y1333.6480 Z10.0000 F9999
G1 X339.9740 Y1331.6470 Z10.0000 F9999
G1 X339.9740 Y1331.6470 Z1.0000 F2500
G1 X339.9730 Y1364.6484 Z-7.4682 F2500
G1 X339.9750 Y1358.6786 Z-9.0000 F2500
G1 X339.9730 Y1364.6484 Z-10.5318 F2500
G1 X339.9740 Y1331.6470 Z-19.0000 F2500
G1 X339.9730 Y1364.6484 Z-19.0000 F4000
G1 X339.9750 Y1358.6484 Z-19.0000 F4000
G1 X355.9749 Y1358.6484 Z-19.0000 F4000
G1 X349.9749 Y1358.6464 Z-19.0000 F4000
G1 X349.9749 Y1306.6486 Z-19.0000 F4000
G1 X355.9749 Y1306.6486 Z-19.0000 F4000
G1 X339.9750 Y1306.6466 Z-19.0000 F4000
G1 X339.9750 Y1300.6466 Z-19.0000 F4000
G1 X339.9740 Y1331.6470 Z-19.0000 F4000
G1 X339.9740 Y1331.6470 Z10.0000 F9999
G1 X273.8994 Y1333.6480 Z10.0000 F9999
G1 X273.8994 Y1333.6480 Z1.0000 F2500
G1 X273.9004 Y1300.6466 Z-7.4682 F2500
G1 X273.8984 Y1306.6164 Z-9.0000 F2500
G1 X273.9004 Y1300.6466 Z-10.5318 F2500
G1 X273.8994 Y1333.6480 Z-19.0000 F2500
G1 X273.9004 Y1300.6466 Z-19.0000 F4000
G1 X273.8984 Y1306.6466 Z-19.0000 F4000
G1 X257.8985 Y1306.6466 Z-19.0000 F4000
G1 X263.8985 Y1306.6486 Z-19.0000 F4000
G1 X263.8985 Y1358.6464 Z-19.0000 F4000
G1 X257.8985 Y1358.6464 Z-19.0000 F4000
G1 X273.8984 Y1358.6484 Z-19.0000 F4000
G1 X273.8984 Y1364.6484 Z-19.0000 F4000
G1 X273.8994 Y1333.6480 Z-19.0000 F4000
G1 X273.8994 Y1333.6480 Z10.0000 F9999
G1 X31.9000 Y1331.6470 Z10.0000 F9999
G1 X31.9000 Y1331.6470 Z1.0000 F2500
G1 X31.8990 Y1364.6484 Z-7.4682 F2500
G1 X31.9009 Y1358.6786 Z-9.0000 F2500
G1 X31.8990 Y1364.6484 Z-10.5318 F2500
G1 X31.9000 Y1331.6470 Z-19.0000 F2500
G1 X31.8990 Y1364.6484 Z-19.0000 F4000
G1 X31.9010 Y1358.6484 Z-19.0000 F4000
G1 X47.9009 Y1358.6484 Z-19.0000 F4000
G1 X41.9009 Y1358.6464 Z-19.0000 F4000
G1 X41.9009 Y1306.6486 Z-19.0000 F4000
G1 X47.9009 Y1306.6486 Z-19.0000 F4000
G1 X31.9010 Y1306.6466 Z-19.0000 F4000
G1 X31.9010 Y1300.6466 Z-19.0000 F4000
G1 X31.9000 Y1331.6470 Z-19.0000 F4000
G1 X31.9000 Y1331.6470 Z10.0000 F9999
G1 X31.9000 Y1631.6461 Z10.0000 F9999
G1 X31.9000 Y1631.6461 Z1.0000 F2500
G1 X31.8990 Y1664.6475 Z-7.4682 F2500
G1 X31.9010 Y1658.6778 Z-9.0000 F2500
G1 X31.8990 Y1664.6475 Z-10.5318 F2500
G1 X31.9000 Y1631.6461 Z-19.0000 F2500
G1 X31.8990 Y1664.6475 Z-19.0000 F4000
G1 X31.9010 Y1658.6475 Z-19.0000 F4000
G1 X47.9009 Y1658.6475 Z-19.0000 F4000
G1 X41.9009 Y1658.6455 Z-19.0000 F4000
G1 X41.9009 Y1606.6478 Z-19.0000 F4000
G1 X47.9009 Y1606.6478 Z-19.0000 F4000
G1 X31.9010 Y1606.6458 Z-19.0000 F4000
G1 X31.9010 Y1600.6458 Z-19.0000 F4000
G1 X31.9000 Y1631.6461 Z-19.0000 F4000
G1 X31.9000 Y1631.6461 Z10.0000 F9999
G1 X152.8997 Y1637.6476 Z10.0000 F9999
G1 X152.8997 Y1637.6476 Z1.0000 F2500
G1 X182.8986 Y1637.6476 Z-6.6977 F2500
G1 X182.8986 Y1642.6476 Z-7.9807 F2500
G1 X184.9006 Y1642.6476 Z-8.4944 F2500
G1 X184.9006 Y1640.6774 Z-9.0000 F2500
G1 X184.9006 Y1642.6476 Z-9.5056 F2500
G1 X182.8986 Y1642.6476 Z-10.0193 F2500
G1 X182.8986 Y1637.6476 Z-11.3023 F2500
G1 X152.8997 Y1637.6476 Z-19.0000 F2500
G1 X182.8986 Y1637.6476 Z-19.0000 F4000
G1 X182.8986 Y1642.6476 Z-19.0000 F4000
G1 X184.9006 Y1642.6476 Z-19.0000 F4000
G1 X184.9006 Y1622.6456 Z-19.0000 F4000
G1 X182.8986 Y1622.6456 Z-19.0000 F4000
G1 X182.8986 Y1627.6457 Z-19.0000 F4000
G1 X122.9008 Y1627.6457 Z-19.0000 F4000
G1 X122.9008 Y1622.6456 Z-19.0000 F4000
G1 X120.8988 Y1622.6456 Z-19.0000 F4000
G1 X120.8988 Y1642.6476 Z-19.0000 F4000
G1 X122.9008 Y1642.6476 Z-19.0000 F4000
G1 X122.9008 Y1637.6476 Z-19.0000 F4000
G1 X152.8997 Y1637.6476 Z-19.0000 F4000
G1 X152.8997 Y1637.6476 Z10.0000 F9999
G1 X273.8994 Y1633.6471 Z10.0000 F9999
G1 X273.8994 Y1633.6471 Z1.0000 F2500
G1 X273.9004 Y1600.6458 Z-7.4682 F2500
G1 X273.8985 Y1606.6155 Z-9.0000 F2500
G1 X273.9004 Y1600.6458 Z-10.5318 F2500
G1 X273.8994 Y1633.6471 Z-19.0000 F2500
G1 X273.9004 Y1600.6458 Z-19.0000 F4000
G1 X273.8984 Y1606.6458 Z-19.0000 F4000
G1 X257.8985 Y1606.6458 Z-19.0000 F4000
G1 X263.8985 Y1606.6478 Z-19.0000 F4000
G1 X263.8985 Y1658.6455 Z-19.0000 F4000
G1 X257.8985 Y1658.6455 Z-19.0000 F4000
G1 X273.8984 Y1658.6475 Z-19.0000 F4000
G1 X273.8984 Y1664.6475 Z-19.0000 F4000
G1 X273.8994 Y1633.6471 Z-19.0000 F4000
G1 X273.8994 Y1633.6471 Z10.0000 F9999
G1 X339.9740 Y1631.6461 Z10.0000 F9999
G1 X339.9740 Y1631.6461 Z1.0000 F2500
G1 X339.9730 Y1664.6475 Z-7.4682 F2500
G1 X339.9750 Y1658.6778 Z-9.0000 F2500
G1 X339.9730 Y1664.6475 Z-10.5318 F2500
G1 X339.9740 Y1631.6461 Z-19.0000 F2500
G1 X339.9730 Y1664.6475 Z-19.0000 F4000
G1 X339.9750 Y1658.6475 Z-19.0000 F4000
G1 X355.9750 Y1658.6475 Z-19.0000 F4000
G1 X349.9750 Y1658.6455 Z-19.0000 F4000
G1 X349.9750 Y1606.6478 Z-19.0000 F4000
G1 X355.9750 Y1606.6478 Z-19.0000 F4000
G1 X339.9750 Y1606.6458 Z-19.0000 F4000
G1 X339.9750 Y1600.6458 Z-19.0000 F4000
G1 X339.9740 Y1631.6461 Z-19.0000 F4000
G1 X339.9740 Y1631.6461 Z10.0000 F9999
G1 X460.9737 Y1637.6476 Z10.0000 F9999
G1 X460.9737 Y1637.6476 Z1.0000 F2500
G1 X490.9727 Y1637.6476 Z-6.6977 F2500
G1 X490.9727 Y1642.6476 Z-7.9807 F2500
G1 X492.9746 Y1642.6476 Z-8.4944 F2500
G1 X492.9746 Y1640.6774 Z-9.0000 F2500
G1 X492.9746 Y1642.6476 Z-9.5056 F2500
G1 X490.9727 Y1642.6476 Z-10.0193 F2500
G1 X490.9727 Y1637.6476 Z-11.3023 F2500
G1 X460.9737 Y1637.6476 Z-19.0000 F2500
G1 X490.9727 Y1637.6476 Z-19.0000 F4000
G1 X490.9727 Y1642.6476 Z-19.0000 F4000
G1 X492.9746 Y1642.6476 Z-19.0000 F4000
G1 X492.9746 Y1622.6456 Z-19.0000 F4000
G1 X490.9727 Y1622.6456 Z-19.0000 F4000
G1 X490.9727 Y1627.6457 Z-19.0000 F4000
G1 X430.9748 Y1627.6457 Z-19.0000 F4000
G1 X430.9748 Y1622.6456 Z-19.0000 F4000
G1 X428.9728 Y1622.6456 Z-19.0000 F4000
G1 X428.9728 Y1642.6476 Z-19.0000 F4000
G1 X430.9748 Y1642.6476 Z-19.0000 F4000
G1 X430.9748 Y1637.6476 Z-19.0000 F4000
G1 X460.9737 Y1637.6476 Z-19.0000 F4000
G1 X460.9737 Y1637.6476 Z10.0000 F9999
G1 X581.9735 Y1633.6471 Z10.0000 F9999
G1 X581.9735 Y1633.6471 Z1.0000 F2500
G1 X581.9745 Y1600.6458 Z-7.4682 F2500
G1 X581.9725 Y1606.6155 Z-9.0000 F2500
G1 X581.9745 Y1600.6458 Z-10.5318 F2500
G1 X581.9735 Y1633.6471 Z-19.0000 F2500
G1 X581.9745 Y1600.6458 Z-19.0000 F4000
G1 X581.9725 Y1606.6458 Z-19.0000 F4000
G1 X565.9725 Y1606.6458 Z-19.0000 F4000
G1 X571.9725 Y1606.6478 Z-19.0000 F4000
G1 X571.9725 Y1658.6455 Z-19.0000 F4000
G1 X565.9725 Y1658.6455 Z-19.0000 F4000
G1 X581.9725 Y1658.6475 Z-19.0000 F4000
G1 X581.9725 Y1664.6475 Z-19.0000 F4000
G1 X581.9735 Y1633.6471 Z-19.0000 F4000
G1 X581.9735 Y1633.6471 Z10.0000 F9999
G1 X648.0480 Y1631.6461 Z10.0000 F9999
G1 X648.0480 Y1631.6461 Z1.0000 F2500
G1 X648.0470 Y1664.6475 Z-7.4682 F2500
G1 X648.0490 Y1658.6778 Z-9.0000 F2500
G1 X648.0470 Y1664.6475 Z-10.5318 F2500
G1 X648.0480 Y1631.6461 Z-19.0000 F2500
G1 X648.0470 Y1664.6475 Z-19.0000 F4000
G1 X648.0490 Y1658.6475 Z-19.0000 F4000
G1 X664.0490 Y1658.6475 Z-19.0000 F4000
G1 X658.0490 Y1658.6455 Z-19.0000 F4000
G1 X658.0490 Y1606.6478 Z-19.0000 F4000
G1 X664.0490 Y1606.6478 Z-19.0000 F4000
G1 X648.0490 Y1606.6458 Z-19.0000 F4000
G1 X648.0490 Y1600.6458 Z-19.0000 F4000
G1 X648.0480 Y1631.6461 Z-19.0000 F4000
G1 X648.0480 Y1631.6461 Z10.0000 F9999
G1 X769.0477 Y1637.6476 Z10.0000 F9999
G1 X769.0477 Y1637.6476 Z1.0000 F2500
G1 X799.0467 Y1637.6476 Z-6.6977 F2500
G1 X799.0467 Y1642.6476 Z-7.9807 F2500
G1 X801.0487 Y1642.6476 Z-8.4944 F2500
G1 X801.0487 Y1640.6774 Z-9.0000 F2500
G1 X801.0487 Y1642.6476 Z-9.5056 F2500
G1 X799.0467 Y1642.6476 Z-10.0193 F2500
G1 X799.0467 Y1637.6476 Z-11.3023 F2500
G1 X769.0477 Y1637.6476 Z-19.0000 F2500
G1 X799.0467 Y1637.6476 Z-19.0000 F4000
G1 X799.0467 Y1642.6476 Z-19.0000 F4000
G1 X801.0487 Y1642.6476 Z-19.0000 F4000
G1 X801.0487 Y1622.6456 Z-19.0000 F4000
G1 X799.0467 Y1622.6456 Z-19.0000 F4000
G1 X799.0467 Y1627.6457 Z-19.0000 F4000
G1 X739.0488 Y1627.6457 Z-19.0000 F4000
G1 X739.0488 Y1622.6456 Z-19.0000 F4000
G1 X737.0468 Y1622.6456 Z-19.0000 F4000
G1 X737.0468 Y1642.6476 Z-19.0000 F4000
G1 X739.0488 Y1642.6476 Z-19.0000 F4000
G1 X739.0488 Y1637.6476 Z-19.0000 F4000
G1 X769.0477 Y1637.6476 Z-19.0000 F4000
G1 X769.0477 Y1637.6476 Z10.0000 F9999
G1 X890.0475 Y1633.6471 Z10.0000 F9999
G1 X890.0475 Y1633.6471 Z1.0000 F2500
G1 X890.0485 Y1600.6458 Z-7.4682 F2500
G1 X890.0465 Y1606.6155 Z-9.0000 F2500
G1 X890.0485 Y1600.6458 Z-10.5318 F2500
G1 X890.0475 Y1633.6471 Z-19.0000 F2500
G1 X890.0485 Y1600.6458 Z-19.0000 F4000
G1 X890.0465 Y1606.6458 Z-19.0000 F4000
G1 X874.0465 Y1606.6458 Z-19.0000 F4000
G1 X880.0465 Y1606.6478 Z-19.0000 F4000
G1 X880.0465 Y1658.6455 Z-19.0000 F4000
G1 X874.0465 Y1658.6455 Z-19.0000 F4000
G1 X890.0465 Y1658.6475 Z-19.0000 F4000
G1 X890.0465 Y1664.6475 Z-19.0000 F4000
G1 X890.0475 Y1633.6471 Z-19.0000 F4000
G1 X890.0475 Y1633.6471 Z10.0000 F9999
G1 X890.0475 Y1933.6467 Z10.0000 F9999
G1 X890.0475 Y1933.6467 Z1.0000 F2500
G1 X890.0485 Y1900.6453 Z-7.4682 F2500
G1 X890.0465 Y1906.6150 Z-9.0000 F2500
G1 X890.0485 Y1900.6453 Z-10.5318 F2500
G1 X890.0475 Y1933.6467 Z-19.0000 F2500
G1 X890.0485 Y1900.6453 Z-19.0000 F4000
G1 X890.0465 Y1906.6453 Z-19.0000 F4000
G1 X874.0465 Y1906.6453 Z-19.0000 F4000
G1 X880.0465 Y1906.6473 Z-19.0000 F4000
G1 X880.0465 Y1958.6450 Z-19.0000 F4000
G1 X874.0465 Y1958.6450 Z-19.0000 F4000
G1 X890.0465 Y1958.6470 Z-19.0000 F4000
G1 X890.0465 Y1964.6470 Z-19.0000 F4000
G1 X890.0475 Y1933.6467 Z-19.0000 F4000
G1 X890.0475 Y1933.6467 Z10.0000 F9999
G1 X769.0477 Y1927.6518 Z10.0000 F9999
G1 X769.0477 Y1927.6518 Z1.0000 F2500
G1 X753.0487 Y1927.6429 Z-3.1053 F2500
G1 X753.0487 Y1921.6675 Z-4.6386 F2500
G1 X753.0472 Y1938.6641 Z-9.0000 F2500
G1 X753.0487 Y1921.6675 Z-13.3614 F2500
G1 X753.0487 Y1927.6429 Z-14.8947 F2500
G1 X769.0477 Y1927.6518 Z-19.0000 F2500
G1 X753.0487 Y1927.6429 Z-19.0000 F4000
G1 X753.0487 Y1921.6675 Z-19.0000 F4000
G1 X753.0467 Y1943.6472 Z-19.0000 F4000
G1 X753.0487 Y1937.6472 Z-19.0000 F4000
G1 X785.0467 Y1937.6472 Z-19.0000 F4000
G1 X785.0467 Y1943.6472 Z-19.0000 F4000
G1 X785.0487 Y1921.6675 Z-19.0000 F4000
G1 X785.0467 Y1921.6675 Z-19.0000 F4000
G1 X785.0467 Y1927.6608 Z-19.0000 F4000
G1 X769.0477 Y1927.6518 Z-19.0000 F4000
G1 X769.0477 Y1927.6518 Z10.0000 F9999
G1 X648.0480 Y1931.6457 Z10.0000 F9999
G1 X648.0480 Y1931.6457 Z1.0000 F2500
G1 X648.0470 Y1964.6470 Z-7.4682 F2500
G1 X648.0490 Y1958.6773 Z-9.0000 F2500
G1 X648.0470 Y1964.6470 Z-10.5318 F2500
G1 X648.0480 Y1931.6457 Z-19.0000 F2500
G1 X648.0470 Y1964.6470 Z-19.0000 F4000
G1 X648.0490 Y1958.6470 Z-19.0000 F4000
G1 X664.0490 Y1958.6470 Z-19.0000 F4000
G1 X658.0490 Y1958.6450 Z-19.0000 F4000
G1 X658.0490 Y1906.6473 Z-19.0000 F4000
G1 X664.0490 Y1906.6473 Z-19.0000 F4000
G1 X648.0490 Y1906.6453 Z-19.0000 F4000
G1 X648.0490 Y1900.6453 Z-19.0000 F4000
G1 X648.0480 Y1931.6457 Z-19.0000 F4000
G1 X648.0480 Y1931.6457 Z10.0000 F9999
G1 X581.9735 Y1933.6467 Z10.0000 F9999
G1 X581.9735 Y1933.6467 Z1.0000 F2500
G1 X581.9745 Y1900.6453 Z-7.4682 F2500
G1 X581.9725 Y1906.6150 Z-9.0000 F2500
G1 X581.9745 Y1900.6453 Z-10.5318 F2500
G1 X581.9735 Y1933.6467 Z-19.0000 F2500
G1 X581.9745 Y1900.6453 Z-19.0000 F4000
G1 X581.9725 Y1906.6453 Z-19.0000 F4000
G1 X565.9725 Y1906.6453 Z-19.0000 F4000
G1 X571.9725 Y1906.6473 Z-19.0000 F4000
G1 X571.9725 Y1958.6450 Z-19.0000 F4000
G1 X565.9725 Y1958.6450 Z-19.0000 F4000
G1 X581.9725 Y1958.6470 Z-19.0000 F4000
G1 X581.9725 Y1964.6470 Z-19.0000 F4000
G1 X581.9735 Y1933.6467 Z-19.0000 F4000
G1 X581.9735 Y1933.6467 Z10.0000 F9999
G1 X460.9737 Y1927.6518 Z10.0000 F9999
G1 X460.9737 Y1927.6518 Z1.0000 F2500
G1 X444.9747 Y1927.6429 Z-3.1053 F2500
G1 X444.9747 Y1921.6675 Z-4.6386 F2500
G1 X444.9732 Y1938.6641 Z-9.0000 F2500
G1 X444.9747 Y1921.6675 Z-13.3614 F2500
G1 X444.9747 Y1927.6429 Z-14.8947 F2500
G1 X460.9737 Y1927.6518 Z-19.0000 F2500
G1 X444.9747 Y1927.6429 Z-19.0000 F4000
G1 X444.9747 Y1921.6675 Z-19.0000 F4000
G1 X444.9727 Y1943.6472 Z-19.0000 F4000
G1 X444.9747 Y1937.6472 Z-19.0000 F4000
G1 X476.9727 Y1937.6472 Z-19.0000 F4000
G1 X476.9727 Y1943.6472 Z-19.0000 F4000
G1 X476.9747 Y1921.6675 Z-19.0000 F4000
G1 X476.9727 Y1921.6675 Z-19.0000 F4000
G1 X476.9727 Y1927.6608 Z-19.0000 F4000
G1 X460.9737 Y1927.6518 Z-19.0000 F4000
G1 X460.9737 Y1927.6518 Z10.0000 F9999
G1 X339.9740 Y1931.6457 Z10.0000 F9999
G1 X339.9740 Y1931.6457 Z1.0000 F2500
G1 X339.9730 Y1964.6470 Z-7.4682 F2500
G1 X339.9750 Y1958.6773 Z-9.0000 F2500
G1 X339.9730 Y1964.6470 Z-10.5318 F2500
G1 X339.9740 Y1931.6457 Z-19.0000 F2500
G1 X339.9730 Y1964.6470 Z-19.0000 F4000
G1 X339.9750 Y1958.6470 Z-19.0000 F4000
G1 X355.9750 Y1958.6470 Z-19.0000 F4000
G1 X349.9750 Y1958.6450 Z-19.0000 F4000
G1 X349.9750 Y1906.6473 Z-19.0000 F4000
G1 X355.9750 Y1906.6473 Z-19.0000 F4000
G1 X339.9750 Y1906.6453 Z-19.0000 F4000
G1 X339.9750 Y1900.6453 Z-19.0000 F4000
G1 X339.9740 Y1931.6457 Z-19.0000 F4000
G1 X339.9740 Y1931.6457 Z10.0000 F9999
G1 X273.8994 Y1933.6467 Z10.0000 F9999
G1 X273.8994 Y1933.6467 Z1.0000 F2500
G1 X273.9004 Y1900.6453 Z-7.4682 F2500
G1 X273.8985 Y1906.6150 Z-9.0000 F2500
G1 X273.9004 Y1900.6453 Z-10.5318 F2500
G1 X273.8994 Y1933.6467 Z-19.0000 F2500
G1 X273.9004 Y1900.6453 Z-19.0000 F4000
G1 X273.8984 Y1906.6453 Z-19.0000 F4000
G1 X257.8985 Y1906.6453 Z-19.0000 F4000
G1 X263.8985 Y1906.6473 Z-19.0000 F4000
G1 X263.8985 Y1958.6450 Z-19.0000 F4000
G1 X257.8985 Y1958.6450 Z-19.0000 F4000
G1 X273.8984 Y1958.6470 Z-19.0000 F4000
G1 X273.8984 Y1964.6470 Z-19.0000 F4000
G1 X273.8994 Y1933.6467 Z-19.0000 F4000
G1 X273.8994 Y1933.6467 Z10.0000 F9999
G1 X152.8997 Y1927.6518 Z10.0000 F9999
G1 X152.8997 Y1927.6518 Z1.0000 F2500
G1 X136.9007 Y1927.6429 Z-3.1053 F2500
G1 X136.9007 Y1921.6675 Z-4.6386 F2500
G1 X136.8992 Y1938.6641 Z-9.0000 F2500
G1 X136.9007 Y1921.6675 Z-13.3614 F2500
G1 X136.9007 Y1927.6429 Z-14.8947 F2500
G1 X152.8997 Y1927.6518 Z-19.0000 F2500
G1 X136.9007 Y1927.6429 Z-19.0000 F4000
G1 X136.9007 Y1921.6675 Z-19.0000 F4000
G1 X136.8987 Y1943.6472 Z-19.0000 F4000
G1 X136.9007 Y1937.6472 Z-19.0000 F4000
G1 X168.8987 Y1937.6472 Z-19.0000 F4000
G1 X168.8987 Y1943.6472 Z-19.0000 F4000
G1 X168.9007 Y1921.6675 Z-19.0000 F4000
G1 X168.8987 Y1921.6675 Z-19.0000 F4000
G1 X168.8987 Y1927.6608 Z-19.0000 F4000
G1 X152.8997 Y1927.6518 Z-19.0000 F4000
G1 X152.8997 Y1927.6518 Z10.0000 F9999
G1 X31.9000 Y1931.6457 Z10.0000 F9999
G1 X31.9000 Y1931.6457 Z1.0000 F2500
G1 X31.8990 Y1964.6470 Z-7.4682 F2500
G1 X31.9010 Y1958.6773 Z-9.0000 F2500
G1 X31.8990 Y1964.6470 Z-10.5318 F2500
G1 X31.9000 Y1931.6457 Z-19.0000 F2500
G1 X31.8990 Y1964.6470 Z-19.0000 F4000
G1 X31.9010 Y1958.6470 Z-19.0000 F4000
G1 X47.9009 Y1958.6470 Z-19.0000 F4000
G1 X41.9009 Y1958.6450 Z-19.0000 F4000
G1 X41.9009 Y1906.6473 Z-19.0000 F4000
G1 X47.9009 Y1906.6473 Z-19.0000 F4000
G1 X31.9010 Y1906.6453 Z-19.0000 F4000
G1 X31.9010 Y1900.6453 Z-19.0000 F4000
G1 X31.9000 Y1931.6457 Z-19.0000 F4000
G1 X31.9000 Y1931.6457 Z10.0000 F9999
G1 X31.9000 Y2231.6448 Z10.0000 F9999
G1 X31.9000 Y2231.6448 Z1.0000 F2500
G1 X31.8990 Y2264.6462 Z-7.4682 F2500
G1 X31.9010 Y2258.6764 Z-9.0000 F2500
G1 X31.8990 Y2264.6462 Z-10.5318 F2500
G1 X31.9000 Y2231.6448 Z-19.0000 F2500
G1 X31.8990 Y2264.6462 Z-19.0000 F4000
G1 X31.9010 Y2258.6462 Z-19.0000 F4000
G1 X47.9009 Y2258.6462 Z-19.0000 F4000
G1 X41.9009 Y2258.6442 Z-19.0000 F4000
G1 X41.9009 Y2206.6464 Z-19.0000 F4000
G1 X47.9009 Y2206.6464 Z-19.0000 F4000
G1 X31.9010 Y2206.6444 Z-19.0000 F4000
G1 X31.9010 Y2200.6444 Z-19.0000 F4000
G1 X31.9000 Y2231.6448 Z-19.0000 F4000
G1 X31.9000 Y2231.6448 Z10.0000 F9999
G1 X152.8997 Y2237.6462 Z10.0000 F9999
G1 X152.8997 Y2237.6462 Z1.0000 F2500
G1 X182.8987 Y2237.6462 Z-6.6977 F2500
G1 X182.8987 Y2242.6462 Z-7.9807 F2500
G1 X184.9006 Y2242.6462 Z-8.4944 F2500
G1 X184.9006 Y2240.6760 Z-9.0000 F2500
G1 X184.9006 Y2242.6462 Z-9.5056 F2500
G1 X182.8987 Y2242.6462 Z-10.0193 F2500
G1 X182.8987 Y2237.6462 Z-11.3023 F2500
G1 X152.8997 Y2237.6462 Z-19.0000 F2500
G1 X182.8987 Y2237.6462 Z-19.0000 F4000
G1 X182.8987 Y2242.6462 Z-19.0000 F4000
G1 X184.9006 Y2242.6462 Z-19.0000 F4000
G1 X184.9006 Y2222.6444 Z-19.0000 F4000
G1 X182.8987 Y2222.6444 Z-19.0000 F4000
G1 X182.8987 Y2227.6442 Z-19.0000 F4000
G1 X122.9008 Y2227.6442 Z-19.0000 F4000
G1 X122.9008 Y2222.6444 Z-19.0000 F4000
G1 X120.8988 Y2222.6444 Z-19.0000 F4000
G1 X120.8988 Y2242.6462 Z-19.0000 F4000
G1 X122.9008 Y2242.6462 Z-19.0000 F4000
G1 X122.9008 Y2237.6462 Z-19.0000 F4000
G1 X152.8997 Y2237.6462 Z-19.0000 F4000
G1 X152.8997 Y2237.6462 Z10.0000 F9999
G1 X273.8995 Y2233.6458 Z10.0000 F9999
G1 X273.8995 Y2233.6458 Z1.0000 F2500
G1 X273.9005 Y2200.6444 Z-7.4682 F2500
G1 X273.8985 Y2206.6142 Z-9.0000 F2500
G1 X273.9005 Y2200.6444 Z-10.5318 F2500
G1 X273.8995 Y2233.6458 Z-19.0000 F2500
G1 X273.9005 Y2200.6444 Z-19.0000 F4000
G1 X273.8985 Y2206.6444 Z-19.0000 F4000
G1 X257.8985 Y2206.6444 Z-19.0000 F4000
G1 X263.8985 Y2206.6464 Z-19.0000 F4000
G1 X263.8985 Y2258.6442 Z-19.0000 F4000
G1 X257.8985 Y2258.6442 Z-19.0000 F4000
G1 X273.8985 Y2258.6462 Z-19.0000 F4000
G1 X273.8985 Y2264.6462 Z-19.0000 F4000
G1 X273.8995 Y2233.6458 Z-19.0000 F4000
G1 X273.8995 Y2233.6458 Z10.0000 F9999
G1 X339.9740 Y2231.6448 Z10.0000 F9999
G1 X339.9740 Y2231.6448 Z1.0000 F2500
G1 X339.9730 Y2264.6462 Z-7.4682 F2500
G1 X339.9750 Y2258.6764 Z-9.0000 F2500
G1 X339.9730 Y2264.6462 Z-10.5318 F2500
G1 X339.9740 Y2231.6448 Z-19.0000 F2500
G1 X339.9730 Y2264.6462 Z-19.0000 F4000
G1 X339.9750 Y2258.6462 Z-19.0000 F4000
G1 X355.9750 Y2258.6462 Z-19.0000 F4000
G1 X349.9750 Y2258.6442 Z-19.0000 F4000
G1 X349.9750 Y2206.6464 Z-19.0000 F4000
G1 X355.9750 Y2206.6464 Z-19.0000 F4000
G1 X339.9750 Y2206.6444 Z-19.0000 F4000
G1 X339.9750 Y2200.6444 Z-19.0000 F4000
G1 X339.9740 Y2231.6448 Z-19.0000 F4000
G1 X339.9740 Y2231.6448 Z10.0000 F9999
G1 X460.9737 Y2237.6462 Z10.0000 F9999
G1 X460.9737 Y2237.6462 Z1.0000 F2500
G1 X490.9727 Y2237.6462 Z-6.6977 F2500
G1 X490.9727 Y2242.6462 Z-7.9807 F2500
G1 X492.9747 Y2242.6462 Z-8.4944 F2500
G1 X492.9747 Y2240.6760 Z-9.0000 F2500
G1 X492.9747 Y2242.6462 Z-9.5056 F2500
G1 X490.9727 Y2242.6462 Z-10.0193 F2500
G1 X490.9727 Y2237.6462 Z-11.3023 F2500
G1 X460.9737 Y2237.6462 Z-19.0000 F2500
G1 X490.9727 Y2237.6462 Z-19.0000 F4000
G1 X490.9727 Y2242.6462 Z-19.0000 F4000
G1 X492.9747 Y2242.6462 Z-19.0000 F4000
G1 X492.9747 Y2222.6444 Z-19.0000 F4000
G1 X490.9727 Y2222.6444 Z-19.0000 F4000
G1 X490.9727 Y2227.6442 Z-19.0000 F4000
G1 X430.9748 Y2227.6442 Z-19.0000 F4000
G1 X430.9748 Y2222.6444 Z-19.0000 F4000
G1 X428.9728 Y2222.6444 Z-19.0000 F4000
G1 X428.9728 Y2242.6462 Z-19.0000 F4000
G1 X430.9748 Y2242.6462 Z-19.0000 F4000
G1 X430.9748 Y2237.6462 Z-19.0000 F4000
G1 X460.9737 Y2237.6462 Z-19.0000 F4000
G1 X460.9737 Y2237.6462 Z10.0000 F9999
G1 X581.9735 Y2233.6458 Z10.0000 F9999
G1 X581.9735 Y2233.6458 Z1.0000 F2500
G1 X581.9745 Y2200.6444 Z-7.4682 F2500
G1 X581.9725 Y2206.6142 Z-9.0000 F2500
G1 X581.9745 Y2200.6444 Z-10.5318 F2500
G1 X581.9735 Y2233.6458 Z-19.0000 F2500
G1 X581.9745 Y2200.6444 Z-19.0000 F4000
G1 X581.9725 Y2206.6444 Z-19.0000 F4000
G1 X565.9725 Y2206.6444 Z-19.0000 F4000
G1 X571.9725 Y2206.6464 Z-19.0000 F4000
G1 X571.9725 Y2258.6442 Z-19.0000 F4000
G1 X565.9725 Y2258.6442 Z-19.0000 F4000
G1 X581.9725 Y2258.6462 Z-19.0000 F4000
G1 X581.9725 Y2264.6462 Z-19.0000 F4000
G1 X581.9735 Y2233.6458 Z-19.0000 F4000
G1 X581.9735 Y2233.6458 Z10.0000 F9999
G1 X648.0480 Y2231.6448 Z10.0000 F9999
G1 X648.0480 Y2231.6448 Z1.0000 F2500
G1 X648.0470 Y2264.6462 Z-7.4682 F2500
G1 X648.0490 Y2258.6764 Z-9.0000 F2500
G1 X648.0470 Y2264.6462 Z-10.5318 F2500
G1 X648.0480 Y2231.6448 Z-19.0000 F2500
G1 X648.0470 Y2264.6462 Z-19.0000 F4000
G1 X648.0490 Y2258.6462 Z-19.0000 F4000
G1 X664.0490 Y2258.6462 Z-19.0000 F4000
G1 X658.0490 Y2258.6442 Z-19.0000 F4000
G1 X658.0490 Y2206.6464 Z-19.0000 F4000
G1 X664.0490 Y2206.6464 Z-19.0000 F4000
G1 X648.0490 Y2206.6444 Z-19.0000 F4000
G1 X648.0490 Y2200.6444 Z-19.0000 F4000
G1 X648.0480 Y2231.6448 Z-19.0000 F4000
G1 X648.0480 Y2231.6448 Z10.0000 F9999
G1 X769.0477 Y2237.6462 Z10.0000 F9999
G1 X769.0477 Y2237.6462 Z1.0000 F2500
G1 X799.0467 Y2237.6462 Z-6.6977 F2500
G1 X799.0467 Y2242.6462 Z-7.9807 F2500
G1 X801.0487 Y2242.6462 Z-8.4944 F2500
G1 X801.0487 Y2240.6760 Z-9.0000 F2500
G1 X801.0487 Y2242.6462 Z-9.5056 F2500
G1 X799.0467 Y2242.6462 Z-10.0193 F2500
G1 X799.0467 Y2237.6462 Z-11.3023 F2500
G1 X769.0477 Y2237.6462 Z-19.0000 F2500
G1 X799.0467 Y2237.6462 Z-19.0000 F4000
G1 X799.0467 Y2242.6462 Z-19.0000 F4000
G1 X801.0487 Y2242.6462 Z-19.0000 F4000
G1 X801.0487 Y2222.6444 Z-19.0000 F4000
G1 X799.0467 Y2222.6444 Z-19.0000 F4000
G1 X799.0467 Y2227.6442 Z-19.0000 F4000
G1 X739.0488 Y2227.6442 Z-19.0000 F4000
G1 X739.0488 Y2222.6444 Z-19.0000 F4000
G1 X737.0468 Y2222.6444 Z-19.0000 F4000
G1 X737.0468 Y2242.6462 Z-19.0000 F4000
G1 X739.0488 Y2242.6462 Z-19.0000 F4000
G1 X739.0488 Y2237.6462 Z-19.0000 F4000
G1 X769.0477 Y2237.6462 Z-19.0000 F4000
G1 X769.0477 Y2237.6462 Z10.0000 F9999
G1 X890.0475 Y2233.6458 Z10.0000 F9999
G1 X890.0475 Y2233.6458 Z1.0000 F2500
G1 X890.0485 Y2200.6444 Z-7.4682 F2500
G1 X890.0465 Y2206.6142 Z-9.0000 F2500
G1 X890.0485 Y2200.6444 Z-10.5318 F2500
G1 X890.0475 Y2233.6458 Z-19.0000 F2500
G1 X890.0485 Y2200.6444 Z-19.0000 F4000
G1 X890.0465 Y2206.6444 Z-19.0000 F4000
G1 X874.0465 Y2206.6444 Z-19.0000 F4000
G1 X880.0465 Y2206.6464 Z-19.0000 F4000
G1 X880.0465 Y2258.6442 Z-19.0000 F4000
G1 X874.0465 Y2258.6442 Z-19.0000 F4000
G1 X890.0465 Y2258.6462 Z-19.0000 F4000
G1 X890.0465 Y2264.6462 Z-19.0000 F4000
G1 X890.0475 Y2233.6458 Z-19.0000 F4000
G1 X890.0475 Y2233.6458 Z10.0000 F9999
G1 X648.0480 Y1031.6474 Z10.0000 F9999
G1 X648.0480 Y1031.6474 Z1.0000 F2500
G1 X648.0470 Y1064.6487 Z-7.4682 F2500
G1 X648.0490 Y1058.6790 Z-9.0000 F2500
G1 X648.0470 Y1064.6487 Z-10.5318 F2500
G1 X648.0480 Y1031.6474 Z-19.0000 F2500
G1 X648.0470 Y1064.6487 Z-19.0000 F4000
G1 X648.0490 Y1058.6487 Z-19.0000 F4000
G1 X664.0490 Y1058.6487 Z-19.0000 F4000
G1 X658.0490 Y1058.6467 Z-19.0000 F4000
G1 X658.0490 Y1006.6490 Z-19.0000 F4000
G1 X664.0490 Y1006.6490 Z-19.0000 F4000
G1 X648.0490 Y1006.6470 Z-19.0000 F4000
G1 X648.0490 Y1000.6470 Z-19.0000 F4000
G1 X648.0480 Y1031.6474 Z-19.0000 F4000
G1 X648.0480 Y1031.6474 Z10.0000 F9999
G1 X581.9735 Y1033.6484 Z10.0000 F9999
G1 X581.9735 Y1033.6484 Z1.0000 F2500
G1 X581.9745 Y1000.6470 Z-7.4682 F2500
G1 X581.9725 Y1006.6168 Z-9.0000 F2500
G1 X581.9745 Y1000.6470 Z-10.5318 F2500
G1 X581.9735 Y1033.6484 Z-19.0000 F2500
G1 X581.9745 Y1000.6470 Z-19.0000 F4000
G1 X581.9725 Y1006.6470 Z-19.0000 F4000
G1 X565.9725 Y1006.6470 Z-19.0000 F4000
G1 X571.9725 Y1006.6490 Z-19.0000 F4000
G1 X571.9725 Y1058.6467 Z-19.0000 F4000
G1 X565.9725 Y1058.6467 Z-19.0000 F4000
G1 X581.9725 Y1058.6487 Z-19.0000 F4000
G1 X581.9725 Y1064.6487 Z-19.0000 F4000
G1 X581.9735 Y1033.6484 Z-19.0000 F4000
G1 X581.9735 Y1033.6484 Z10.0000 F9999
G1 X339.9740 Y1031.6474 Z10.0000 F9999
G1 X339.9740 Y1031.6474 Z1.0000 F2500
G1 X339.9730 Y1064.6487 Z-7.4682 F2500
G1 X339.9750 Y1058.6790 Z-9.0000 F2500
G1 X339.9730 Y1064.6487 Z-10.5318 F2500
G1 X339.9740 Y1031.6474 Z-19.0000 F2500
G1 X339.9730 Y1064.6487 Z-19.0000 F4000
G1 X339.9750 Y1058.6487 Z-19.0000 F4000
G1 X355.9750 Y1058.6487 Z-19.0000 F4000
G1 X349.9750 Y1058.6467 Z-19.0000 F4000
G1 X349.9750 Y1006.6490 Z-19.0000 F4000
G1 X355.9750 Y1006.6490 Z-19.0000 F4000
G1 X339.9750 Y1006.6470 Z-19.0000 F4000
G1 X339.9750 Y1000.6470 Z-19.0000 F4000
G1 X339.9740 Y1031.6474 Z-19.0000 F4000
G1 X339.9740 Y1031.6474 Z10.0000 F9999
G1 X273.8994 Y1033.6484 Z10.0000 F9999
G1 X273.8994 Y1033.6484 Z1.0000 F2500
G1 X273.9004 Y1000.6470 Z-7.4682 F2500
G1 X273.8985 Y1006.6168 Z-9.0000 F2500
G1 X273.9004 Y1000.6470 Z-10.5318 F2500
G1 X273.8994 Y1033.6484 Z-19.0000 F2500
G1 X273.9004 Y1000.6470 Z-19.0000 F4000
G1 X273.8984 Y1006.6470 Z-19.0000 F4000
G1 X257.8985 Y1006.6470 Z-19.0000 F4000
G1 X263.8985 Y1006.6490 Z-19.0000 F4000
G1 X263.8985 Y1058.6467 Z-19.0000 F4000
G1 X257.8985 Y1058.6467 Z-19.0000 F4000
G1 X273.8984 Y1058.6487 Z-19.0000 F4000
G1 X273.8984 Y1064.6487 Z-19.0000 F4000
G1 X273.8994 Y1033.6484 Z-19.0000 F4000
G1 X273.8994 Y1033.6484 Z10.0000 F9999
G1 X31.9000 Y1031.6474 Z10.0000 F9999
G1 X31.9000 Y1031.6474 Z1.0000 F2500
G1 X31.8990 Y1064.6487 Z-7.4682 F2500
G1 X31.9010 Y1058.6790 Z-9.0000 F2500
G1 X31.8990 Y1064.6487 Z-10.5318 F2500
G1 X31.9000 Y1031.6474 Z-19.0000 F2500
G1 X31.8990 Y1064.6487 Z-19.0000 F4000
G1 X31.9010 Y1058.6487 Z-19.0000 F4000
G1 X47.9009 Y1058.6487 Z-19.0000 F4000
G1 X41.9009 Y1058.6467 Z-19.0000 F4000
G1 X41.9009 Y1006.6490 Z-19.0000 F4000
G1 X47.9009 Y1006.6490 Z-19.0000 F4000
G1 X31.9010 Y1006.6470 Z-19.0000 F4000
G1 X31.9010 Y1000.6470 Z-19.0000 F4000
G1 X31.9000 Y1031.6474 Z-19.0000 F4000
G1 X31.9000 Y1031.6474 Z10.0000 F9999
(Tool Number:1) (7.998 mm dia. slot drill)
M3 S9000
G1 X930.1230 Y614.5297 Z10.0000 F9999
G1 X930.1230 Y614.5297 Z1.0000 F2500
G1 X930.1230 Y575.5586 Z-9.0000 F2500
G1 X930.1230 Y614.5297 Z-19.0000 F2500
G1 X930.1230 Y126.2027 Z-19.0000 F4000
G1 X930.1230 Y126.2027 Z-9.0000 F9999
G1 X930.1230 Y110.2047 Z-9.0000 F4000
G1 X930.1230 Y110.2047 Z-19.0000 F2500
G1 X930.1230 Y80.9009 Z-19.0000 F4000
G1 X1017.1209 Y80.9009 Z-19.0000 F4000
G1 X1017.1209 Y85.9008 Z-19.0000 F4000
G1 X1019.1229 Y85.9008 Z-19.0000 F4000
G1 X1019.1229 Y5.9010 Z-19.0000 F4000
G1 X1099.1207 Y5.9010 Z-19.0000 F4000
G1 X1099.1207 Y85.9008 Z-19.0000 F4000
G1 X1101.1227 Y85.9008 Z-19.0000 F4000
G1 X1101.1227 Y80.9009 Z-19.0000 F4000
G1 X1206.1204 Y80.9009 Z-19.0000 F4000
G1 X1206.1204 Y118.8988 Z-19.0000 F4000
G1 X1183.1204 Y118.8988 Z-19.0000 F4000
G1 X1183.1204 Y120.9008 Z-19.0000 F4000
G1 X1188.1204 Y120.9008 Z-19.0000 F4000
G1 X1188.1204 Y563.8979 Z-19.0000 F4000
G1 X1183.1204 Y563.8979 Z-19.0000 F4000
G1 X1183.1204 Y565.8998 Z-19.0000 F4000
G1 X1206.1204 Y565.8998 Z-19.0000 F4000
G1 X1206.1204 Y653.8977 Z-19.0000 F4000
G1 X1183.1204 Y653.8977 Z-19.0000 F4000
G1 X1183.1204 Y655.8997 Z-19.0000 F4000
G1 X1188.1204 Y655.8997 Z-19.0000 F4000
G1 X1188.1204 Y1098.8968 Z-19.0000 F4000
G1 X1183.1204 Y1098.8968 Z-19.0000 F4000
G1 X1183.1204 Y1100.8988 Z-19.0000 F4000
G1 X1206.1204 Y1100.8988 Z-19.0000 F4000
G1 X1206.1204 Y1138.8967 Z-19.0000 F4000
G1 X1101.1227 Y1138.8967 Z-19.0000 F4000
G1 X1101.1227 Y1133.8967 Z-19.0000 F4000
G1 X1099.1207 Y1133.8967 Z-19.0000 F4000
G1 X1099.1207 Y1213.8967 Z-19.0000 F4000
G1 X1066.6553 Y1213.8967 Z-19.0000 F4000
G1 X1066.6553 Y1213.8967 Z-9.0000 F9999
G1 X1050.6573 Y1213.8967 Z-9.0000 F4000
G1 X1050.6573 Y1213.8967 Z-19.0000 F2500
G1 X1019.1229 Y1213.8967 Z-19.0000 F4000
G1 X1019.1229 Y1133.8967 Z-19.0000 F4000
G1 X1017.1209 Y1133.8967 Z-19.0000 F4000
G1 X1017.1209 Y1138.8967 Z-19.0000 F4000
G1 X930.1230 Y1138.8967 Z-19.0000 F4000
G1 X930.1230 Y1118.8547 Z-19.0000 F4000
G1 X930.1230 Y1118.8547 Z-9.0000 F9999
G1 X930.1230 Y1102.8567 Z-9.0000 F4000
G1 X930.1230 Y1102.8567 Z-19.0000 F2500
G1 X930.1230 Y614.5297 Z-19.0000 F4000
G1 X930.1230 Y614.5297 Z10.0000 F9999
G1 X1188.1207 Y1756.9163 Z10.0000 F9999
G1 X1188.1207 Y1756.9163 Z1.0000 F2500
G1 X1188.1207 Y1795.8875 Z-9.0000 F2500
G1 X1188.1207 Y1756.9163 Z-19.0000 F2500
G1 X1188.1204 Y2285.9142 Z-19.0000 F4000
G1 X930.1230 Y2285.9142 Z-19.0000 F4000
G1 X930.1234 Y1271.1390 Z-19.0000 F4000
G1 X930.1234 Y1271.1390 Z-9.0000 F9999
G1 X930.1234 Y1255.1410 Z-9.0000 F4000
G1 X930.1234 Y1255.1410 Z-19.0000 F2500
G1 X930.1234 Y1227.9183 Z-19.0000 F4000
G1 X1142.1142 Y1227.9184 Z-19.0000 F4000
G1 X1142.1142 Y1227.9184 Z-9.0000 F9999
G1 X1158.1122 Y1227.9184 Z-9.0000 F4000
G1 X1158.1122 Y1227.9184 Z-19.0000 F2500
G1 X1188.1209 Y1227.9184 Z-19.0000 F4000
G1 X1188.1207 Y1756.9163 Z-19.0000 F4000
G1 X1188.1207 Y1756.9163 Z10.0000 F9999
G1 X299.8984 Y132.6496 Z10.0000 F9999
G1 X299.8984 Y132.6496 Z1.0000 F2500
G1 X299.8984 Y171.6208 Z-9.0000 F2500
G1 X299.8984 Y132.6496 Z-19.0000 F2500
G1 X299.8984 Y226.6485 Z-19.0000 F4000
G1 X276.8985 Y226.6485 Z-19.0000 F4000
G1 X276.8985 Y228.6506 Z-19.0000 F4000
G1 X281.8984 Y228.6506 Z-19.0000 F4000
G1 X281.8984 Y336.6481 Z-19.0000 F4000
G1 X276.8985 Y336.6481 Z-19.0000 F4000
G1 X276.8985 Y338.6501 Z-19.0000 F4000
G1 X299.8984 Y338.6501 Z-19.0000 F4000
G1 X299.8984 Y526.6478 Z-19.0000 F4000
G1 X276.8985 Y526.6478 Z-19.0000 F4000
G1 X276.8985 Y528.6498 Z-19.0000 F4000
G1 X281.8984 Y528.6498 Z-19.0000 F4000
G1 X281.8984 Y636.6475 Z-19.0000 F4000
G1 X276.8985 Y636.6475 Z-19.0000 F4000
G1 X276.8985 Y638.6495 Z-19.0000 F4000
G1 X299.8984 Y638.6495 Z-19.0000 F4000
G1 X299.8984 Y826.6472 Z-19.0000 F4000
G1 X276.8985 Y826.6472 Z-19.0000 F4000
G1 X276.8985 Y828.6490 Z-19.0000 F4000
G1 X281.8984 Y828.6490 Z-19.0000 F4000
G1 X281.8984 Y936.6470 Z-19.0000 F4000
G1 X276.8985 Y936.6470 Z-19.0000 F4000
G1 X276.8985 Y938.6490 Z-19.0000 F4000
G1 X299.8984 Y938.6490 Z-19.0000 F4000
G1 X299.8984 Y1126.6466 Z-19.0000 F4000
G1 X276.8985 Y1126.6466 Z-19.0000 F4000
G1 X276.8985 Y1128.6486 Z-19.0000 F4000
G1 X281.8984 Y1128.6486 Z-19.0000 F4000
G1 X281.8984 Y1236.6463 Z-19.0000 F4000
G1 X276.8985 Y1236.6463 Z-19.0000 F4000
G1 X276.8985 Y1238.6484 Z-19.0000 F4000
G1 X299.8984 Y1238.6484 Z-19.0000 F4000
G1 X299.8984 Y1426.6459 Z-19.0000 F4000
G1 X276.8985 Y1426.6459 Z-19.0000 F4000
G1 X276.8985 Y1428.6479 Z-19.0000 F4000
G1 X281.8984 Y1428.6479 Z-19.0000 F4000
G1 X281.8984 Y1536.6459 Z-19.0000 F4000
G1 X276.8985 Y1536.6459 Z-19.0000 F4000
G1 X276.8985 Y1538.6478 Z-19.0000 F4000
G1 X299.8984 Y1538.6478 Z-19.0000 F4000
G1 X299.8984 Y1726.6455 Z-19.0000 F4000
G1 X276.8985 Y1726.6455 Z-19.0000 F4000
G1 X276.8985 Y1728.6475 Z-19.0000 F4000
G1 X281.8984 Y1728.6475 Z-19.0000 F4000
G1 X281.8984 Y1836.6454 Z-19.0000 F4000
G1 X276.8985 Y1836.6454 Z-19.0000 F4000
G1 X276.8985 Y1838.6473 Z-19.0000 F4000
G1 X299.8984 Y1838.6473 Z-19.0000 F4000
G1 X299.8984 Y2026.6450 Z-19.0000 F4000
G1 X276.8985 Y2026.6450 Z-19.0000 F4000
G1 X276.8985 Y2028.6470 Z-19.0000 F4000
G1 X281.8984 Y2028.6470 Z-19.0000 F4000
G1 X281.8985 Y2136.6445 Z-19.0000 F4000
G1 X276.8985 Y2136.6445 Z-19.0000 F4000
G1 X276.8985 Y2138.6465 Z-19.0000 F4000
G1 X299.8984 Y2138.6465 Z-19.0000 F4000
G1 X299.8984 Y2326.6441 Z-19.0000 F4000
G1 X276.8985 Y2326.6441 Z-19.0000 F4000
G1 X276.8985 Y2328.6461 Z-19.0000 F4000
G1 X281.8985 Y2328.6461 Z-19.0000 F4000
G1 X281.8985 Y2343.6441 Z-19.0000 F4000
G1 X238.0276 Y2343.6441 Z-19.0000 F4000
G1 X235.4073 Y2344.1441 Z-19.0000 F4000
G1 X233.2894 Y2345.5352 Z-19.0000 F4000
G1 X231.8984 Y2347.6528 Z-19.0000 F4000
G1 X231.3986 Y2350.2730 Z-19.0000 F4000
G1 X231.3986 Y2415.2728 Z-19.0000 F4000
G1 X230.4942 Y2420.0145 Z-19.0000 F4000
G1 X227.4316 Y2424.6769 Z-19.0000 F4000
G1 X222.7691 Y2427.7396 Z-19.0000 F4000
G1 X218.0275 Y2428.6439 Z-19.0000 F4000
G1 X187.7717 Y2428.6439 Z-19.0000 F4000
G1 X183.0301 Y2427.7396 Z-19.0000 F4000
G1 X178.3676 Y2424.6769 Z-19.0000 F4000
G1 X175.3051 Y2420.0145 Z-19.0000 F4000
G1 X174.4007 Y2415.2728 Z-19.0000 F4000
G1 X174.4007 Y2350.2730 Z-19.0000 F4000
G1 X173.9009 Y2347.6528 Z-19.0000 F4000
G1 X172.5099 Y2345.5352 Z-19.0000 F4000
G1 X170.3919 Y2344.1441 Z-19.0000 F4000
G1 X167.7716 Y2343.6441 Z-19.0000 F4000
G1 X138.0278 Y2343.6441 Z-19.0000 F4000
G1 X135.4075 Y2344.1441 Z-19.0000 F4000
G1 X133.2896 Y2345.5352 Z-19.0000 F4000
G1 X131.8986 Y2347.6528 Z-19.0000 F4000
G1 X131.3988 Y2350.2730 Z-19.0000 F4000
G1 X131.3988 Y2415.2728 Z-19.0000 F4000
G1 X130.4944 Y2420.0145 Z-19.0000 F4000
G1 X127.4318 Y2424.6769 Z-19.0000 F4000
G1 X122.7693 Y2427.7396 Z-19.0000 F4000
G1 X118.0277 Y2428.6439 Z-19.0000 F4000
G1 X87.7719 Y2428.6439 Z-19.0000 F4000
G1 X83.0303 Y2427.7396 Z-19.0000 F4000
G1 X78.3678 Y2424.6769 Z-19.0000 F4000
G1 X75.3053 Y2420.0145 Z-19.0000 F4000
G1 X74.4009 Y2415.2728 Z-19.0000 F4000
G1 X74.4009 Y2350.2730 Z-19.0000 F4000
G1 X73.9011 Y2347.6528 Z-19.0000 F4000
G1 X72.5101 Y2345.5352 Z-19.0000 F4000
G1 X70.3921 Y2344.1441 Z-19.0000 F4000
G1 X67.7718 Y2343.6441 Z-19.0000 F4000
G1 X23.9010 Y2343.6441 Z-19.0000 F4000
G1 X23.9010 Y2328.6461 Z-19.0000 F4000
G1 X28.9010 Y2328.6461 Z-19.0000 F4000
G1 X28.9010 Y2326.6441 Z-19.0000 F4000
G1 X5.9010 Y2326.6441 Z-19.0000 F4000
G1 X5.9010 Y2138.6465 Z-19.0000 F4000
G1 X28.9010 Y2138.6465 Z-19.0000 F4000
G1 X28.9010 Y2136.6445 Z-19.0000 F4000
G1 X23.9010 Y2136.6445 Z-19.0000 F4000
G1 X23.9010 Y2028.6470 Z-19.0000 F4000
G1 X28.9010 Y2028.6470 Z-19.0000 F4000
G1 X28.9010 Y2026.6450 Z-19.0000 F4000
G1 X5.9010 Y2026.6450 Z-19.0000 F4000
G1 X5.9010 Y1838.6473 Z-19.0000 F4000
G1 X28.9010 Y1838.6473 Z-19.0000 F4000
G1 X28.9010 Y1836.6454 Z-19.0000 F4000
G1 X23.9010 Y1836.6454 Z-19.0000 F4000
G1 X23.9010 Y1728.6475 Z-19.0000 F4000
G1 X28.9010 Y1728.6475 Z-19.0000 F4000
G1 X28.9010 Y1726.6455 Z-19.0000 F4000
G1 X5.9010 Y1726.6455 Z-19.0000 F4000
G1 X5.9010 Y1538.6478 Z-19.0000 F4000
G1 X28.9010 Y1538.6478 Z-19.0000 F4000
G1 X28.9010 Y1536.6459 Z-19.0000 F4000
G1 X23.9010 Y1536.6459 Z-19.0000 F4000
G1 X23.9010 Y1428.6479 Z-19.0000 F4000
G1 X28.9010 Y1428.6479 Z-19.0000 F4000
G1 X28.9010 Y1426.6459 Z-19.0000 F4000
G1 X5.9010 Y1426.6459 Z-19.0000 F4000
G1 X5.9010 Y1238.6484 Z-19.0000 F4000
G1 X28.9010 Y1238.6484 Z-19.0000 F4000
G1 X28.9010 Y1236.6463 Z-19.0000 F4000
G1 X23.9010 Y1236.6463 Z-19.0000 F4000
G1 X23.9010 Y1128.6486 Z-19.0000 F4000
G1 X28.9010 Y1128.6486 Z-19.0000 F4000
G1 X28.9010 Y1126.6466 Z-19.0000 F4000
G1 X5.9010 Y1126.6466 Z-19.0000 F4000
G1 X5.9010 Y938.6490 Z-19.0000 F4000
G1 X28.9010 Y938.6490 Z-19.0000 F4000
G1 X28.9010 Y936.6470 Z-19.0000 F4000
G1 X23.9010 Y936.6470 Z-19.0000 F4000
G1 X23.9010 Y828.6490 Z-19.0000 F4000
G1 X28.9010 Y828.6490 Z-19.0000 F4000
G1 X28.9010 Y826.6472 Z-19.0000 F4000
G1 X5.9010 Y826.6472 Z-19.0000 F4000
G1 X5.9010 Y638.6495 Z-19.0000 F4000
G1 X28.9010 Y638.6495 Z-19.0000 F4000
G1 X28.9010 Y636.6475 Z-19.0000 F4000
G1 X23.9010 Y636.6475 Z-19.0000 F4000
G1 X23.9010 Y528.6498 Z-19.0000 F4000
G1 X28.9010 Y528.6498 Z-19.0000 F4000
G1 X28.9010 Y526.6478 Z-19.0000 F4000
G1 X5.9010 Y526.6478 Z-19.0000 F4000
G1 X5.9010 Y338.6501 Z-19.0000 F4000
G1 X28.9010 Y338.6501 Z-19.0000 F4000
G1 X28.9010 Y336.6481 Z-19.0000 F4000
G1 X23.9010 Y336.6481 Z-19.0000 F4000
G1 X23.9010 Y228.6506 Z-19.0000 F4000
G1 X28.9010 Y228.6506 Z-19.0000 F4000
G1 X28.9010 Y226.6485 Z-19.0000 F4000
G1 X5.9010 Y226.6485 Z-19.0000 F4000
G1 X5.9010 Y38.6508 Z-19.0000 F4000
G1 X23.9010 Y38.6508 Z-19.0000 F4000
G1 X23.9010 Y5.9010 Z-19.0000 F4000
G1 X68.5279 Y5.9010 Z-19.0000 F4000
G1 X73.3615 Y6.8230 Z-19.0000 F4000
G1 X78.1087 Y9.9413 Z-19.0000 F4000
G1 X81.2269 Y14.6887 Z-19.0000 F4000
G1 X82.1489 Y19.5220 Z-19.0000 F4000
G1 X82.1489 Y84.5220 Z-19.0000 F4000
G1 X82.6311 Y87.0503 Z-19.0000 F4000
G1 X83.9665 Y89.0832 Z-19.0000 F4000
G1 X85.9995 Y90.4185 Z-19.0000 F4000
G1 X88.5279 Y90.9009 Z-19.0000 F4000
G1 X117.2717 Y90.9009 Z-19.0000 F4000
G1 X119.8001 Y90.4185 Z-19.0000 F4000
G1 X121.8331 Y89.0832 Z-19.0000 F4000
G1 X123.1685 Y87.0503 Z-19.0000 F4000
G1 X123.6508 Y84.5220 Z-19.0000 F4000
G1 X123.6508 Y19.5220 Z-19.0000 F4000
G1 X124.5727 Y14.6887 Z-19.0000 F4000
G1 X127.6909 Y9.9413 Z-19.0000 F4000
G1 X132.4382 Y6.8230 Z-19.0000 F4000
G1 X137.2717 Y5.9010 Z-19.0000 F4000
G1 X168.5277 Y5.9010 Z-19.0000 F4000
G1 X173.3613 Y6.8230 Z-19.0000 F4000
G1 X178.1085 Y9.9413 Z-19.0000 F4000
G1 X181.2267 Y14.6887 Z-19.0000 F4000
G1 X182.1487 Y19.5220 Z-19.0000 F4000
G1 X182.1487 Y84.5220 Z-19.0000 F4000
G1 X182.6309 Y87.0503 Z-19.0000 F4000
G1 X183.9663 Y89.0832 Z-19.0000 F4000
G1 X185.9993 Y90.4185 Z-19.0000 F4000
G1 X188.5277 Y90.9009 Z-19.0000 F4000
G1 X217.2715 Y90.9009 Z-19.0000 F4000
G1 X219.7999 Y90.4185 Z-19.0000 F4000
G1 X221.8329 Y89.0832 Z-19.0000 F4000
G1 X223.1683 Y87.0503 Z-19.0000 F4000
G1 X223.6506 Y84.5220 Z-19.0000 F4000
G1 X223.6506 Y19.5220 Z-19.0000 F4000
G1 X224.5726 Y14.6887 Z-19.0000 F4000
G1 X227.6907 Y9.9413 Z-19.0000 F4000
G1 X232.4379 Y6.8230 Z-19.0000 F4000
G1 X237.2715 Y5.9010 Z-19.0000 F4000
G1 X281.8984 Y5.9010 Z-19.0000 F4000
G1 X281.8984 Y36.6488 Z-19.0000 F4000
G1 X276.8985 Y36.6488 Z-19.0000 F4000
G1 X276.8985 Y38.6508 Z-19.0000 F4000
G1 X299.8984 Y38.6508 Z-19.0000 F4000
G1 X299.8984 Y132.6496 Z-19.0000 F4000
G1 X299.8984 Y132.6496 Z10.0000 F9999
G1 X916.0464 Y132.6496 Z10.0000 F9999
G1 X916.0464 Y132.6496 Z1.0000 F2500
G1 X916.0464 Y171.6208 Z-9.0000 F2500
G1 X916.0464 Y132.6496 Z-19.0000 F2500
G1 X916.0464 Y226.6485 Z-19.0000 F4000
G1 X893.0465 Y226.6485 Z-19.0000 F4000
G1 X893.0465 Y228.6506 Z-19.0000 F4000
G1 X898.0465 Y228.6506 Z-19.0000 F4000
G1 X898.0465 Y336.6481 Z-19.0000 F4000
G1 X893.0465 Y336.6481 Z-19.0000 F4000
G1 X893.0465 Y338.6501 Z-19.0000 F4000
G1 X916.0464 Y338.6501 Z-19.0000 F4000
G1 X916.0464 Y526.6478 Z-19.0000 F4000
G1 X893.0465 Y526.6478 Z-19.0000 F4000
G1 X893.0465 Y528.6498 Z-19.0000 F4000
G1 X898.0465 Y528.6498 Z-19.0000 F4000
G1 X898.0465 Y636.6475 Z-19.0000 F4000
G1 X893.0465 Y636.6475 Z-19.0000 F4000
G1 X893.0465 Y638.6495 Z-19.0000 F4000
G1 X916.0464 Y638.6495 Z-19.0000 F4000
G1 X916.0464 Y826.6472 Z-19.0000 F4000
G1 X893.0465 Y826.6472 Z-19.0000 F4000
G1 X893.0465 Y828.6490 Z-19.0000 F4000
G1 X898.0465 Y828.6490 Z-19.0000 F4000
G1 X898.0465 Y936.6470 Z-19.0000 F4000
G1 X893.0465 Y936.6470 Z-19.0000 F4000
G1 X893.0465 Y938.6490 Z-19.0000 F4000
G1 X916.0464 Y938.6490 Z-19.0000 F4000
G1 X916.0464 Y1126.6466 Z-19.0000 F4000
G1 X893.0465 Y1126.6466 Z-19.0000 F4000
G1 X893.0465 Y1128.6486 Z-19.0000 F4000
G1 X898.0465 Y1128.6486 Z-19.0000 F4000
G1 X898.0465 Y1236.6463 Z-19.0000 F4000
G1 X893.0465 Y1236.6463 Z-19.0000 F4000
G1 X893.0465 Y1238.6484 Z-19.0000 F4000
G1 X916.0464 Y1238.6484 Z-19.0000 F4000
G1 X916.0464 Y1426.6459 Z-19.0000 F4000
G1 X893.0465 Y1426.6459 Z-19.0000 F4000
G1 X893.0465 Y1428.6479 Z-19.0000 F4000
G1 X898.0465 Y1428.6479 Z-19.0000 F4000
G1 X898.0465 Y1536.6459 Z-19.0000 F4000
G1 X893.0465 Y1536.6459 Z-19.0000 F4000
G1 X893.0465 Y1538.6478 Z-19.0000 F4000
G1 X916.0464 Y1538.6478 Z-19.0000 F4000
G1 X916.0464 Y1726.6455 Z-19.0000 F4000
G1 X893.0465 Y1726.6455 Z-19.0000 F4000
G1 X893.0465 Y1728.6475 Z-19.0000 F4000
G1 X898.0465 Y1728.6475 Z-19.0000 F4000
G1 X898.0465 Y1836.6454 Z-19.0000 F4000
G1 X893.0465 Y1836.6454 Z-19.0000 F4000
G1 X893.0465 Y1838.6473 Z-19.0000 F4000
G1 X916.0464 Y1838.6473 Z-19.0000 F4000
G1 X916.0464 Y2026.6450 Z-19.0000 F4000
G1 X893.0465 Y2026.6450 Z-19.0000 F4000
G1 X893.0465 Y2028.6470 Z-19.0000 F4000
G1 X898.0465 Y2028.6470 Z-19.0000 F4000
G1 X898.0465 Y2136.6445 Z-19.0000 F4000
G1 X893.0465 Y2136.6445 Z-19.0000 F4000
G1 X893.0465 Y2138.6465 Z-19.0000 F4000
G1 X916.0465 Y2138.6465 Z-19.0000 F4000
G1 X916.0465 Y2326.6441 Z-19.0000 F4000
G1 X893.0465 Y2326.6441 Z-19.0000 F4000
G1 X893.0465 Y2328.6461 Z-19.0000 F4000
G1 X898.0465 Y2328.6461 Z-19.0000 F4000
G1 X898.0465 Y2343.6441 Z-19.0000 F4000
G1 X854.1757 Y2343.6441 Z-19.0000 F4000
G1 X851.5553 Y2344.1441 Z-19.0000 F4000
G1 X849.4374 Y2345.5352 Z-19.0000 F4000
G1 X848.0464 Y2347.6528 Z-19.0000 F4000
G1 X847.5466 Y2350.2730 Z-19.0000 F4000
G1 X847.5466 Y2415.2728 Z-19.0000 F4000
G1 X846.6422 Y2420.0145 Z-19.0000 F4000
G1 X843.5797 Y2424.6769 Z-19.0000 F4000
G1 X838.9171 Y2427.7396 Z-19.0000 F4000
G1 X834.1755 Y2428.6439 Z-19.0000 F4000
G1 X803.9198 Y2428.6439 Z-19.0000 F4000
G1 X799.1781 Y2427.7396 Z-19.0000 F4000
G1 X794.5157 Y2424.6769 Z-19.0000 F4000
G1 X791.4531 Y2420.0145 Z-19.0000 F4000
G1 X790.5487 Y2415.2728 Z-19.0000 F4000
G1 X790.5487 Y2350.2730 Z-19.0000 F4000
G1 X790.0489 Y2347.6528 Z-19.0000 F4000
G1 X788.6579 Y2345.5352 Z-19.0000 F4000
G1 X786.5400 Y2344.1441 Z-19.0000 F4000
G1 X783.9197 Y2343.6441 Z-19.0000 F4000
G1 X754.1759 Y2343.6441 Z-19.0000 F4000
G1 X751.5555 Y2344.1441 Z-19.0000 F4000
G1 X749.4376 Y2345.5352 Z-19.0000 F4000
G1 X748.0466 Y2347.6528 Z-19.0000 F4000
G1 X747.5468 Y2350.2730 Z-19.0000 F4000
G1 X747.5468 Y2415.2728 Z-19.0000 F4000
G1 X746.6424 Y2420.0145 Z-19.0000 F4000
G1 X743.5799 Y2424.6769 Z-19.0000 F4000
G1 X738.9174 Y2427.7396 Z-19.0000 F4000
G1 X734.1758 Y2428.6439 Z-19.0000 F4000
G1 X703.9200 Y2428.6439 Z-19.0000 F4000
G1 X699.1784 Y2427.7396 Z-19.0000 F4000
G1 X694.5159 Y2424.6769 Z-19.0000 F4000
G1 X691.4533 Y2420.0145 Z-19.0000 F4000
G1 X690.5489 Y2415.2728 Z-19.0000 F4000
G1 X690.5489 Y2350.2730 Z-19.0000 F4000
G1 X690.0491 Y2347.6528 Z-19.0000 F4000
G1 X688.6581 Y2345.5352 Z-19.0000 F4000
G1 X686.5402 Y2344.1441 Z-19.0000 F4000
G1 X683.9199 Y2343.6441 Z-19.0000 F4000
G1 X640.0490 Y2343.6441 Z-19.0000 F4000
G1 X640.0490 Y2328.6461 Z-19.0000 F4000
G1 X645.0490 Y2328.6461 Z-19.0000 F4000
G1 X645.0490 Y2326.6441 Z-19.0000 F4000
G1 X622.0490 Y2326.6441 Z-19.0000 F4000
G1 X622.0490 Y2138.6465 Z-19.0000 F4000
G1 X645.0490 Y2138.6465 Z-19.0000 F4000
G1 X645.0490 Y2136.6445 Z-19.0000 F4000
G1 X640.0490 Y2136.6445 Z-19.0000 F4000
G1 X640.0490 Y2028.6470 Z-19.0000 F4000
G1 X645.0490 Y2028.6470 Z-19.0000 F4000
G1 X645.0490 Y2026.6450 Z-19.0000 F4000
G1 X622.0490 Y2026.6450 Z-19.0000 F4000
G1 X622.0490 Y1838.6473 Z-19.0000 F4000
G1 X645.0490 Y1838.6473 Z-19.0000 F4000
G1 X645.0490 Y1836.6454 Z-19.0000 F4000
G1 X640.0490 Y1836.6454 Z-19.0000 F4000
G1 X640.0490 Y1728.6475 Z-19.0000 F4000
G1 X645.0490 Y1728.6475 Z-19.0000 F4000
G1 X645.0490 Y1726.6455 Z-19.0000 F4000
G1 X622.0490 Y1726.6455 Z-19.0000 F4000
G1 X622.0490 Y1538.6478 Z-19.0000 F4000
G1 X645.0490 Y1538.6478 Z-19.0000 F4000
G1 X645.0490 Y1536.6459 Z-19.0000 F4000
G1 X640.0490 Y1536.6459 Z-19.0000 F4000
G1 X640.0490 Y1428.6479 Z-19.0000 F4000
G1 X645.0490 Y1428.6479 Z-19.0000 F4000
G1 X645.0490 Y1426.6459 Z-19.0000 F4000
G1 X622.0490 Y1426.6459 Z-19.0000 F4000
G1 X622.0490 Y1238.6484 Z-19.0000 F4000
G1 X645.0490 Y1238.6484 Z-19.0000 F4000
G1 X645.0490 Y1236.6463 Z-19.0000 F4000
G1 X640.0490 Y1236.6463 Z-19.0000 F4000
G1 X640.0490 Y1128.6486 Z-19.0000 F4000
G1 X645.0490 Y1128.6486 Z-19.0000 F4000
G1 X645.0490 Y1126.6466 Z-19.0000 F4000
G1 X622.0490 Y1126.6466 Z-19.0000 F4000
G1 X622.0490 Y938.6490 Z-19.0000 F4000
G1 X645.0490 Y938.6490 Z-19.0000 F4000
G1 X645.0490 Y936.6470 Z-19.0000 F4000
G1 X640.0490 Y936.6470 Z-19.0000 F4000
G1 X640.0490 Y828.6490 Z-19.0000 F4000
G1 X645.0490 Y828.6490 Z-19.0000 F4000
G1 X645.0490 Y826.6472 Z-19.0000 F4000
G1 X622.0490 Y826.6472 Z-19.0000 F4000
G1 X622.0490 Y638.6495 Z-19.0000 F4000
G1 X645.0490 Y638.6495 Z-19.0000 F4000
G1 X645.0490 Y636.6475 Z-19.0000 F4000
G1 X640.0490 Y636.6475 Z-19.0000 F4000
G1 X640.0490 Y528.6498 Z-19.0000 F4000
G1 X645.0490 Y528.6498 Z-19.0000 F4000
G1 X645.0490 Y526.6478 Z-19.0000 F4000
G1 X622.0490 Y526.6478 Z-19.0000 F4000
G1 X622.0490 Y338.6501 Z-19.0000 F4000
G1 X645.0490 Y338.6501 Z-19.0000 F4000
G1 X645.0490 Y336.6481 Z-19.0000 F4000
G1 X640.0490 Y336.6481 Z-19.0000 F4000
G1 X640.0490 Y228.6506 Z-19.0000 F4000
G1 X645.0490 Y228.6506 Z-19.0000 F4000
G1 X645.0490 Y226.6485 Z-19.0000 F4000
G1 X622.0490 Y226.6485 Z-19.0000 F4000
G1 X622.0490 Y38.6508 Z-19.0000 F4000
G1 X640.0490 Y38.6508 Z-19.0000 F4000
G1 X640.0490 Y5.9010 Z-19.0000 F4000
G1 X684.6759 Y5.9010 Z-19.0000 F4000
G1 X689.5095 Y6.8230 Z-19.0000 F4000
G1 X694.2567 Y9.9413 Z-19.0000 F4000
G1 X697.3749 Y14.6887 Z-19.0000 F4000
G1 X698.2969 Y19.5220 Z-19.0000 F4000
G1 X698.2969 Y84.5220 Z-19.0000 F4000
G1 X698.7791 Y87.0503 Z-19.0000 F4000
G1 X700.1145 Y89.0832 Z-19.0000 F4000
G1 X702.1475 Y90.4185 Z-19.0000 F4000
G1 X704.6759 Y90.9009 Z-19.0000 F4000
G1 X733.4198 Y90.9009 Z-19.0000 F4000
G1 X735.9481 Y90.4185 Z-19.0000 F4000
G1 X737.9812 Y89.0832 Z-19.0000 F4000
G1 X739.3165 Y87.0503 Z-19.0000 F4000
G1 X739.7988 Y84.5220 Z-19.0000 F4000
G1 X739.7988 Y19.5220 Z-19.0000 F4000
G1 X740.7208 Y14.6887 Z-19.0000 F4000
G1 X743.8389 Y9.9413 Z-19.0000 F4000
G1 X748.5862 Y6.8230 Z-19.0000 F4000
G1 X753.4198 Y5.9010 Z-19.0000 F4000
G1 X784.6757 Y5.9010 Z-19.0000 F4000
G1 X789.5093 Y6.8230 Z-19.0000 F4000
G1 X794.2565 Y9.9413 Z-19.0000 F4000
G1 X797.3747 Y14.6887 Z-19.0000 F4000
G1 X798.2967 Y19.5220 Z-19.0000 F4000
G1 X798.2967 Y84.5220 Z-19.0000 F4000
G1 X798.7790 Y87.0503 Z-19.0000 F4000
G1 X800.1143 Y89.0832 Z-19.0000 F4000
G1 X802.1473 Y90.4185 Z-19.0000 F4000
G1 X804.6757 Y90.9009 Z-19.0000 F4000
G1 X833.4195 Y90.9009 Z-19.0000 F4000
G1 X835.9479 Y90.4185 Z-19.0000 F4000
G1 X837.9810 Y89.0832 Z-19.0000 F4000
G1 X839.3163 Y87.0503 Z-19.0000 F4000
G1 X839.7986 Y84.5220 Z-19.0000 F4000
G1 X839.7986 Y19.5220 Z-19.0000 F4000
G1 X840.7206 Y14.6887 Z-19.0000 F4000
G1 X843.8387 Y9.9413 Z-19.0000 F4000
G1 X848.5860 Y6.8230 Z-19.0000 F4000
G1 X853.4196 Y5.9010 Z-19.0000 F4000
G1 X898.0465 Y5.9010 Z-19.0000 F4000
G1 X898.0465 Y36.6488 Z-19.0000 F4000
G1 X893.0465 Y36.6488 Z-19.0000 F4000
G1 X893.0465 Y38.6508 Z-19.0000 F4000
G1 X916.0464 Y38.6508 Z-19.0000 F4000
G1 X916.0464 Y132.6496 Z-19.0000 F4000
G1 X916.0464 Y132.6496 Z10.0000 F9999
G1 X607.9724 Y132.6496 Z10.0000 F9999
G1 X607.9724 Y132.6496 Z1.0000 F2500
G1 X607.9724 Y171.6208 Z-9.0000 F2500
G1 X607.9724 Y132.6496 Z-19.0000 F2500
G1 X607.9724 Y226.6485 Z-19.0000 F4000
G1 X584.9725 Y226.6485 Z-19.0000 F4000
G1 X584.9725 Y228.6506 Z-19.0000 F4000
G1 X589.9724 Y228.6506 Z-19.0000 F4000
G1 X589.9724 Y336.6481 Z-19.0000 F4000
G1 X584.9725 Y336.6481 Z-19.0000 F4000
G1 X584.9725 Y338.6501 Z-19.0000 F4000
G1 X607.9724 Y338.6501 Z-19.0000 F4000
G1 X607.9724 Y526.6478 Z-19.0000 F4000
G1 X584.9725 Y526.6478 Z-19.0000 F4000
G1 X584.9725 Y528.6498 Z-19.0000 F4000
G1 X589.9724 Y528.6498 Z-19.0000 F4000
G1 X589.9724 Y636.6475 Z-19.0000 F4000
G1 X584.9725 Y636.6475 Z-19.0000 F4000
G1 X584.9725 Y638.6495 Z-19.0000 F4000
G1 X607.9724 Y638.6495 Z-19.0000 F4000
G1 X607.9724 Y826.6472 Z-19.0000 F4000
G1 X584.9725 Y826.6472 Z-19.0000 F4000
G1 X584.9725 Y828.6490 Z-19.0000 F4000
G1 X589.9724 Y828.6490 Z-19.0000 F4000
G1 X589.9724 Y936.6470 Z-19.0000 F4000
G1 X584.9725 Y936.6470 Z-19.0000 F4000
G1 X584.9725 Y938.6490 Z-19.0000 F4000
G1 X607.9724 Y938.6490 Z-19.0000 F4000
G1 X607.9724 Y1126.6466 Z-19.0000 F4000
G1 X584.9725 Y1126.6466 Z-19.0000 F4000
G1 X584.9725 Y1128.6486 Z-19.0000 F4000
G1 X589.9724 Y1128.6486 Z-19.0000 F4000
G1 X589.9724 Y1236.6463 Z-19.0000 F4000
G1 X584.9725 Y1236.6463 Z-19.0000 F4000
G1 X584.9725 Y1238.6484 Z-19.0000 F4000
G1 X607.9724 Y1238.6484 Z-19.0000 F4000
G1 X607.9724 Y1426.6459 Z-19.0000 F4000
G1 X584.9725 Y1426.6459 Z-19.0000 F4000
G1 X584.9725 Y1428.6479 Z-19.0000 F4000
G1 X589.9724 Y1428.6479 Z-19.0000 F4000
G1 X589.9724 Y1536.6459 Z-19.0000 F4000
G1 X584.9725 Y1536.6459 Z-19.0000 F4000
G1 X584.9725 Y1538.6478 Z-19.0000 F4000
G1 X607.9724 Y1538.6478 Z-19.0000 F4000
G1 X607.9724 Y1726.6455 Z-19.0000 F4000
G1 X584.9725 Y1726.6455 Z-19.0000 F4000
G1 X584.9725 Y1728.6475 Z-19.0000 F4000
G1 X589.9724 Y1728.6475 Z-19.0000 F4000
G1 X589.9724 Y1836.6454 Z-19.0000 F4000
G1 X584.9725 Y1836.6454 Z-19.0000 F4000
G1 X584.9725 Y1838.6473 Z-19.0000 F4000
G1 X607.9724 Y1838.6473 Z-19.0000 F4000
G1 X607.9724 Y2026.6450 Z-19.0000 F4000
G1 X584.9725 Y2026.6450 Z-19.0000 F4000
G1 X584.9725 Y2028.6470 Z-19.0000 F4000
G1 X589.9724 Y2028.6470 Z-19.0000 F4000
G1 X589.9725 Y2136.6445 Z-19.0000 F4000
G1 X584.9725 Y2136.6445 Z-19.0000 F4000
G1 X584.9725 Y2138.6465 Z-19.0000 F4000
G1 X607.9724 Y2138.6465 Z-19.0000 F4000
G1 X607.9724 Y2326.6441 Z-19.0000 F4000
G1 X584.9725 Y2326.6441 Z-19.0000 F4000
G1 X584.9725 Y2328.6461 Z-19.0000 F4000
G1 X589.9725 Y2328.6461 Z-19.0000 F4000
G1 X589.9725 Y2343.6441 Z-19.0000 F4000
G1 X546.1016 Y2343.6441 Z-19.0000 F4000
G1 X543.4813 Y2344.1441 Z-19.0000 F4000
G1 X541.3634 Y2345.5352 Z-19.0000 F4000
G1 X539.9724 Y2347.6528 Z-19.0000 F4000
G1 X539.4726 Y2350.2730 Z-19.0000 F4000
G1 X539.4726 Y2415.2728 Z-19.0000 F4000
G1 X538.5682 Y2420.0145 Z-19.0000 F4000
G1 X535.5056 Y2424.6769 Z-19.0000 F4000
G1 X530.8431 Y2427.7396 Z-19.0000 F4000
G1 X526.1015 Y2428.6439 Z-19.0000 F4000
G1 X495.8457 Y2428.6439 Z-19.0000 F4000
G1 X491.1041 Y2427.7396 Z-19.0000 F4000
G1 X486.4416 Y2424.6769 Z-19.0000 F4000
G1 X483.3791 Y2420.0145 Z-19.0000 F4000
G1 X482.4747 Y2415.2728 Z-19.0000 F4000
G1 X482.4747 Y2350.2730 Z-19.0000 F4000
G1 X481.9749 Y2347.6528 Z-19.0000 F4000
G1 X480.5839 Y2345.5352 Z-19.0000 F4000
G1 X478.4659 Y2344.1441 Z-19.0000 F4000
G1 X475.8456 Y2343.6441 Z-19.0000 F4000
G1 X446.1018 Y2343.6441 Z-19.0000 F4000
G1 X443.4815 Y2344.1441 Z-19.0000 F4000
G1 X441.3636 Y2345.5352 Z-19.0000 F4000
G1 X439.9726 Y2347.6528 Z-19.0000 F4000
G1 X439.4728 Y2350.2730 Z-19.0000 F4000
G1 X439.4728 Y2415.2728 Z-19.0000 F4000
G1 X438.5684 Y2420.0145 Z-19.0000 F4000
G1 X435.5058 Y2424.6769 Z-19.0000 F4000
G1 X430.8433 Y2427.7396 Z-19.0000 F4000
G1 X426.1017 Y2428.6439 Z-19.0000 F4000
G1 X395.8460 Y2428.6439 Z-19.0000 F4000
G1 X391.1043 Y2427.7396 Z-19.0000 F4000
G1 X386.4418 Y2424.6769 Z-19.0000 F4000
G1 X383.3793 Y2420.0145 Z-19.0000 F4000
G1 X382.4749 Y2415.2728 Z-19.0000 F4000
G1 X382.4749 Y2350.2730 Z-19.0000 F4000
G1 X381.9751 Y2347.6528 Z-19.0000 F4000
G1 X380.5841 Y2345.5352 Z-19.0000 F4000
G1 X378.4661 Y2344.1441 Z-19.0000 F4000
G1 X375.8458 Y2343.6441 Z-19.0000 F4000
G1 X331.9750 Y2343.6441 Z-19.0000 F4000
G1 X331.9750 Y2328.6461 Z-19.0000 F4000
G1 X336.9750 Y2328.6461 Z-19.0000 F4000
G1 X336.9750 Y2326.6441 Z-19.0000 F4000
G1 X313.9750 Y2326.6441 Z-19.0000 F4000
G1 X313.9750 Y2138.6465 Z-19.0000 F4000
G1 X336.9750 Y2138.6465 Z-19.0000 F4000
G1 X336.9750 Y2136.6445 Z-19.0000 F4000
G1 X331.9750 Y2136.6445 Z-19.0000 F4000
G1 X331.9750 Y2028.6470 Z-19.0000 F4000
G1 X336.9750 Y2028.6470 Z-19.0000 F4000
G1 X336.9750 Y2026.6450 Z-19.0000 F4000
G1 X313.9750 Y2026.6450 Z-19.0000 F4000
G1 X313.9750 Y1838.6473 Z-19.0000 F4000
G1 X336.9750 Y1838.6473 Z-19.0000 F4000
G1 X336.9750 Y1836.6454 Z-19.0000 F4000
G1 X331.9750 Y1836.6454 Z-19.0000 F4000
G1 X331.9750 Y1728.6475 Z-19.0000 F4000
G1 X336.9750 Y1728.6475 Z-19.0000 F4000
G1 X336.9750 Y1726.6455 Z-19.0000 F4000
G1 X313.9750 Y1726.6455 Z-19.0000 F4000
G1 X313.9750 Y1538.6478 Z-19.0000 F4000
G1 X336.9750 Y1538.6478 Z-19.0000 F4000
G1 X336.9750 Y1536.6459 Z-19.0000 F4000
G1 X331.9750 Y1536.6459 Z-19.0000 F4000
G1 X331.9750 Y1428.6479 Z-19.0000 F4000
G1 X336.9750 Y1428.6479 Z-19.0000 F4000
G1 X336.9750 Y1426.6459 Z-19.0000 F4000
G1 X313.9750 Y1426.6459 Z-19.0000 F4000
G1 X313.9750 Y1238.6484 Z-19.0000 F4000
