(plotsheet 2n3_nested_153 sheets_final v1_0_sheet 36 to 41_S36.1_text_CC8 - stepover 1mm)
(Material Size) (X=1220.000, Y=2440.000, Z=21.000)
(LinuxCNC_NoArcs_MM_TC_medium_50um_G1_verbose.con)
G90 G80 G21 G49
G64 P0.050
M6 T1
(Tool Number:1) (7.998 mm dia. slot drill)
G43 H1 G0Z30.0000
M3 S19000
G04 P10
G1 X608.8988 Y1043.5595 Z10.0000 F9999
G1 X608.8988 Y1043.5595 Z-1.5000 F2000
G1 X631.1007 Y1076.9540 Z-1.5000 F4000
G1 X602.2933 Y1076.9540 Z-1.5000 F4000
G1 X631.1007 Y1076.9540 Z-1.5000 F4000
G1 X608.8988 Y1043.5595 Z-1.5000 F4000
G1 X608.8988 Y1084.6604 Z-1.5000 F4000
G1 X608.8988 Y1084.6604 Z10.0000 F9999
G1 X591.1741 Y1079.1375 Z10.0000 F9999
G1 X591.1741 Y1079.1375 Z-1.5000 F2000
G1 X589.9264 Y1080.4036 Z-1.5000 F4000
G1 X587.5961 Y1082.2201 Z-1.5000 F4000
G1 X584.1282 Y1083.8714 Z-1.5000 F4000
G1 X579.3943 Y1084.6604 Z-1.5000 F4000
G1 X574.2383 Y1083.4678 Z-1.5000 F4000
G1 X569.8713 Y1080.1467 Z-1.5000 F4000
G1 X566.8254 Y1075.2292 Z-1.5000 F4000
G1 X565.6878 Y1069.2843 Z-1.5000 F4000
G1 X567.0273 Y1063.7430 Z-1.5000 F4000
G1 X570.2750 Y1059.7063 Z-1.5000 F4000
G1 X574.3300 Y1057.2843 Z-1.5000 F4000
G1 X578.0915 Y1056.4770 Z-1.5000 F4000
G1 X580.2383 Y1056.4770 Z-1.5000 F4000
G1 X582.4952 Y1056.8806 Z-1.5000 F4000
G1 X585.1374 Y1057.7797 Z-1.5000 F4000
G1 X579.5043 Y1042.3852 Z-1.5000 F4000
G1 X565.3025 Y1042.3852 Z-1.5000 F4000
G1 X579.5043 Y1042.3852 Z-1.5000 F4000
G1 X585.1374 Y1057.7797 Z-1.5000 F4000
G1 X582.4952 Y1056.8806 Z-1.5000 F4000
G1 X580.2383 Y1056.4770 Z-1.5000 F4000
G1 X578.0915 Y1056.4770 Z-1.5000 F4000
G1 X574.3300 Y1057.2843 Z-1.5000 F4000
G1 X570.2750 Y1059.7063 Z-1.5000 F4000
G1 X567.0273 Y1063.7430 Z-1.5000 F4000
G1 X565.6878 Y1069.2843 Z-1.5000 F4000
G1 X566.8254 Y1075.2292 Z-1.5000 F4000
G1 X569.8713 Y1080.1467 Z-1.5000 F4000
G1 X574.2383 Y1083.4678 Z-1.5000 F4000
G1 X579.3943 Y1084.6604 Z-1.5000 F4000
G1 X584.1282 Y1083.8714 Z-1.5000 F4000
G1 X587.5961 Y1082.2201 Z-1.5000 F4000
G1 X589.9264 Y1080.4036 Z-1.5000 F4000
G1 X589.9264 Y1080.4036 Z10.0000 F9999
G1 X641.8713 Y1084.6604 Z10.0000 F9999
G1 X641.8713 Y1084.6604 Z-1.5000 F2000
G1 X654.4952 Y1084.6604 Z-1.5000 F4000
G1 X654.4952 Y1043.5595 Z-1.5000 F4000
G1 X654.4952 Y1084.6604 Z-1.5000 F4000
G1 X654.4952 Y1084.6604 Z10.0000 F9999
G1 X668.9814 Y2256.2044 Z10.0000 F9999
G1 X668.9814 Y2256.2044 Z-1.5000 F2000
G1 X652.9264 Y2297.3053 Z-1.5000 F4000
G1 X668.9814 Y2256.2044 Z-1.5000 F4000
G1 X684.9998 Y2297.3053 Z-1.5000 F4000
G1 X684.9998 Y2297.3053 Z10.0000 F9999
G1 X658.6695 Y2282.6081 Z10.0000 F9999
G1 X658.6695 Y2282.6081 Z-1.5000 F2000
G1 X679.3667 Y2282.6081 Z-1.5000 F4000
G1 X658.6695 Y2282.6081 Z-1.5000 F4000
G1 X658.6695 Y2282.6081 Z10.0000 F9999
G1 X605.6420 Y2291.6172 Z10.0000 F9999
G1 X605.6420 Y2291.6172 Z-1.5000 F2000
G1 X612.2658 Y2295.7824 Z-1.5000 F4000
G1 X620.2475 Y2297.3053 Z-1.5000 F4000
G1 X628.5227 Y2295.6723 Z-1.5000 F4000
G1 X635.2933 Y2291.2503 Z-1.5000 F4000
G1 X639.8621 Y2284.7182 Z-1.5000 F4000
G1 X641.5502 Y2276.7182 Z-1.5000 F4000
G1 X639.8621 Y2268.7732 Z-1.5000 F4000
G1 X635.2933 Y2262.2594 Z-1.5000 F4000
G1 X628.5227 Y2257.8374 Z-1.5000 F4000
G1 X620.2475 Y2256.2044 Z-1.5000 F4000
G1 X612.4676 Y2257.6172 Z-1.5000 F4000
G1 X605.9172 Y2261.5622 Z-1.5000 F4000
G1 X612.4676 Y2257.6172 Z-1.5000 F4000
G1 X620.2475 Y2256.2044 Z-1.5000 F4000
G1 X628.5227 Y2257.8374 Z-1.5000 F4000
G1 X635.2933 Y2262.2594 Z-1.5000 F4000
G1 X639.8621 Y2268.7732 Z-1.5000 F4000
G1 X641.5502 Y2276.7182 Z-1.5000 F4000
G1 X639.8621 Y2284.7182 Z-1.5000 F4000
G1 X635.2933 Y2291.2503 Z-1.5000 F4000
G1 X628.5227 Y2295.6723 Z-1.5000 F4000
G1 X620.2475 Y2297.3053 Z-1.5000 F4000
G1 X612.2658 Y2295.7824 Z-1.5000 F4000
G1 X612.2658 Y2295.7824 Z10.0000 F9999
G1 X589.7887 Y2297.3053 Z10.0000 F9999
G1 X589.7887 Y2297.3053 Z-1.5000 F2000
G1 X589.7887 Y2274.4980 Z-1.5000 F4000
G1 X573.3300 Y2274.4980 Z-1.5000 F4000
G1 X589.7887 Y2274.4980 Z-1.5000 F4000
G1 X589.7887 Y2256.2044 Z-1.5000 F4000
G1 X572.0273 Y2256.2044 Z-1.5000 F4000
G1 X589.7887 Y2256.2044 Z-1.5000 F4000
G1 X589.7887 Y2297.3053 Z-1.5000 F4000
G1 X572.0273 Y2297.3053 Z-1.5000 F4000
G1 X572.0273 Y2297.3053 Z10.0000 F9999
G1 X556.9080 Y2297.3053 Z10.0000 F9999
G1 X556.9080 Y2297.3053 Z-1.5000 F2000
G1 X556.9080 Y2256.2044 Z-1.5000 F4000
G1 X549.7521 Y2256.2044 Z-1.5000 F4000
G1 X545.8805 Y2256.8099 Z-1.5000 F4000
G1 X542.6695 Y2258.6264 Z-1.5000 F4000
G1 X540.4493 Y2261.7824 Z-1.5000 F4000
G1 X539.6053 Y2266.4246 Z-1.5000 F4000
G1 X540.7612 Y2271.1035 Z-1.5000 F4000
G1 X543.5319 Y2274.4246 Z-1.5000 F4000
G1 X546.8530 Y2276.3879 Z-1.5000 F4000
G1 X549.7521 Y2277.0484 Z-1.5000 F4000
G1 X556.9080 Y2277.0484 Z-1.5000 F4000
G1 X549.7521 Y2277.0484 Z-1.5000 F4000
G1 X546.8530 Y2276.3879 Z-1.5000 F4000
G1 X543.5319 Y2274.4246 Z-1.5000 F4000
G1 X540.7612 Y2271.1035 Z-1.5000 F4000
G1 X539.6053 Y2266.4246 Z-1.5000 F4000
G1 X540.4493 Y2261.7824 Z-1.5000 F4000
G1 X542.6695 Y2258.6264 Z-1.5000 F4000
G1 X545.8805 Y2256.8099 Z-1.5000 F4000
G1 X549.7521 Y2256.2044 Z-1.5000 F4000
G1 X556.9080 Y2256.2044 Z-1.5000 F4000
G1 X556.9080 Y2256.2044 Z10.0000 F9999
G1 X539.4952 Y2297.3053 Z10.0000 F9999
G1 X539.4952 Y2297.3053 Z-1.5000 F2000
G1 X552.7245 Y2277.1585 Z-1.5000 F4000
G1 X539.4952 Y2297.3053 Z-1.5000 F4000
G1 X539.4952 Y2297.3053 Z10.0000 F9999
G1 X482.9264 Y2297.3053 Z10.0000 F9999
G1 X482.9264 Y2297.3053 Z-1.5000 F2000
G1 X482.9264 Y2256.2044 Z-1.5000 F4000
G1 X475.7704 Y2256.2044 Z-1.5000 F4000
G1 X471.8988 Y2256.8099 Z-1.5000 F4000
G1 X468.6878 Y2258.6264 Z-1.5000 F4000
G1 X466.4676 Y2261.7824 Z-1.5000 F4000
G1 X465.6236 Y2266.4246 Z-1.5000 F4000
G1 X466.7796 Y2271.1035 Z-1.5000 F4000
G1 X469.5502 Y2274.4246 Z-1.5000 F4000
G1 X472.8713 Y2276.3879 Z-1.5000 F4000
G1 X475.7704 Y2277.0484 Z-1.5000 F4000
G1 X482.9264 Y2277.0484 Z-1.5000 F4000
G1 X475.7704 Y2277.0484 Z-1.5000 F4000
G1 X472.8713 Y2276.3879 Z-1.5000 F4000
G1 X469.5502 Y2274.4246 Z-1.5000 F4000
G1 X466.7796 Y2271.1035 Z-1.5000 F4000
G1 X465.6236 Y2266.4246 Z-1.5000 F4000
G1 X466.4676 Y2261.7824 Z-1.5000 F4000
G1 X468.6878 Y2258.6264 Z-1.5000 F4000
G1 X471.8988 Y2256.8099 Z-1.5000 F4000
G1 X475.7704 Y2256.2044 Z-1.5000 F4000
G1 X482.9264 Y2256.2044 Z-1.5000 F4000
G1 X482.9264 Y2256.2044 Z10.0000 F9999
G1 X498.4310 Y2246.8099 Z10.0000 F9999
G1 X498.4310 Y2246.8099 Z-1.5000 F2000
G1 X528.8163 Y2299.6539 Z-1.5000 F4000
G1 X498.4310 Y2246.8099 Z-1.5000 F4000
G1 X498.4310 Y2246.8099 Z10.0000 F9999
G1 X465.5135 Y2297.3053 Z10.0000 F9999
G1 X465.5135 Y2297.3053 Z-1.5000 F2000
G1 X478.7429 Y2277.1585 Z-1.5000 F4000
G1 X465.5135 Y2297.3053 Z-1.5000 F4000
G1 X465.5135 Y2297.3053 Z10.0000 F9999
G1 X714.2658 Y2256.2044 Z10.0000 F9999
G1 X714.2658 Y2256.2044 Z-1.5000 F2000
G1 X707.8438 Y2256.2044 Z-1.5000 F4000
G1 X699.2199 Y2258.7732 Z-1.5000 F4000
G1 X696.2291 Y2266.3695 Z-1.5000 F4000
G1 X699.3117 Y2274.2411 Z-1.5000 F4000
G1 X707.5502 Y2277.0668 Z-1.5000 F4000
G1 X714.2658 Y2277.0668 Z-1.5000 F4000
G1 X707.5502 Y2277.0668 Z-1.5000 F4000
G1 X699.3117 Y2274.2411 Z-1.5000 F4000
G1 X696.2291 Y2266.3695 Z-1.5000 F4000
G1 X699.2199 Y2258.7732 Z-1.5000 F4000
G1 X707.8438 Y2256.2044 Z-1.5000 F4000
G1 X714.2658 Y2256.2044 Z-1.5000 F4000
G1 X714.2658 Y2297.3053 Z-1.5000 F4000
G1 X714.2658 Y2297.3053 Z10.0000 F9999
G1 X754.2842 Y2290.4796 Z10.0000 F9999
G1 X754.2842 Y2290.4796 Z-1.5000 F2000
G1 X752.3392 Y2293.5255 Z-1.5000 F4000
G1 X749.9172 Y2295.5805 Z-1.5000 F4000
G1 X746.7979 Y2296.8282 Z-1.5000 F4000
G1 X742.6695 Y2297.3053 Z-1.5000 F4000
G1 X738.1741 Y2296.8466 Z-1.5000 F4000
G1 X734.3576 Y2295.1035 Z-1.5000 F4000
G1 X731.6787 Y2292.1127 Z-1.5000 F4000
G1 X730.5594 Y2287.9475 Z-1.5000 F4000
G1 X731.0915 Y2283.9475 Z-1.5000 F4000
G1 X732.6328 Y2281.2686 Z-1.5000 F4000
G1 X734.6695 Y2279.5805 Z-1.5000 F4000
G1 X736.5777 Y2278.4796 Z-1.5000 F4000
G1 X745.7704 Y2273.7457 Z-1.5000 F4000
G1 X748.1374 Y2272.3328 Z-1.5000 F4000
G1 X749.9906 Y2270.6815 Z-1.5000 F4000
G1 X751.2383 Y2268.4980 Z-1.5000 F4000
G1 X751.7521 Y2265.6172 Z-1.5000 F4000
G1 X751.2199 Y2262.3328 Z-1.5000 F4000
G1 X749.3851 Y2259.3053 Z-1.5000 F4000
G1 X746.2475 Y2257.0851 Z-1.5000 F4000
G1 X741.8805 Y2256.2044 Z-1.5000 F4000
G1 X737.6236 Y2256.8833 Z-1.5000 F4000
G1 X734.7796 Y2258.3512 Z-1.5000 F4000
G1 X732.6878 Y2260.4980 Z-1.5000 F4000
G1 X734.7796 Y2258.3512 Z-1.5000 F4000
G1 X737.6236 Y2256.8833 Z-1.5000 F4000
G1 X741.8805 Y2256.2044 Z-1.5000 F4000
G1 X746.2475 Y2257.0851 Z-1.5000 F4000
G1 X749.3851 Y2259.3053 Z-1.5000 F4000
G1 X751.2199 Y2262.3328 Z-1.5000 F4000
G1 X751.7521 Y2265.6172 Z-1.5000 F4000
G1 X751.2383 Y2268.4980 Z-1.5000 F4000
G1 X749.9906 Y2270.6815 Z-1.5000 F4000
G1 X748.1374 Y2272.3328 Z-1.5000 F4000
G1 X745.7704 Y2273.7457 Z-1.5000 F4000
G1 X736.5777 Y2278.4796 Z-1.5000 F4000
G1 X734.6695 Y2279.5805 Z-1.5000 F4000
G1 X732.6328 Y2281.2686 Z-1.5000 F4000
G1 X731.0915 Y2283.9475 Z-1.5000 F4000
G1 X730.5594 Y2287.9475 Z-1.5000 F4000
G1 X731.6787 Y2292.1127 Z-1.5000 F4000
G1 X734.3576 Y2295.1035 Z-1.5000 F4000
G1 X738.1741 Y2296.8466 Z-1.5000 F4000
G1 X742.6695 Y2297.3053 Z-1.5000 F4000
G1 X746.7979 Y2296.8282 Z-1.5000 F4000
G1 X749.9172 Y2295.5805 Z-1.5000 F4000
G1 X752.3392 Y2293.5255 Z-1.5000 F4000
G1 X752.3392 Y2293.5255 Z10.0000 F9999
(Tool Number:1) (7.998 mm dia. slot drill)
M3 S19000
G1 X52.8990 Y134.8997 Z10.0000 F9999
G1 X52.8990 Y134.8997 Z1.0000 F2000
G1 X52.8990 Y173.8709 Z-10.0000 F2000
G1 X52.8990 Y134.8997 Z-21.0000 F2000
G1 X52.8990 Y214.8996 Z-21.0000 F2750
G1 X52.8632 Y215.4332 Z-21.0000 F2750
G1 X52.7507 Y215.9786 Z-21.0000 F2750
G1 X52.5562 Y216.5195 Z-21.0000 F2750
G1 X52.2795 Y217.0375 Z-21.0000 F2750
G1 X51.9257 Y217.5144 Z-21.0000 F2750
G1 X51.5052 Y217.9336 Z-21.0000 F2750
G1 X51.0327 Y218.2824 Z-21.0000 F2750
G1 X50.5257 Y218.5532 Z-21.0000 F2750
G1 X50.0023 Y218.7437 Z-21.0000 F2750
G1 X49.4795 Y218.8564 Z-21.0000 F2750
G1 X48.6901 Y218.9062 Z-21.0000 F2750
G1 X47.8991 Y218.8986 Z-21.0000 F2750
G1 X47.8991 Y220.9006 Z-21.0000 F2750
G1 X85.9010 Y220.9006 Z-21.0000 F2750
G1 X85.9010 Y218.8986 Z-21.0000 F2750
G1 X85.1100 Y218.9062 Z-21.0000 F2750
G1 X84.3205 Y218.8564 Z-21.0000 F2750
G1 X83.7977 Y218.7437 Z-21.0000 F2750
G1 X83.2743 Y218.5532 Z-21.0000 F2750
G1 X82.7673 Y218.2824 Z-21.0000 F2750
G1 X82.2948 Y217.9336 Z-21.0000 F2750
G1 X81.8743 Y217.5144 Z-21.0000 F2750
G1 X81.5205 Y217.0375 Z-21.0000 F2750
G1 X81.2438 Y216.5195 Z-21.0000 F2750
G1 X81.0493 Y215.9786 Z-21.0000 F2750
G1 X80.9368 Y215.4332 Z-21.0000 F2750
G1 X80.9010 Y214.8996 Z-21.0000 F2750
G1 X80.9010 Y143.8997 Z-21.0000 F2750
G1 X80.9490 Y143.2819 Z-21.0000 F2750
G1 X81.0955 Y142.6677 Z-21.0000 F2750
G1 X81.3387 Y142.0807 Z-21.0000 F2750
G1 X81.6693 Y141.5429 Z-21.0000 F2750
G1 X82.0723 Y141.0720 Z-21.0000 F2750
G1 X82.5431 Y140.6691 Z-21.0000 F2750
G1 X83.0810 Y140.3384 Z-21.0000 F2750
G1 X83.6680 Y140.0952 Z-21.0000 F2750
G1 X84.2821 Y139.9488 Z-21.0000 F2750
G1 X84.9000 Y139.9007 Z-21.0000 F2750
G1 X104.8999 Y139.9007 Z-21.0000 F2750
G1 X105.4335 Y139.9365 Z-21.0000 F2750
G1 X105.9789 Y140.0491 Z-21.0000 F2750
G1 X106.5198 Y140.2435 Z-21.0000 F2750
G1 X107.0378 Y140.5202 Z-21.0000 F2750
G1 X107.5147 Y140.8740 Z-21.0000 F2750
G1 X107.9339 Y141.2946 Z-21.0000 F2750
G1 X108.2827 Y141.7671 Z-21.0000 F2750
G1 X108.5535 Y142.2740 Z-21.0000 F2750
G1 X108.7439 Y142.7974 Z-21.0000 F2750
G1 X108.8567 Y143.3202 Z-21.0000 F2750
G1 X108.9065 Y144.1097 Z-21.0000 F2750
G1 X108.8989 Y144.9007 Z-21.0000 F2750
G1 X110.9009 Y144.9007 Z-21.0000 F2750
G1 X110.9009 Y124.8988 Z-21.0000 F2750
G1 X108.8989 Y124.8988 Z-21.0000 F2750
G1 X108.9065 Y125.6898 Z-21.0000 F2750
G1 X108.8567 Y126.4793 Z-21.0000 F2750
G1 X108.7439 Y127.0021 Z-21.0000 F2750
G1 X108.5535 Y127.5255 Z-21.0000 F2750
G1 X108.2827 Y128.0324 Z-21.0000 F2750
G1 X107.9339 Y128.5049 Z-21.0000 F2750
G1 X107.5147 Y128.9254 Z-21.0000 F2750
G1 X107.0378 Y129.2793 Z-21.0000 F2750
G1 X106.5198 Y129.5560 Z-21.0000 F2750
G1 X105.9789 Y129.7504 Z-21.0000 F2750
G1 X105.4335 Y129.8630 Z-21.0000 F2750
G1 X104.8999 Y129.8988 Z-21.0000 F2750
G1 X84.9000 Y129.8988 Z-21.0000 F2750
G1 X84.3205 Y129.8565 Z-21.0000 F2750
G1 X83.7250 Y129.7223 Z-21.0000 F2750
G1 X83.1354 Y129.4884 Z-21.0000 F2750
G1 X82.5761 Y129.1543 Z-21.0000 F2750
G1 X82.0723 Y128.7275 Z-21.0000 F2750
G1 X81.6455 Y128.2236 Z-21.0000 F2750
G1 X81.3114 Y127.6644 Z-21.0000 F2750
G1 X81.0775 Y127.0747 Z-21.0000 F2750
G1 X80.9432 Y126.4793 Z-21.0000 F2750
G1 X80.9010 Y125.8998 Z-21.0000 F2750
G1 X80.9010 Y54.8999 Z-21.0000 F2750
G1 X80.9368 Y54.3663 Z-21.0000 F2750
G1 X81.0493 Y53.8209 Z-21.0000 F2750
G1 X81.2438 Y53.2800 Z-21.0000 F2750
G1 X81.5205 Y52.7619 Z-21.0000 F2750
G1 X81.8743 Y52.2851 Z-21.0000 F2750
G1 X82.2948 Y51.8659 Z-21.0000 F2750
G1 X82.7673 Y51.5171 Z-21.0000 F2750
G1 X83.2743 Y51.2463 Z-21.0000 F2750
G1 X83.7977 Y51.0558 Z-21.0000 F2750
G1 X84.3205 Y50.9431 Z-21.0000 F2750
G1 X85.1100 Y50.8933 Z-21.0000 F2750
G1 X85.9010 Y50.9009 Z-21.0000 F2750
G1 X85.9010 Y48.8989 Z-21.0000 F2750
G1 X47.8991 Y48.8989 Z-21.0000 F2750
G1 X47.8991 Y50.9009 Z-21.0000 F2750
G1 X48.6901 Y50.8933 Z-21.0000 F2750
G1 X49.4795 Y50.9431 Z-21.0000 F2750
G1 X50.0023 Y51.0558 Z-21.0000 F2750
G1 X50.5257 Y51.2463 Z-21.0000 F2750
G1 X51.0327 Y51.5171 Z-21.0000 F2750
G1 X51.5052 Y51.8659 Z-21.0000 F2750
G1 X51.9257 Y52.2851 Z-21.0000 F2750
G1 X52.2795 Y52.7619 Z-21.0000 F2750
G1 X52.5562 Y53.2800 Z-21.0000 F2750
G1 X52.7507 Y53.8209 Z-21.0000 F2750
G1 X52.8632 Y54.3663 Z-21.0000 F2750
G1 X52.8990 Y54.8999 Z-21.0000 F2750
G1 X52.8990 Y134.8997 Z-21.0000 F2750
G1 X52.8990 Y134.8997 Z10.0000 F9999
G1 X80.9010 Y434.8992 Z10.0000 F9999
G1 X80.9010 Y434.8992 Z1.0000 F2000
G1 X80.9010 Y395.9280 Z-10.0000 F2000
G1 X80.9010 Y434.8992 Z-21.0000 F2000
G1 X80.9010 Y354.8993 Z-21.0000 F2750
G1 X80.9368 Y354.3657 Z-21.0000 F2750
G1 X81.0493 Y353.8203 Z-21.0000 F2750
G1 X81.2438 Y353.2794 Z-21.0000 F2750
G1 X81.5205 Y352.7613 Z-21.0000 F2750
G1 X81.8743 Y352.2845 Z-21.0000 F2750
G1 X82.2948 Y351.8653 Z-21.0000 F2750
G1 X82.7673 Y351.5165 Z-21.0000 F2750
G1 X83.2743 Y351.2457 Z-21.0000 F2750
G1 X83.7977 Y351.0552 Z-21.0000 F2750
G1 X84.3205 Y350.9425 Z-21.0000 F2750
G1 X85.1100 Y350.8927 Z-21.0000 F2750
G1 X85.9010 Y350.9003 Z-21.0000 F2750
G1 X85.9010 Y348.8983 Z-21.0000 F2750
G1 X47.8991 Y348.8983 Z-21.0000 F2750
G1 X47.8991 Y350.9003 Z-21.0000 F2750
G1 X48.6901 Y350.8927 Z-21.0000 F2750
G1 X49.4795 Y350.9425 Z-21.0000 F2750
G1 X50.0023 Y351.0552 Z-21.0000 F2750
G1 X50.5257 Y351.2457 Z-21.0000 F2750
G1 X51.0327 Y351.5165 Z-21.0000 F2750
G1 X51.5052 Y351.8653 Z-21.0000 F2750
G1 X51.9257 Y352.2845 Z-21.0000 F2750
G1 X52.2795 Y352.7613 Z-21.0000 F2750
G1 X52.5562 Y353.2794 Z-21.0000 F2750
G1 X52.7507 Y353.8203 Z-21.0000 F2750
G1 X52.8632 Y354.3657 Z-21.0000 F2750
G1 X52.8990 Y354.8993 Z-21.0000 F2750
G1 X52.8990 Y514.8990 Z-21.0000 F2750
G1 X52.8632 Y515.4326 Z-21.0000 F2750
G1 X52.7507 Y515.9781 Z-21.0000 F2750
G1 X52.5562 Y516.5189 Z-21.0000 F2750
G1 X52.2795 Y517.0370 Z-21.0000 F2750
G1 X51.9257 Y517.5138 Z-21.0000 F2750
G1 X51.5052 Y517.9330 Z-21.0000 F2750
G1 X51.0327 Y518.2819 Z-21.0000 F2750
G1 X50.5257 Y518.5526 Z-21.0000 F2750
G1 X50.0023 Y518.7431 Z-21.0000 F2750
G1 X49.4795 Y518.8558 Z-21.0000 F2750
G1 X48.6901 Y518.9056 Z-21.0000 F2750
G1 X47.8991 Y518.8980 Z-21.0000 F2750
G1 X47.8991 Y520.8999 Z-21.0000 F2750
G1 X85.9010 Y520.8999 Z-21.0000 F2750
G1 X85.9010 Y518.8980 Z-21.0000 F2750
G1 X85.1100 Y518.9056 Z-21.0000 F2750
G1 X84.3205 Y518.8558 Z-21.0000 F2750
G1 X83.7977 Y518.7431 Z-21.0000 F2750
G1 X83.2743 Y518.5526 Z-21.0000 F2750
G1 X82.7673 Y518.2819 Z-21.0000 F2750
G1 X82.2948 Y517.9330 Z-21.0000 F2750
G1 X81.8743 Y517.5138 Z-21.0000 F2750
G1 X81.5205 Y517.0370 Z-21.0000 F2750
G1 X81.2438 Y516.5189 Z-21.0000 F2750
G1 X81.0493 Y515.9781 Z-21.0000 F2750
G1 X80.9368 Y515.4326 Z-21.0000 F2750
G1 X80.9010 Y514.8990 Z-21.0000 F2750
G1 X80.9010 Y434.8992 Z-21.0000 F2750
G1 X80.9010 Y434.8992 Z10.0000 F9999
G1 X80.9010 Y734.8985 Z10.0000 F9999
G1 X80.9010 Y734.8985 Z1.0000 F2000
G1 X80.9010 Y695.9273 Z-10.0000 F2000
G1 X80.9010 Y734.8985 Z-21.0000 F2000
G1 X80.9010 Y654.8986 Z-21.0000 F2750
G1 X80.9368 Y654.3650 Z-21.0000 F2750
G1 X81.0493 Y653.8196 Z-21.0000 F2750
G1 X81.2438 Y653.2787 Z-21.0000 F2750
G1 X81.5205 Y652.7607 Z-21.0000 F2750
G1 X81.8743 Y652.2838 Z-21.0000 F2750
G1 X82.2948 Y651.8646 Z-21.0000 F2750
G1 X82.7673 Y651.5158 Z-21.0000 F2750
G1 X83.2743 Y651.2450 Z-21.0000 F2750
G1 X83.7977 Y651.0546 Z-21.0000 F2750
G1 X84.3205 Y650.9418 Z-21.0000 F2750
G1 X85.1100 Y650.8920 Z-21.0000 F2750
G1 X85.9010 Y650.8996 Z-21.0000 F2750
G1 X85.9010 Y648.8977 Z-21.0000 F2750
G1 X47.8991 Y648.8977 Z-21.0000 F2750
G1 X47.8991 Y650.8996 Z-21.0000 F2750
G1 X48.6901 Y650.8920 Z-21.0000 F2750
G1 X49.4795 Y650.9418 Z-21.0000 F2750
G1 X50.0023 Y651.0546 Z-21.0000 F2750
G1 X50.5257 Y651.2450 Z-21.0000 F2750
G1 X51.0327 Y651.5158 Z-21.0000 F2750
G1 X51.5052 Y651.8646 Z-21.0000 F2750
G1 X51.9257 Y652.2838 Z-21.0000 F2750
G1 X52.2795 Y652.7607 Z-21.0000 F2750
G1 X52.5562 Y653.2787 Z-21.0000 F2750
G1 X52.7507 Y653.8196 Z-21.0000 F2750
G1 X52.8632 Y654.3650 Z-21.0000 F2750
G1 X52.8990 Y654.8986 Z-21.0000 F2750
G1 X52.8990 Y814.8983 Z-21.0000 F2750
G1 X52.8632 Y815.4319 Z-21.0000 F2750
G1 X52.7507 Y815.9774 Z-21.0000 F2750
G1 X52.5562 Y816.5183 Z-21.0000 F2750
G1 X52.2795 Y817.0363 Z-21.0000 F2750
G1 X51.9257 Y817.5131 Z-21.0000 F2750
G1 X51.5052 Y817.9323 Z-21.0000 F2750
G1 X51.0327 Y818.2812 Z-21.0000 F2750
G1 X50.5257 Y818.5520 Z-21.0000 F2750
G1 X50.0023 Y818.7424 Z-21.0000 F2750
G1 X49.4795 Y818.8551 Z-21.0000 F2750
G1 X48.6901 Y818.9050 Z-21.0000 F2750
G1 X47.8991 Y818.8973 Z-21.0000 F2750
G1 X47.8991 Y820.8993 Z-21.0000 F2750
G1 X85.9010 Y820.8993 Z-21.0000 F2750
G1 X85.9010 Y818.8973 Z-21.0000 F2750
G1 X85.1100 Y818.9050 Z-21.0000 F2750
G1 X84.3205 Y818.8551 Z-21.0000 F2750
G1 X83.7977 Y818.7424 Z-21.0000 F2750
G1 X83.2743 Y818.5520 Z-21.0000 F2750
G1 X82.7673 Y818.2812 Z-21.0000 F2750
G1 X82.2948 Y817.9323 Z-21.0000 F2750
G1 X81.8743 Y817.5131 Z-21.0000 F2750
G1 X81.5205 Y817.0363 Z-21.0000 F2750
G1 X81.2438 Y816.5183 Z-21.0000 F2750
G1 X81.0493 Y815.9774 Z-21.0000 F2750
G1 X80.9368 Y815.4319 Z-21.0000 F2750
G1 X80.9010 Y814.8983 Z-21.0000 F2750
G1 X80.9010 Y734.8985 Z-21.0000 F2750
G1 X80.9010 Y734.8985 Z10.0000 F9999
G1 X80.9010 Y1034.8979 Z10.0000 F9999
G1 X80.9010 Y1034.8979 Z1.0000 F2000
G1 X80.9010 Y995.9267 Z-10.0000 F2000
G1 X80.9010 Y1034.8979 Z-21.0000 F2000
G1 X80.9010 Y954.8980 Z-21.0000 F2750
G1 X80.9368 Y954.3644 Z-21.0000 F2750
G1 X81.0493 Y953.8190 Z-21.0000 F2750
G1 X81.2438 Y953.2781 Z-21.0000 F2750
G1 X81.5205 Y952.7601 Z-21.0000 F2750
G1 X81.8743 Y952.2832 Z-21.0000 F2750
G1 X82.2948 Y951.8640 Z-21.0000 F2750
G1 X82.7673 Y951.5152 Z-21.0000 F2750
G1 X83.2743 Y951.2444 Z-21.0000 F2750
G1 X83.7977 Y951.0540 Z-21.0000 F2750
G1 X84.3205 Y950.9412 Z-21.0000 F2750
G1 X85.1100 Y950.8914 Z-21.0000 F2750
G1 X85.9010 Y950.8990 Z-21.0000 F2750
G1 X85.9010 Y948.8971 Z-21.0000 F2750
G1 X65.8990 Y948.8971 Z-21.0000 F2750
G1 X65.8990 Y950.8990 Z-21.0000 F2750
G1 X66.6900 Y950.8914 Z-21.0000 F2750
G1 X67.4795 Y950.9412 Z-21.0000 F2750
G1 X68.0023 Y951.0540 Z-21.0000 F2750
G1 X68.5257 Y951.2444 Z-21.0000 F2750
G1 X69.0327 Y951.5152 Z-21.0000 F2750
G1 X69.5052 Y951.8640 Z-21.0000 F2750
G1 X69.9257 Y952.2832 Z-21.0000 F2750
G1 X70.2795 Y952.7601 Z-21.0000 F2750
G1 X70.5562 Y953.2781 Z-21.0000 F2750
G1 X70.7507 Y953.8190 Z-21.0000 F2750
G1 X70.8632 Y954.3644 Z-21.0000 F2750
G1 X70.8990 Y954.8980 Z-21.0000 F2750
G1 X70.8990 Y1025.8980 Z-21.0000 F2750
G1 X70.8568 Y1026.4775 Z-21.0000 F2750
G1 X70.7225 Y1027.0729 Z-21.0000 F2750
G1 X70.4886 Y1027.6626 Z-21.0000 F2750
G1 X70.1545 Y1028.2218 Z-21.0000 F2750
G1 X69.7277 Y1028.7257 Z-21.0000 F2750
G1 X69.2239 Y1029.1525 Z-21.0000 F2750
G1 X68.6646 Y1029.4866 Z-21.0000 F2750
G1 X68.0750 Y1029.7205 Z-21.0000 F2750
G1 X67.4795 Y1029.8547 Z-21.0000 F2750
G1 X66.9000 Y1029.8970 Z-21.0000 F2750
G1 X45.9000 Y1029.8970 Z-21.0000 F2750
G1 X45.3664 Y1029.8612 Z-21.0000 F2750
G1 X44.8209 Y1029.7486 Z-21.0000 F2750
G1 X44.2801 Y1029.5542 Z-21.0000 F2750
G1 X43.7620 Y1029.2775 Z-21.0000 F2750
G1 X43.2852 Y1028.9236 Z-21.0000 F2750
G1 X42.8660 Y1028.5031 Z-21.0000 F2750
G1 X42.5171 Y1028.0306 Z-21.0000 F2750
G1 X42.2464 Y1027.5237 Z-21.0000 F2750
G1 X42.0559 Y1027.0003 Z-21.0000 F2750
G1 X41.9432 Y1026.4775 Z-21.0000 F2750
G1 X41.8934 Y1025.6880 Z-21.0000 F2750
G1 X41.9010 Y1024.8970 Z-21.0000 F2750
G1 X39.8991 Y1024.8970 Z-21.0000 F2750
G1 X39.8991 Y1044.8990 Z-21.0000 F2750
G1 X41.9010 Y1044.8990 Z-21.0000 F2750
G1 X41.8934 Y1044.1079 Z-21.0000 F2750
G1 X41.9432 Y1043.3184 Z-21.0000 F2750
G1 X42.0559 Y1042.7956 Z-21.0000 F2750
G1 X42.2464 Y1042.2723 Z-21.0000 F2750
G1 X42.5171 Y1041.7653 Z-21.0000 F2750
G1 X42.8660 Y1041.2928 Z-21.0000 F2750
G1 X43.2852 Y1040.8723 Z-21.0000 F2750
G1 X43.7620 Y1040.5185 Z-21.0000 F2750
G1 X44.2801 Y1040.2418 Z-21.0000 F2750
G1 X44.8209 Y1040.0473 Z-21.0000 F2750
G1 X45.3664 Y1039.9347 Z-21.0000 F2750
G1 X45.9000 Y1039.8990 Z-21.0000 F2750
G1 X66.9000 Y1039.8990 Z-21.0000 F2750
G1 X67.5179 Y1039.9470 Z-21.0000 F2750
G1 X68.1320 Y1040.0935 Z-21.0000 F2750
G1 X68.7190 Y1040.3366 Z-21.0000 F2750
G1 X69.2569 Y1040.6673 Z-21.0000 F2750
G1 X69.7277 Y1041.0702 Z-21.0000 F2750
G1 X70.1307 Y1041.5411 Z-21.0000 F2750
G1 X70.4613 Y1042.0790 Z-21.0000 F2750
G1 X70.7045 Y1042.6659 Z-21.0000 F2750
G1 X70.8510 Y1043.2801 Z-21.0000 F2750
G1 X70.8990 Y1043.8980 Z-21.0000 F2750
G1 X70.8990 Y1114.8977 Z-21.0000 F2750
G1 X70.8632 Y1115.4313 Z-21.0000 F2750
G1 X70.7507 Y1115.9768 Z-21.0000 F2750
G1 X70.5562 Y1116.5176 Z-21.0000 F2750
G1 X70.2795 Y1117.0357 Z-21.0000 F2750
G1 X69.9257 Y1117.5125 Z-21.0000 F2750
G1 X69.5052 Y1117.9317 Z-21.0000 F2750
G1 X69.0327 Y1118.2806 Z-21.0000 F2750
G1 X68.5257 Y1118.5514 Z-21.0000 F2750
G1 X68.0023 Y1118.7418 Z-21.0000 F2750
G1 X67.4795 Y1118.8545 Z-21.0000 F2750
G1 X66.6900 Y1118.9044 Z-21.0000 F2750
G1 X65.8990 Y1118.8967 Z-21.0000 F2750
G1 X65.8990 Y1120.8987 Z-21.0000 F2750
G1 X85.9010 Y1120.8987 Z-21.0000 F2750
G1 X85.9010 Y1118.8967 Z-21.0000 F2750
G1 X85.1100 Y1118.9044 Z-21.0000 F2750
G1 X84.3205 Y1118.8545 Z-21.0000 F2750
G1 X83.7977 Y1118.7418 Z-21.0000 F2750
G1 X83.2743 Y1118.5514 Z-21.0000 F2750
G1 X82.7673 Y1118.2806 Z-21.0000 F2750
G1 X82.2948 Y1117.9317 Z-21.0000 F2750
G1 X81.8743 Y1117.5125 Z-21.0000 F2750
G1 X81.5205 Y1117.0357 Z-21.0000 F2750
G1 X81.2438 Y1116.5176 Z-21.0000 F2750
G1 X81.0493 Y1115.9768 Z-21.0000 F2750
G1 X80.9368 Y1115.4313 Z-21.0000 F2750
G1 X80.9010 Y1114.8977 Z-21.0000 F2750
G1 X80.9010 Y1034.8979 Z-21.0000 F2750
G1 X80.9010 Y1034.8979 Z10.0000 F9999
G1 X70.8990 Y1334.8974 Z10.0000 F9999
G1 X70.8990 Y1334.8974 Z1.0000 F2000
G1 X70.8990 Y1373.8685 Z-10.0000 F2000
G1 X70.8990 Y1334.8974 Z-21.0000 F2000
G1 X70.8990 Y1414.8972 Z-21.0000 F2750
G1 X70.8632 Y1415.4308 Z-21.0000 F2750
G1 X70.7507 Y1415.9763 Z-21.0000 F2750
G1 X70.5562 Y1416.5172 Z-21.0000 F2750
G1 X70.2795 Y1417.0352 Z-21.0000 F2750
G1 X69.9257 Y1417.5120 Z-21.0000 F2750
G1 X69.5052 Y1417.9312 Z-21.0000 F2750
G1 X69.0327 Y1418.2801 Z-21.0000 F2750
G1 X68.5257 Y1418.5509 Z-21.0000 F2750
G1 X68.0023 Y1418.7413 Z-21.0000 F2750
G1 X67.4795 Y1418.8540 Z-21.0000 F2750
G1 X66.6900 Y1418.9039 Z-21.0000 F2750
G1 X65.8990 Y1418.8962 Z-21.0000 F2750
G1 X65.8990 Y1420.8982 Z-21.0000 F2750
G1 X85.9010 Y1420.8982 Z-21.0000 F2750
G1 X85.9010 Y1418.8962 Z-21.0000 F2750
G1 X85.1100 Y1418.9039 Z-21.0000 F2750
G1 X84.3205 Y1418.8540 Z-21.0000 F2750
G1 X83.7977 Y1418.7413 Z-21.0000 F2750
G1 X83.2743 Y1418.5509 Z-21.0000 F2750
G1 X82.7673 Y1418.2801 Z-21.0000 F2750
G1 X82.2948 Y1417.9312 Z-21.0000 F2750
G1 X81.8743 Y1417.5120 Z-21.0000 F2750
G1 X81.5205 Y1417.0352 Z-21.0000 F2750
G1 X81.2438 Y1416.5172 Z-21.0000 F2750
G1 X81.0493 Y1415.9763 Z-21.0000 F2750
G1 X80.9368 Y1415.4308 Z-21.0000 F2750
G1 X80.9010 Y1414.8972 Z-21.0000 F2750
G1 X80.9010 Y1254.8975 Z-21.0000 F2750
G1 X80.9368 Y1254.3639 Z-21.0000 F2750
G1 X81.0493 Y1253.8184 Z-21.0000 F2750
G1 X81.2438 Y1253.2776 Z-21.0000 F2750
G1 X81.5205 Y1252.7595 Z-21.0000 F2750
G1 X81.8743 Y1252.2827 Z-21.0000 F2750
G1 X82.2948 Y1251.8635 Z-21.0000 F2750
G1 X82.7673 Y1251.5146 Z-21.0000 F2750
G1 X83.2743 Y1251.2438 Z-21.0000 F2750
G1 X83.7977 Y1251.0534 Z-21.0000 F2750
G1 X84.3205 Y1250.9407 Z-21.0000 F2750
G1 X85.1100 Y1250.8908 Z-21.0000 F2750
G1 X85.9010 Y1250.8985 Z-21.0000 F2750
G1 X85.9010 Y1248.8965 Z-21.0000 F2750
G1 X65.8990 Y1248.8965 Z-21.0000 F2750
G1 X65.8990 Y1250.8985 Z-21.0000 F2750
G1 X66.6900 Y1250.8908 Z-21.0000 F2750
G1 X67.4795 Y1250.9407 Z-21.0000 F2750
G1 X68.0023 Y1251.0534 Z-21.0000 F2750
G1 X68.5257 Y1251.2438 Z-21.0000 F2750
G1 X69.0327 Y1251.5146 Z-21.0000 F2750
G1 X69.5052 Y1251.8635 Z-21.0000 F2750
G1 X69.9257 Y1252.2827 Z-21.0000 F2750
G1 X70.2795 Y1252.7595 Z-21.0000 F2750
G1 X70.5562 Y1253.2776 Z-21.0000 F2750
G1 X70.7507 Y1253.8184 Z-21.0000 F2750
G1 X70.8632 Y1254.3639 Z-21.0000 F2750
G1 X70.8990 Y1254.8975 Z-21.0000 F2750
G1 X70.8990 Y1334.8974 Z-21.0000 F2750
G1 X70.8990 Y1334.8974 Z10.0000 F9999
G1 X80.9010 Y1634.8967 Z10.0000 F9999
G1 X80.9010 Y1634.8967 Z1.0000 F2000
G1 X80.9010 Y1595.9255 Z-10.0000 F2000
G1 X80.9010 Y1634.8967 Z-21.0000 F2000
G1 X80.9010 Y1554.8969 Z-21.0000 F2750
G1 X80.9368 Y1554.3633 Z-21.0000 F2750
G1 X81.0493 Y1553.8178 Z-21.0000 F2750
G1 X81.2438 Y1553.2769 Z-21.0000 F2750
G1 X81.5205 Y1552.7589 Z-21.0000 F2750
G1 X81.8743 Y1552.2821 Z-21.0000 F2750
G1 X82.2948 Y1551.8629 Z-21.0000 F2750
G1 X82.7673 Y1551.5140 Z-21.0000 F2750
G1 X83.2743 Y1551.2432 Z-21.0000 F2750
G1 X83.7977 Y1551.0528 Z-21.0000 F2750
G1 X84.3205 Y1550.9401 Z-21.0000 F2750
G1 X85.1100 Y1550.8902 Z-21.0000 F2750
G1 X85.9010 Y1550.8979 Z-21.0000 F2750
G1 X85.9010 Y1548.8960 Z-21.0000 F2750
G1 X65.8990 Y1548.8960 Z-21.0000 F2750
G1 X65.8990 Y1550.8979 Z-21.0000 F2750
G1 X66.6900 Y1550.8902 Z-21.0000 F2750
G1 X67.4795 Y1550.9401 Z-21.0000 F2750
G1 X68.0023 Y1551.0528 Z-21.0000 F2750
G1 X68.5257 Y1551.2432 Z-21.0000 F2750
G1 X69.0327 Y1551.5140 Z-21.0000 F2750
G1 X69.5052 Y1551.8629 Z-21.0000 F2750
G1 X69.9257 Y1552.2821 Z-21.0000 F2750
G1 X70.2795 Y1552.7589 Z-21.0000 F2750
G1 X70.5562 Y1553.2769 Z-21.0000 F2750
G1 X70.7507 Y1553.8178 Z-21.0000 F2750
G1 X70.8632 Y1554.3633 Z-21.0000 F2750
G1 X70.8990 Y1554.8969 Z-21.0000 F2750
G1 X70.8990 Y1625.8967 Z-21.0000 F2750
G1 X70.8568 Y1626.4763 Z-21.0000 F2750
G1 X70.7225 Y1627.0717 Z-21.0000 F2750
G1 X70.4886 Y1627.6614 Z-21.0000 F2750
G1 X70.1545 Y1628.2206 Z-21.0000 F2750
G1 X69.7277 Y1628.7245 Z-21.0000 F2750
G1 X69.2239 Y1629.1512 Z-21.0000 F2750
G1 X68.6646 Y1629.4853 Z-21.0000 F2750
G1 X68.0750 Y1629.7192 Z-21.0000 F2750
G1 X67.4795 Y1629.8535 Z-21.0000 F2750
G1 X66.9000 Y1629.8957 Z-21.0000 F2750
G1 X45.9000 Y1629.8957 Z-21.0000 F2750
G1 X45.3664 Y1629.8600 Z-21.0000 F2750
G1 X44.8209 Y1629.7474 Z-21.0000 F2750
G1 X44.2801 Y1629.5529 Z-21.0000 F2750
G1 X43.7620 Y1629.2763 Z-21.0000 F2750
G1 X43.2852 Y1628.9224 Z-21.0000 F2750
G1 X42.8660 Y1628.5019 Z-21.0000 F2750
G1 X42.5171 Y1628.0294 Z-21.0000 F2750
G1 X42.2464 Y1627.5224 Z-21.0000 F2750
G1 X42.0559 Y1626.9991 Z-21.0000 F2750
G1 X41.9432 Y1626.4763 Z-21.0000 F2750
G1 X41.8934 Y1625.6868 Z-21.0000 F2750
G1 X41.9010 Y1624.8957 Z-21.0000 F2750
G1 X39.8991 Y1624.8957 Z-21.0000 F2750
G1 X39.8991 Y1644.8977 Z-21.0000 F2750
G1 X41.9010 Y1644.8977 Z-21.0000 F2750
G1 X41.8934 Y1644.1067 Z-21.0000 F2750
G1 X41.9432 Y1643.3172 Z-21.0000 F2750
G1 X42.0559 Y1642.7944 Z-21.0000 F2750
G1 X42.2464 Y1642.2710 Z-21.0000 F2750
G1 X42.5171 Y1641.7641 Z-21.0000 F2750
G1 X42.8660 Y1641.2916 Z-21.0000 F2750
G1 X43.2852 Y1640.8711 Z-21.0000 F2750
G1 X43.7620 Y1640.5172 Z-21.0000 F2750
G1 X44.2801 Y1640.2405 Z-21.0000 F2750
G1 X44.8209 Y1640.0461 Z-21.0000 F2750
G1 X45.3664 Y1639.9335 Z-21.0000 F2750
G1 X45.9000 Y1639.8977 Z-21.0000 F2750
G1 X66.9000 Y1639.8977 Z-21.0000 F2750
G1 X67.5179 Y1639.9458 Z-21.0000 F2750
G1 X68.1320 Y1640.0923 Z-21.0000 F2750
G1 X68.7190 Y1640.3354 Z-21.0000 F2750
G1 X69.2569 Y1640.6661 Z-21.0000 F2750
G1 X69.7277 Y1641.0690 Z-21.0000 F2750
G1 X70.1307 Y1641.5399 Z-21.0000 F2750
G1 X70.4613 Y1642.0777 Z-21.0000 F2750
G1 X70.7045 Y1642.6647 Z-21.0000 F2750
G1 X70.8510 Y1643.2789 Z-21.0000 F2750
G1 X70.8990 Y1643.8967 Z-21.0000 F2750
G1 X70.8990 Y1714.8965 Z-21.0000 F2750
G1 X70.8632 Y1715.4301 Z-21.0000 F2750
G1 X70.7507 Y1715.9755 Z-21.0000 F2750
G1 X70.5562 Y1716.5164 Z-21.0000 F2750
G1 X70.2795 Y1717.0345 Z-21.0000 F2750
G1 X69.9257 Y1717.5113 Z-21.0000 F2750
G1 X69.5052 Y1717.9305 Z-21.0000 F2750
G1 X69.0327 Y1718.2793 Z-21.0000 F2750
G1 X68.5257 Y1718.5501 Z-21.0000 F2750
G1 X68.0023 Y1718.7406 Z-21.0000 F2750
G1 X67.4795 Y1718.8533 Z-21.0000 F2750
G1 X66.6900 Y1718.9031 Z-21.0000 F2750
G1 X65.8990 Y1718.8955 Z-21.0000 F2750
G1 X65.8990 Y1720.8975 Z-21.0000 F2750
G1 X85.9010 Y1720.8975 Z-21.0000 F2750
G1 X85.9010 Y1718.8955 Z-21.0000 F2750
G1 X85.1100 Y1718.9031 Z-21.0000 F2750
G1 X84.3205 Y1718.8533 Z-21.0000 F2750
G1 X83.7977 Y1718.7406 Z-21.0000 F2750
G1 X83.2743 Y1718.5501 Z-21.0000 F2750
G1 X82.7673 Y1718.2793 Z-21.0000 F2750
G1 X82.2948 Y1717.9305 Z-21.0000 F2750
G1 X81.8743 Y1717.5113 Z-21.0000 F2750
G1 X81.5205 Y1717.0345 Z-21.0000 F2750
G1 X81.2438 Y1716.5164 Z-21.0000 F2750
G1 X81.0493 Y1715.9755 Z-21.0000 F2750
G1 X80.9368 Y1715.4301 Z-21.0000 F2750
G1 X80.9010 Y1714.8965 Z-21.0000 F2750
G1 X80.9010 Y1634.8967 Z-21.0000 F2750
G1 X80.9010 Y1634.8967 Z10.0000 F9999
G1 X52.8990 Y1934.8961 Z10.0000 F9999
G1 X52.8990 Y1934.8961 Z1.0000 F2000
G1 X52.8990 Y1973.8673 Z-10.0000 F2000
G1 X52.8990 Y1934.8961 Z-21.0000 F2000
G1 X52.8990 Y2014.8959 Z-21.0000 F2750
G1 X52.8632 Y2015.4295 Z-21.0000 F2750
G1 X52.7507 Y2015.9749 Z-21.0000 F2750
G1 X52.5562 Y2016.5158 Z-21.0000 F2750
G1 X52.2795 Y2017.0339 Z-21.0000 F2750
G1 X51.9257 Y2017.5107 Z-21.0000 F2750
G1 X51.5052 Y2017.9299 Z-21.0000 F2750
G1 X51.0327 Y2018.2787 Z-21.0000 F2750
G1 X50.5257 Y2018.5495 Z-21.0000 F2750
G1 X50.0023 Y2018.7400 Z-21.0000 F2750
G1 X49.4795 Y2018.8527 Z-21.0000 F2750
G1 X48.6901 Y2018.9025 Z-21.0000 F2750
G1 X47.8991 Y2018.8949 Z-21.0000 F2750
G1 X47.8991 Y2020.8970 Z-21.0000 F2750
G1 X85.9010 Y2020.8970 Z-21.0000 F2750
G1 X85.9010 Y2018.8949 Z-21.0000 F2750
G1 X85.1100 Y2018.9025 Z-21.0000 F2750
G1 X84.3205 Y2018.8527 Z-21.0000 F2750
G1 X83.7977 Y2018.7400 Z-21.0000 F2750
G1 X83.2743 Y2018.5495 Z-21.0000 F2750
G1 X82.7673 Y2018.2787 Z-21.0000 F2750
G1 X82.2948 Y2017.9299 Z-21.0000 F2750
G1 X81.8743 Y2017.5107 Z-21.0000 F2750
G1 X81.5205 Y2017.0339 Z-21.0000 F2750
G1 X81.2438 Y2016.5158 Z-21.0000 F2750
G1 X81.0493 Y2015.9749 Z-21.0000 F2750
G1 X80.9368 Y2015.4295 Z-21.0000 F2750
G1 X80.9010 Y2014.8959 Z-21.0000 F2750
G1 X80.9010 Y1854.8964 Z-21.0000 F2750
G1 X80.9368 Y1854.3628 Z-21.0000 F2750
G1 X81.0493 Y1853.8173 Z-21.0000 F2750
G1 X81.2438 Y1853.2765 Z-21.0000 F2750
G1 X81.5205 Y1852.7584 Z-21.0000 F2750
G1 X81.8743 Y1852.2816 Z-21.0000 F2750
G1 X82.2948 Y1851.8624 Z-21.0000 F2750
G1 X82.7673 Y1851.5135 Z-21.0000 F2750
G1 X83.2743 Y1851.2427 Z-21.0000 F2750
G1 X83.7977 Y1851.0523 Z-21.0000 F2750
G1 X84.3205 Y1850.9396 Z-21.0000 F2750
G1 X85.1100 Y1850.8897 Z-21.0000 F2750
G1 X85.9010 Y1850.8974 Z-21.0000 F2750
G1 X85.9010 Y1848.8954 Z-21.0000 F2750
G1 X47.8991 Y1848.8954 Z-21.0000 F2750
G1 X47.8991 Y1850.8974 Z-21.0000 F2750
G1 X48.6901 Y1850.8897 Z-21.0000 F2750
G1 X49.4795 Y1850.9396 Z-21.0000 F2750
G1 X50.0023 Y1851.0523 Z-21.0000 F2750
G1 X50.5257 Y1851.2427 Z-21.0000 F2750
G1 X51.0327 Y1851.5135 Z-21.0000 F2750
G1 X51.5052 Y1851.8624 Z-21.0000 F2750
G1 X51.9257 Y1852.2816 Z-21.0000 F2750
G1 X52.2795 Y1852.7584 Z-21.0000 F2750
G1 X52.5562 Y1853.2765 Z-21.0000 F2750
G1 X52.7507 Y1853.8173 Z-21.0000 F2750
G1 X52.8632 Y1854.3628 Z-21.0000 F2750
G1 X52.8990 Y1854.8964 Z-21.0000 F2750
G1 X52.8990 Y1934.8961 Z-21.0000 F2750
G1 X52.8990 Y1934.8961 Z10.0000 F9999
G1 X1166.8987 Y1934.8961 Z10.0000 F9999
G1 X1166.8987 Y1934.8961 Z1.0000 F2000
G1 X1166.8987 Y1895.9250 Z-10.0000 F2000
G1 X1166.8987 Y1934.8961 Z-21.0000 F2000
G1 X1166.8987 Y1854.8964 Z-21.0000 F2750
G1 X1166.9345 Y1854.3628 Z-21.0000 F2750
G1 X1167.0471 Y1853.8173 Z-21.0000 F2750
G1 X1167.2415 Y1853.2765 Z-21.0000 F2750
G1 X1167.5182 Y1852.7584 Z-21.0000 F2750
G1 X1167.8721 Y1852.2816 Z-21.0000 F2750
G1 X1168.2926 Y1851.8624 Z-21.0000 F2750
G1 X1168.7651 Y1851.5135 Z-21.0000 F2750
G1 X1169.2720 Y1851.2427 Z-21.0000 F2750
G1 X1169.7954 Y1851.0523 Z-21.0000 F2750
G1 X1170.3182 Y1850.9396 Z-21.0000 F2750
G1 X1171.1077 Y1850.8897 Z-21.0000 F2750
G1 X1171.8987 Y1850.8974 Z-21.0000 F2750
G1 X1171.8987 Y1848.8954 Z-21.0000 F2750
G1 X1133.8969 Y1848.8954 Z-21.0000 F2750
G1 X1133.8969 Y1850.8974 Z-21.0000 F2750
G1 X1134.6879 Y1850.8897 Z-21.0000 F2750
G1 X1135.4773 Y1850.9396 Z-21.0000 F2750
G1 X1136.0001 Y1851.0523 Z-21.0000 F2750
G1 X1136.5235 Y1851.2427 Z-21.0000 F2750
G1 X1137.0305 Y1851.5135 Z-21.0000 F2750
G1 X1137.5030 Y1851.8624 Z-21.0000 F2750
G1 X1137.9235 Y1852.2816 Z-21.0000 F2750
G1 X1138.2773 Y1852.7584 Z-21.0000 F2750
G1 X1138.5540 Y1853.2765 Z-21.0000 F2750
G1 X1138.7485 Y1853.8173 Z-21.0000 F2750
G1 X1138.8610 Y1854.3628 Z-21.0000 F2750
G1 X1138.8968 Y1854.8964 Z-21.0000 F2750
G1 X1138.8968 Y2014.8959 Z-21.0000 F2750
G1 X1138.8610 Y2015.4295 Z-21.0000 F2750
G1 X1138.7485 Y2015.9749 Z-21.0000 F2750
G1 X1138.5540 Y2016.5158 Z-21.0000 F2750
G1 X1138.2773 Y2017.0339 Z-21.0000 F2750
G1 X1137.9235 Y2017.5107 Z-21.0000 F2750
G1 X1137.5030 Y2017.9299 Z-21.0000 F2750
G1 X1137.0305 Y2018.2787 Z-21.0000 F2750
G1 X1136.5235 Y2018.5495 Z-21.0000 F2750
G1 X1136.0001 Y2018.7400 Z-21.0000 F2750
G1 X1135.4773 Y2018.8527 Z-21.0000 F2750
G1 X1134.6879 Y2018.9025 Z-21.0000 F2750
G1 X1133.8969 Y2018.8949 Z-21.0000 F2750
G1 X1133.8969 Y2020.8970 Z-21.0000 F2750
G1 X1171.8987 Y2020.8970 Z-21.0000 F2750
G1 X1171.8987 Y2018.8949 Z-21.0000 F2750
G1 X1171.1077 Y2018.9025 Z-21.0000 F2750
G1 X1170.3182 Y2018.8527 Z-21.0000 F2750
G1 X1169.7954 Y2018.7400 Z-21.0000 F2750
G1 X1169.2720 Y2018.5495 Z-21.0000 F2750
G1 X1168.7651 Y2018.2787 Z-21.0000 F2750
G1 X1168.2926 Y2017.9299 Z-21.0000 F2750
G1 X1167.8721 Y2017.5107 Z-21.0000 F2750
G1 X1167.5182 Y2017.0339 Z-21.0000 F2750
G1 X1167.2415 Y2016.5158 Z-21.0000 F2750
G1 X1167.0471 Y2015.9749 Z-21.0000 F2750
G1 X1166.9345 Y2015.4295 Z-21.0000 F2750
G1 X1166.8987 Y2014.8959 Z-21.0000 F2750
G1 X1166.8987 Y1934.8961 Z-21.0000 F2750
G1 X1166.8987 Y1934.8961 Z10.0000 F9999
G1 X1138.8968 Y1634.8967 Z10.0000 F9999
G1 X1138.8968 Y1634.8967 Z1.0000 F2000
G1 X1138.8968 Y1673.8678 Z-10.0000 F2000
G1 X1138.8968 Y1634.8967 Z-21.0000 F2000
G1 X1138.8968 Y1714.8965 Z-21.0000 F2750
G1 X1138.8610 Y1715.4301 Z-21.0000 F2750
G1 X1138.7485 Y1715.9755 Z-21.0000 F2750
G1 X1138.5540 Y1716.5164 Z-21.0000 F2750
G1 X1138.2773 Y1717.0345 Z-21.0000 F2750
G1 X1137.9235 Y1717.5113 Z-21.0000 F2750
G1 X1137.5030 Y1717.9305 Z-21.0000 F2750
G1 X1137.0305 Y1718.2793 Z-21.0000 F2750
G1 X1136.5235 Y1718.5501 Z-21.0000 F2750
G1 X1136.0001 Y1718.7406 Z-21.0000 F2750
G1 X1135.4773 Y1718.8533 Z-21.0000 F2750
G1 X1134.6879 Y1718.9031 Z-21.0000 F2750
G1 X1133.8969 Y1718.8955 Z-21.0000 F2750
G1 X1133.8969 Y1720.8975 Z-21.0000 F2750
G1 X1153.8988 Y1720.8975 Z-21.0000 F2750
G1 X1153.8988 Y1718.8955 Z-21.0000 F2750
G1 X1153.1078 Y1718.9031 Z-21.0000 F2750
G1 X1152.3183 Y1718.8533 Z-21.0000 F2750
G1 X1151.7955 Y1718.7406 Z-21.0000 F2750
G1 X1151.2721 Y1718.5501 Z-21.0000 F2750
G1 X1150.7651 Y1718.2793 Z-21.0000 F2750
G1 X1150.2926 Y1717.9305 Z-21.0000 F2750
G1 X1149.8721 Y1717.5113 Z-21.0000 F2750
G1 X1149.5183 Y1717.0345 Z-21.0000 F2750
G1 X1149.2416 Y1716.5164 Z-21.0000 F2750
G1 X1149.0471 Y1715.9755 Z-21.0000 F2750
G1 X1148.9346 Y1715.4301 Z-21.0000 F2750
G1 X1148.8988 Y1714.8965 Z-21.0000 F2750
G1 X1148.8988 Y1643.8967 Z-21.0000 F2750
G1 X1148.9410 Y1643.3172 Z-21.0000 F2750
G1 X1149.0753 Y1642.7218 Z-21.0000 F2750
G1 X1149.3092 Y1642.1321 Z-21.0000 F2750
G1 X1149.6433 Y1641.5729 Z-21.0000 F2750
G1 X1150.0701 Y1641.0690 Z-21.0000 F2750
G1 X1150.5739 Y1640.6423 Z-21.0000 F2750
G1 X1151.1332 Y1640.3081 Z-21.0000 F2750
G1 X1151.7228 Y1640.0742 Z-21.0000 F2750
G1 X1152.3183 Y1639.9400 Z-21.0000 F2750
G1 X1152.8978 Y1639.8977 Z-21.0000 F2750
G1 X1173.8977 Y1639.8977 Z-21.0000 F2750
G1 X1174.4314 Y1639.9335 Z-21.0000 F2750
G1 X1174.9768 Y1640.0461 Z-21.0000 F2750
G1 X1175.5177 Y1640.2405 Z-21.0000 F2750
G1 X1176.0357 Y1640.5172 Z-21.0000 F2750
G1 X1176.5126 Y1640.8711 Z-21.0000 F2750
G1 X1176.9317 Y1641.2916 Z-21.0000 F2750
G1 X1177.2806 Y1641.7641 Z-21.0000 F2750
G1 X1177.5514 Y1642.2710 Z-21.0000 F2750
G1 X1177.7418 Y1642.7944 Z-21.0000 F2750
G1 X1177.8545 Y1643.3172 Z-21.0000 F2750
G1 X1177.9044 Y1644.1067 Z-21.0000 F2750
G1 X1177.8967 Y1644.8977 Z-21.0000 F2750
G1 X1179.8987 Y1644.8977 Z-21.0000 F2750
G1 X1179.8987 Y1624.8957 Z-21.0000 F2750
G1 X1177.8967 Y1624.8957 Z-21.0000 F2750
G1 X1177.9044 Y1625.6868 Z-21.0000 F2750
G1 X1177.8545 Y1626.4763 Z-21.0000 F2750
G1 X1177.7418 Y1626.9991 Z-21.0000 F2750
G1 X1177.5514 Y1627.5224 Z-21.0000 F2750
G1 X1177.2806 Y1628.0294 Z-21.0000 F2750
G1 X1176.9317 Y1628.5019 Z-21.0000 F2750
G1 X1176.5126 Y1628.9224 Z-21.0000 F2750
G1 X1176.0357 Y1629.2763 Z-21.0000 F2750
G1 X1175.5177 Y1629.5529 Z-21.0000 F2750
G1 X1174.9768 Y1629.7474 Z-21.0000 F2750
G1 X1174.4314 Y1629.8600 Z-21.0000 F2750
G1 X1173.8977 Y1629.8957 Z-21.0000 F2750
G1 X1152.8978 Y1629.8957 Z-21.0000 F2750
G1 X1152.3183 Y1629.8535 Z-21.0000 F2750
G1 X1151.7228 Y1629.7192 Z-21.0000 F2750
G1 X1151.1332 Y1629.4853 Z-21.0000 F2750
G1 X1150.5739 Y1629.1512 Z-21.0000 F2750
G1 X1150.0701 Y1628.7245 Z-21.0000 F2750
G1 X1149.6433 Y1628.2206 Z-21.0000 F2750
G1 X1149.3092 Y1627.6614 Z-21.0000 F2750
G1 X1149.0753 Y1627.0717 Z-21.0000 F2750
G1 X1148.9410 Y1626.4763 Z-21.0000 F2750
G1 X1148.8988 Y1625.8967 Z-21.0000 F2750
G1 X1148.8988 Y1554.8969 Z-21.0000 F2750
G1 X1148.9346 Y1554.3633 Z-21.0000 F2750
G1 X1149.0471 Y1553.8178 Z-21.0000 F2750
G1 X1149.2416 Y1553.2769 Z-21.0000 F2750
G1 X1149.5183 Y1552.7589 Z-21.0000 F2750
G1 X1149.8721 Y1552.2821 Z-21.0000 F2750
G1 X1150.2926 Y1551.8629 Z-21.0000 F2750
G1 X1150.7651 Y1551.5140 Z-21.0000 F2750
G1 X1151.2721 Y1551.2432 Z-21.0000 F2750
G1 X1151.7955 Y1551.0528 Z-21.0000 F2750
G1 X1152.3183 Y1550.9401 Z-21.0000 F2750
G1 X1153.1078 Y1550.8902 Z-21.0000 F2750
G1 X1153.8988 Y1550.8979 Z-21.0000 F2750
G1 X1153.8988 Y1548.8960 Z-21.0000 F2750
G1 X1133.8969 Y1548.8960 Z-21.0000 F2750
G1 X1133.8969 Y1550.8979 Z-21.0000 F2750
G1 X1134.6879 Y1550.8902 Z-21.0000 F2750
G1 X1135.4773 Y1550.9401 Z-21.0000 F2750
G1 X1136.0001 Y1551.0528 Z-21.0000 F2750
G1 X1136.5235 Y1551.2432 Z-21.0000 F2750
G1 X1137.0305 Y1551.5140 Z-21.0000 F2750
G1 X1137.5030 Y1551.8629 Z-21.0000 F2750
G1 X1137.9235 Y1552.2821 Z-21.0000 F2750
G1 X1138.2773 Y1552.7589 Z-21.0000 F2750
G1 X1138.5540 Y1553.2769 Z-21.0000 F2750
G1 X1138.7485 Y1553.8178 Z-21.0000 F2750
G1 X1138.8610 Y1554.3633 Z-21.0000 F2750
G1 X1138.8968 Y1554.8969 Z-21.0000 F2750
G1 X1138.8968 Y1634.8967 Z-21.0000 F2750
G1 X1138.8968 Y1634.8967 Z10.0000 F9999
G1 X1148.8988 Y1334.8974 Z10.0000 F9999
G1 X1148.8988 Y1334.8974 Z1.0000 F2000
G1 X1148.8988 Y1295.9262 Z-10.0000 F2000
G1 X1148.8988 Y1334.8974 Z-21.0000 F2000
G1 X1148.8988 Y1254.8975 Z-21.0000 F2750
G1 X1148.9346 Y1254.3639 Z-21.0000 F2750
G1 X1149.0471 Y1253.8184 Z-21.0000 F2750
G1 X1149.2416 Y1253.2776 Z-21.0000 F2750
G1 X1149.5183 Y1252.7595 Z-21.0000 F2750
G1 X1149.8721 Y1252.2827 Z-21.0000 F2750
G1 X1150.2926 Y1251.8635 Z-21.0000 F2750
G1 X1150.7651 Y1251.5146 Z-21.0000 F2750
G1 X1151.2721 Y1251.2438 Z-21.0000 F2750
G1 X1151.7955 Y1251.0534 Z-21.0000 F2750
G1 X1152.3183 Y1250.9407 Z-21.0000 F2750
G1 X1153.1078 Y1250.8908 Z-21.0000 F2750
G1 X1153.8988 Y1250.8985 Z-21.0000 F2750
G1 X1153.8988 Y1248.8965 Z-21.0000 F2750
G1 X1133.8969 Y1248.8965 Z-21.0000 F2750
G1 X1133.8969 Y1250.8985 Z-21.0000 F2750
G1 X1134.6879 Y1250.8908 Z-21.0000 F2750
G1 X1135.4773 Y1250.9407 Z-21.0000 F2750
G1 X1136.0001 Y1251.0534 Z-21.0000 F2750
G1 X1136.5235 Y1251.2438 Z-21.0000 F2750
G1 X1137.0305 Y1251.5146 Z-21.0000 F2750
G1 X1137.5030 Y1251.8635 Z-21.0000 F2750
G1 X1137.9235 Y1252.2827 Z-21.0000 F2750
G1 X1138.2773 Y1252.7595 Z-21.0000 F2750
G1 X1138.5540 Y1253.2776 Z-21.0000 F2750
G1 X1138.7485 Y1253.8184 Z-21.0000 F2750
G1 X1138.8610 Y1254.3639 Z-21.0000 F2750
G1 X1138.8968 Y1254.8975 Z-21.0000 F2750
G1 X1138.8968 Y1414.8972 Z-21.0000 F2750
G1 X1138.8610 Y1415.4308 Z-21.0000 F2750
G1 X1138.7485 Y1415.9763 Z-21.0000 F2750
G1 X1138.5540 Y1416.5172 Z-21.0000 F2750
G1 X1138.2773 Y1417.0352 Z-21.0000 F2750
G1 X1137.9235 Y1417.5120 Z-21.0000 F2750
G1 X1137.5030 Y1417.9312 Z-21.0000 F2750
G1 X1137.0305 Y1418.2801 Z-21.0000 F2750
G1 X1136.5235 Y1418.5509 Z-21.0000 F2750
G1 X1136.0001 Y1418.7413 Z-21.0000 F2750
G1 X1135.4773 Y1418.8540 Z-21.0000 F2750
G1 X1134.6879 Y1418.9039 Z-21.0000 F2750
G1 X1133.8969 Y1418.8962 Z-21.0000 F2750
G1 X1133.8969 Y1420.8982 Z-21.0000 F2750
G1 X1153.8988 Y1420.8982 Z-21.0000 F2750
G1 X1153.8988 Y1418.8962 Z-21.0000 F2750
G1 X1153.1078 Y1418.9039 Z-21.0000 F2750
G1 X1152.3183 Y1418.8540 Z-21.0000 F2750
G1 X1151.7955 Y1418.7413 Z-21.0000 F2750
G1 X1151.2721 Y1418.5509 Z-21.0000 F2750
G1 X1150.7651 Y1418.2801 Z-21.0000 F2750
G1 X1150.2926 Y1417.9312 Z-21.0000 F2750
G1 X1149.8721 Y1417.5120 Z-21.0000 F2750
G1 X1149.5183 Y1417.0352 Z-21.0000 F2750
G1 X1149.2416 Y1416.5172 Z-21.0000 F2750
G1 X1149.0471 Y1415.9763 Z-21.0000 F2750
G1 X1148.9346 Y1415.4308 Z-21.0000 F2750
G1 X1148.8988 Y1414.8972 Z-21.0000 F2750
G1 X1148.8988 Y1334.8974 Z-21.0000 F2750
G1 X1148.8988 Y1334.8974 Z10.0000 F9999
G1 X1138.8968 Y1034.8979 Z10.0000 F9999
G1 X1138.8968 Y1034.8979 Z1.0000 F2000
G1 X1138.8968 Y1073.8690 Z-10.0000 F2000
G1 X1138.8968 Y1034.8979 Z-21.0000 F2000
G1 X1138.8968 Y1114.8977 Z-21.0000 F2750
G1 X1138.8610 Y1115.4313 Z-21.0000 F2750
G1 X1138.7485 Y1115.9768 Z-21.0000 F2750
G1 X1138.5540 Y1116.5176 Z-21.0000 F2750
G1 X1138.2773 Y1117.0357 Z-21.0000 F2750
G1 X1137.9235 Y1117.5125 Z-21.0000 F2750
G1 X1137.5030 Y1117.9317 Z-21.0000 F2750
G1 X1137.0305 Y1118.2806 Z-21.0000 F2750
G1 X1136.5235 Y1118.5514 Z-21.0000 F2750
G1 X1136.0001 Y1118.7418 Z-21.0000 F2750
G1 X1135.4773 Y1118.8545 Z-21.0000 F2750
G1 X1134.6879 Y1118.9044 Z-21.0000 F2750
G1 X1133.8969 Y1118.8967 Z-21.0000 F2750
G1 X1133.8969 Y1120.8987 Z-21.0000 F2750
G1 X1153.8988 Y1120.8987 Z-21.0000 F2750
G1 X1153.8988 Y1118.8967 Z-21.0000 F2750
G1 X1153.1078 Y1118.9044 Z-21.0000 F2750
G1 X1152.3183 Y1118.8545 Z-21.0000 F2750
G1 X1151.7955 Y1118.7418 Z-21.0000 F2750
G1 X1151.2721 Y1118.5514 Z-21.0000 F2750
G1 X1150.7651 Y1118.2806 Z-21.0000 F2750
G1 X1150.2926 Y1117.9317 Z-21.0000 F2750
G1 X1149.8721 Y1117.5125 Z-21.0000 F2750
G1 X1149.5183 Y1117.0357 Z-21.0000 F2750
G1 X1149.2416 Y1116.5176 Z-21.0000 F2750
G1 X1149.0471 Y1115.9768 Z-21.0000 F2750
G1 X1148.9346 Y1115.4313 Z-21.0000 F2750
G1 X1148.8988 Y1114.8977 Z-21.0000 F2750
G1 X1148.8988 Y1043.8980 Z-21.0000 F2750
G1 X1148.9410 Y1043.3184 Z-21.0000 F2750
G1 X1149.0753 Y1042.7230 Z-21.0000 F2750
G1 X1149.3092 Y1042.1333 Z-21.0000 F2750
G1 X1149.6433 Y1041.5741 Z-21.0000 F2750
G1 X1150.0701 Y1041.0702 Z-21.0000 F2750
G1 X1150.5739 Y1040.6435 Z-21.0000 F2750
G1 X1151.1332 Y1040.3094 Z-21.0000 F2750
G1 X1151.7228 Y1040.0755 Z-21.0000 F2750
G1 X1152.3183 Y1039.9412 Z-21.0000 F2750
G1 X1152.8978 Y1039.8990 Z-21.0000 F2750
G1 X1173.8977 Y1039.8990 Z-21.0000 F2750
G1 X1174.4314 Y1039.9347 Z-21.0000 F2750
G1 X1174.9768 Y1040.0473 Z-21.0000 F2750
G1 X1175.5177 Y1040.2418 Z-21.0000 F2750
G1 X1176.0357 Y1040.5185 Z-21.0000 F2750
G1 X1176.5126 Y1040.8723 Z-21.0000 F2750
G1 X1176.9317 Y1041.2928 Z-21.0000 F2750
G1 X1177.2806 Y1041.7653 Z-21.0000 F2750
G1 X1177.5514 Y1042.2723 Z-21.0000 F2750
G1 X1177.7418 Y1042.7956 Z-21.0000 F2750
G1 X1177.8545 Y1043.3184 Z-21.0000 F2750
G1 X1177.9044 Y1044.1079 Z-21.0000 F2750
G1 X1177.8967 Y1044.8990 Z-21.0000 F2750
G1 X1179.8987 Y1044.8990 Z-21.0000 F2750
G1 X1179.8987 Y1024.8970 Z-21.0000 F2750
G1 X1177.8967 Y1024.8970 Z-21.0000 F2750
G1 X1177.9044 Y1025.6880 Z-21.0000 F2750
G1 X1177.8545 Y1026.4775 Z-21.0000 F2750
G1 X1177.7418 Y1027.0003 Z-21.0000 F2750
G1 X1177.5514 Y1027.5237 Z-21.0000 F2750
G1 X1177.2806 Y1028.0306 Z-21.0000 F2750
G1 X1176.9317 Y1028.5031 Z-21.0000 F2750
G1 X1176.5126 Y1028.9236 Z-21.0000 F2750
G1 X1176.0357 Y1029.2775 Z-21.0000 F2750
G1 X1175.5177 Y1029.5542 Z-21.0000 F2750
G1 X1174.9768 Y1029.7486 Z-21.0000 F2750
G1 X1174.4314 Y1029.8612 Z-21.0000 F2750
G1 X1173.8977 Y1029.8970 Z-21.0000 F2750
G1 X1152.8978 Y1029.8970 Z-21.0000 F2750
G1 X1152.3183 Y1029.8547 Z-21.0000 F2750
G1 X1151.7228 Y1029.7205 Z-21.0000 F2750
G1 X1151.1332 Y1029.4866 Z-21.0000 F2750
G1 X1150.5739 Y1029.1525 Z-21.0000 F2750
G1 X1150.0701 Y1028.7257 Z-21.0000 F2750
G1 X1149.6433 Y1028.2218 Z-21.0000 F2750
G1 X1149.3092 Y1027.6626 Z-21.0000 F2750
G1 X1149.0753 Y1027.0729 Z-21.0000 F2750
G1 X1148.9410 Y1026.4775 Z-21.0000 F2750
G1 X1148.8988 Y1025.8980 Z-21.0000 F2750
G1 X1148.8988 Y954.8980 Z-21.0000 F2750
G1 X1148.9346 Y954.3644 Z-21.0000 F2750
G1 X1149.0471 Y953.8190 Z-21.0000 F2750
G1 X1149.2416 Y953.2781 Z-21.0000 F2750
G1 X1149.5183 Y952.7601 Z-21.0000 F2750
G1 X1149.8721 Y952.2832 Z-21.0000 F2750
G1 X1150.2926 Y951.8640 Z-21.0000 F2750
G1 X1150.7651 Y951.5152 Z-21.0000 F2750
G1 X1151.2721 Y951.2444 Z-21.0000 F2750
G1 X1151.7955 Y951.0540 Z-21.0000 F2750
G1 X1152.3183 Y950.9412 Z-21.0000 F2750
G1 X1153.1078 Y950.8914 Z-21.0000 F2750
G1 X1153.8988 Y950.8990 Z-21.0000 F2750
G1 X1153.8988 Y948.8971 Z-21.0000 F2750
G1 X1133.8969 Y948.8971 Z-21.0000 F2750
G1 X1133.8969 Y950.8990 Z-21.0000 F2750
G1 X1134.6879 Y950.8914 Z-21.0000 F2750
G1 X1135.4773 Y950.9412 Z-21.0000 F2750
G1 X1136.0001 Y951.0540 Z-21.0000 F2750
G1 X1136.5235 Y951.2444 Z-21.0000 F2750
G1 X1137.0305 Y951.5152 Z-21.0000 F2750
G1 X1137.5030 Y951.8640 Z-21.0000 F2750
G1 X1137.9235 Y952.2832 Z-21.0000 F2750
G1 X1138.2773 Y952.7601 Z-21.0000 F2750
G1 X1138.5540 Y953.2781 Z-21.0000 F2750
G1 X1138.7485 Y953.8190 Z-21.0000 F2750
G1 X1138.8610 Y954.3644 Z-21.0000 F2750
G1 X1138.8968 Y954.8980 Z-21.0000 F2750
G1 X1138.8968 Y1034.8979 Z-21.0000 F2750
G1 X1138.8968 Y1034.8979 Z10.0000 F9999
G1 X1138.8968 Y734.8985 Z10.0000 F9999
G1 X1138.8968 Y734.8985 Z1.0000 F2000
G1 X1138.8968 Y773.8696 Z-10.0000 F2000
G1 X1138.8968 Y734.8985 Z-21.0000 F2000
G1 X1138.8968 Y814.8983 Z-21.0000 F2750
G1 X1138.8610 Y815.4319 Z-21.0000 F2750
G1 X1138.7485 Y815.9774 Z-21.0000 F2750
G1 X1138.5540 Y816.5183 Z-21.0000 F2750
G1 X1138.2773 Y817.0363 Z-21.0000 F2750
G1 X1137.9235 Y817.5131 Z-21.0000 F2750
G1 X1137.5030 Y817.9323 Z-21.0000 F2750
G1 X1137.0305 Y818.2812 Z-21.0000 F2750
G1 X1136.5235 Y818.5520 Z-21.0000 F2750
G1 X1136.0001 Y818.7424 Z-21.0000 F2750
G1 X1135.4773 Y818.8551 Z-21.0000 F2750
G1 X1134.6879 Y818.9050 Z-21.0000 F2750
G1 X1133.8969 Y818.8973 Z-21.0000 F2750
G1 X1133.8969 Y820.8993 Z-21.0000 F2750
G1 X1171.8987 Y820.8993 Z-21.0000 F2750
G1 X1171.8987 Y818.8973 Z-21.0000 F2750
G1 X1171.1077 Y818.9050 Z-21.0000 F2750
G1 X1170.3182 Y818.8551 Z-21.0000 F2750
G1 X1169.7954 Y818.7424 Z-21.0000 F2750
G1 X1169.2720 Y818.5520 Z-21.0000 F2750
G1 X1168.7651 Y818.2812 Z-21.0000 F2750
G1 X1168.2926 Y817.9323 Z-21.0000 F2750
G1 X1167.8721 Y817.5131 Z-21.0000 F2750
G1 X1167.5182 Y817.0363 Z-21.0000 F2750
G1 X1167.2415 Y816.5183 Z-21.0000 F2750
G1 X1167.0471 Y815.9774 Z-21.0000 F2750
G1 X1166.9345 Y815.4319 Z-21.0000 F2750
G1 X1166.8987 Y814.8983 Z-21.0000 F2750
G1 X1166.8987 Y654.8986 Z-21.0000 F2750
G1 X1166.9345 Y654.3650 Z-21.0000 F2750
G1 X1167.0471 Y653.8196 Z-21.0000 F2750
G1 X1167.2415 Y653.2787 Z-21.0000 F2750
G1 X1167.5182 Y652.7607 Z-21.0000 F2750
G1 X1167.8721 Y652.2838 Z-21.0000 F2750
G1 X1168.2926 Y651.8646 Z-21.0000 F2750
G1 X1168.7651 Y651.5158 Z-21.0000 F2750
G1 X1169.2720 Y651.2450 Z-21.0000 F2750
G1 X1169.7954 Y651.0546 Z-21.0000 F2750
G1 X1170.3182 Y650.9418 Z-21.0000 F2750
G1 X1171.1077 Y650.8920 Z-21.0000 F2750
G1 X1171.8987 Y650.8996 Z-21.0000 F2750
G1 X1171.8987 Y648.8977 Z-21.0000 F2750
G1 X1133.8969 Y648.8977 Z-21.0000 F2750
G1 X1133.8969 Y650.8996 Z-21.0000 F2750
G1 X1134.6879 Y650.8920 Z-21.0000 F2750
G1 X1135.4773 Y650.9418 Z-21.0000 F2750
G1 X1136.0001 Y651.0546 Z-21.0000 F2750
G1 X1136.5235 Y651.2450 Z-21.0000 F2750
G1 X1137.0305 Y651.5158 Z-21.0000 F2750
G1 X1137.5030 Y651.8646 Z-21.0000 F2750
G1 X1137.9235 Y652.2838 Z-21.0000 F2750
G1 X1138.2773 Y652.7607 Z-21.0000 F2750
G1 X1138.5540 Y653.2787 Z-21.0000 F2750
G1 X1138.7485 Y653.8196 Z-21.0000 F2750
G1 X1138.8610 Y654.3650 Z-21.0000 F2750
G1 X1138.8968 Y654.8986 Z-21.0000 F2750
G1 X1138.8968 Y734.8985 Z-21.0000 F2750
G1 X1138.8968 Y734.8985 Z10.0000 F9999
G1 X1166.8987 Y434.8992 Z10.0000 F9999
G1 X1166.8987 Y434.8992 Z1.0000 F2000
G1 X1166.8987 Y395.9280 Z-10.0000 F2000
G1 X1166.8987 Y434.8992 Z-21.0000 F2000
G1 X1166.8987 Y354.8993 Z-21.0000 F2750
G1 X1166.9345 Y354.3657 Z-21.0000 F2750
G1 X1167.0471 Y353.8203 Z-21.0000 F2750
G1 X1167.2415 Y353.2794 Z-21.0000 F2750
G1 X1167.5182 Y352.7613 Z-21.0000 F2750
G1 X1167.8721 Y352.2845 Z-21.0000 F2750
G1 X1168.2926 Y351.8653 Z-21.0000 F2750
G1 X1168.7651 Y351.5165 Z-21.0000 F2750
G1 X1169.2720 Y351.2457 Z-21.0000 F2750
G1 X1169.7954 Y351.0552 Z-21.0000 F2750
G1 X1170.3182 Y350.9425 Z-21.0000 F2750
G1 X1171.1077 Y350.8927 Z-21.0000 F2750
G1 X1171.8987 Y350.9003 Z-21.0000 F2750
G1 X1171.8987 Y348.8983 Z-21.0000 F2750
G1 X1133.8969 Y348.8983 Z-21.0000 F2750
G1 X1133.8969 Y350.9003 Z-21.0000 F2750
G1 X1134.6879 Y350.8927 Z-21.0000 F2750
G1 X1135.4773 Y350.9425 Z-21.0000 F2750
G1 X1136.0001 Y351.0552 Z-21.0000 F2750
G1 X1136.5235 Y351.2457 Z-21.0000 F2750
G1 X1137.0305 Y351.5165 Z-21.0000 F2750
G1 X1137.5030 Y351.8653 Z-21.0000 F2750
G1 X1137.9235 Y352.2845 Z-21.0000 F2750
G1 X1138.2773 Y352.7613 Z-21.0000 F2750
G1 X1138.5540 Y353.2794 Z-21.0000 F2750
G1 X1138.7485 Y353.8203 Z-21.0000 F2750
G1 X1138.8610 Y354.3657 Z-21.0000 F2750
G1 X1138.8968 Y354.8993 Z-21.0000 F2750
G1 X1138.8968 Y514.8990 Z-21.0000 F2750
G1 X1138.8610 Y515.4326 Z-21.0000 F2750
G1 X1138.7485 Y515.9781 Z-21.0000 F2750
G1 X1138.5540 Y516.5189 Z-21.0000 F2750
G1 X1138.2773 Y517.0370 Z-21.0000 F2750
G1 X1137.9235 Y517.5138 Z-21.0000 F2750
G1 X1137.5030 Y517.9330 Z-21.0000 F2750
G1 X1137.0305 Y518.2819 Z-21.0000 F2750
G1 X1136.5235 Y518.5526 Z-21.0000 F2750
G1 X1136.0001 Y518.7431 Z-21.0000 F2750
G1 X1135.4773 Y518.8558 Z-21.0000 F2750
G1 X1134.6879 Y518.9056 Z-21.0000 F2750
G1 X1133.8969 Y518.8980 Z-21.0000 F2750
G1 X1133.8969 Y520.8999 Z-21.0000 F2750
G1 X1171.8987 Y520.8999 Z-21.0000 F2750
G1 X1171.8987 Y518.8980 Z-21.0000 F2750
G1 X1171.1077 Y518.9056 Z-21.0000 F2750
G1 X1170.3182 Y518.8558 Z-21.0000 F2750
G1 X1169.7954 Y518.7431 Z-21.0000 F2750
G1 X1169.2720 Y518.5526 Z-21.0000 F2750
G1 X1168.7651 Y518.2819 Z-21.0000 F2750
G1 X1168.2926 Y517.9330 Z-21.0000 F2750
G1 X1167.8721 Y517.5138 Z-21.0000 F2750
G1 X1167.5182 Y517.0370 Z-21.0000 F2750
G1 X1167.2415 Y516.5189 Z-21.0000 F2750
G1 X1167.0471 Y515.9781 Z-21.0000 F2750
G1 X1166.9345 Y515.4326 Z-21.0000 F2750
G1 X1166.8987 Y514.8990 Z-21.0000 F2750
G1 X1166.8987 Y434.8992 Z-21.0000 F2750
G1 X1166.8987 Y434.8992 Z10.0000 F9999
G1 X1166.8987 Y134.8997 Z10.0000 F9999
G1 X1166.8987 Y134.8997 Z1.0000 F2000
G1 X1166.8987 Y95.9286 Z-10.0000 F2000
G1 X1166.8987 Y134.8997 Z-21.0000 F2000
G1 X1166.8987 Y54.8999 Z-21.0000 F2750
G1 X1166.9345 Y54.3663 Z-21.0000 F2750
G1 X1167.0471 Y53.8209 Z-21.0000 F2750
G1 X1167.2415 Y53.2800 Z-21.0000 F2750
G1 X1167.5182 Y52.7619 Z-21.0000 F2750
G1 X1167.8721 Y52.2851 Z-21.0000 F2750
G1 X1168.2926 Y51.8659 Z-21.0000 F2750
G1 X1168.7651 Y51.5171 Z-21.0000 F2750
G1 X1169.2720 Y51.2463 Z-21.0000 F2750
G1 X1169.7954 Y51.0558 Z-21.0000 F2750
G1 X1170.3182 Y50.9431 Z-21.0000 F2750
G1 X1171.1077 Y50.8933 Z-21.0000 F2750
G1 X1171.8987 Y50.9009 Z-21.0000 F2750
G1 X1171.8987 Y48.8989 Z-21.0000 F2750
G1 X1133.8969 Y48.8989 Z-21.0000 F2750
G1 X1133.8969 Y50.9009 Z-21.0000 F2750
G1 X1134.6879 Y50.8933 Z-21.0000 F2750
G1 X1135.4773 Y50.9431 Z-21.0000 F2750
G1 X1136.0001 Y51.0558 Z-21.0000 F2750
G1 X1136.5235 Y51.2463 Z-21.0000 F2750
G1 X1137.0305 Y51.5171 Z-21.0000 F2750
G1 X1137.5030 Y51.8659 Z-21.0000 F2750
G1 X1137.9235 Y52.2851 Z-21.0000 F2750
G1 X1138.2773 Y52.7619 Z-21.0000 F2750
G1 X1138.5540 Y53.2800 Z-21.0000 F2750
G1 X1138.7485 Y53.8209 Z-21.0000 F2750
G1 X1138.8610 Y54.3663 Z-21.0000 F2750
G1 X1138.8968 Y54.8999 Z-21.0000 F2750
G1 X1138.8968 Y125.8998 Z-21.0000 F2750
G1 X1138.8546 Y126.4793 Z-21.0000 F2750
G1 X1138.7203 Y127.0747 Z-21.0000 F2750
G1 X1138.4864 Y127.6644 Z-21.0000 F2750
G1 X1138.1523 Y128.2236 Z-21.0000 F2750
G1 X1137.7255 Y128.7275 Z-21.0000 F2750
G1 X1137.2217 Y129.1543 Z-21.0000 F2750
G1 X1136.6624 Y129.4884 Z-21.0000 F2750
G1 X1136.0728 Y129.7223 Z-21.0000 F2750
G1 X1135.4773 Y129.8565 Z-21.0000 F2750
G1 X1134.8978 Y129.8988 Z-21.0000 F2750
G1 X1114.8979 Y129.8988 Z-21.0000 F2750
G1 X1114.3643 Y129.8630 Z-21.0000 F2750
G1 X1113.8188 Y129.7504 Z-21.0000 F2750
G1 X1113.2779 Y129.5560 Z-21.0000 F2750
G1 X1112.7599 Y129.2793 Z-21.0000 F2750
G1 X1112.2831 Y128.9254 Z-21.0000 F2750
G1 X1111.8639 Y128.5049 Z-21.0000 F2750
G1 X1111.5150 Y128.0324 Z-21.0000 F2750
G1 X1111.2442 Y127.5255 Z-21.0000 F2750
G1 X1111.0538 Y127.0021 Z-21.0000 F2750
G1 X1110.9411 Y126.4793 Z-21.0000 F2750
G1 X1110.8912 Y125.6898 Z-21.0000 F2750
G1 X1110.8989 Y124.8988 Z-21.0000 F2750
G1 X1108.8969 Y124.8988 Z-21.0000 F2750
G1 X1108.8969 Y144.9007 Z-21.0000 F2750
G1 X1110.8989 Y144.9007 Z-21.0000 F2750
G1 X1110.8912 Y144.1097 Z-21.0000 F2750
G1 X1110.9411 Y143.3202 Z-21.0000 F2750
G1 X1111.0538 Y142.7974 Z-21.0000 F2750
G1 X1111.2442 Y142.2740 Z-21.0000 F2750
G1 X1111.5150 Y141.7671 Z-21.0000 F2750
G1 X1111.8639 Y141.2946 Z-21.0000 F2750
G1 X1112.2831 Y140.8740 Z-21.0000 F2750
G1 X1112.7599 Y140.5202 Z-21.0000 F2750
G1 X1113.2779 Y140.2435 Z-21.0000 F2750
G1 X1113.8188 Y140.0491 Z-21.0000 F2750
G1 X1114.3643 Y139.9365 Z-21.0000 F2750
G1 X1114.8979 Y139.9007 Z-21.0000 F2750
G1 X1134.8978 Y139.9007 Z-21.0000 F2750
G1 X1135.5157 Y139.9488 Z-21.0000 F2750
G1 X1136.1298 Y140.0952 Z-21.0000 F2750
G1 X1136.7168 Y140.3384 Z-21.0000 F2750
G1 X1137.2547 Y140.6691 Z-21.0000 F2750
G1 X1137.7255 Y141.0720 Z-21.0000 F2750
G1 X1138.1285 Y141.5429 Z-21.0000 F2750
G1 X1138.4592 Y142.0807 Z-21.0000 F2750
G1 X1138.7023 Y142.6677 Z-21.0000 F2750
G1 X1138.8488 Y143.2819 Z-21.0000 F2750
G1 X1138.8968 Y143.8997 Z-21.0000 F2750
G1 X1138.8968 Y214.8996 Z-21.0000 F2750
G1 X1138.8610 Y215.4332 Z-21.0000 F2750
G1 X1138.7485 Y215.9786 Z-21.0000 F2750
G1 X1138.5540 Y216.5195 Z-21.0000 F2750
G1 X1138.2773 Y217.0375 Z-21.0000 F2750
G1 X1137.9235 Y217.5144 Z-21.0000 F2750
G1 X1137.5030 Y217.9336 Z-21.0000 F2750
G1 X1137.0305 Y218.2824 Z-21.0000 F2750
G1 X1136.5235 Y218.5532 Z-21.0000 F2750
G1 X1136.0001 Y218.7437 Z-21.0000 F2750
G1 X1135.4773 Y218.8564 Z-21.0000 F2750
G1 X1134.6879 Y218.9062 Z-21.0000 F2750
G1 X1133.8969 Y218.8986 Z-21.0000 F2750
G1 X1133.8969 Y220.9006 Z-21.0000 F2750
G1 X1171.8987 Y220.9006 Z-21.0000 F2750
G1 X1171.8987 Y218.8986 Z-21.0000 F2750
G1 X1171.1077 Y218.9062 Z-21.0000 F2750
G1 X1170.3182 Y218.8564 Z-21.0000 F2750
G1 X1169.7954 Y218.7437 Z-21.0000 F2750
G1 X1169.2720 Y218.5532 Z-21.0000 F2750
G1 X1168.7651 Y218.2824 Z-21.0000 F2750
G1 X1168.2926 Y217.9336 Z-21.0000 F2750
G1 X1167.8721 Y217.5144 Z-21.0000 F2750
G1 X1167.5182 Y217.0375 Z-21.0000 F2750
G1 X1167.2415 Y216.5195 Z-21.0000 F2750
G1 X1167.0471 Y215.9786 Z-21.0000 F2750
G1 X1166.9345 Y215.4332 Z-21.0000 F2750
G1 X1166.8987 Y214.8996 Z-21.0000 F2750
G1 X1166.8987 Y134.8997 Z-21.0000 F2750
G1 X1166.8987 Y134.8997 Z10.0000 F9999
G1 X609.8989 Y139.9007 Z10.0000 F9999
G1 X609.8989 Y139.9007 Z1.0000 F2000
G1 X648.8700 Y139.9007 Z-10.0000 F2000
G1 X609.8989 Y139.9007 Z-21.0000 F2000
G1 X650.8998 Y139.9007 Z-21.0000 F2750
G1 X650.8998 Y137.8987 Z-21.0000 F2750
G1 X650.1088 Y137.9064 Z-21.0000 F2750
G1 X649.3193 Y137.8565 Z-21.0000 F2750
G1 X648.7965 Y137.7438 Z-21.0000 F2750
G1 X648.2731 Y137.5534 Z-21.0000 F2750
G1 X647.7662 Y137.2826 Z-21.0000 F2750
G1 X647.2937 Y136.9338 Z-21.0000 F2750
G1 X646.8732 Y136.5146 Z-21.0000 F2750
G1 X646.5193 Y136.0377 Z-21.0000 F2750
G1 X646.2426 Y135.5197 Z-21.0000 F2750
G1 X646.0482 Y134.9788 Z-21.0000 F2750
G1 X645.9356 Y134.4334 Z-21.0000 F2750
G1 X645.8998 Y133.8997 Z-21.0000 F2750
G1 X645.8998 Y124.8988 Z-21.0000 F2750
G1 X643.8978 Y124.8988 Z-21.0000 F2750
G1 X643.9055 Y125.6898 Z-21.0000 F2750
G1 X643.8556 Y126.4793 Z-21.0000 F2750
G1 X643.7429 Y127.0021 Z-21.0000 F2750
G1 X643.5525 Y127.5255 Z-21.0000 F2750
G1 X643.2817 Y128.0324 Z-21.0000 F2750
G1 X642.9328 Y128.5049 Z-21.0000 F2750
G1 X642.5136 Y128.9254 Z-21.0000 F2750
G1 X642.0368 Y129.2793 Z-21.0000 F2750
G1 X641.5188 Y129.5560 Z-21.0000 F2750
G1 X640.9779 Y129.7504 Z-21.0000 F2750
G1 X640.4325 Y129.8630 Z-21.0000 F2750
G1 X639.8988 Y129.8988 Z-21.0000 F2750
G1 X579.8990 Y129.8988 Z-21.0000 F2750
G1 X579.3654 Y129.8630 Z-21.0000 F2750
G1 X578.8199 Y129.7504 Z-21.0000 F2750
G1 X578.2790 Y129.5560 Z-21.0000 F2750
G1 X577.7610 Y129.2793 Z-21.0000 F2750
G1 X577.2842 Y128.9254 Z-21.0000 F2750
G1 X576.8650 Y128.5049 Z-21.0000 F2750
G1 X576.5161 Y128.0324 Z-21.0000 F2750
G1 X576.2453 Y127.5255 Z-21.0000 F2750
G1 X576.0549 Y127.0021 Z-21.0000 F2750
G1 X575.9422 Y126.4793 Z-21.0000 F2750
G1 X575.8923 Y125.6898 Z-21.0000 F2750
G1 X575.9000 Y124.8988 Z-21.0000 F2750
G1 X573.8980 Y124.8988 Z-21.0000 F2750
G1 X573.8980 Y133.8997 Z-21.0000 F2750
G1 X573.8622 Y134.4334 Z-21.0000 F2750
G1 X573.7496 Y134.9788 Z-21.0000 F2750
G1 X573.5552 Y135.5197 Z-21.0000 F2750
G1 X573.2785 Y136.0377 Z-21.0000 F2750
G1 X572.9246 Y136.5146 Z-21.0000 F2750
G1 X572.5041 Y136.9338 Z-21.0000 F2750
G1 X572.0316 Y137.2826 Z-21.0000 F2750
G1 X571.5247 Y137.5534 Z-21.0000 F2750
G1 X571.0013 Y137.7438 Z-21.0000 F2750
G1 X570.4785 Y137.8565 Z-21.0000 F2750
G1 X569.6890 Y137.9064 Z-21.0000 F2750
G1 X568.8980 Y137.8987 Z-21.0000 F2750
G1 X568.8980 Y139.9007 Z-21.0000 F2750
G1 X609.8989 Y139.9007 Z-21.0000 F2750
G1 X609.8989 Y139.9007 Z10.0000 F9999
(Tool Number:1) (7.998 mm dia. slot drill)
M3 S19000
G1 X609.8988 Y2135.2333 Z10.0000 F9999
G1 X609.8988 Y2135.2333 Z1.0000 F2000
G1 X648.8700 Y2135.2333 Z-10.0000 F2000
G1 X609.8988 Y2135.2333 Z-21.0000 F2000
G1 X1213.8967 Y2135.2333 Z-21.0000 F2750
G1 X1213.8967 Y2253.2309 Z-21.0000 F2750
G1 X1166.8987 Y2253.2309 Z-21.0000 F2750
G1 X1166.8987 Y2190.2330 Z-21.0000 F2750
G1 X1171.8987 Y2190.2330 Z-21.0000 F2750
G1 X1171.8987 Y2188.2310 Z-21.0000 F2750
G1 X1133.8969 Y2188.2310 Z-21.0000 F2750
G1 X1133.8969 Y2190.2330 Z-21.0000 F2750
G1 X1138.8968 Y2190.2330 Z-21.0000 F2750
G1 X1138.8968 Y2393.2308 Z-21.0000 F2750
G1 X655.8998 Y2393.2308 Z-21.0000 F2750
G1 X655.8998 Y2388.2306 Z-21.0000 F2750
G1 X653.8978 Y2388.2306 Z-21.0000 F2750
G1 X653.8978 Y2411.2306 Z-21.0000 F2750
G1 X565.9000 Y2411.2306 Z-21.0000 F2750
G1 X565.9000 Y2388.2306 Z-21.0000 F2750
G1 X563.8980 Y2388.2306 Z-21.0000 F2750
G1 X563.8980 Y2393.2308 Z-21.0000 F2750
G1 X80.9010 Y2393.2308 Z-21.0000 F2750
G1 X80.9010 Y2190.2330 Z-21.0000 F2750
G1 X85.9010 Y2190.2330 Z-21.0000 F2750
G1 X85.9010 Y2188.2310 Z-21.0000 F2750
G1 X47.8991 Y2188.2310 Z-21.0000 F2750
G1 X47.8991 Y2190.2330 Z-21.0000 F2750
G1 X52.8990 Y2190.2330 Z-21.0000 F2750
G1 X52.8990 Y2253.2309 Z-21.0000 F2750
G1 X5.9010 Y2253.2309 Z-21.0000 F2750
G1 X5.9010 Y2135.2333 Z-21.0000 F2750
G1 X609.8988 Y2135.2333 Z-21.0000 F2750
G1 X609.8988 Y2135.2333 Z10.0000 F9999
G1 X5.9010 Y1063.5228 Z10.0000 F9999
G1 X5.9010 Y1063.5228 Z1.0000 F2000
G1 X5.9010 Y1024.5517 Z-10.0000 F2000
G1 X5.9010 Y1063.5228 Z-21.0000 F2000
G1 X5.9010 Y5.9010 Z-21.0000 F2750
G1 X1213.8967 Y5.9010 Z-21.0000 F2750
G1 X1213.8967 Y2121.1446 Z-21.0000 F2750
G1 X1156.1983 Y2121.1446 Z-21.0000 F2750
G1 X1152.6758 Y2120.3063 Z-21.0000 F2750
G1 X1149.5401 Y2117.6599 Z-21.0000 F2750
G1 X1147.9329 Y2113.8847 Z-21.0000 F2750
G1 X1148.1675 Y2110.2715 Z-21.0000 F2750
G1 X1164.1856 Y2058.2124 Z-21.0000 F2750
G1 X1164.2511 Y2057.2045 Z-21.0000 F2750
G1 X1164.0444 Y2056.7190 Z-21.0000 F2750
G1 X1163.6411 Y2056.3787 Z-21.0000 F2750
G1 X1162.6584 Y2056.1446 Z-21.0000 F2750
G1 X1057.1374 Y2056.1446 Z-21.0000 F2750
G1 X1056.1546 Y2056.3787 Z-21.0000 F2750
G1 X1055.7514 Y2056.7190 Z-21.0000 F2750
G1 X1055.5447 Y2057.2045 Z-21.0000 F2750
G1 X1055.6101 Y2058.2124 Z-21.0000 F2750
G1 X1071.6283 Y2110.2715 Z-21.0000 F2750
G1 X1071.8629 Y2113.8848 Z-21.0000 F2750
G1 X1070.2556 Y2117.6599 Z-21.0000 F2750
G1 X1067.1199 Y2120.3063 Z-21.0000 F2750
G1 X1063.5975 Y2121.1446 Z-21.0000 F2750
G1 X956.1987 Y2121.1446 Z-21.0000 F2750
G1 X952.6763 Y2120.3063 Z-21.0000 F2750
G1 X949.5405 Y2117.6598 Z-21.0000 F2750
G1 X947.9333 Y2113.8847 Z-21.0000 F2750
G1 X948.1679 Y2110.2715 Z-21.0000 F2750
G1 X964.1860 Y2058.2124 Z-21.0000 F2750
G1 X964.2515 Y2057.2045 Z-21.0000 F2750
G1 X964.0448 Y2056.7190 Z-21.0000 F2750
G1 X963.6415 Y2056.3787 Z-21.0000 F2750
G1 X962.6588 Y2056.1446 Z-21.0000 F2750
G1 X857.1379 Y2056.1446 Z-21.0000 F2750
G1 X856.1551 Y2056.3787 Z-21.0000 F2750
G1 X855.7518 Y2056.7190 Z-21.0000 F2750
G1 X855.5450 Y2057.2047 Z-21.0000 F2750
G1 X855.6104 Y2058.2124 Z-21.0000 F2750
G1 X871.6287 Y2110.2715 Z-21.0000 F2750
G1 X871.8633 Y2113.8847 Z-21.0000 F2750
G1 X870.2560 Y2117.6599 Z-21.0000 F2750
G1 X867.1203 Y2120.3063 Z-21.0000 F2750
G1 X863.5978 Y2121.1446 Z-21.0000 F2750
G1 X756.1992 Y2121.1446 Z-21.0000 F2750
G1 X752.6767 Y2120.3063 Z-21.0000 F2750
G1 X749.5410 Y2117.6599 Z-21.0000 F2750
G1 X747.9337 Y2113.8847 Z-21.0000 F2750
G1 X748.1683 Y2110.2715 Z-21.0000 F2750
G1 X764.1864 Y2058.2122 Z-21.0000 F2750
G1 X764.2519 Y2057.2044 Z-21.0000 F2750
G1 X764.0452 Y2056.7190 Z-21.0000 F2750
G1 X763.6419 Y2056.3787 Z-21.0000 F2750
G1 X762.6592 Y2056.1446 Z-21.0000 F2750
G1 X657.1383 Y2056.1446 Z-21.0000 F2750
G1 X656.1555 Y2056.3787 Z-21.0000 F2750
G1 X655.7522 Y2056.7190 Z-21.0000 F2750
G1 X655.5454 Y2057.2046 Z-21.0000 F2750
G1 X655.6109 Y2058.2124 Z-21.0000 F2750
G1 X671.6291 Y2110.2715 Z-21.0000 F2750
G1 X671.8636 Y2113.8848 Z-21.0000 F2750
G1 X670.2564 Y2117.6598 Z-21.0000 F2750
G1 X667.1208 Y2120.3063 Z-21.0000 F2750
G1 X663.5982 Y2121.1446 Z-21.0000 F2750
G1 X556.1996 Y2121.1446 Z-21.0000 F2750
G1 X552.6770 Y2120.3063 Z-21.0000 F2750
G1 X549.5414 Y2117.6599 Z-21.0000 F2750
G1 X547.9341 Y2113.8848 Z-21.0000 F2750
G1 X548.1687 Y2110.2715 Z-21.0000 F2750
G1 X564.1869 Y2058.2124 Z-21.0000 F2750
G1 X564.2524 Y2057.2046 Z-21.0000 F2750
G1 X564.0456 Y2056.7190 Z-21.0000 F2750
G1 X563.6423 Y2056.3787 Z-21.0000 F2750
G1 X562.6596 Y2056.1446 Z-21.0000 F2750
G1 X457.1387 Y2056.1446 Z-21.0000 F2750
G1 X456.1559 Y2056.3787 Z-21.0000 F2750
G1 X455.7526 Y2056.7190 Z-21.0000 F2750
G1 X455.5458 Y2057.2047 Z-21.0000 F2750
G1 X455.6112 Y2058.2124 Z-21.0000 F2750
G1 X471.6295 Y2110.2714 Z-21.0000 F2750
G1 X471.8642 Y2113.8847 Z-21.0000 F2750
G1 X470.2568 Y2117.6599 Z-21.0000 F2750
G1 X467.1211 Y2120.3063 Z-21.0000 F2750
G1 X463.5986 Y2121.1446 Z-21.0000 F2750
G1 X356.1999 Y2121.1446 Z-21.0000 F2750
G1 X352.6775 Y2120.3063 Z-21.0000 F2750
G1 X349.5418 Y2117.6599 Z-21.0000 F2750
G1 X347.9345 Y2113.8847 Z-21.0000 F2750
G1 X348.1691 Y2110.2715 Z-21.0000 F2750
G1 X364.1873 Y2058.2123 Z-21.0000 F2750
G1 X364.2528 Y2057.2046 Z-21.0000 F2750
G1 X364.0460 Y2056.7190 Z-21.0000 F2750
G1 X363.6427 Y2056.3787 Z-21.0000 F2750
G1 X362.6599 Y2056.1446 Z-21.0000 F2750
G1 X257.1389 Y2056.1446 Z-21.0000 F2750
G1 X256.1564 Y2056.3786 Z-21.0000 F2750
G1 X255.7531 Y2056.7190 Z-21.0000 F2750
G1 X255.5463 Y2057.2047 Z-21.0000 F2750
G1 X255.6117 Y2058.2124 Z-21.0000 F2750
G1 X271.6299 Y2110.2714 Z-21.0000 F2750
G1 X271.8646 Y2113.8847 Z-21.0000 F2750
G1 X270.2573 Y2117.6599 Z-21.0000 F2750
G1 X267.1215 Y2120.3064 Z-21.0000 F2750
G1 X263.5990 Y2121.1446 Z-21.0000 F2750
G1 X156.2000 Y2121.1446 Z-21.0000 F2750
G1 X152.6779 Y2120.3063 Z-21.0000 F2750
G1 X149.5422 Y2117.6599 Z-21.0000 F2750
G1 X147.9349 Y2113.8847 Z-21.0000 F2750
G1 X148.1696 Y2110.2714 Z-21.0000 F2750
G1 X164.1878 Y2058.2127 Z-21.0000 F2750
G1 X164.2530 Y2057.2047 Z-21.0000 F2750
G1 X164.0462 Y2056.7188 Z-21.0000 F2750
G1 X163.6432 Y2056.3787 Z-21.0000 F2750
G1 X162.6603 Y2056.1446 Z-21.0000 F2750
G1 X57.1393 Y2056.1446 Z-21.0000 F2750
G1 X56.1566 Y2056.3787 Z-21.0000 F2750
G1 X55.7532 Y2056.7190 Z-21.0000 F2750
G1 X55.5466 Y2057.2044 Z-21.0000 F2750
G1 X55.6121 Y2058.2123 Z-21.0000 F2750
G1 X71.6303 Y2110.2714 Z-21.0000 F2750
G1 X71.8650 Y2113.8848 Z-21.0000 F2750
G1 X70.2575 Y2117.6599 Z-21.0000 F2750
G1 X67.1220 Y2120.3063 Z-21.0000 F2750
G1 X63.5994 Y2121.1446 Z-21.0000 F2750
G1 X5.9010 Y2121.1446 Z-21.0000 F2750
G1 X5.9010 Y1063.5228 Z-21.0000 F2750
G1 X5.9010 Y1063.5228 Z10.0000 F9999
G1 X1900.0000 Y2800.0000 Z80.0000 F9999
G1 Z80.0000 F9999
G1 X1900.0000 Y2800.0000 F9999
M5
M30
