(plotsheet 2n3_nested_153 sheets_final v1_0_sheet 133 to 136a_S133.1_text_CC8 - stepover 1mm)
(Material Size) (X=1220.000, Y=2440.000, Z=21.000)
(LinuxCNC_NoArcs_MM_TC_medium_50um_G1_verbose.con)
G90 G80 G21 G49
G64 P0.050
M6 T1
(Tool Number:1) (7.998 mm dia. slot drill)
G43 H1 G0Z80.0000
M3 S18000
G04 P10
G1 X654.8397 Y153.8251 Z10.0000 F9999
G1 X654.8397 Y153.8251 Z-1.0000 F2500
G1 X646.9253 Y193.1376 Z-1.0000 F4000
G1 X626.5555 Y172.7678 Z-1.0000 F4000
G1 X646.9253 Y193.1376 Z-1.0000 F4000
G1 X654.8397 Y153.8251 Z-1.0000 F4000
G1 X625.7770 Y182.8878 Z-1.0000 F4000
G1 X625.7770 Y182.8878 Z10.0000 F9999
G1 X649.0272 Y206.1380 Z10.0000 F9999
G1 X649.0272 Y206.1380 Z-1.0000 F2500
G1 X672.6277 Y201.2466 Z-1.0000 F4000
G1 X649.0272 Y206.1380 Z-1.0000 F4000
G1 X649.0272 Y206.1380 Z10.0000 F9999
G1 X661.3399 Y218.4508 Z10.0000 F9999
G1 X661.3399 Y218.4508 Z-1.0000 F2500
G1 X690.4027 Y189.3880 Z-1.0000 F4000
G1 X685.3426 Y184.3280 Z-1.0000 F4000
G1 X682.1769 Y182.0185 Z-1.0000 F4000
G1 X678.6219 Y181.0325 Z-1.0000 F4000
G1 X674.8204 Y181.6942 Z-1.0000 F4000
G1 X670.9410 Y184.3799 Z-1.0000 F4000
G1 X668.4499 Y188.5058 Z-1.0000 F4000
G1 X668.0607 Y192.8133 Z-1.0000 F4000
G1 X669.0208 Y196.5499 Z-1.0000 F4000
G1 X670.6037 Y199.0669 Z-1.0000 F4000
G1 X675.6637 Y204.1270 Z-1.0000 F4000
G1 X670.6037 Y199.0669 Z-1.0000 F4000
G1 X669.0208 Y196.5499 Z-1.0000 F4000
G1 X668.0607 Y192.8133 Z-1.0000 F4000
G1 X668.4499 Y188.5058 Z-1.0000 F4000
G1 X670.9410 Y184.3799 Z-1.0000 F4000
G1 X674.8204 Y181.6942 Z-1.0000 F4000
G1 X678.6219 Y181.0325 Z-1.0000 F4000
G1 X682.1769 Y182.0185 Z-1.0000 F4000
G1 X685.3426 Y184.3280 Z-1.0000 F4000
G1 X690.4027 Y189.3880 Z-1.0000 F4000
G1 X690.4027 Y189.3880 Z10.0000 F9999
G1 X708.0090 Y193.7085 Z10.0000 F9999
G1 X708.0090 Y193.7085 Z-1.0000 F2500
G1 X692.1283 Y252.5605 Z-1.0000 F4000
G1 X708.0090 Y193.7085 Z-1.0000 F4000
G1 X708.0090 Y193.7085 Z10.0000 F9999
G1 X742.2485 Y241.2339 Z10.0000 F9999
G1 X742.2485 Y241.2339 Z-1.0000 F2500
G1 X701.8331 Y258.9440 Z-1.0000 F4000
G1 X742.2485 Y241.2339 Z-1.0000 F4000
G1 X724.5125 Y281.6233 Z-1.0000 F4000
G1 X724.5125 Y281.6233 Z10.0000 F9999
G1 X749.5012 Y271.7368 Z10.0000 F9999
G1 X749.5012 Y271.7368 Z-1.0000 F2500
G1 X770.1825 Y292.4180 Z-1.0000 F4000
G1 X749.5012 Y271.7368 Z-1.0000 F4000
G1 X749.5012 Y271.7368 Z10.0000 F9999
G1 X716.2867 Y252.6124 Z10.0000 F9999
G1 X716.2867 Y252.6124 Z-1.0000 F2500
G1 X730.9218 Y267.2476 Z-1.0000 F4000
G1 X716.2867 Y252.6124 Z-1.0000 F4000
G1 X716.2867 Y252.6124 Z10.0000 F9999
G1 X775.2425 Y311.5683 Z10.0000 F9999
G1 X775.2425 Y311.5683 Z-1.0000 F2500
G1 X789.8777 Y326.2034 Z-1.0000 F4000
G1 X775.2425 Y311.5683 Z-1.0000 F4000
G1 X775.2425 Y311.5683 Z10.0000 F9999
G1 X801.2043 Y300.1897 Z10.0000 F9999
G1 X801.2043 Y300.1897 Z-1.0000 F2500
G1 X760.7890 Y317.8998 Z-1.0000 F4000
G1 X801.2043 Y300.1897 Z-1.0000 F4000
G1 X783.4683 Y340.5791 Z-1.0000 F4000
G1 X783.4683 Y340.5791 Z10.0000 F9999
G1 X791.0194 Y348.1302 Z10.0000 F9999
G1 X791.0194 Y348.1302 Z-1.0000 F2500
G1 X814.6199 Y343.2389 Z-1.0000 F4000
G1 X791.0194 Y348.1302 Z-1.0000 F4000
G1 X791.0194 Y348.1302 Z10.0000 F9999
G1 X803.3322 Y360.4430 Z10.0000 F9999
G1 X803.3322 Y360.4430 Z-1.0000 F2500
G1 X832.3949 Y331.3802 Z-1.0000 F4000
G1 X827.3349 Y326.3202 Z-1.0000 F4000
G1 X824.1691 Y324.0108 Z-1.0000 F4000
G1 X820.6141 Y323.0247 Z-1.0000 F4000
G1 X816.8126 Y323.6864 Z-1.0000 F4000
G1 X812.9332 Y326.3721 Z-1.0000 F4000
G1 X810.4421 Y330.4980 Z-1.0000 F4000
G1 X810.0529 Y334.8055 Z-1.0000 F4000
G1 X811.0130 Y338.5421 Z-1.0000 F4000
G1 X812.5959 Y341.0592 Z-1.0000 F4000
G1 X817.6559 Y346.1192 Z-1.0000 F4000
G1 X812.5959 Y341.0592 Z-1.0000 F4000
G1 X811.0130 Y338.5421 Z-1.0000 F4000
G1 X810.0529 Y334.8055 Z-1.0000 F4000
G1 X810.4421 Y330.4980 Z-1.0000 F4000
G1 X812.9332 Y326.3721 Z-1.0000 F4000
G1 X816.8126 Y323.6864 Z-1.0000 F4000
G1 X820.6141 Y323.0247 Z-1.0000 F4000
G1 X824.1691 Y324.0108 Z-1.0000 F4000
G1 X827.3349 Y326.3202 Z-1.0000 F4000
G1 X832.3949 Y331.3802 Z-1.0000 F4000
G1 X832.3949 Y331.3802 Z10.0000 F9999
G1 X841.0488 Y365.9052 Z10.0000 F9999
G1 X841.0488 Y365.9052 Z-1.0000 F2500
G1 X830.8380 Y355.6943 Z-1.0000 F4000
G1 X841.0488 Y365.9052 Z-1.0000 F4000
G1 X853.9844 Y352.9697 Z-1.0000 F4000
G1 X843.2934 Y342.2788 Z-1.0000 F4000
G1 X853.9844 Y352.9697 Z-1.0000 F4000
G1 X824.9216 Y382.0324 Z-1.0000 F4000
G1 X824.9216 Y382.0324 Z10.0000 F9999
G1 X1130.1707 Y630.8199 Z10.0000 F9999
G1 X1130.1707 Y630.8199 Z-1.0000 F2500
G1 X1130.1707 Y645.2602 Z-1.0000 F4000
G1 X1130.1707 Y630.8199 Z-1.0000 F4000
G1 X1111.8771 Y630.8199 Z-1.0000 F4000
G1 X1111.8771 Y645.9391 Z-1.0000 F4000
G1 X1111.8771 Y630.8199 Z-1.0000 F4000
G1 X1152.9780 Y630.8199 Z-1.0000 F4000
G1 X1152.9780 Y630.8199 Z10.0000 F9999
G1 X1152.9780 Y661.3520 Z10.0000 F9999
G1 X1152.9780 Y661.3520 Z-1.0000 F2500
G1 X1111.8771 Y661.3520 Z-1.0000 F4000
G1 X1111.8771 Y668.5079 Z-1.0000 F4000
G1 X1112.4826 Y672.3795 Z-1.0000 F4000
G1 X1114.2991 Y675.5905 Z-1.0000 F4000
G1 X1117.4551 Y677.8107 Z-1.0000 F4000
G1 X1122.0973 Y678.6547 Z-1.0000 F4000
G1 X1126.7762 Y677.4988 Z-1.0000 F4000
G1 X1130.0973 Y674.7281 Z-1.0000 F4000
G1 X1132.0606 Y671.4070 Z-1.0000 F4000
G1 X1132.7211 Y668.5079 Z-1.0000 F4000
G1 X1132.7211 Y661.3520 Z-1.0000 F4000
G1 X1132.7211 Y668.5079 Z-1.0000 F4000
G1 X1132.0606 Y671.4070 Z-1.0000 F4000
G1 X1130.0973 Y674.7281 Z-1.0000 F4000
G1 X1126.7762 Y677.4988 Z-1.0000 F4000
G1 X1122.0973 Y678.6547 Z-1.0000 F4000
G1 X1117.4551 Y677.8107 Z-1.0000 F4000
G1 X1114.2991 Y675.5905 Z-1.0000 F4000
G1 X1112.4826 Y672.3795 Z-1.0000 F4000
G1 X1111.8771 Y668.5079 Z-1.0000 F4000
G1 X1111.8771 Y661.3520 Z-1.0000 F4000
G1 X1111.8771 Y661.3520 Z10.0000 F9999
G1 X1111.8771 Y705.4621 Z10.0000 F9999
G1 X1111.8771 Y705.4621 Z-1.0000 F2500
G1 X1152.9780 Y721.5171 Z-1.0000 F4000
G1 X1111.8771 Y705.4621 Z-1.0000 F4000
G1 X1152.9780 Y689.4437 Z-1.0000 F4000
G1 X1152.9780 Y689.4437 Z10.0000 F9999
G1 X1152.9780 Y678.7648 Z10.0000 F9999
G1 X1152.9780 Y678.7648 Z-1.0000 F2500
G1 X1132.8312 Y665.5355 Z-1.0000 F4000
G1 X1152.9780 Y678.7648 Z-1.0000 F4000
G1 X1152.9780 Y678.7648 Z10.0000 F9999
G1 X1138.2808 Y715.7740 Z10.0000 F9999
G1 X1138.2808 Y715.7740 Z-1.0000 F2500
G1 X1138.2808 Y695.0767 Z-1.0000 F4000
G1 X1138.2808 Y715.7740 Z-1.0000 F4000
G1 X1138.2808 Y715.7740 Z10.0000 F9999
G1 X1146.1523 Y773.9942 Z10.0000 F9999
G1 X1146.1523 Y773.9942 Z-1.0000 F2500
G1 X1149.1982 Y775.9391 Z-1.0000 F4000
G1 X1151.2532 Y778.3612 Z-1.0000 F4000
G1 X1152.5010 Y781.4804 Z-1.0000 F4000
G1 X1152.9780 Y785.6089 Z-1.0000 F4000
G1 X1152.5193 Y790.1043 Z-1.0000 F4000
G1 X1150.7762 Y793.9208 Z-1.0000 F4000
G1 X1147.7854 Y796.5997 Z-1.0000 F4000
G1 X1143.6202 Y797.7190 Z-1.0000 F4000
G1 X1139.6202 Y797.1868 Z-1.0000 F4000
G1 X1136.9413 Y795.6456 Z-1.0000 F4000
G1 X1135.2532 Y793.6089 Z-1.0000 F4000
G1 X1134.1523 Y791.7006 Z-1.0000 F4000
G1 X1129.4184 Y782.5079 Z-1.0000 F4000
G1 X1128.0055 Y780.1410 Z-1.0000 F4000
G1 X1126.3542 Y778.2878 Z-1.0000 F4000
G1 X1124.1707 Y777.0401 Z-1.0000 F4000
G1 X1121.2899 Y776.5263 Z-1.0000 F4000
G1 X1118.0055 Y777.0584 Z-1.0000 F4000
G1 X1114.9780 Y778.8933 Z-1.0000 F4000
G1 X1112.7578 Y782.0309 Z-1.0000 F4000
G1 X1111.8771 Y786.3979 Z-1.0000 F4000
G1 X1112.5560 Y790.6547 Z-1.0000 F4000
G1 X1114.0239 Y793.4988 Z-1.0000 F4000
G1 X1116.1707 Y795.5905 Z-1.0000 F4000
G1 X1114.0239 Y793.4988 Z-1.0000 F4000
G1 X1112.5560 Y790.6547 Z-1.0000 F4000
G1 X1111.8771 Y786.3979 Z-1.0000 F4000
G1 X1112.7578 Y782.0309 Z-1.0000 F4000
G1 X1114.9780 Y778.8933 Z-1.0000 F4000
G1 X1118.0055 Y777.0584 Z-1.0000 F4000
G1 X1121.2899 Y776.5263 Z-1.0000 F4000
G1 X1124.1707 Y777.0401 Z-1.0000 F4000
G1 X1126.3542 Y778.2878 Z-1.0000 F4000
G1 X1128.0055 Y780.1410 Z-1.0000 F4000
G1 X1129.4184 Y782.5079 Z-1.0000 F4000
G1 X1134.1523 Y791.7006 Z-1.0000 F4000
G1 X1135.2532 Y793.6089 Z-1.0000 F4000
G1 X1136.9413 Y795.6456 Z-1.0000 F4000
G1 X1139.6202 Y797.1868 Z-1.0000 F4000
G1 X1143.6202 Y797.7190 Z-1.0000 F4000
G1 X1147.7854 Y796.5997 Z-1.0000 F4000
G1 X1150.7762 Y793.9208 Z-1.0000 F4000
G1 X1152.5193 Y790.1043 Z-1.0000 F4000
G1 X1152.9780 Y785.6089 Z-1.0000 F4000
G1 X1152.5010 Y781.4804 Z-1.0000 F4000
G1 X1151.2532 Y778.3612 Z-1.0000 F4000
G1 X1149.1982 Y775.9391 Z-1.0000 F4000
G1 X1149.1982 Y775.9391 Z10.0000 F9999
G1 X1102.4826 Y763.2786 Z10.0000 F9999
G1 X1102.4826 Y763.2786 Z-1.0000 F2500
G1 X1155.3266 Y732.8933 Z-1.0000 F4000
G1 X1102.4826 Y763.2786 Z-1.0000 F4000
G1 X1102.4826 Y763.2786 Z10.0000 F9999
G1 X1111.8771 Y817.4621 Z10.0000 F9999
G1 X1111.8771 Y817.4621 Z-1.0000 F2500
G1 X1111.8771 Y811.6456 Z-1.0000 F4000
G1 X1111.8771 Y817.4621 Z-1.0000 F4000
G1 X1152.9780 Y817.4621 Z-1.0000 F4000
G1 X1152.9780 Y817.4621 Z10.0000 F9999
G1 X1152.9780 Y878.5997 Z10.0000 F9999
G1 X1152.9780 Y878.5997 Z-1.0000 F2500
G1 X1130.1707 Y878.5997 Z-1.0000 F4000
G1 X1130.1707 Y895.0584 Z-1.0000 F4000
G1 X1130.1707 Y878.5997 Z-1.0000 F4000
G1 X1111.8771 Y878.5997 Z-1.0000 F4000
G1 X1111.8771 Y896.3612 Z-1.0000 F4000
G1 X1111.8771 Y878.5997 Z-1.0000 F4000
G1 X1152.9780 Y878.5997 Z-1.0000 F4000
G1 X1152.9780 Y896.3612 Z-1.0000 F4000
G1 X1152.9780 Y896.3612 Z10.0000 F9999
G1 X1131.7670 Y918.7648 Z10.0000 F9999
G1 X1131.7670 Y918.7648 Z-1.0000 F2500
G1 X1152.9780 Y930.7098 Z-1.0000 F4000
G1 X1131.7670 Y918.7648 Z-1.0000 F4000
G1 X1111.8771 Y930.7098 Z-1.0000 F4000
G1 X1131.7670 Y918.7648 Z-1.0000 F4000
G1 X1111.8771 Y906.6914 Z-1.0000 F4000
G1 X1131.7670 Y918.7648 Z-1.0000 F4000
G1 X1152.9780 Y906.6914 Z-1.0000 F4000
G1 X1152.9780 Y906.6914 Z10.0000 F9999
G1 X1102.4826 Y863.0951 Z10.0000 F9999
G1 X1102.4826 Y863.0951 Z-1.0000 F2500
G1 X1155.3266 Y832.7098 Z-1.0000 F4000
G1 X1102.4826 Y863.0951 Z-1.0000 F4000
G1 X1102.4826 Y863.0951 Z10.0000 F9999
G1 X713.1858 Y1430.9645 Z10.0000 F9999
G1 X713.1858 Y1430.9645 Z-1.0000 F2500
G1 X697.3051 Y1489.8166 Z-1.0000 F4000
G1 X713.1858 Y1430.9645 Z-1.0000 F4000
G1 X713.1858 Y1430.9645 Z10.0000 F9999
G1 X666.5167 Y1455.7068 Z10.0000 F9999
G1 X666.5167 Y1455.7068 Z-1.0000 F2500
G1 X695.5795 Y1426.6440 Z-1.0000 F4000
G1 X690.5194 Y1421.5840 Z-1.0000 F4000
G1 X687.3537 Y1419.2745 Z-1.0000 F4000
G1 X683.7987 Y1418.2885 Z-1.0000 F4000
G1 X679.9972 Y1418.9502 Z-1.0000 F4000
G1 X676.1178 Y1421.6359 Z-1.0000 F4000
G1 X673.6267 Y1425.7618 Z-1.0000 F4000
G1 X673.2375 Y1430.0693 Z-1.0000 F4000
G1 X674.1976 Y1433.8059 Z-1.0000 F4000
G1 X675.7805 Y1436.3230 Z-1.0000 F4000
G1 X680.8405 Y1441.3830 Z-1.0000 F4000
G1 X675.7805 Y1436.3230 Z-1.0000 F4000
G1 X674.1976 Y1433.8059 Z-1.0000 F4000
G1 X673.2375 Y1430.0693 Z-1.0000 F4000
G1 X673.6267 Y1425.7618 Z-1.0000 F4000
G1 X676.1178 Y1421.6359 Z-1.0000 F4000
G1 X679.9972 Y1418.9502 Z-1.0000 F4000
G1 X683.7987 Y1418.2885 Z-1.0000 F4000
G1 X687.3537 Y1419.2745 Z-1.0000 F4000
G1 X690.5194 Y1421.5840 Z-1.0000 F4000
G1 X695.5795 Y1426.6440 Z-1.0000 F4000
G1 X695.5795 Y1426.6440 Z10.0000 F9999
G1 X654.2040 Y1443.3940 Z10.0000 F9999
G1 X654.2040 Y1443.3940 Z-1.0000 F2500
G1 X677.8045 Y1438.5027 Z-1.0000 F4000
G1 X654.2040 Y1443.3940 Z-1.0000 F4000
G1 X654.2040 Y1443.3940 Z10.0000 F9999
G1 X660.0165 Y1391.0811 Z10.0000 F9999
G1 X660.0165 Y1391.0811 Z-1.0000 F2500
G1 X652.1021 Y1430.3936 Z-1.0000 F4000
G1 X631.7323 Y1410.0238 Z-1.0000 F4000
G1 X652.1021 Y1430.3936 Z-1.0000 F4000
G1 X660.0165 Y1391.0811 Z-1.0000 F4000
G1 X630.9538 Y1420.1438 Z-1.0000 F4000
G1 X630.9538 Y1420.1438 Z10.0000 F9999
G1 X721.4635 Y1489.8685 Z10.0000 F9999
G1 X721.4635 Y1489.8685 Z-1.0000 F2500
G1 X736.0986 Y1504.5036 Z-1.0000 F4000
G1 X721.4635 Y1489.8685 Z-1.0000 F4000
G1 X721.4635 Y1489.8685 Z10.0000 F9999
G1 X747.4253 Y1478.4899 Z10.0000 F9999
G1 X747.4253 Y1478.4899 Z-1.0000 F2500
G1 X707.0099 Y1496.2000 Z-1.0000 F4000
G1 X747.4253 Y1478.4899 Z-1.0000 F4000
G1 X729.6893 Y1518.8793 Z-1.0000 F4000
G1 X729.6893 Y1518.8793 Z10.0000 F9999
G1 X754.6780 Y1508.9928 Z10.0000 F9999
G1 X754.6780 Y1508.9928 Z-1.0000 F2500
G1 X775.3593 Y1529.6740 Z-1.0000 F4000
G1 X754.6780 Y1508.9928 Z-1.0000 F4000
G1 X754.6780 Y1508.9928 Z10.0000 F9999
G1 X780.4193 Y1548.8243 Z10.0000 F9999
G1 X780.4193 Y1548.8243 Z-1.0000 F2500
G1 X795.0545 Y1563.4595 Z-1.0000 F4000
G1 X780.4193 Y1548.8243 Z-1.0000 F4000
G1 X780.4193 Y1548.8243 Z10.0000 F9999
G1 X806.3812 Y1537.4457 Z10.0000 F9999
G1 X806.3812 Y1537.4457 Z-1.0000 F2500
G1 X765.9658 Y1555.1558 Z-1.0000 F4000
G1 X806.3812 Y1537.4457 Z-1.0000 F4000
G1 X788.6451 Y1577.8351 Z-1.0000 F4000
G1 X788.6451 Y1577.8351 Z10.0000 F9999
G1 X796.1962 Y1585.3863 Z10.0000 F9999
G1 X796.1962 Y1585.3863 Z-1.0000 F2500
G1 X819.7967 Y1580.4949 Z-1.0000 F4000
G1 X796.1962 Y1585.3863 Z-1.0000 F4000
G1 X796.1962 Y1585.3863 Z10.0000 F9999
G1 X808.5090 Y1597.6990 Z10.0000 F9999
G1 X808.5090 Y1597.6990 Z-1.0000 F2500
G1 X837.5717 Y1568.6363 Z-1.0000 F4000
G1 X832.5117 Y1563.5762 Z-1.0000 F4000
G1 X829.3459 Y1561.2668 Z-1.0000 F4000
G1 X825.7909 Y1560.2807 Z-1.0000 F4000
G1 X821.9894 Y1560.9424 Z-1.0000 F4000
G1 X818.1100 Y1563.6281 Z-1.0000 F4000
G1 X815.6189 Y1567.7540 Z-1.0000 F4000
G1 X815.2297 Y1572.0615 Z-1.0000 F4000
G1 X816.1898 Y1575.7981 Z-1.0000 F4000
G1 X817.7727 Y1578.3152 Z-1.0000 F4000
G1 X822.8327 Y1583.3752 Z-1.0000 F4000
G1 X817.7727 Y1578.3152 Z-1.0000 F4000
G1 X816.1898 Y1575.7981 Z-1.0000 F4000
G1 X815.2297 Y1572.0615 Z-1.0000 F4000
G1 X815.6189 Y1567.7540 Z-1.0000 F4000
G1 X818.1100 Y1563.6281 Z-1.0000 F4000
G1 X821.9894 Y1560.9424 Z-1.0000 F4000
G1 X825.7909 Y1560.2807 Z-1.0000 F4000
G1 X829.3459 Y1561.2668 Z-1.0000 F4000
G1 X832.5117 Y1563.5762 Z-1.0000 F4000
G1 X837.5717 Y1568.6363 Z-1.0000 F4000
G1 X837.5717 Y1568.6363 Z10.0000 F9999
G1 X846.2256 Y1603.1612 Z10.0000 F9999
G1 X846.2256 Y1603.1612 Z-1.0000 F2500
G1 X836.0148 Y1592.9504 Z-1.0000 F4000
G1 X846.2256 Y1603.1612 Z-1.0000 F4000
G1 X859.1612 Y1590.2257 Z-1.0000 F4000
G1 X848.4702 Y1579.5348 Z-1.0000 F4000
G1 X859.1612 Y1590.2257 Z-1.0000 F4000
G1 X830.0984 Y1619.2885 Z-1.0000 F4000
G1 X830.0984 Y1619.2885 Z10.0000 F9999
G1 X399.5026 Y1173.1622 Z10.0000 F9999
G1 X399.5026 Y1173.1622 Z-1.0000 F2500
G1 X407.4170 Y1133.8496 Z-1.0000 F4000
G1 X427.7868 Y1154.2195 Z-1.0000 F4000
G1 X407.4170 Y1133.8496 Z-1.0000 F4000
G1 X399.5026 Y1173.1622 Z-1.0000 F4000
G1 X428.5653 Y1144.0994 Z-1.0000 F4000
G1 X428.5653 Y1144.0994 Z10.0000 F9999
G1 X405.3151 Y1120.8493 Z10.0000 F9999
G1 X405.3151 Y1120.8493 Z-1.0000 F2500
G1 X381.7146 Y1125.7406 Z-1.0000 F4000
G1 X405.3151 Y1120.8493 Z-1.0000 F4000
G1 X405.3151 Y1120.8493 Z10.0000 F9999
G1 X393.0024 Y1108.5365 Z10.0000 F9999
G1 X393.0024 Y1108.5365 Z-1.0000 F2500
G1 X363.9396 Y1137.5993 Z-1.0000 F4000
G1 X368.9997 Y1142.6593 Z-1.0000 F4000
G1 X372.1654 Y1144.9687 Z-1.0000 F4000
G1 X375.7204 Y1145.9548 Z-1.0000 F4000
G1 X379.5219 Y1145.2931 Z-1.0000 F4000
G1 X383.4013 Y1142.6074 Z-1.0000 F4000
G1 X385.8924 Y1138.4815 Z-1.0000 F4000
G1 X386.2816 Y1134.1740 Z-1.0000 F4000
G1 X385.3215 Y1130.4374 Z-1.0000 F4000
G1 X383.7386 Y1127.9203 Z-1.0000 F4000
G1 X378.6786 Y1122.8603 Z-1.0000 F4000
G1 X383.7386 Y1127.9203 Z-1.0000 F4000
G1 X385.3215 Y1130.4374 Z-1.0000 F4000
G1 X386.2816 Y1134.1740 Z-1.0000 F4000
G1 X385.8924 Y1138.4815 Z-1.0000 F4000
G1 X383.4013 Y1142.6074 Z-1.0000 F4000
G1 X379.5219 Y1145.2931 Z-1.0000 F4000
G1 X375.7204 Y1145.9548 Z-1.0000 F4000
G1 X372.1654 Y1144.9687 Z-1.0000 F4000
G1 X368.9997 Y1142.6593 Z-1.0000 F4000
G1 X363.9396 Y1137.5993 Z-1.0000 F4000
G1 X363.9396 Y1137.5993 Z10.0000 F9999
G1 X346.3333 Y1133.2788 Z10.0000 F9999
G1 X346.3333 Y1133.2788 Z-1.0000 F2500
G1 X362.2140 Y1074.4267 Z-1.0000 F4000
G1 X346.3333 Y1133.2788 Z-1.0000 F4000
G1 X346.3333 Y1133.2788 Z10.0000 F9999
G1 X312.0938 Y1085.7534 Z10.0000 F9999
G1 X312.0938 Y1085.7534 Z-1.0000 F2500
G1 X352.5092 Y1068.0433 Z-1.0000 F4000
G1 X312.0938 Y1085.7534 Z-1.0000 F4000
G1 X329.8298 Y1045.3640 Z-1.0000 F4000
G1 X329.8298 Y1045.3640 Z10.0000 F9999
G1 X304.8411 Y1055.2505 Z10.0000 F9999
G1 X304.8411 Y1055.2505 Z-1.0000 F2500
G1 X284.1598 Y1034.5693 Z-1.0000 F4000
G1 X304.8411 Y1055.2505 Z-1.0000 F4000
G1 X304.8411 Y1055.2505 Z10.0000 F9999
G1 X338.0556 Y1074.3748 Z10.0000 F9999
G1 X338.0556 Y1074.3748 Z-1.0000 F2500
G1 X323.4205 Y1059.7397 Z-1.0000 F4000
G1 X338.0556 Y1074.3748 Z-1.0000 F4000
G1 X338.0556 Y1074.3748 Z10.0000 F9999
G1 X279.0998 Y1015.4190 Z10.0000 F9999
G1 X279.0998 Y1015.4190 Z-1.0000 F2500
G1 X264.4646 Y1000.7838 Z-1.0000 F4000
G1 X279.0998 Y1015.4190 Z-1.0000 F4000
G1 X279.0998 Y1015.4190 Z10.0000 F9999
G1 X253.1379 Y1026.7976 Z10.0000 F9999
G1 X253.1379 Y1026.7976 Z-1.0000 F2500
G1 X293.5533 Y1009.0875 Z-1.0000 F4000
G1 X253.1379 Y1026.7976 Z-1.0000 F4000
G1 X270.8740 Y986.4081 Z-1.0000 F4000
G1 X270.8740 Y986.4081 Z10.0000 F9999
G1 X263.3229 Y978.8570 Z10.0000 F9999
G1 X263.3229 Y978.8570 Z-1.0000 F2500
G1 X239.7224 Y983.7484 Z-1.0000 F4000
G1 X263.3229 Y978.8570 Z-1.0000 F4000
G1 X263.3229 Y978.8570 Z10.0000 F9999
G1 X251.0101 Y966.5443 Z10.0000 F9999
G1 X251.0101 Y966.5443 Z-1.0000 F2500
G1 X221.9474 Y995.6070 Z-1.0000 F4000
G1 X227.0074 Y1000.6671 Z-1.0000 F4000
G1 X230.1732 Y1002.9765 Z-1.0000 F4000
G1 X233.7282 Y1003.9626 Z-1.0000 F4000
G1 X237.5297 Y1003.3009 Z-1.0000 F4000
G1 X241.4091 Y1000.6152 Z-1.0000 F4000
G1 X243.9001 Y996.4893 Z-1.0000 F4000
G1 X244.2894 Y992.1818 Z-1.0000 F4000
G1 X243.3293 Y988.4451 Z-1.0000 F4000
G1 X241.7464 Y985.9281 Z-1.0000 F4000
G1 X236.6864 Y980.8681 Z-1.0000 F4000
G1 X241.7464 Y985.9281 Z-1.0000 F4000
G1 X243.3293 Y988.4451 Z-1.0000 F4000
G1 X244.2894 Y992.1818 Z-1.0000 F4000
G1 X243.9001 Y996.4893 Z-1.0000 F4000
G1 X241.4091 Y1000.6152 Z-1.0000 F4000
G1 X237.5297 Y1003.3009 Z-1.0000 F4000
G1 X233.7282 Y1003.9626 Z-1.0000 F4000
G1 X230.1732 Y1002.9765 Z-1.0000 F4000
G1 X227.0074 Y1000.6671 Z-1.0000 F4000
G1 X221.9474 Y995.6070 Z-1.0000 F4000
G1 X221.9474 Y995.6070 Z10.0000 F9999
G1 X213.2935 Y961.0821 Z10.0000 F9999
G1 X213.2935 Y961.0821 Z-1.0000 F2500
G1 X223.5043 Y971.2929 Z-1.0000 F4000
G1 X213.2935 Y961.0821 Z-1.0000 F4000
G1 X200.3579 Y974.0176 Z-1.0000 F4000
G1 X211.0489 Y984.7085 Z-1.0000 F4000
G1 X200.3579 Y974.0176 Z-1.0000 F4000
G1 X229.4207 Y944.9548 Z-1.0000 F4000
G1 X229.4207 Y944.9548 Z10.0000 F9999
(Tool Number:1) (7.998 mm dia. slot drill)
M3 S9000
G1 X192.1140 Y44.1503 Z10.0000 F9999
G1 X192.1140 Y44.1503 Z1.0000 F2500
G1 X159.3900 Y39.8809 Z-7.8916 F2500
G1 X165.3093 Y40.6550 Z-9.5000 F2500
G1 X159.3900 Y39.8809 Z-11.1084 F2500
G1 X192.1140 Y44.1503 Z-20.0000 F2500
G1 X159.3900 Y39.8809 Z-20.0000 F4000
G1 X165.3393 Y40.6589 Z-20.0000 F4000
G1 X163.2699 Y56.5245 Z-20.0000 F4000
G1 X164.0479 Y50.5751 Z-20.0000 F4000
G1 X215.6089 Y57.3006 Z-20.0000 F4000
G1 X214.8328 Y63.2502 Z-20.0000 F4000
G1 X216.9043 Y47.3849 Z-20.0000 F4000
G1 X222.8539 Y48.1609 Z-20.0000 F4000
G1 X192.1140 Y44.1503 Z-20.0000 F4000
G1 X192.1140 Y44.1503 Z10.0000 F9999
G1 X158.8293 Y283.8582 Z10.0000 F9999
G1 X158.8293 Y283.8582 Z1.0000 F2500
G1 X191.5533 Y288.1277 Z-7.8916 F2500
G1 X185.6340 Y287.3536 Z-9.5000 F2500
G1 X191.5533 Y288.1277 Z-11.1084 F2500
G1 X158.8293 Y283.8582 Z-20.0000 F2500
G1 X191.5533 Y288.1277 Z-20.0000 F4000
G1 X185.6040 Y287.3496 Z-20.0000 F4000
G1 X187.6734 Y271.4841 Z-20.0000 F4000
G1 X186.8954 Y277.4334 Z-20.0000 F4000
G1 X135.3344 Y270.7079 Z-20.0000 F4000
G1 X136.1105 Y264.7583 Z-20.0000 F4000
G1 X134.0390 Y280.6237 Z-20.0000 F4000
G1 X128.0894 Y279.8476 Z-20.0000 F4000
G1 X158.8293 Y283.8582 Z-20.0000 F4000
G1 X158.8293 Y283.8582 Z10.0000 F9999
G1 X91.1551 Y511.4649 Z10.0000 F9999
G1 X91.1551 Y511.4649 Z1.0000 F2500
G1 X95.4231 Y544.1892 Z-7.8916 F2500
G1 X94.6528 Y538.2693 Z-9.5000 F2500
G1 X95.4231 Y544.1892 Z-11.1084 F2500
G1 X91.1551 Y511.4649 Z-20.0000 F2500
G1 X95.4231 Y544.1892 Z-20.0000 F4000
G1 X94.6489 Y538.2393 Z-20.0000 F4000
G1 X110.5145 Y536.1696 Z-20.0000 F4000
G1 X104.5646 Y536.9437 Z-20.0000 F4000
G1 X97.8382 Y485.3829 Z-20.0000 F4000
G1 X103.7878 Y484.6067 Z-20.0000 F4000
G1 X87.9220 Y486.6745 Z-20.0000 F4000
G1 X87.1459 Y480.7249 Z-20.0000 F4000
G1 X91.1551 Y511.4649 Z-20.0000 F4000
G1 X91.1551 Y511.4649 Z10.0000 F9999
G1 X331.3801 Y482.1443 Z10.0000 F9999
G1 X331.3801 Y482.1443 Z1.0000 F2500
G1 X327.1121 Y449.4201 Z-7.8916 F2500
G1 X327.8823 Y455.3399 Z-9.5000 F2500
G1 X327.1121 Y449.4201 Z-11.1084 F2500
G1 X331.3801 Y482.1443 Z-20.0000 F2500
G1 X327.1121 Y449.4201 Z-20.0000 F4000
G1 X327.8862 Y455.3699 Z-20.0000 F4000
G1 X312.0207 Y457.4397 Z-20.0000 F4000
G1 X317.9705 Y456.6655 Z-20.0000 F4000
G1 X324.6969 Y508.2263 Z-20.0000 F4000
G1 X318.7473 Y509.0025 Z-20.0000 F4000
G1 X334.6131 Y506.9347 Z-20.0000 F4000
G1 X335.3893 Y512.8843 Z-20.0000 F4000
G1 X331.3801 Y482.1443 Z-20.0000 F4000
G1 X331.3801 Y482.1443 Z10.0000 F9999
G1 X456.3091 Y322.6596 Z10.0000 F9999
G1 X456.3091 Y322.6596 Z1.0000 F2500
G1 X489.0332 Y326.9290 Z-7.8916 F2500
G1 X483.1138 Y326.1549 Z-9.5000 F2500
G1 X489.0332 Y326.9290 Z-11.1084 F2500
G1 X456.3091 Y322.6596 Z-20.0000 F2500
G1 X489.0332 Y326.9290 Z-20.0000 F4000
G1 X483.0838 Y326.1510 Z-20.0000 F4000
G1 X485.1533 Y310.2854 Z-20.0000 F4000
G1 X484.3753 Y316.2347 Z-20.0000 F4000
G1 X432.8143 Y309.5093 Z-20.0000 F4000
G1 X433.5903 Y303.5597 Z-20.0000 F4000
G1 X431.5189 Y319.4250 Z-20.0000 F4000
G1 X425.5693 Y318.6489 Z-20.0000 F4000
G1 X456.3091 Y322.6596 Z-20.0000 F4000
G1 X456.3091 Y322.6596 Z10.0000 F9999
G1 X489.5939 Y82.9516 Z10.0000 F9999
G1 X489.5939 Y82.9516 Z1.0000 F2500
G1 X456.8698 Y78.6822 Z-7.8916 F2500
G1 X462.7892 Y79.4563 Z-9.5000 F2500
G1 X456.8698 Y78.6822 Z-11.1084 F2500
G1 X489.5939 Y82.9516 Z-20.0000 F2500
G1 X456.8698 Y78.6822 Z-20.0000 F4000
G1 X462.8192 Y79.4602 Z-20.0000 F4000
G1 X460.7497 Y95.3258 Z-20.0000 F4000
G1 X461.5278 Y89.3765 Z-20.0000 F4000
G1 X513.0887 Y96.1019 Z-20.0000 F4000
G1 X512.3127 Y102.0515 Z-20.0000 F4000
G1 X514.3841 Y86.1862 Z-20.0000 F4000
G1 X520.3337 Y86.9623 Z-20.0000 F4000
G1 X489.5939 Y82.9516 Z-20.0000 F4000
G1 X489.5939 Y82.9516 Z10.0000 F9999
G1 X689.1196 Y553.7446 Z10.0000 F9999
G1 X689.1196 Y553.7446 Z1.0000 F2500
G1 X693.3876 Y586.4688 Z-7.8916 F2500
G1 X692.6174 Y580.5490 Z-9.5000 F2500
G1 X693.3876 Y586.4688 Z-11.1084 F2500
G1 X689.1196 Y553.7446 Z-20.0000 F2500
G1 X693.3876 Y586.4688 Z-20.0000 F4000
G1 X692.6135 Y580.5190 Z-20.0000 F4000
G1 X708.4790 Y578.4493 Z-20.0000 F4000
G1 X702.5292 Y579.2234 Z-20.0000 F4000
G1 X695.8028 Y527.6626 Z-20.0000 F4000
G1 X701.7524 Y526.8864 Z-20.0000 F4000
G1 X685.8866 Y528.9542 Z-20.0000 F4000
G1 X685.1104 Y523.0046 Z-20.0000 F4000
G1 X689.1196 Y553.7446 Z-20.0000 F4000
G1 X689.1196 Y553.7446 Z10.0000 F9999
G1 X929.3446 Y524.4240 Z10.0000 F9999
G1 X929.3446 Y524.4240 Z1.0000 F2500
G1 X925.0766 Y491.6997 Z-7.8916 F2500
G1 X925.8469 Y497.6196 Z-9.5000 F2500
G1 X925.0766 Y491.6997 Z-11.1084 F2500
G1 X929.3446 Y524.4240 Z-20.0000 F2500
G1 X925.0766 Y491.6997 Z-20.0000 F4000
G1 X925.8508 Y497.6496 Z-20.0000 F4000
G1 X909.9852 Y499.7193 Z-20.0000 F4000
G1 X915.9351 Y498.9452 Z-20.0000 F4000
G1 X922.6615 Y550.5060 Z-20.0000 F4000
G1 X916.7119 Y551.2822 Z-20.0000 F4000
G1 X932.5777 Y549.2144 Z-20.0000 F4000
G1 X933.3538 Y555.1640 Z-20.0000 F4000
G1 X929.3446 Y524.4240 Z-20.0000 F4000
G1 X929.3446 Y524.4240 Z10.0000 F9999
G1 X968.1460 Y821.9038 Z10.0000 F9999
G1 X968.1460 Y821.9038 Z1.0000 F2500
G1 X963.8779 Y789.1796 Z-7.8916 F2500
G1 X964.6482 Y795.0994 Z-9.5000 F2500
G1 X963.8779 Y789.1796 Z-11.1084 F2500
G1 X968.1460 Y821.9038 Z-20.0000 F2500
G1 X963.8779 Y789.1796 Z-20.0000 F4000
G1 X964.6521 Y795.1294 Z-20.0000 F4000
G1 X948.7866 Y797.1992 Z-20.0000 F4000
G1 X954.7364 Y796.4250 Z-20.0000 F4000
G1 X961.4628 Y847.9859 Z-20.0000 F4000
G1 X955.5132 Y848.7620 Z-20.0000 F4000
G1 X971.3790 Y846.6943 Z-20.0000 F4000
G1 X972.1551 Y852.6438 Z-20.0000 F4000
G1 X968.1460 Y821.9038 Z-20.0000 F4000
G1 X968.1460 Y821.9038 Z10.0000 F9999
G1 X900.4717 Y1049.5105 Z10.0000 F9999
G1 X900.4717 Y1049.5105 Z1.0000 F2500
G1 X867.7477 Y1045.2411 Z-7.8916 F2500
G1 X873.6671 Y1046.0152 Z-9.5000 F2500
G1 X867.7477 Y1045.2411 Z-11.1084 F2500
G1 X900.4717 Y1049.5105 Z-20.0000 F2500
G1 X867.7477 Y1045.2411 Z-20.0000 F4000
G1 X873.6970 Y1046.0191 Z-20.0000 F4000
G1 X871.6276 Y1061.8847 Z-20.0000 F4000
G1 X872.4056 Y1055.9353 Z-20.0000 F4000
G1 X923.9666 Y1062.6608 Z-20.0000 F4000
G1 X923.1905 Y1068.6104 Z-20.0000 F4000
G1 X925.2620 Y1052.7451 Z-20.0000 F4000
G1 X931.2116 Y1053.5211 Z-20.0000 F4000
G1 X900.4717 Y1049.5105 Z-20.0000 F4000
G1 X900.4717 Y1049.5105 Z10.0000 F9999
G1 X867.1870 Y1289.2184 Z10.0000 F9999
G1 X867.1870 Y1289.2184 Z1.0000 F2500
G1 X899.9110 Y1293.4879 Z-7.8916 F2500
G1 X893.9917 Y1292.7138 Z-9.5000 F2500
G1 X899.9110 Y1293.4879 Z-11.1084 F2500
G1 X867.1870 Y1289.2184 Z-20.0000 F2500
G1 X899.9110 Y1293.4879 Z-20.0000 F4000
G1 X893.9617 Y1292.7098 Z-20.0000 F4000
G1 X896.0312 Y1276.8443 Z-20.0000 F4000
G1 X895.2531 Y1282.7936 Z-20.0000 F4000
G1 X843.6921 Y1276.0682 Z-20.0000 F4000
G1 X844.4682 Y1270.1186 Z-20.0000 F4000
G1 X842.3967 Y1285.9839 Z-20.0000 F4000
G1 X836.4471 Y1285.2078 Z-20.0000 F4000
G1 X867.1870 Y1289.2184 Z-20.0000 F4000
G1 X867.1870 Y1289.2184 Z10.0000 F9999
G1 X569.7071 Y1250.4171 Z10.0000 F9999
G1 X569.7071 Y1250.4171 Z1.0000 F2500
G1 X602.4312 Y1254.6865 Z-7.8916 F2500
G1 X596.5118 Y1253.9124 Z-9.5000 F2500
G1 X602.4312 Y1254.6865 Z-11.1084 F2500
G1 X569.7071 Y1250.4171 Z-20.0000 F2500
G1 X602.4312 Y1254.6865 Z-20.0000 F4000
G1 X596.4818 Y1253.9085 Z-20.0000 F4000
G1 X598.5513 Y1238.0429 Z-20.0000 F4000
G1 X597.7733 Y1243.9923 Z-20.0000 F4000
G1 X546.2123 Y1237.2668 Z-20.0000 F4000
G1 X546.9883 Y1231.3172 Z-20.0000 F4000
G1 X544.9169 Y1247.1825 Z-20.0000 F4000
G1 X538.9673 Y1246.4065 Z-20.0000 F4000
G1 X569.7071 Y1250.4171 Z-20.0000 F4000
G1 X569.7071 Y1250.4171 Z10.0000 F9999
G1 X489.5939 Y1306.6981 Z10.0000 F9999
G1 X489.5939 Y1306.6981 Z1.0000 F2500
G1 X456.8698 Y1302.4287 Z-7.8916 F2500
G1 X462.7892 Y1303.2028 Z-9.5000 F2500
G1 X456.8698 Y1302.4287 Z-11.1084 F2500
G1 X489.5939 Y1306.6981 Z-20.0000 F2500
G1 X456.8698 Y1302.4287 Z-20.0000 F4000
G1 X462.8192 Y1303.2067 Z-20.0000 F4000
G1 X460.7497 Y1319.0723 Z-20.0000 F4000
G1 X461.5278 Y1313.1229 Z-20.0000 F4000
G1 X513.0887 Y1319.8484 Z-20.0000 F4000
G1 X512.3127 Y1325.7980 Z-20.0000 F4000
G1 X514.3841 Y1309.9327 Z-20.0000 F4000
G1 X520.3337 Y1310.7087 Z-20.0000 F4000
G1 X489.5939 Y1306.6981 Z-20.0000 F4000
G1 X489.5939 Y1306.6981 Z10.0000 F9999
G1 X456.3091 Y1546.4060 Z10.0000 F9999
G1 X456.3091 Y1546.4060 Z1.0000 F2500
G1 X489.0332 Y1550.6755 Z-7.8916 F2500
G1 X483.1138 Y1549.9013 Z-9.5000 F2500
G1 X489.0332 Y1550.6755 Z-11.1084 F2500
G1 X456.3091 Y1546.4060 Z-20.0000 F2500
G1 X489.0332 Y1550.6755 Z-20.0000 F4000
G1 X483.0838 Y1549.8974 Z-20.0000 F4000
G1 X485.1533 Y1534.0319 Z-20.0000 F4000
G1 X484.3753 Y1539.9812 Z-20.0000 F4000
G1 X432.8143 Y1533.2557 Z-20.0000 F4000
G1 X433.5903 Y1527.3061 Z-20.0000 F4000
G1 X431.5189 Y1543.1714 Z-20.0000 F4000
G1 X425.5693 Y1542.3954 Z-20.0000 F4000
G1 X456.3091 Y1546.4060 Z-20.0000 F4000
G1 X456.3091 Y1546.4060 Z10.0000 F9999
G1 X158.8293 Y1507.6047 Z10.0000 F9999
G1 X158.8293 Y1507.6047 Z1.0000 F2500
G1 X191.5533 Y1511.8741 Z-7.8916 F2500
G1 X185.6340 Y1511.1000 Z-9.5000 F2500
G1 X191.5533 Y1511.8741 Z-11.1084 F2500
G1 X158.8293 Y1507.6047 Z-20.0000 F2500
G1 X191.5533 Y1511.8741 Z-20.0000 F4000
G1 X185.6040 Y1511.0961 Z-20.0000 F4000
G1 X187.6734 Y1495.2305 Z-20.0000 F4000
G1 X186.8954 Y1501.1799 Z-20.0000 F4000
G1 X135.3344 Y1494.4544 Z-20.0000 F4000
G1 X136.1105 Y1488.5048 Z-20.0000 F4000
G1 X134.0390 Y1504.3701 Z-20.0000 F4000
G1 X128.0894 Y1503.5941 Z-20.0000 F4000
G1 X158.8293 Y1507.6047 Z-20.0000 F4000
G1 X158.8293 Y1507.6047 Z10.0000 F9999
G1 X192.1140 Y1267.8968 Z10.0000 F9999
G1 X192.1140 Y1267.8968 Z1.0000 F2500
G1 X159.3900 Y1263.6273 Z-7.8916 F2500
G1 X165.3093 Y1264.4014 Z-9.5000 F2500
G1 X159.3900 Y1263.6273 Z-11.1084 F2500
G1 X192.1140 Y1267.8968 Z-20.0000 F2500
G1 X159.3900 Y1263.6273 Z-20.0000 F4000
G1 X165.3393 Y1264.4053 Z-20.0000 F4000
G1 X163.2699 Y1280.2709 Z-20.0000 F4000
G1 X164.0479 Y1274.3216 Z-20.0000 F4000
G1 X215.6089 Y1281.0470 Z-20.0000 F4000
G1 X214.8328 Y1286.9966 Z-20.0000 F4000
G1 X216.9043 Y1271.1313 Z-20.0000 F4000
G1 X222.8539 Y1271.9074 Z-20.0000 F4000
G1 X192.1140 Y1267.8968 Z-20.0000 F4000
G1 X192.1140 Y1267.8968 Z10.0000 F9999
G1 X129.9564 Y808.9448 Z10.0000 F9999
G1 X129.9564 Y808.9448 Z1.0000 F2500
G1 X134.2244 Y841.6690 Z-7.8916 F2500
G1 X133.4542 Y835.7491 Z-9.5000 F2500
G1 X134.2244 Y841.6690 Z-11.1084 F2500
G1 X129.9564 Y808.9448 Z-20.0000 F2500
G1 X134.2244 Y841.6690 Z-20.0000 F4000
G1 X133.4503 Y835.7191 Z-20.0000 F4000
G1 X149.3158 Y833.6494 Z-20.0000 F4000
G1 X143.3659 Y834.4236 Z-20.0000 F4000
G1 X136.6396 Y782.8627 Z-20.0000 F4000
G1 X142.5891 Y782.0866 Z-20.0000 F4000
G1 X126.7234 Y784.1543 Z-20.0000 F4000
G1 X125.9472 Y778.2047 Z-20.0000 F4000
G1 X129.9564 Y808.9448 Z-20.0000 F4000
G1 X129.9564 Y808.9448 Z10.0000 F9999
G1 X370.1814 Y779.6241 Z10.0000 F9999
G1 X370.1814 Y779.6241 Z1.0000 F2500
G1 X365.9134 Y746.8999 Z-7.8916 F2500
G1 X366.6837 Y752.8198 Z-9.5000 F2500
G1 X365.9134 Y746.8999 Z-11.1084 F2500
G1 X370.1814 Y779.6241 Z-20.0000 F2500
G1 X365.9134 Y746.8999 Z-20.0000 F4000
G1 X366.6876 Y752.8497 Z-20.0000 F4000
G1 X350.8220 Y754.9195 Z-20.0000 F4000
G1 X356.7719 Y754.1453 Z-20.0000 F4000
G1 X363.4982 Y805.7062 Z-20.0000 F4000
G1 X357.5487 Y806.4823 Z-20.0000 F4000
G1 X373.4145 Y804.4146 Z-20.0000 F4000
G1 X374.1906 Y810.3642 Z-20.0000 F4000
G1 X370.1814 Y779.6241 Z-20.0000 F4000
G1 X370.1814 Y779.6241 Z10.0000 F9999
G1 X602.9919 Y1010.7092 Z10.0000 F9999
G1 X602.9919 Y1010.7092 Z1.0000 F2500
G1 X570.2678 Y1006.4397 Z-7.8916 F2500
G1 X576.1872 Y1007.2138 Z-9.5000 F2500
G1 X570.2678 Y1006.4397 Z-11.1084 F2500
G1 X602.9919 Y1010.7092 Z-20.0000 F2500
G1 X570.2678 Y1006.4397 Z-20.0000 F4000
G1 X576.2172 Y1007.2178 Z-20.0000 F4000
G1 X574.1477 Y1023.0833 Z-20.0000 F4000
G1 X574.9258 Y1017.1340 Z-20.0000 F4000
G1 X626.4867 Y1023.8595 Z-20.0000 F4000
G1 X625.7107 Y1029.8091 Z-20.0000 F4000
G1 X627.7821 Y1013.9437 Z-20.0000 F4000
G1 X633.7317 Y1014.7198 Z-20.0000 F4000
G1 X602.9919 Y1010.7092 Z-20.0000 F4000
G1 X602.9919 Y1010.7092 Z10.0000 F9999
G1 X727.9209 Y851.2244 Z10.0000 F9999
G1 X727.9209 Y851.2244 Z1.0000 F2500
G1 X732.1890 Y883.9487 Z-7.8916 F2500
G1 X731.4187 Y878.0288 Z-9.5000 F2500
G1 X732.1890 Y883.9487 Z-11.1084 F2500
G1 X727.9209 Y851.2244 Z-20.0000 F2500
G1 X732.1890 Y883.9487 Z-20.0000 F4000
G1 X731.4148 Y877.9988 Z-20.0000 F4000
G1 X747.2803 Y875.9291 Z-20.0000 F4000
G1 X741.3305 Y876.7033 Z-20.0000 F4000
G1 X734.6041 Y825.1424 Z-20.0000 F4000
G1 X740.5537 Y824.3662 Z-20.0000 F4000
G1 X724.6879 Y826.4340 Z-20.0000 F4000
G1 X723.9117 Y820.4844 Z-20.0000 F4000
G1 X727.9209 Y851.2244 Z-20.0000 F4000
G1 X727.9209 Y851.2244 Z10.0000 F9999
G1 X929.3446 Y1748.1704 Z10.0000 F9999
G1 X929.3446 Y1748.1704 Z1.0000 F2500
G1 X925.0766 Y1715.4462 Z-7.8916 F2500
G1 X925.8469 Y1721.3661 Z-9.5000 F2500
G1 X925.0766 Y1715.4462 Z-11.1084 F2500
G1 X929.3446 Y1748.1704 Z-20.0000 F2500
G1 X925.0766 Y1715.4462 Z-20.0000 F4000
G1 X925.8508 Y1721.3961 Z-20.0000 F4000
G1 X909.9852 Y1723.4658 Z-20.0000 F4000
G1 X915.9351 Y1722.6916 Z-20.0000 F4000
G1 X922.6615 Y1774.2525 Z-20.0000 F4000
G1 X916.7119 Y1775.0286 Z-20.0000 F4000
G1 X932.5777 Y1772.9609 Z-20.0000 F4000
G1 X933.3538 Y1778.9105 Z-20.0000 F4000
G1 X929.3446 Y1748.1704 Z-20.0000 F4000
G1 X929.3446 Y1748.1704 Z10.0000 F9999
G1 X689.1196 Y1777.4911 Z10.0000 F9999
G1 X689.1196 Y1777.4911 Z1.0000 F2500
G1 X693.3876 Y1810.2153 Z-7.8916 F2500
G1 X692.6174 Y1804.2954 Z-9.5000 F2500
G1 X693.3876 Y1810.2153 Z-11.1084 F2500
G1 X689.1196 Y1777.4911 Z-20.0000 F2500
G1 X693.3876 Y1810.2153 Z-20.0000 F4000
G1 X692.6135 Y1804.2654 Z-20.0000 F4000
G1 X708.4790 Y1802.1957 Z-20.0000 F4000
G1 X702.5292 Y1802.9699 Z-20.0000 F4000
G1 X695.8028 Y1751.4090 Z-20.0000 F4000
G1 X701.7524 Y1750.6329 Z-20.0000 F4000
G1 X685.8866 Y1752.7006 Z-20.0000 F4000
G1 X685.1104 Y1746.7510 Z-20.0000 F4000
G1 X689.1196 Y1777.4911 Z-20.0000 F4000
G1 X689.1196 Y1777.4911 Z10.0000 F9999
G1 X727.9209 Y2074.9709 Z10.0000 F9999
G1 X727.9209 Y2074.9709 Z1.0000 F2500
G1 X732.1890 Y2107.6951 Z-7.8916 F2500
G1 X731.4187 Y2101.7753 Z-9.5000 F2500
G1 X732.1890 Y2107.6951 Z-11.1084 F2500
G1 X727.9209 Y2074.9709 Z-20.0000 F2500
G1 X732.1890 Y2107.6951 Z-20.0000 F4000
G1 X731.4148 Y2101.7453 Z-20.0000 F4000
G1 X747.2803 Y2099.6755 Z-20.0000 F4000
G1 X741.3305 Y2100.4497 Z-20.0000 F4000
G1 X734.6041 Y2048.8888 Z-20.0000 F4000
G1 X740.5537 Y2048.1127 Z-20.0000 F4000
G1 X724.6879 Y2050.1805 Z-20.0000 F4000
G1 X723.9117 Y2044.2309 Z-20.0000 F4000
G1 X727.9209 Y2074.9709 Z-20.0000 F4000
G1 X727.9209 Y2074.9709 Z10.0000 F9999
G1 X968.1460 Y2045.6503 Z10.0000 F9999
G1 X968.1460 Y2045.6503 Z1.0000 F2500
G1 X963.8779 Y2012.9260 Z-7.8916 F2500
G1 X964.6482 Y2018.8459 Z-9.5000 F2500
G1 X963.8779 Y2012.9260 Z-11.1084 F2500
G1 X968.1460 Y2045.6503 Z-20.0000 F2500
G1 X963.8779 Y2012.9260 Z-20.0000 F4000
G1 X964.6521 Y2018.8759 Z-20.0000 F4000
G1 X948.7866 Y2020.9456 Z-20.0000 F4000
G1 X954.7364 Y2020.1715 Z-20.0000 F4000
G1 X961.4628 Y2071.7323 Z-20.0000 F4000
G1 X955.5132 Y2072.5085 Z-20.0000 F4000
G1 X971.3790 Y2070.4407 Z-20.0000 F4000
G1 X972.1551 Y2076.3903 Z-20.0000 F4000
G1 X968.1460 Y2045.6503 Z-20.0000 F4000
G1 X968.1460 Y2045.6503 Z10.0000 F9999
(Tool Number:1) (7.998 mm dia. slot drill)
M3 S9000
G1 X732.0418 Y106.5094 Z10.0000 F9999
G1 X732.0418 Y106.5094 Z1.0000 F2500
G1 X770.6856 Y111.5499 Z-9.5000 F2500
G1 X732.0418 Y106.5094 Z-20.0000 F2500
G1 X879.2545 Y125.7110 Z-20.0000 F5000
G1 X845.9360 Y159.0295 Z-20.0000 F5000
G1 X842.4005 Y155.4940 Z-20.0000 F5000
G1 X840.9849 Y156.9096 Z-20.0000 F5000
G1 X855.1284 Y171.0531 Z-20.0000 F5000
G1 X856.5440 Y169.6375 Z-20.0000 F5000
G1 X853.0085 Y166.1020 Z-20.0000 F5000
G1 X886.3270 Y132.7835 Z-20.0000 F5000
G1 X924.7303 Y427.2090 Z-20.0000 F5000
G1 X919.7732 Y427.8550 Z-20.0000 F5000
G1 X920.0322 Y429.8392 Z-20.0000 F5000
G1 X942.8387 Y426.8649 Z-20.0000 F5000
G1 X967.1536 Y613.2838 Z-20.0000 F5000
G1 X944.3471 Y616.2579 Z-20.0000 F5000
G1 X944.6057 Y618.2431 Z-20.0000 F5000
G1 X949.5648 Y617.5948 Z-20.0000 F5000
G1 X963.5317 Y724.6885 Z-20.0000 F5000
G1 X958.5747 Y725.3346 Z-20.0000 F5000
G1 X958.8338 Y727.3188 Z-20.0000 F5000
G1 X981.6404 Y724.3445 Z-20.0000 F5000
G1 X1005.9555 Y910.7635 Z-20.0000 F5000
G1 X983.1488 Y913.7377 Z-20.0000 F5000
G1 X983.4075 Y915.7229 Z-20.0000 F5000
G1 X988.3663 Y915.0752 Z-20.0000 F5000
G1 X995.8677 Y972.5864 Z-20.0000 F5000
G1 X968.2238 Y976.1921 Z-20.0000 F5000
G1 X968.2238 Y976.1921 Z-10.0000 F9999
G1 X952.3602 Y978.2613 Z-10.0000 F5000
G1 X952.3602 Y978.2613 Z-20.0000 F2500
G1 X788.3331 Y999.6561 Z-20.0000 F5000
G1 X788.3331 Y999.6561 Z-10.0000 F9999
G1 X772.4695 Y1001.7253 Z-10.0000 F5000
G1 X772.4695 Y1001.7253 Z-20.0000 F2500
G1 X740.0377 Y1005.9555 Z-20.0000 F5000
G1 X732.5358 Y948.4450 Z-20.0000 F5000
G1 X737.4938 Y947.7986 Z-20.0000 F5000
G1 X737.2350 Y945.8129 Z-20.0000 F5000
G1 X714.4273 Y948.7889 Z-20.0000 F5000
G1 X690.1122 Y762.3697 Z-20.0000 F5000
G1 X712.9190 Y759.3954 Z-20.0000 F5000
G1 X712.6602 Y757.4089 Z-20.0000 F5000
G1 X707.7031 Y758.0548 Z-20.0000 F5000
G1 X693.7343 Y650.9648 Z-20.0000 F5000
G1 X698.6914 Y650.3188 Z-20.0000 F5000
G1 X698.4324 Y648.3346 Z-20.0000 F5000
G1 X675.6259 Y651.3088 Z-20.0000 F5000
G1 X651.3109 Y464.8899 Z-20.0000 F5000
G1 X674.1175 Y461.9156 Z-20.0000 F5000
G1 X673.8588 Y459.9306 Z-20.0000 F5000
G1 X668.8999 Y460.5785 Z-20.0000 F5000
G1 X655.3499 Y356.6881 Z-20.0000 F5000
G1 X551.4595 Y343.1381 Z-20.0000 F5000
G1 X552.1074 Y338.1792 Z-20.0000 F5000
G1 X550.1223 Y337.9205 Z-20.0000 F5000
G1 X547.1481 Y360.7271 Z-20.0000 F5000
G1 X360.7291 Y336.4121 Z-20.0000 F5000
G1 X363.7034 Y313.6056 Z-20.0000 F5000
G1 X361.7192 Y313.3466 Z-20.0000 F5000
G1 X361.0732 Y318.3037 Z-20.0000 F5000
G1 X253.9831 Y304.3348 Z-20.0000 F5000
G1 X254.6291 Y299.3778 Z-20.0000 F5000
G1 X252.6425 Y299.1190 Z-20.0000 F5000
G1 X249.6683 Y321.9258 Z-20.0000 F5000
G1 X63.2491 Y297.6107 Z-20.0000 F5000
G1 X66.2251 Y274.8030 Z-20.0000 F5000
G1 X64.2394 Y274.5442 Z-20.0000 F5000
G1 X63.5930 Y279.5022 Z-20.0000 F5000
G1 X6.0825 Y272.0003 Z-20.0000 F5000
G1 X39.4516 Y16.1703 Z-20.0000 F5000
G1 X96.9628 Y23.6717 Z-20.0000 F5000
G1 X96.3151 Y28.6306 Z-20.0000 F5000
G1 X98.3003 Y28.8892 Z-20.0000 F5000
G1 X101.2746 Y6.0825 Z-20.0000 F5000
G1 X287.6935 Y30.3976 Z-20.0000 F5000
G1 X284.7192 Y53.2042 Z-20.0000 F5000
G1 X286.7034 Y53.4633 Z-20.0000 F5000
G1 X287.3495 Y48.5063 Z-20.0000 F5000
G1 X394.4431 Y62.4732 Z-20.0000 F5000
G1 X393.7949 Y67.4322 Z-20.0000 F5000
G1 X395.7801 Y67.6909 Z-20.0000 F5000
G1 X398.7542 Y44.8843 Z-20.0000 F5000
G1 X585.1731 Y69.1993 Z-20.0000 F5000
G1 X582.1988 Y92.0058 Z-20.0000 F5000
G1 X584.1830 Y92.2647 Z-20.0000 F5000
G1 X584.8290 Y87.3077 Z-20.0000 F5000
G1 X732.0418 Y106.5094 Z-20.0000 F5000
G1 X732.0418 Y106.5094 Z10.0000 F9999
G1 X327.2593 Y1226.8594 Z10.0000 F9999
G1 X327.2593 Y1226.8594 Z1.0000 F2500
G1 X288.6155 Y1221.8189 Z-9.5000 F2500
G1 X327.2593 Y1226.8594 Z-20.0000 F2500
G1 X180.0465 Y1207.6577 Z-20.0000 F5000
G1 X213.3650 Y1174.3392 Z-20.0000 F5000
G1 X216.9005 Y1177.8748 Z-20.0000 F5000
G1 X218.3161 Y1176.4591 Z-20.0000 F5000
G1 X204.1726 Y1162.3156 Z-20.0000 F5000
G1 X202.7570 Y1163.7312 Z-20.0000 F5000
G1 X206.2925 Y1167.2668 Z-20.0000 F5000
G1 X172.9741 Y1200.5853 Z-20.0000 F5000
G1 X134.5707 Y906.1598 Z-20.0000 F5000
G1 X139.5278 Y905.5138 Z-20.0000 F5000
G1 X139.2688 Y903.5296 Z-20.0000 F5000
G1 X116.4623 Y906.5038 Z-20.0000 F5000
G1 X92.1474 Y720.0849 Z-20.0000 F5000
G1 X114.9539 Y717.1108 Z-20.0000 F5000
G1 X114.6953 Y715.1257 Z-20.0000 F5000
G1 X109.7362 Y715.7739 Z-20.0000 F5000
G1 X95.7693 Y608.6803 Z-20.0000 F5000
G1 X100.7263 Y608.0341 Z-20.0000 F5000
G1 X100.4673 Y606.0500 Z-20.0000 F5000
G1 X77.6606 Y609.0243 Z-20.0000 F5000
G1 X53.3455 Y422.6053 Z-20.0000 F5000
G1 X76.1522 Y419.6310 Z-20.0000 F5000
G1 X75.8936 Y417.6458 Z-20.0000 F5000
G1 X70.9347 Y418.2935 Z-20.0000 F5000
G1 X63.4333 Y360.7823 Z-20.0000 F5000
G1 X319.2633 Y327.4132 Z-20.0000 F5000
G1 X326.7653 Y384.9237 Z-20.0000 F5000
G1 X321.8072 Y385.5702 Z-20.0000 F5000
G1 X322.0660 Y387.5558 Z-20.0000 F5000
G1 X344.8738 Y384.5798 Z-20.0000 F5000
G1 X369.1888 Y570.9990 Z-20.0000 F5000
G1 X346.3820 Y573.9733 Z-20.0000 F5000
G1 X346.6409 Y575.9599 Z-20.0000 F5000
G1 X351.5979 Y575.3139 Z-20.0000 F5000
G1 X365.5667 Y682.4039 Z-20.0000 F5000
G1 X360.6096 Y683.0499 Z-20.0000 F5000
G1 X360.8686 Y685.0341 Z-20.0000 F5000
G1 X383.6751 Y682.0599 Z-20.0000 F5000
G1 X407.9901 Y868.4788 Z-20.0000 F5000
G1 X385.1835 Y871.4531 Z-20.0000 F5000
G1 X385.4422 Y873.4381 Z-20.0000 F5000
G1 X390.4011 Y872.7903 Z-20.0000 F5000
G1 X403.9511 Y976.6807 Z-20.0000 F5000
G1 X507.8415 Y990.2307 Z-20.0000 F5000
G1 X507.1936 Y995.1895 Z-20.0000 F5000
G1 X509.1787 Y995.4482 Z-20.0000 F5000
G1 X512.1529 Y972.6417 Z-20.0000 F5000
G1 X698.5719 Y996.9567 Z-20.0000 F5000
G1 X695.5976 Y1019.7632 Z-20.0000 F5000
G1 X697.5819 Y1020.0221 Z-20.0000 F5000
G1 X698.2278 Y1015.0651 Z-20.0000 F5000
G1 X805.3179 Y1029.0339 Z-20.0000 F5000
G1 X804.6719 Y1033.9909 Z-20.0000 F5000
G1 X806.6585 Y1034.2497 Z-20.0000 F5000
G1 X809.6327 Y1011.4429 Z-20.0000 F5000
G1 X996.0520 Y1035.7580 Z-20.0000 F5000
G1 X993.0759 Y1058.5658 Z-20.0000 F5000
G1 X995.0616 Y1058.8246 Z-20.0000 F5000
G1 X995.7081 Y1053.8665 Z-20.0000 F5000
G1 X1053.2185 Y1061.3684 Z-20.0000 F5000
G1 X1049.2938 Y1091.4580 Z-20.0000 F5000
G1 X1049.2938 Y1091.4580 Z-10.0000 F9999
G1 X1047.2246 Y1107.3216 Z-10.0000 F5000
G1 X1047.2246 Y1107.3216 Z-20.0000 F2500
G1 X1024.4754 Y1281.7320 Z-20.0000 F5000
G1 X1024.4754 Y1281.7320 Z-10.0000 F9999
G1 X1022.4063 Y1297.5956 Z-10.0000 F5000
G1 X1022.4063 Y1297.5956 Z-20.0000 F2500
G1 X1019.8494 Y1317.1984 Z-20.0000 F5000
G1 X962.3382 Y1309.6970 Z-20.0000 F5000
G1 X962.9859 Y1304.7382 Z-20.0000 F5000
G1 X961.0007 Y1304.4795 Z-20.0000 F5000
G1 X958.0265 Y1327.2862 Z-20.0000 F5000
G1 X771.6075 Y1302.9712 Z-20.0000 F5000
G1 X774.5818 Y1280.1645 Z-20.0000 F5000
G1 X772.5977 Y1279.9055 Z-20.0000 F5000
G1 X771.9515 Y1284.8624 Z-20.0000 F5000
G1 X664.8579 Y1270.8956 Z-20.0000 F5000
G1 X665.5061 Y1265.9365 Z-20.0000 F5000
G1 X663.5209 Y1265.6778 Z-20.0000 F5000
G1 X660.5468 Y1288.4844 Z-20.0000 F5000
G1 X474.1279 Y1264.1694 Z-20.0000 F5000
G1 X477.1022 Y1241.3630 Z-20.0000 F5000
G1 X475.1180 Y1241.1040 Z-20.0000 F5000
G1 X474.4720 Y1246.0610 Z-20.0000 F5000
G1 X327.2593 Y1226.8594 Z-20.0000 F5000
G1 X327.2593 Y1226.8594 Z10.0000 F9999
G1 X732.0418 Y1330.2558 Z10.0000 F9999
G1 X732.0418 Y1330.2558 Z1.0000 F2500
G1 X770.6856 Y1335.2963 Z-9.5000 F2500
G1 X732.0418 Y1330.2558 Z-20.0000 F2500
G1 X879.2545 Y1349.4575 Z-20.0000 F5000
G1 X845.9360 Y1382.7760 Z-20.0000 F5000
G1 X842.4005 Y1379.2404 Z-20.0000 F5000
G1 X840.9849 Y1380.6561 Z-20.0000 F5000
G1 X855.1284 Y1394.7996 Z-20.0000 F5000
G1 X856.5440 Y1393.3839 Z-20.0000 F5000
G1 X853.0085 Y1389.8484 Z-20.0000 F5000
G1 X886.3270 Y1356.5299 Z-20.0000 F5000
G1 X924.7303 Y1650.9554 Z-20.0000 F5000
G1 X919.7732 Y1651.6014 Z-20.0000 F5000
G1 X920.0322 Y1653.5856 Z-20.0000 F5000
G1 X942.8387 Y1650.6114 Z-20.0000 F5000
G1 X967.1536 Y1837.0303 Z-20.0000 F5000
G1 X944.3471 Y1840.0044 Z-20.0000 F5000
G1 X944.6057 Y1841.9895 Z-20.0000 F5000
G1 X949.5648 Y1841.3413 Z-20.0000 F5000
G1 X963.5317 Y1948.4349 Z-20.0000 F5000
G1 X958.5747 Y1949.0811 Z-20.0000 F5000
G1 X958.8338 Y1951.0652 Z-20.0000 F5000
G1 X981.6404 Y1948.0909 Z-20.0000 F5000
G1 X1005.9555 Y2134.5099 Z-20.0000 F5000
G1 X983.1488 Y2137.4842 Z-20.0000 F5000
G1 X983.4075 Y2139.4694 Z-20.0000 F5000
G1 X988.3663 Y2138.8217 Z-20.0000 F5000
G1 X995.8677 Y2196.3329 Z-20.0000 F5000
G1 X971.0096 Y2199.5752 Z-20.0000 F5000
G1 X971.0096 Y2199.5752 Z-10.0000 F9999
G1 X955.1460 Y2201.6444 Z-10.0000 F5000
G1 X955.1460 Y2201.6444 Z-20.0000 F2500
G1 X788.9611 Y2223.3206 Z-20.0000 F5000
G1 X788.9611 Y2223.3206 Z-10.0000 F9999
G1 X773.0975 Y2225.3898 Z-10.0000 F5000
G1 X773.0975 Y2225.3898 Z-20.0000 F2500
G1 X740.0377 Y2229.7020 Z-20.0000 F5000
G1 X732.5358 Y2172.1915 Z-20.0000 F5000
G1 X737.4938 Y2171.5450 Z-20.0000 F5000
G1 X737.2350 Y2169.5594 Z-20.0000 F5000
G1 X714.4273 Y2172.5354 Z-20.0000 F5000
G1 X690.1122 Y1986.1162 Z-20.0000 F5000
G1 X712.9190 Y1983.1419 Z-20.0000 F5000
G1 X712.6602 Y1981.1553 Z-20.0000 F5000
G1 X707.7031 Y1981.8013 Z-20.0000 F5000
G1 X693.7343 Y1874.7113 Z-20.0000 F5000
G1 X698.6914 Y1874.0653 Z-20.0000 F5000
G1 X698.4324 Y1872.0811 Z-20.0000 F5000
G1 X675.6259 Y1875.0553 Z-20.0000 F5000
G1 X651.3109 Y1688.6364 Z-20.0000 F5000
G1 X674.1175 Y1685.6621 Z-20.0000 F5000
G1 X673.8588 Y1683.6771 Z-20.0000 F5000
G1 X668.8999 Y1684.3249 Z-20.0000 F5000
G1 X655.3499 Y1580.4345 Z-20.0000 F5000
G1 X551.4595 Y1566.8845 Z-20.0000 F5000
G1 X552.1074 Y1561.9257 Z-20.0000 F5000
G1 X550.1223 Y1561.6670 Z-20.0000 F5000
G1 X547.1481 Y1584.4735 Z-20.0000 F5000
G1 X360.7291 Y1560.1585 Z-20.0000 F5000
G1 X363.7034 Y1537.3520 Z-20.0000 F5000
G1 X361.7192 Y1537.0931 Z-20.0000 F5000
G1 X361.0732 Y1542.0501 Z-20.0000 F5000
G1 X253.9831 Y1528.0813 Z-20.0000 F5000
G1 X254.6291 Y1523.1243 Z-20.0000 F5000
G1 X252.6425 Y1522.8655 Z-20.0000 F5000
G1 X249.6683 Y1545.6722 Z-20.0000 F5000
G1 X63.2491 Y1521.3572 Z-20.0000 F5000
G1 X66.2251 Y1498.5494 Z-20.0000 F5000
G1 X64.2394 Y1498.2906 Z-20.0000 F5000
G1 X63.5930 Y1503.2487 Z-20.0000 F5000
G1 X6.0825 Y1495.7468 Z-20.0000 F5000
G1 X39.4516 Y1239.9168 Z-20.0000 F5000
G1 X96.9628 Y1247.4182 Z-20.0000 F5000
G1 X96.3151 Y1252.3770 Z-20.0000 F5000
G1 X98.3003 Y1252.6357 Z-20.0000 F5000
G1 X101.2746 Y1229.8290 Z-20.0000 F5000
G1 X287.6935 Y1254.1440 Z-20.0000 F5000
G1 X284.7192 Y1276.9507 Z-20.0000 F5000
G1 X286.7034 Y1277.2097 Z-20.0000 F5000
G1 X287.3495 Y1272.2528 Z-20.0000 F5000
G1 X394.4431 Y1286.2196 Z-20.0000 F5000
G1 X393.7949 Y1291.1787 Z-20.0000 F5000
G1 X395.7801 Y1291.4374 Z-20.0000 F5000
G1 X398.7542 Y1268.6308 Z-20.0000 F5000
G1 X585.1731 Y1292.9458 Z-20.0000 F5000
G1 X582.1988 Y1315.7522 Z-20.0000 F5000
G1 X584.1830 Y1316.0112 Z-20.0000 F5000
G1 X584.8290 Y1311.0542 Z-20.0000 F5000
G1 X732.0418 Y1330.2558 Z-20.0000 F5000
G1 X732.0418 Y1330.2558 Z10.0000 F9999
G1 X1067.5293 Y1379.8971 Z10.0000 F9999
G1 X1067.5293 Y1379.8971 Z1.0000 F2500
G1 X1067.5293 Y1340.9260 Z-9.5000 F2500
G1 X1067.5293 Y1379.8971 Z-20.0000 F2500
G1 X1067.5293 Y1265.8983 Z-20.0000 F5000
G1 X1072.5293 Y1265.8983 Z-20.0000 F5000
G1 X1072.5293 Y1263.8964 Z-20.0000 F5000
G1 X1054.8718 Y1263.8964 Z-20.0000 F5000
G1 X1049.5293 Y1258.5538 Z-20.0000 F5000
G1 X1049.5293 Y1234.8984 Z-20.0000 F5000
G1 X1096.5272 Y1234.8984 Z-20.0000 F5000
G1 X1096.5272 Y1239.8985 Z-20.0000 F5000
G1 X1098.5292 Y1239.8985 Z-20.0000 F5000
G1 X1098.5292 Y1219.8965 Z-20.0000 F5000
G1 X1096.5272 Y1219.8965 Z-20.0000 F5000
G1 X1096.5272 Y1224.8965 Z-20.0000 F5000
G1 X1049.5293 Y1224.8965 Z-20.0000 F5000
G1 X1049.5293 Y1201.2411 Z-20.0000 F5000
G1 X1054.8718 Y1195.8985 Z-20.0000 F5000
G1 X1072.5293 Y1195.8985 Z-20.0000 F5000
G1 X1072.5293 Y1193.8965 Z-20.0000 F5000
G1 X1067.5293 Y1193.8965 Z-20.0000 F5000
G1 X1067.5293 Y965.8990 Z-20.0000 F5000
G1 X1072.5293 Y965.8990 Z-20.0000 F5000
G1 X1072.5293 Y963.8970 Z-20.0000 F5000
G1 X1054.8718 Y963.8970 Z-20.0000 F5000
G1 X1049.5293 Y958.5545 Z-20.0000 F5000
G1 X1049.5293 Y901.2417 Z-20.0000 F5000
G1 X1054.8718 Y895.8992 Z-20.0000 F5000
G1 X1072.5293 Y895.8992 Z-20.0000 F5000
G1 X1072.5293 Y893.8972 Z-20.0000 F5000
G1 X1067.5293 Y893.8972 Z-20.0000 F5000
G1 X1067.5293 Y665.8996 Z-20.0000 F5000
G1 X1072.5293 Y665.8996 Z-20.0000 F5000
G1 X1072.5293 Y663.8977 Z-20.0000 F5000
G1 X1054.8718 Y663.8977 Z-20.0000 F5000
G1 X1049.5293 Y658.5551 Z-20.0000 F5000
G1 X1049.5293 Y601.2423 Z-20.0000 F5000
G1 X1054.8718 Y595.8998 Z-20.0000 F5000
G1 X1072.5293 Y595.8998 Z-20.0000 F5000
G1 X1072.5293 Y593.8978 Z-20.0000 F5000
G1 X1067.5293 Y593.8978 Z-20.0000 F5000
G1 X1067.5293 Y365.9002 Z-20.0000 F5000
G1 X1072.5293 Y365.9002 Z-20.0000 F5000
G1 X1072.5293 Y363.8983 Z-20.0000 F5000
G1 X1054.8718 Y363.8983 Z-20.0000 F5000
G1 X1049.5293 Y358.5557 Z-20.0000 F5000
G1 X1049.5293 Y301.2430 Z-20.0000 F5000
G1 X1054.8718 Y295.9004 Z-20.0000 F5000
G1 X1072.5293 Y295.9004 Z-20.0000 F5000
G1 X1072.5293 Y293.8984 Z-20.0000 F5000
G1 X1067.5293 Y293.8984 Z-20.0000 F5000
G1 X1067.5293 Y65.9009 Z-20.0000 F5000
G1 X1072.5293 Y65.9009 Z-20.0000 F5000
G1 X1072.5293 Y63.8988 Z-20.0000 F5000
G1 X1054.8718 Y63.8988 Z-20.0000 F5000
G1 X1049.5293 Y58.5563 Z-20.0000 F5000
G1 X1049.5293 Y25.9009 Z-20.0000 F5000
G1 X1111.1686 Y25.9009 Z-20.0000 F5000
G1 X1111.7162 Y25.8215 Z-20.0000 F5000
G1 X1111.9758 Y25.7039 Z-20.0000 F5000
G1 X1112.1935 Y25.5101 Z-20.0000 F5000
G1 X1112.3405 Y25.2659 Z-20.0000 F5000
G1 X1112.4093 Y24.9894 Z-20.0000 F5000
G1 X1112.3924 Y24.6983 Z-20.0000 F5000
G1 X1112.2921 Y24.4316 Z-20.0000 F5000
G1 X1111.9611 Y23.9883 Z-20.0000 F5000
G1 X1109.0320 Y21.0591 Z-20.0000 F5000
G1 X1107.6460 Y19.2029 Z-20.0000 F5000
G1 X1106.7283 Y16.6644 Z-20.0000 F5000
G1 X1106.6047 Y13.9681 Z-20.0000 F5000
G1 X1107.2466 Y11.4402 Z-20.0000 F5000
G1 X1108.5802 Y9.1989 Z-20.0000 F5000
G1 X1110.5743 Y7.3797 Z-20.0000 F5000
G1 X1113.0181 Y6.2335 Z-20.0000 F5000
G1 X1115.3108 Y5.9010 Z-20.0000 F5000
G1 X1141.7455 Y5.9010 Z-20.0000 F5000
G1 X1144.0383 Y6.2335 Z-20.0000 F5000
G1 X1146.4821 Y7.3797 Z-20.0000 F5000
G1 X1148.4761 Y9.1989 Z-20.0000 F5000
G1 X1149.8097 Y11.4402 Z-20.0000 F5000
G1 X1150.4516 Y13.9681 Z-20.0000 F5000
G1 X1150.3280 Y16.6644 Z-20.0000 F5000
G1 X1149.4103 Y19.2029 Z-20.0000 F5000
G1 X1148.0243 Y21.0591 Z-20.0000 F5000
G1 X1145.0953 Y23.9883 Z-20.0000 F5000
G1 X1144.7642 Y24.4316 Z-20.0000 F5000
G1 X1144.6639 Y24.6983 Z-20.0000 F5000
G1 X1144.6470 Y24.9894 Z-20.0000 F5000
G1 X1144.7158 Y25.2659 Z-20.0000 F5000
G1 X1144.8628 Y25.5101 Z-20.0000 F5000
G1 X1145.0806 Y25.7039 Z-20.0000 F5000
G1 X1145.3401 Y25.8215 Z-20.0000 F5000
G1 X1145.8877 Y25.9009 Z-20.0000 F5000
G1 X1207.5270 Y25.9009 Z-20.0000 F5000
G1 X1207.5270 Y58.5563 Z-20.0000 F5000
G1 X1202.1845 Y63.8988 Z-20.0000 F5000
G1 X1184.5270 Y63.8988 Z-20.0000 F5000
G1 X1184.5270 Y65.9009 Z-20.0000 F5000
G1 X1189.5270 Y65.9009 Z-20.0000 F5000
G1 X1189.5270 Y293.8984 Z-20.0000 F5000
G1 X1184.5270 Y293.8984 Z-20.0000 F5000
G1 X1184.5270 Y295.9004 Z-20.0000 F5000
G1 X1202.1845 Y295.9004 Z-20.0000 F5000
G1 X1207.5270 Y301.2430 Z-20.0000 F5000
G1 X1207.5270 Y358.5557 Z-20.0000 F5000
G1 X1202.1845 Y363.8983 Z-20.0000 F5000
G1 X1184.5270 Y363.8983 Z-20.0000 F5000
G1 X1184.5270 Y365.9002 Z-20.0000 F5000
G1 X1189.5270 Y365.9002 Z-20.0000 F5000
G1 X1189.5270 Y593.8978 Z-20.0000 F5000
G1 X1184.5270 Y593.8978 Z-20.0000 F5000
G1 X1184.5270 Y595.8998 Z-20.0000 F5000
G1 X1202.1845 Y595.8998 Z-20.0000 F5000
G1 X1207.5270 Y601.2423 Z-20.0000 F5000
G1 X1207.5270 Y658.5551 Z-20.0000 F5000
G1 X1202.1845 Y663.8977 Z-20.0000 F5000
G1 X1184.5270 Y663.8977 Z-20.0000 F5000
G1 X1184.5270 Y665.8996 Z-20.0000 F5000
G1 X1189.5270 Y665.8996 Z-20.0000 F5000
G1 X1189.5270 Y893.8972 Z-20.0000 F5000
G1 X1184.5270 Y893.8972 Z-20.0000 F5000
G1 X1184.5270 Y895.8992 Z-20.0000 F5000
G1 X1202.1845 Y895.8992 Z-20.0000 F5000
G1 X1207.5270 Y901.2417 Z-20.0000 F5000
G1 X1207.5270 Y958.5545 Z-20.0000 F5000
G1 X1202.1845 Y963.8970 Z-20.0000 F5000
G1 X1184.5270 Y963.8970 Z-20.0000 F5000
G1 X1184.5270 Y965.8990 Z-20.0000 F5000
G1 X1189.5270 Y965.8990 Z-20.0000 F5000
G1 X1189.5270 Y1193.8965 Z-20.0000 F5000
G1 X1184.5270 Y1193.8965 Z-20.0000 F5000
G1 X1184.5270 Y1195.8985 Z-20.0000 F5000
G1 X1202.1845 Y1195.8985 Z-20.0000 F5000
G1 X1207.5270 Y1201.2411 Z-20.0000 F5000
G1 X1207.5270 Y1224.8965 Z-20.0000 F5000
G1 X1160.5291 Y1224.8965 Z-20.0000 F5000
G1 X1160.5291 Y1219.8965 Z-20.0000 F5000
G1 X1158.5271 Y1219.8965 Z-20.0000 F5000
G1 X1158.5271 Y1239.8985 Z-20.0000 F5000
G1 X1160.5291 Y1239.8985 Z-20.0000 F5000
G1 X1160.5291 Y1234.8984 Z-20.0000 F5000
G1 X1207.5270 Y1234.8984 Z-20.0000 F5000
G1 X1207.5270 Y1258.5538 Z-20.0000 F5000
G1 X1202.1845 Y1263.8964 Z-20.0000 F5000
G1 X1184.5270 Y1263.8964 Z-20.0000 F5000
G1 X1184.5270 Y1265.8983 Z-20.0000 F5000
G1 X1189.5270 Y1265.8983 Z-20.0000 F5000
G1 X1189.5270 Y1493.8959 Z-20.0000 F5000
G1 X1184.5270 Y1493.8959 Z-20.0000 F5000
G1 X1184.5270 Y1495.8979 Z-20.0000 F5000
G1 X1202.1845 Y1495.8979 Z-20.0000 F5000
G1 X1207.5270 Y1501.2405 Z-20.0000 F5000
G1 X1207.5270 Y1558.5532 Z-20.0000 F5000
G1 X1202.1845 Y1563.8958 Z-20.0000 F5000
G1 X1184.5270 Y1563.8958 Z-20.0000 F5000
G1 X1184.5270 Y1565.8978 Z-20.0000 F5000
G1 X1189.5270 Y1565.8978 Z-20.0000 F5000
G1 X1189.5270 Y1683.8957 Z-20.0000 F5000
G1 X1166.5294 Y1683.8957 Z-20.0000 F5000
G1 X1166.5294 Y1685.8977 Z-20.0000 F5000
G1 X1171.5295 Y1685.8977 Z-20.0000 F5000
G1 X1171.5270 Y1793.8953 Z-20.0000 F5000
G1 X1166.5271 Y1793.8953 Z-20.0000 F5000
G1 X1166.5271 Y1795.8973 Z-20.0000 F5000
G1 X1202.1845 Y1795.8973 Z-20.0000 F5000
G1 X1207.5270 Y1801.2399 Z-20.0000 F5000
G1 X1207.5270 Y1858.5526 Z-20.0000 F5000
G1 X1202.1845 Y1863.8952 Z-20.0000 F5000
G1 X1166.5271 Y1863.8952 Z-20.0000 F5000
G1 X1166.5271 Y1865.8972 Z-20.0000 F5000
G1 X1171.5271 Y1865.8972 Z-20.0000 F5000
G1 X1171.5271 Y2093.8947 Z-20.0000 F5000
G1 X1166.5271 Y2093.8947 Z-20.0000 F5000
G1 X1166.5271 Y2095.8967 Z-20.0000 F5000
G1 X1202.1845 Y2095.8967 Z-20.0000 F5000
G1 X1207.5270 Y2101.2393 Z-20.0000 F5000
G1 X1207.5270 Y2158.5521 Z-20.0000 F5000
G1 X1202.1845 Y2163.8947 Z-20.0000 F5000
G1 X1166.5271 Y2163.8947 Z-20.0000 F5000
G1 X1166.5271 Y2165.8966 Z-20.0000 F5000
G1 X1171.5271 Y2165.8966 Z-20.0000 F5000
G1 X1171.5271 Y2281.8945 Z-20.0000 F5000
G1 X1085.5292 Y2281.8945 Z-20.0000 F5000
G1 X1085.5292 Y2165.8966 Z-20.0000 F5000
G1 X1090.5292 Y2165.8966 Z-20.0000 F5000
G1 X1090.5292 Y2163.8947 Z-20.0000 F5000
G1 X1054.8718 Y2163.8947 Z-20.0000 F5000
G1 X1049.5293 Y2158.5521 Z-20.0000 F5000
G1 X1049.5293 Y2101.2393 Z-20.0000 F5000
G1 X1054.8718 Y2095.8967 Z-20.0000 F5000
G1 X1090.5292 Y2095.8967 Z-20.0000 F5000
G1 X1090.5292 Y2093.8947 Z-20.0000 F5000
G1 X1085.5292 Y2093.8947 Z-20.0000 F5000
G1 X1085.5292 Y1865.8972 Z-20.0000 F5000
G1 X1090.5292 Y1865.8972 Z-20.0000 F5000
G1 X1090.5292 Y1863.8952 Z-20.0000 F5000
G1 X1054.8718 Y1863.8952 Z-20.0000 F5000
G1 X1049.5293 Y1858.5526 Z-20.0000 F5000
G1 X1049.5293 Y1801.2399 Z-20.0000 F5000
G1 X1054.8718 Y1795.8973 Z-20.0000 F5000
G1 X1090.5292 Y1795.8973 Z-20.0000 F5000
G1 X1090.5292 Y1793.8953 Z-20.0000 F5000
G1 X1085.5292 Y1793.8953 Z-20.0000 F5000
G1 X1085.5292 Y1685.8977 Z-20.0000 F5000
G1 X1090.5292 Y1685.8977 Z-20.0000 F5000
G1 X1090.5292 Y1683.8957 Z-20.0000 F5000
G1 X1067.5293 Y1683.8957 Z-20.0000 F5000
G1 X1067.5293 Y1565.8978 Z-20.0000 F5000
G1 X1072.5293 Y1565.8978 Z-20.0000 F5000
G1 X1072.5293 Y1563.8958 Z-20.0000 F5000
G1 X1054.8718 Y1563.8958 Z-20.0000 F5000
G1 X1049.5293 Y1558.5532 Z-20.0000 F5000
G1 X1049.5293 Y1536.0188 Z-20.0000 F5000
G1 X1049.5293 Y1536.0188 Z-10.0000 F9999
G1 X1049.5293 Y1520.0208 Z-10.0000 F5000
G1 X1049.5293 Y1520.0208 Z-20.0000 F2500
G1 X1049.5293 Y1501.2405 Z-20.0000 F5000
G1 X1054.8718 Y1495.8979 Z-20.0000 F5000
G1 X1072.5293 Y1495.8979 Z-20.0000 F5000
G1 X1072.5293 Y1493.8959 Z-20.0000 F5000
G1 X1067.5293 Y1493.8959 Z-20.0000 F5000
G1 X1067.5293 Y1379.8971 Z-20.0000 F5000
G1 X1067.5293 Y1379.8971 Z10.0000 F9999
G1 X1900.0000 Y2800.0000 Z80.0000 F9999
G1 Z80.0000 F9999
G1 X1900.0000 Y2800.0000 F9999
M5
M30
