(plotsheet 2n3_nested_153 sheets_final v1_0_sheet 114 to 116a_S114.1_text_CC8 - stepover 1mm)
(Material Size) (X=1220.000, Y=2440.000, Z=21.000)
(LinuxCNC_NoArcs_MM_TC_medium_50um_G1_verbose.con)
G90 G80 G21 G49
G64 P0.050
M6 T1
(Tool Number:1) (7.998 mm dia. slot drill)
G43 H1 G0Z80.0000
M3 S18000
G04 P10
G1 X222.5642 Y139.3809 Z10.0000 F9999
G1 X222.5642 Y139.3809 Z-1.0000 F2500
G1 X228.3807 Y139.3809 Z-1.0000 F4000
G1 X222.5642 Y139.3809 Z-1.0000 F4000
G1 X222.5642 Y180.4818 Z-1.0000 F4000
G1 X222.5642 Y180.4818 Z10.0000 F9999
G1 X241.4817 Y180.4818 Z10.0000 F9999
G1 X241.4817 Y180.4818 Z-1.0000 F2500
G1 X254.7110 Y160.3351 Z-1.0000 F4000
G1 X241.4817 Y180.4818 Z-1.0000 F4000
G1 X241.4817 Y180.4818 Z10.0000 F9999
G1 X258.8945 Y180.4818 Z10.0000 F9999
G1 X258.8945 Y180.4818 Z-1.0000 F2500
G1 X258.8945 Y139.3809 Z-1.0000 F4000
G1 X251.7385 Y139.3809 Z-1.0000 F4000
G1 X247.8670 Y139.9864 Z-1.0000 F4000
G1 X244.6560 Y141.8029 Z-1.0000 F4000
G1 X242.4358 Y144.9589 Z-1.0000 F4000
G1 X241.5917 Y149.6011 Z-1.0000 F4000
G1 X242.7477 Y154.2800 Z-1.0000 F4000
G1 X245.5184 Y157.6011 Z-1.0000 F4000
G1 X248.8395 Y159.5644 Z-1.0000 F4000
G1 X251.7385 Y160.2250 Z-1.0000 F4000
G1 X258.8945 Y160.2250 Z-1.0000 F4000
G1 X251.7385 Y160.2250 Z-1.0000 F4000
G1 X248.8395 Y159.5644 Z-1.0000 F4000
G1 X245.5184 Y157.6011 Z-1.0000 F4000
G1 X242.7477 Y154.2800 Z-1.0000 F4000
G1 X241.5917 Y149.6011 Z-1.0000 F4000
G1 X242.4358 Y144.9589 Z-1.0000 F4000
G1 X244.6560 Y141.8029 Z-1.0000 F4000
G1 X247.8670 Y139.9864 Z-1.0000 F4000
G1 X251.7385 Y139.3809 Z-1.0000 F4000
G1 X258.8945 Y139.3809 Z-1.0000 F4000
G1 X258.8945 Y139.3809 Z10.0000 F9999
G1 X274.3991 Y129.9864 Z10.0000 F9999
G1 X274.3991 Y129.9864 Z-1.0000 F2500
G1 X304.7844 Y182.8305 Z-1.0000 F4000
G1 X274.3991 Y129.9864 Z-1.0000 F4000
G1 X274.3991 Y129.9864 Z10.0000 F9999
G1 X332.2156 Y139.3809 Z10.0000 F9999
G1 X332.2156 Y139.3809 Z-1.0000 F2500
G1 X316.1606 Y180.4818 Z-1.0000 F4000
G1 X332.2156 Y139.3809 Z-1.0000 F4000
G1 X348.2339 Y180.4818 Z-1.0000 F4000
G1 X348.2339 Y180.4818 Z10.0000 F9999
G1 X358.9128 Y155.8213 Z10.0000 F9999
G1 X358.9128 Y155.8213 Z-1.0000 F2500
G1 X388.1606 Y155.8213 Z-1.0000 F4000
G1 X358.9128 Y155.8213 Z-1.0000 F4000
G1 X358.9128 Y155.8213 Z10.0000 F9999
G1 X321.9037 Y165.7846 Z10.0000 F9999
G1 X321.9037 Y165.7846 Z-1.0000 F2500
G1 X342.6009 Y165.7846 Z-1.0000 F4000
G1 X321.9037 Y165.7846 Z-1.0000 F4000
G1 X321.9037 Y165.7846 Z10.0000 F9999
G1 X405.2798 Y165.7846 Z10.0000 F9999
G1 X405.2798 Y165.7846 Z-1.0000 F2500
G1 X425.9771 Y165.7846 Z-1.0000 F4000
G1 X405.2798 Y165.7846 Z-1.0000 F4000
G1 X405.2798 Y165.7846 Z10.0000 F9999
G1 X415.5917 Y139.3809 Z10.0000 F9999
G1 X415.5917 Y139.3809 Z-1.0000 F2500
G1 X399.5367 Y180.4818 Z-1.0000 F4000
G1 X415.5917 Y139.3809 Z-1.0000 F4000
G1 X431.6101 Y180.4818 Z-1.0000 F4000
G1 X431.6101 Y180.4818 Z10.0000 F9999
G1 X442.2890 Y180.4818 Z10.0000 F9999
G1 X442.2890 Y180.4818 Z-1.0000 F2500
G1 X455.5184 Y160.3351 Z-1.0000 F4000
G1 X442.2890 Y180.4818 Z-1.0000 F4000
G1 X442.2890 Y180.4818 Z10.0000 F9999
G1 X459.7018 Y180.4818 Z10.0000 F9999
G1 X459.7018 Y180.4818 Z-1.0000 F2500
G1 X459.7018 Y139.3809 Z-1.0000 F4000
G1 X452.5459 Y139.3809 Z-1.0000 F4000
G1 X448.6743 Y139.9864 Z-1.0000 F4000
G1 X445.4633 Y141.8029 Z-1.0000 F4000
G1 X443.2431 Y144.9589 Z-1.0000 F4000
G1 X442.3991 Y149.6011 Z-1.0000 F4000
G1 X443.5550 Y154.2800 Z-1.0000 F4000
G1 X446.3257 Y157.6011 Z-1.0000 F4000
G1 X449.6468 Y159.5644 Z-1.0000 F4000
G1 X452.5459 Y160.2250 Z-1.0000 F4000
G1 X459.7018 Y160.2250 Z-1.0000 F4000
G1 X452.5459 Y160.2250 Z-1.0000 F4000
G1 X449.6468 Y159.5644 Z-1.0000 F4000
G1 X446.3257 Y157.6011 Z-1.0000 F4000
G1 X443.5550 Y154.2800 Z-1.0000 F4000
G1 X442.3991 Y149.6011 Z-1.0000 F4000
G1 X443.2431 Y144.9589 Z-1.0000 F4000
G1 X445.4633 Y141.8029 Z-1.0000 F4000
G1 X448.6743 Y139.9864 Z-1.0000 F4000
G1 X452.5459 Y139.3809 Z-1.0000 F4000
G1 X459.7018 Y139.3809 Z-1.0000 F4000
G1 X459.7018 Y139.3809 Z10.0000 F9999
G1 X490.2339 Y157.6745 Z10.0000 F9999
G1 X490.2339 Y157.6745 Z-1.0000 F2500
G1 X475.7936 Y157.6745 Z-1.0000 F4000
G1 X490.2339 Y157.6745 Z-1.0000 F4000
G1 X490.2339 Y139.3809 Z-1.0000 F4000
G1 X475.1147 Y139.3809 Z-1.0000 F4000
G1 X490.2339 Y139.3809 Z-1.0000 F4000
G1 X490.2339 Y180.4818 Z-1.0000 F4000
G1 X490.2339 Y180.4818 Z10.0000 F9999
G1 X1041.8722 Y506.6787 Z10.0000 F9999
G1 X1041.8722 Y506.6787 Z-1.0000 F2500
G1 X1041.8722 Y513.1007 Z-1.0000 F4000
G1 X1044.4410 Y521.7245 Z-1.0000 F4000
G1 X1052.0373 Y524.7154 Z-1.0000 F4000
G1 X1059.9089 Y521.6328 Z-1.0000 F4000
G1 X1062.7346 Y513.3943 Z-1.0000 F4000
G1 X1062.7346 Y506.6787 Z-1.0000 F4000
G1 X1062.7346 Y513.3943 Z-1.0000 F4000
G1 X1059.9089 Y521.6328 Z-1.0000 F4000
G1 X1052.0373 Y524.7154 Z-1.0000 F4000
G1 X1044.4410 Y521.7245 Z-1.0000 F4000
G1 X1041.8722 Y513.1007 Z-1.0000 F4000
G1 X1041.8722 Y506.6787 Z-1.0000 F4000
G1 X1082.9731 Y506.6787 Z-1.0000 F4000
G1 X1082.9731 Y506.6787 Z10.0000 F9999
G1 X1076.1474 Y466.6603 Z10.0000 F9999
G1 X1076.1474 Y466.6603 Z-1.0000 F2500
G1 X1079.1933 Y468.6053 Z-1.0000 F4000
G1 X1081.2483 Y471.0273 Z-1.0000 F4000
G1 X1082.4960 Y474.1465 Z-1.0000 F4000
G1 X1082.9731 Y478.2750 Z-1.0000 F4000
G1 X1082.5144 Y482.7704 Z-1.0000 F4000
G1 X1080.7713 Y486.5869 Z-1.0000 F4000
G1 X1077.7804 Y489.2658 Z-1.0000 F4000
G1 X1073.6153 Y490.3851 Z-1.0000 F4000
G1 X1069.6153 Y489.8530 Z-1.0000 F4000
G1 X1066.9364 Y488.3117 Z-1.0000 F4000
G1 X1065.2483 Y486.2750 Z-1.0000 F4000
G1 X1064.1474 Y484.3667 Z-1.0000 F4000
G1 X1059.4135 Y475.1741 Z-1.0000 F4000
G1 X1058.0006 Y472.8071 Z-1.0000 F4000
G1 X1056.3492 Y470.9539 Z-1.0000 F4000
G1 X1054.1657 Y469.7062 Z-1.0000 F4000
G1 X1051.2850 Y469.1924 Z-1.0000 F4000
G1 X1048.0006 Y469.7245 Z-1.0000 F4000
G1 X1044.9731 Y471.5594 Z-1.0000 F4000
G1 X1042.7529 Y474.6970 Z-1.0000 F4000
G1 X1041.8722 Y479.0640 Z-1.0000 F4000
G1 X1042.5511 Y483.3209 Z-1.0000 F4000
G1 X1044.0190 Y486.1649 Z-1.0000 F4000
G1 X1046.1657 Y488.2566 Z-1.0000 F4000
G1 X1044.0190 Y486.1649 Z-1.0000 F4000
G1 X1042.5511 Y483.3209 Z-1.0000 F4000
G1 X1041.8722 Y479.0640 Z-1.0000 F4000
G1 X1042.7529 Y474.6970 Z-1.0000 F4000
G1 X1044.9731 Y471.5594 Z-1.0000 F4000
G1 X1048.0006 Y469.7245 Z-1.0000 F4000
G1 X1051.2850 Y469.1924 Z-1.0000 F4000
G1 X1054.1657 Y469.7062 Z-1.0000 F4000
G1 X1056.3492 Y470.9539 Z-1.0000 F4000
G1 X1058.0006 Y472.8071 Z-1.0000 F4000
G1 X1059.4135 Y475.1741 Z-1.0000 F4000
G1 X1064.1474 Y484.3667 Z-1.0000 F4000
G1 X1065.2483 Y486.2750 Z-1.0000 F4000
G1 X1066.9364 Y488.3117 Z-1.0000 F4000
G1 X1069.6153 Y489.8530 Z-1.0000 F4000
G1 X1073.6153 Y490.3851 Z-1.0000 F4000
G1 X1077.7804 Y489.2658 Z-1.0000 F4000
G1 X1080.7713 Y486.5869 Z-1.0000 F4000
G1 X1082.5144 Y482.7704 Z-1.0000 F4000
G1 X1082.9731 Y478.2750 Z-1.0000 F4000
G1 X1082.4960 Y474.1465 Z-1.0000 F4000
G1 X1081.2483 Y471.0273 Z-1.0000 F4000
G1 X1079.1933 Y468.6053 Z-1.0000 F4000
G1 X1079.1933 Y468.6053 Z10.0000 F9999
G1 X1041.8722 Y551.9631 Z10.0000 F9999
G1 X1041.8722 Y551.9631 Z-1.0000 F2500
G1 X1082.9731 Y568.0181 Z-1.0000 F4000
G1 X1041.8722 Y551.9631 Z-1.0000 F4000
G1 X1082.9731 Y535.9447 Z-1.0000 F4000
G1 X1082.9731 Y535.9447 Z10.0000 F9999
G1 X1068.2758 Y562.2750 Z10.0000 F9999
G1 X1068.2758 Y562.2750 Z-1.0000 F2500
G1 X1068.2758 Y541.5777 Z-1.0000 F4000
G1 X1068.2758 Y562.2750 Z-1.0000 F4000
G1 X1068.2758 Y562.2750 Z10.0000 F9999
G1 X1077.2850 Y615.3025 Z10.0000 F9999
G1 X1077.2850 Y615.3025 Z-1.0000 F2500
G1 X1081.4502 Y608.6787 Z-1.0000 F4000
G1 X1082.9731 Y600.6970 Z-1.0000 F4000
G1 X1081.3401 Y592.4218 Z-1.0000 F4000
G1 X1076.9180 Y585.6511 Z-1.0000 F4000
G1 X1070.3859 Y581.0823 Z-1.0000 F4000
G1 X1062.3859 Y579.3943 Z-1.0000 F4000
G1 X1054.4410 Y581.0823 Z-1.0000 F4000
G1 X1047.9272 Y585.6511 Z-1.0000 F4000
G1 X1043.5052 Y592.4218 Z-1.0000 F4000
G1 X1041.8722 Y600.6970 Z-1.0000 F4000
G1 X1043.2850 Y608.4768 Z-1.0000 F4000
G1 X1047.2300 Y615.0273 Z-1.0000 F4000
G1 X1043.2850 Y608.4768 Z-1.0000 F4000
G1 X1041.8722 Y600.6970 Z-1.0000 F4000
G1 X1043.5052 Y592.4218 Z-1.0000 F4000
G1 X1047.9272 Y585.6511 Z-1.0000 F4000
G1 X1054.4410 Y581.0823 Z-1.0000 F4000
G1 X1062.3859 Y579.3943 Z-1.0000 F4000
G1 X1070.3859 Y581.0823 Z-1.0000 F4000
G1 X1076.9180 Y585.6511 Z-1.0000 F4000
G1 X1081.3401 Y592.4218 Z-1.0000 F4000
G1 X1082.9731 Y600.6970 Z-1.0000 F4000
G1 X1081.4502 Y608.6787 Z-1.0000 F4000
G1 X1081.4502 Y608.6787 Z10.0000 F9999
G1 X1082.9731 Y631.1557 Z10.0000 F9999
G1 X1082.9731 Y631.1557 Z-1.0000 F2500
G1 X1060.1657 Y631.1557 Z-1.0000 F4000
G1 X1060.1657 Y647.6144 Z-1.0000 F4000
G1 X1060.1657 Y631.1557 Z-1.0000 F4000
G1 X1041.8722 Y631.1557 Z-1.0000 F4000
G1 X1041.8722 Y648.9172 Z-1.0000 F4000
G1 X1041.8722 Y631.1557 Z-1.0000 F4000
G1 X1082.9731 Y631.1557 Z-1.0000 F4000
G1 X1082.9731 Y648.9172 Z-1.0000 F4000
G1 X1082.9731 Y648.9172 Z10.0000 F9999
G1 X1082.9731 Y664.0365 Z10.0000 F9999
G1 X1082.9731 Y664.0365 Z-1.0000 F2500
G1 X1041.8722 Y664.0365 Z-1.0000 F4000
G1 X1041.8722 Y671.1924 Z-1.0000 F4000
G1 X1042.4777 Y675.0640 Z-1.0000 F4000
G1 X1044.2942 Y678.2750 Z-1.0000 F4000
G1 X1047.4502 Y680.4952 Z-1.0000 F4000
G1 X1052.0924 Y681.3392 Z-1.0000 F4000
G1 X1056.7713 Y680.1832 Z-1.0000 F4000
G1 X1060.0924 Y677.4126 Z-1.0000 F4000
G1 X1062.0557 Y674.0915 Z-1.0000 F4000
G1 X1062.7162 Y671.1924 Z-1.0000 F4000
G1 X1062.7162 Y664.0365 Z-1.0000 F4000
G1 X1062.7162 Y671.1924 Z-1.0000 F4000
G1 X1062.0557 Y674.0915 Z-1.0000 F4000
G1 X1060.0924 Y677.4126 Z-1.0000 F4000
G1 X1056.7713 Y680.1832 Z-1.0000 F4000
G1 X1052.0924 Y681.3392 Z-1.0000 F4000
G1 X1047.4502 Y680.4952 Z-1.0000 F4000
G1 X1044.2942 Y678.2750 Z-1.0000 F4000
G1 X1042.4777 Y675.0640 Z-1.0000 F4000
G1 X1041.8722 Y671.1924 Z-1.0000 F4000
G1 X1041.8722 Y664.0365 Z-1.0000 F4000
G1 X1041.8722 Y664.0365 Z10.0000 F9999
G1 X1082.9731 Y681.4493 Z10.0000 F9999
G1 X1082.9731 Y681.4493 Z-1.0000 F2500
G1 X1062.8263 Y668.2199 Z-1.0000 F4000
G1 X1082.9731 Y681.4493 Z-1.0000 F4000
G1 X1082.9731 Y681.4493 Z10.0000 F9999
G1 X1060.1657 Y738.0181 Z10.0000 F9999
G1 X1060.1657 Y738.0181 Z-1.0000 F2500
G1 X1060.1657 Y752.4585 Z-1.0000 F4000
G1 X1060.1657 Y738.0181 Z-1.0000 F4000
G1 X1041.8722 Y738.0181 Z-1.0000 F4000
G1 X1041.8722 Y753.1374 Z-1.0000 F4000
G1 X1041.8722 Y738.0181 Z-1.0000 F4000
G1 X1082.9731 Y738.0181 Z-1.0000 F4000
G1 X1082.9731 Y738.0181 Z10.0000 F9999
G1 X1032.4777 Y722.5135 Z10.0000 F9999
G1 X1032.4777 Y722.5135 Z-1.0000 F2500
G1 X1085.3217 Y692.1282 Z-1.0000 F4000
G1 X1032.4777 Y722.5135 Z-1.0000 F4000
G1 X1032.4777 Y722.5135 Z10.0000 F9999
G1 X671.3165 Y1040.4750 Z10.0000 F9999
G1 X671.3165 Y1040.4750 Z-1.0000 F2500
G1 X658.0872 Y1060.6218 Z-1.0000 F4000
G1 X671.3165 Y1040.4750 Z-1.0000 F4000
G1 X671.3165 Y1040.4750 Z10.0000 F9999
G1 X653.9037 Y1040.4750 Z10.0000 F9999
G1 X653.9037 Y1040.4750 Z-1.0000 F2500
G1 X653.9037 Y1081.5759 Z-1.0000 F4000
G1 X661.0596 Y1081.5759 Z-1.0000 F4000
G1 X664.9312 Y1080.9704 Z-1.0000 F4000
G1 X668.1422 Y1079.1539 Z-1.0000 F4000
G1 X670.3624 Y1075.9980 Z-1.0000 F4000
G1 X671.2064 Y1071.3558 Z-1.0000 F4000
G1 X670.0505 Y1066.6769 Z-1.0000 F4000
G1 X667.2798 Y1063.3558 Z-1.0000 F4000
G1 X663.9587 Y1061.3925 Z-1.0000 F4000
G1 X661.0596 Y1060.7319 Z-1.0000 F4000
G1 X653.9037 Y1060.7319 Z-1.0000 F4000
G1 X661.0596 Y1060.7319 Z-1.0000 F4000
G1 X663.9587 Y1061.3925 Z-1.0000 F4000
G1 X667.2798 Y1063.3558 Z-1.0000 F4000
G1 X670.0505 Y1066.6769 Z-1.0000 F4000
G1 X671.2064 Y1071.3558 Z-1.0000 F4000
G1 X670.3624 Y1075.9980 Z-1.0000 F4000
G1 X668.1422 Y1079.1539 Z-1.0000 F4000
G1 X664.9312 Y1080.9704 Z-1.0000 F4000
G1 X661.0596 Y1081.5759 Z-1.0000 F4000
G1 X653.9037 Y1081.5759 Z-1.0000 F4000
G1 X653.9037 Y1081.5759 Z10.0000 F9999
G1 X638.3991 Y1090.9704 Z10.0000 F9999
G1 X638.3991 Y1090.9704 Z-1.0000 F2500
G1 X608.0138 Y1038.1264 Z-1.0000 F4000
G1 X638.3991 Y1090.9704 Z-1.0000 F4000
G1 X638.3991 Y1090.9704 Z10.0000 F9999
G1 X690.2339 Y1081.5759 Z10.0000 F9999
G1 X690.2339 Y1081.5759 Z-1.0000 F2500
G1 X684.4174 Y1081.5759 Z-1.0000 F4000
G1 X690.2339 Y1081.5759 Z-1.0000 F4000
G1 X690.2339 Y1040.4750 Z-1.0000 F4000
G1 X690.2339 Y1040.4750 Z10.0000 F9999
G1 X590.8945 Y1055.1723 Z10.0000 F9999
G1 X590.8945 Y1055.1723 Z-1.0000 F2500
G1 X570.1972 Y1055.1723 Z-1.0000 F4000
G1 X590.8945 Y1055.1723 Z-1.0000 F4000
G1 X590.8945 Y1055.1723 Z10.0000 F9999
G1 X580.5826 Y1081.5759 Z10.0000 F9999
G1 X580.5826 Y1081.5759 Z-1.0000 F2500
G1 X596.6376 Y1040.4750 Z-1.0000 F4000
G1 X580.5826 Y1081.5759 Z-1.0000 F4000
G1 X564.5642 Y1040.4750 Z-1.0000 F4000
G1 X564.5642 Y1040.4750 Z10.0000 F9999
G1 X553.8853 Y1065.1356 Z10.0000 F9999
G1 X553.8853 Y1065.1356 Z-1.0000 F2500
G1 X524.6376 Y1065.1356 Z-1.0000 F4000
G1 X553.8853 Y1065.1356 Z-1.0000 F4000
G1 X553.8853 Y1065.1356 Z10.0000 F9999
G1 X507.5184 Y1055.1723 Z10.0000 F9999
G1 X507.5184 Y1055.1723 Z-1.0000 F2500
G1 X486.8211 Y1055.1723 Z-1.0000 F4000
G1 X507.5184 Y1055.1723 Z-1.0000 F4000
G1 X507.5184 Y1055.1723 Z10.0000 F9999
G1 X497.2064 Y1081.5759 Z10.0000 F9999
G1 X497.2064 Y1081.5759 Z-1.0000 F2500
G1 X513.2615 Y1040.4750 Z-1.0000 F4000
G1 X497.2064 Y1081.5759 Z-1.0000 F4000
G1 X481.1881 Y1040.4750 Z-1.0000 F4000
G1 X481.1881 Y1040.4750 Z10.0000 F9999
G1 X470.5092 Y1040.4750 Z10.0000 F9999
G1 X470.5092 Y1040.4750 Z-1.0000 F2500
G1 X457.2798 Y1060.6218 Z-1.0000 F4000
G1 X470.5092 Y1040.4750 Z-1.0000 F4000
G1 X470.5092 Y1040.4750 Z10.0000 F9999
G1 X453.0963 Y1040.4750 Z10.0000 F9999
G1 X453.0963 Y1040.4750 Z-1.0000 F2500
G1 X453.0963 Y1081.5759 Z-1.0000 F4000
G1 X460.2523 Y1081.5759 Z-1.0000 F4000
G1 X464.1239 Y1080.9704 Z-1.0000 F4000
G1 X467.3349 Y1079.1539 Z-1.0000 F4000
G1 X469.5550 Y1075.9980 Z-1.0000 F4000
G1 X470.3991 Y1071.3558 Z-1.0000 F4000
G1 X469.2431 Y1066.6769 Z-1.0000 F4000
G1 X466.4725 Y1063.3558 Z-1.0000 F4000
G1 X463.1514 Y1061.3925 Z-1.0000 F4000
G1 X460.2523 Y1060.7319 Z-1.0000 F4000
G1 X453.0963 Y1060.7319 Z-1.0000 F4000
G1 X460.2523 Y1060.7319 Z-1.0000 F4000
G1 X463.1514 Y1061.3925 Z-1.0000 F4000
G1 X466.4725 Y1063.3558 Z-1.0000 F4000
G1 X469.2431 Y1066.6769 Z-1.0000 F4000
G1 X470.3991 Y1071.3558 Z-1.0000 F4000
G1 X469.5550 Y1075.9980 Z-1.0000 F4000
G1 X467.3349 Y1079.1539 Z-1.0000 F4000
G1 X464.1239 Y1080.9704 Z-1.0000 F4000
G1 X460.2523 Y1081.5759 Z-1.0000 F4000
G1 X453.0963 Y1081.5759 Z-1.0000 F4000
G1 X453.0963 Y1081.5759 Z10.0000 F9999
G1 X422.5642 Y1063.2824 Z10.0000 F9999
G1 X422.5642 Y1063.2824 Z-1.0000 F2500
G1 X437.0046 Y1063.2824 Z-1.0000 F4000
G1 X422.5642 Y1063.2824 Z-1.0000 F4000
G1 X422.5642 Y1081.5759 Z-1.0000 F4000
G1 X437.6835 Y1081.5759 Z-1.0000 F4000
G1 X422.5642 Y1081.5759 Z-1.0000 F4000
G1 X422.5642 Y1040.4750 Z-1.0000 F4000
G1 X422.5642 Y1040.4750 Z10.0000 F9999
G1 X415.5917 Y1361.0194 Z10.0000 F9999
G1 X415.5917 Y1361.0194 Z-1.0000 F2500
G1 X399.5367 Y1402.1203 Z-1.0000 F4000
G1 X415.5917 Y1361.0194 Z-1.0000 F4000
G1 X431.6101 Y1402.1203 Z-1.0000 F4000
G1 X431.6101 Y1402.1203 Z10.0000 F9999
G1 X442.2890 Y1402.1203 Z10.0000 F9999
G1 X442.2890 Y1402.1203 Z-1.0000 F2500
G1 X455.5184 Y1381.9736 Z-1.0000 F4000
G1 X442.2890 Y1402.1203 Z-1.0000 F4000
G1 X442.2890 Y1402.1203 Z10.0000 F9999
G1 X459.7018 Y1402.1203 Z10.0000 F9999
G1 X459.7018 Y1402.1203 Z-1.0000 F2500
G1 X459.7018 Y1361.0194 Z-1.0000 F4000
G1 X452.5459 Y1361.0194 Z-1.0000 F4000
G1 X448.6743 Y1361.6249 Z-1.0000 F4000
G1 X445.4633 Y1363.4414 Z-1.0000 F4000
G1 X443.2431 Y1366.5974 Z-1.0000 F4000
G1 X442.3991 Y1371.2396 Z-1.0000 F4000
G1 X443.5550 Y1375.9185 Z-1.0000 F4000
G1 X446.3257 Y1379.2396 Z-1.0000 F4000
G1 X449.6468 Y1381.2029 Z-1.0000 F4000
G1 X452.5459 Y1381.8635 Z-1.0000 F4000
G1 X459.7018 Y1381.8635 Z-1.0000 F4000
G1 X452.5459 Y1381.8635 Z-1.0000 F4000
G1 X449.6468 Y1381.2029 Z-1.0000 F4000
G1 X446.3257 Y1379.2396 Z-1.0000 F4000
G1 X443.5550 Y1375.9185 Z-1.0000 F4000
G1 X442.3991 Y1371.2396 Z-1.0000 F4000
G1 X443.2431 Y1366.5974 Z-1.0000 F4000
G1 X445.4633 Y1363.4414 Z-1.0000 F4000
G1 X448.6743 Y1361.6249 Z-1.0000 F4000
G1 X452.5459 Y1361.0194 Z-1.0000 F4000
G1 X459.7018 Y1361.0194 Z-1.0000 F4000
G1 X459.7018 Y1361.0194 Z10.0000 F9999
G1 X490.2339 Y1379.3130 Z10.0000 F9999
G1 X490.2339 Y1379.3130 Z-1.0000 F2500
G1 X475.7936 Y1379.3130 Z-1.0000 F4000
G1 X490.2339 Y1379.3130 Z-1.0000 F4000
G1 X490.2339 Y1361.0194 Z-1.0000 F4000
G1 X475.1147 Y1361.0194 Z-1.0000 F4000
G1 X490.2339 Y1361.0194 Z-1.0000 F4000
G1 X490.2339 Y1402.1203 Z-1.0000 F4000
G1 X490.2339 Y1402.1203 Z10.0000 F9999
G1 X405.2798 Y1387.4231 Z10.0000 F9999
G1 X405.2798 Y1387.4231 Z-1.0000 F2500
G1 X425.9771 Y1387.4231 Z-1.0000 F4000
G1 X405.2798 Y1387.4231 Z-1.0000 F4000
G1 X405.2798 Y1387.4231 Z10.0000 F9999
G1 X358.9128 Y1377.4598 Z10.0000 F9999
G1 X358.9128 Y1377.4598 Z-1.0000 F2500
G1 X388.1606 Y1377.4598 Z-1.0000 F4000
G1 X358.9128 Y1377.4598 Z-1.0000 F4000
G1 X358.9128 Y1377.4598 Z10.0000 F9999
G1 X332.2156 Y1361.0194 Z10.0000 F9999
G1 X332.2156 Y1361.0194 Z-1.0000 F2500
G1 X316.1606 Y1402.1203 Z-1.0000 F4000
G1 X332.2156 Y1361.0194 Z-1.0000 F4000
G1 X348.2339 Y1402.1203 Z-1.0000 F4000
G1 X348.2339 Y1402.1203 Z10.0000 F9999
G1 X321.9037 Y1387.4231 Z10.0000 F9999
G1 X321.9037 Y1387.4231 Z-1.0000 F2500
G1 X342.6009 Y1387.4231 Z-1.0000 F4000
G1 X321.9037 Y1387.4231 Z-1.0000 F4000
G1 X321.9037 Y1387.4231 Z10.0000 F9999
G1 X274.3991 Y1351.6249 Z10.0000 F9999
G1 X274.3991 Y1351.6249 Z-1.0000 F2500
G1 X304.7844 Y1404.4690 Z-1.0000 F4000
G1 X274.3991 Y1351.6249 Z-1.0000 F4000
G1 X274.3991 Y1351.6249 Z10.0000 F9999
G1 X222.5642 Y1361.0194 Z10.0000 F9999
G1 X222.5642 Y1361.0194 Z-1.0000 F2500
G1 X228.3807 Y1361.0194 Z-1.0000 F4000
G1 X222.5642 Y1361.0194 Z-1.0000 F4000
G1 X222.5642 Y1402.1203 Z-1.0000 F4000
G1 X222.5642 Y1402.1203 Z10.0000 F9999
G1 X241.4817 Y1402.1203 Z10.0000 F9999
G1 X241.4817 Y1402.1203 Z-1.0000 F2500
G1 X254.7110 Y1381.9736 Z-1.0000 F4000
G1 X241.4817 Y1402.1203 Z-1.0000 F4000
G1 X241.4817 Y1402.1203 Z10.0000 F9999
G1 X258.8945 Y1402.1203 Z10.0000 F9999
G1 X258.8945 Y1402.1203 Z-1.0000 F2500
G1 X258.8945 Y1361.0194 Z-1.0000 F4000
G1 X251.7385 Y1361.0194 Z-1.0000 F4000
G1 X247.8670 Y1361.6249 Z-1.0000 F4000
G1 X244.6560 Y1363.4414 Z-1.0000 F4000
G1 X242.4358 Y1366.5974 Z-1.0000 F4000
G1 X241.5917 Y1371.2396 Z-1.0000 F4000
G1 X242.7477 Y1375.9185 Z-1.0000 F4000
G1 X245.5184 Y1379.2396 Z-1.0000 F4000
G1 X248.8395 Y1381.2029 Z-1.0000 F4000
G1 X251.7385 Y1381.8635 Z-1.0000 F4000
G1 X258.8945 Y1381.8635 Z-1.0000 F4000
G1 X251.7385 Y1381.8635 Z-1.0000 F4000
G1 X248.8395 Y1381.2029 Z-1.0000 F4000
G1 X245.5184 Y1379.2396 Z-1.0000 F4000
G1 X242.7477 Y1375.9185 Z-1.0000 F4000
G1 X241.5917 Y1371.2396 Z-1.0000 F4000
G1 X242.4358 Y1366.5974 Z-1.0000 F4000
G1 X244.6560 Y1363.4414 Z-1.0000 F4000
G1 X247.8670 Y1361.6249 Z-1.0000 F4000
G1 X251.7385 Y1361.0194 Z-1.0000 F4000
G1 X258.8945 Y1361.0194 Z-1.0000 F4000
G1 X258.8945 Y1361.0194 Z10.0000 F9999
G1 X592.1833 Y2314.0812 Z10.0000 F9999
G1 X592.1833 Y2314.0812 Z-1.0000 F2500
G1 X590.9356 Y2315.3472 Z-1.0000 F4000
G1 X588.6053 Y2317.1637 Z-1.0000 F4000
G1 X585.1375 Y2318.8151 Z-1.0000 F4000
G1 X580.4035 Y2319.6041 Z-1.0000 F4000
G1 X575.2475 Y2318.4114 Z-1.0000 F4000
G1 X570.8806 Y2315.0903 Z-1.0000 F4000
G1 X567.8347 Y2310.1729 Z-1.0000 F4000
G1 X566.6971 Y2304.2279 Z-1.0000 F4000
G1 X568.0365 Y2298.6867 Z-1.0000 F4000
G1 X571.2842 Y2294.6500 Z-1.0000 F4000
G1 X575.3393 Y2292.2279 Z-1.0000 F4000
G1 X579.1008 Y2291.4206 Z-1.0000 F4000
G1 X581.2475 Y2291.4206 Z-1.0000 F4000
G1 X583.5044 Y2291.8243 Z-1.0000 F4000
G1 X586.1466 Y2292.7234 Z-1.0000 F4000
G1 X580.5136 Y2277.3289 Z-1.0000 F4000
G1 X566.3118 Y2277.3289 Z-1.0000 F4000
G1 X580.5136 Y2277.3289 Z-1.0000 F4000
G1 X586.1466 Y2292.7234 Z-1.0000 F4000
G1 X583.5044 Y2291.8243 Z-1.0000 F4000
G1 X581.2475 Y2291.4206 Z-1.0000 F4000
G1 X579.1008 Y2291.4206 Z-1.0000 F4000
G1 X575.3393 Y2292.2279 Z-1.0000 F4000
G1 X571.2842 Y2294.6500 Z-1.0000 F4000
G1 X568.0365 Y2298.6867 Z-1.0000 F4000
G1 X566.6971 Y2304.2279 Z-1.0000 F4000
G1 X567.8347 Y2310.1729 Z-1.0000 F4000
G1 X570.8806 Y2315.0903 Z-1.0000 F4000
G1 X575.2475 Y2318.4114 Z-1.0000 F4000
G1 X580.4035 Y2319.6041 Z-1.0000 F4000
G1 X585.1375 Y2318.8151 Z-1.0000 F4000
G1 X588.6053 Y2317.1637 Z-1.0000 F4000
G1 X590.9356 Y2315.3472 Z-1.0000 F4000
G1 X590.9356 Y2315.3472 Z10.0000 F9999
G1 X649.5595 Y2319.6041 Z10.0000 F9999
G1 X649.5595 Y2319.6041 Z-1.0000 F2500
G1 X633.6145 Y2278.5032 Z-1.0000 F4000
G1 X617.6512 Y2319.6041 Z-1.0000 F4000
G1 X604.5870 Y2278.5032 Z-1.0000 F4000
G1 X617.6512 Y2319.6041 Z-1.0000 F4000
G1 X633.6145 Y2278.5032 Z-1.0000 F4000
G1 X649.5595 Y2319.6041 Z-1.0000 F4000
G1 X662.6420 Y2278.5032 Z-1.0000 F4000
G1 X662.6420 Y2278.5032 Z10.0000 F9999
(Tool Number:1) (7.998 mm dia. slot drill)
M3 S9000
G1 X158.8992 Y31.8988 Z10.0000 F9999
G1 X158.8992 Y31.8988 Z1.0000 F2500
G1 X127.8988 Y31.8988 Z-7.3524 F2500
G1 X133.8988 Y31.9008 Z-8.9690 F2500
G1 X133.8988 Y33.8715 Z-9.5000 F2500
G1 X133.8988 Y31.9008 Z-10.0310 F2500
G1 X127.8988 Y31.8988 Z-11.6476 F2500
G1 X158.8992 Y31.8988 Z-20.0000 F2500
G1 X127.8988 Y31.8988 Z-20.0000 F4000
G1 X133.8988 Y31.9008 Z-20.0000 F4000
G1 X133.8988 Y47.9007 Z-20.0000 F4000
G1 X133.9008 Y41.9007 Z-20.0000 F4000
G1 X185.8986 Y41.9007 Z-20.0000 F4000
G1 X185.8986 Y47.9007 Z-20.0000 F4000
G1 X185.9006 Y31.9008 Z-20.0000 F4000
G1 X191.9006 Y31.9008 Z-20.0000 F4000
G1 X175.3999 Y31.8915 Z-20.0000 F4000
G1 X158.8992 Y31.8988 Z-20.0000 F4000
G1 X158.8992 Y31.8988 Z10.0000 F9999
G1 X160.9002 Y273.9002 Z10.0000 F9999
G1 X160.9002 Y273.9002 Z1.0000 F2500
G1 X191.9006 Y273.9002 Z-7.3524 F2500
G1 X185.9006 Y273.8982 Z-8.9690 F2500
G1 X185.9006 Y271.9275 Z-9.5000 F2500
G1 X185.9006 Y273.8982 Z-10.0310 F2500
G1 X191.9006 Y273.9002 Z-11.6476 F2500
G1 X160.9002 Y273.9002 Z-20.0000 F2500
G1 X191.9006 Y273.9002 Z-20.0000 F4000
G1 X185.9006 Y273.8982 Z-20.0000 F4000
G1 X185.9006 Y257.8983 Z-20.0000 F4000
G1 X185.8986 Y263.8983 Z-20.0000 F4000
G1 X133.9008 Y263.8983 Z-20.0000 F4000
G1 X133.9008 Y257.8983 Z-20.0000 F4000
G1 X133.8988 Y273.8982 Z-20.0000 F4000
G1 X127.8988 Y273.8982 Z-20.0000 F4000
G1 X144.3995 Y273.9075 Z-20.0000 F4000
G1 X160.9002 Y273.9002 Z-20.0000 F4000
G1 X160.9002 Y273.9002 Z10.0000 F9999
G1 X273.9005 Y466.9731 Z10.0000 F9999
G1 X273.9005 Y466.9731 Z1.0000 F2500
G1 X273.9005 Y435.9727 Z-7.3524 F2500
G1 X273.8985 Y441.9727 Z-8.9690 F2500
G1 X271.9277 Y441.9727 Z-9.5000 F2500
G1 X273.8985 Y441.9727 Z-10.0310 F2500
G1 X273.9005 Y435.9727 Z-11.6476 F2500
G1 X273.9005 Y466.9731 Z-20.0000 F2500
G1 X273.9005 Y435.9727 Z-20.0000 F4000
G1 X273.8985 Y441.9727 Z-20.0000 F4000
G1 X257.8985 Y441.9727 Z-20.0000 F4000
G1 X263.8985 Y441.9747 Z-20.0000 F4000
G1 X263.8985 Y493.9725 Z-20.0000 F4000
G1 X257.8985 Y493.9725 Z-20.0000 F4000
G1 X273.8985 Y493.9745 Z-20.0000 F4000
G1 X273.8985 Y499.9745 Z-20.0000 F4000
G1 X273.9077 Y483.4738 Z-20.0000 F4000
G1 X273.9005 Y466.9731 Z-20.0000 F4000
G1 X273.9005 Y466.9731 Z10.0000 F9999
G1 X31.8990 Y468.9741 Z10.0000 F9999
G1 X31.8990 Y468.9741 Z1.0000 F2500
G1 X31.8990 Y499.9745 Z-7.3524 F2500
G1 X31.9010 Y493.9745 Z-8.9690 F2500
G1 X33.8717 Y493.9745 Z-9.5000 F2500
G1 X31.9010 Y493.9745 Z-10.0310 F2500
G1 X31.8990 Y499.9745 Z-11.6476 F2500
G1 X31.8990 Y468.9741 Z-20.0000 F2500
G1 X31.8990 Y499.9745 Z-20.0000 F4000
G1 X31.9010 Y493.9745 Z-20.0000 F4000
G1 X47.9009 Y493.9745 Z-20.0000 F4000
G1 X41.9009 Y493.9725 Z-20.0000 F4000
G1 X41.9009 Y441.9747 Z-20.0000 F4000
G1 X47.9009 Y441.9747 Z-20.0000 F4000
G1 X31.9010 Y441.9727 Z-20.0000 F4000
G1 X31.9010 Y435.9727 Z-20.0000 F4000
G1 X31.8917 Y452.4734 Z-20.0000 F4000
G1 X31.8990 Y468.9741 Z-20.0000 F4000
G1 X31.8990 Y468.9741 Z10.0000 F9999
G1 X31.8990 Y768.9735 Z10.0000 F9999
G1 X31.8990 Y768.9735 Z1.0000 F2500
G1 X31.8990 Y799.9739 Z-7.3524 F2500
G1 X31.9010 Y793.9739 Z-8.9690 F2500
G1 X33.8717 Y793.9739 Z-9.5000 F2500
G1 X31.9010 Y793.9739 Z-10.0310 F2500
G1 X31.8990 Y799.9739 Z-11.6476 F2500
G1 X31.8990 Y768.9735 Z-20.0000 F2500
G1 X31.8990 Y799.9739 Z-20.0000 F4000
G1 X31.9010 Y793.9739 Z-20.0000 F4000
G1 X47.9009 Y793.9739 Z-20.0000 F4000
G1 X41.9009 Y793.9719 Z-20.0000 F4000
G1 X41.9009 Y741.9742 Z-20.0000 F4000
G1 X47.9009 Y741.9742 Z-20.0000 F4000
G1 X31.9010 Y741.9722 Z-20.0000 F4000
G1 X31.9010 Y735.9722 Z-20.0000 F4000
G1 X31.8917 Y752.4728 Z-20.0000 F4000
G1 X31.8990 Y768.9735 Z-20.0000 F4000
G1 X31.8990 Y768.9735 Z10.0000 F9999
G1 X152.8997 Y762.9720 Z10.0000 F9999
G1 X152.8997 Y762.9720 Z1.0000 F2500
G1 X122.9008 Y762.9720 Z-7.0826 F2500
G1 X122.9008 Y757.9719 Z-8.4298 F2500
G1 X120.8988 Y757.9719 Z-8.9692 F2500
G1 X120.8988 Y759.9420 Z-9.5000 F2500
G1 X120.8988 Y757.9719 Z-10.0308 F2500
G1 X122.9008 Y757.9719 Z-10.5702 F2500
G1 X122.9008 Y762.9720 Z-11.9174 F2500
G1 X152.8997 Y762.9720 Z-20.0000 F2500
G1 X122.9008 Y762.9720 Z-20.0000 F4000
G1 X122.9008 Y757.9719 Z-20.0000 F4000
G1 X120.8988 Y757.9719 Z-20.0000 F4000
G1 X120.8988 Y777.9740 Z-20.0000 F4000
G1 X122.9008 Y777.9740 Z-20.0000 F4000
G1 X122.9008 Y772.9739 Z-20.0000 F4000
G1 X182.8987 Y772.9739 Z-20.0000 F4000
G1 X182.8987 Y777.9740 Z-20.0000 F4000
G1 X184.9006 Y777.9740 Z-20.0000 F4000
G1 X184.9006 Y757.9719 Z-20.0000 F4000
G1 X182.8987 Y757.9719 Z-20.0000 F4000
G1 X182.8987 Y762.9720 Z-20.0000 F4000
G1 X152.8997 Y762.9720 Z-20.0000 F4000
G1 X152.8997 Y762.9720 Z10.0000 F9999
G1 X273.9005 Y766.9725 Z10.0000 F9999
G1 X273.9005 Y766.9725 Z1.0000 F2500
G1 X273.9005 Y735.9722 Z-7.3524 F2500
G1 X273.8985 Y741.9722 Z-8.9690 F2500
G1 X271.9277 Y741.9722 Z-9.5000 F2500
G1 X273.8985 Y741.9722 Z-10.0310 F2500
G1 X273.9005 Y735.9722 Z-11.6476 F2500
G1 X273.9005 Y766.9725 Z-20.0000 F2500
G1 X273.9005 Y735.9722 Z-20.0000 F4000
G1 X273.8985 Y741.9722 Z-20.0000 F4000
G1 X257.8985 Y741.9722 Z-20.0000 F4000
G1 X263.8985 Y741.9742 Z-20.0000 F4000
G1 X263.8985 Y793.9719 Z-20.0000 F4000
G1 X257.8985 Y793.9719 Z-20.0000 F4000
G1 X273.8985 Y793.9739 Z-20.0000 F4000
G1 X273.8985 Y799.9739 Z-20.0000 F4000
G1 X273.9077 Y783.4732 Z-20.0000 F4000
G1 X273.9005 Y766.9725 Z-20.0000 F4000
G1 X273.9005 Y766.9725 Z10.0000 F9999
G1 X451.8986 Y946.9717 Z10.0000 F9999
G1 X451.8986 Y946.9717 Z1.0000 F2500
G1 X420.8982 Y946.9717 Z-7.3524 F2500
G1 X426.8982 Y946.9737 Z-8.9690 F2500
G1 X426.8982 Y948.9445 Z-9.5000 F2500
G1 X426.8982 Y946.9737 Z-10.0310 F2500
G1 X420.8982 Y946.9717 Z-11.6476 F2500
G1 X451.8986 Y946.9717 Z-20.0000 F2500
G1 X420.8982 Y946.9717 Z-20.0000 F4000
G1 X426.8982 Y946.9737 Z-20.0000 F4000
G1 X426.8982 Y962.9737 Z-20.0000 F4000
G1 X426.9002 Y956.9737 Z-20.0000 F4000
G1 X478.8980 Y956.9737 Z-20.0000 F4000
G1 X478.8980 Y962.9737 Z-20.0000 F4000
G1 X478.9000 Y946.9737 Z-20.0000 F4000
G1 X484.9000 Y946.9737 Z-20.0000 F4000
G1 X468.3993 Y946.9644 Z-20.0000 F4000
G1 X451.8986 Y946.9717 Z-20.0000 F4000
G1 X451.8986 Y946.9717 Z10.0000 F9999
G1 X453.8996 Y1188.9732 Z10.0000 F9999
G1 X453.8996 Y1188.9732 Z1.0000 F2500
G1 X484.9000 Y1188.9732 Z-7.3524 F2500
G1 X478.9000 Y1188.9712 Z-8.9690 F2500
G1 X478.9000 Y1187.0004 Z-9.5000 F2500
G1 X478.9000 Y1188.9712 Z-10.0310 F2500
G1 X484.9000 Y1188.9732 Z-11.6476 F2500
G1 X453.8996 Y1188.9732 Z-20.0000 F2500
G1 X484.9000 Y1188.9732 Z-20.0000 F4000
G1 X478.9000 Y1188.9712 Z-20.0000 F4000
G1 X478.9000 Y1172.9712 Z-20.0000 F4000
G1 X478.8980 Y1178.9712 Z-20.0000 F4000
G1 X426.9002 Y1178.9712 Z-20.0000 F4000
G1 X426.9002 Y1172.9712 Z-20.0000 F4000
G1 X426.8982 Y1188.9712 Z-20.0000 F4000
G1 X420.8982 Y1188.9712 Z-20.0000 F4000
G1 X437.3989 Y1188.9804 Z-20.0000 F4000
G1 X453.8996 Y1188.9732 Z-20.0000 F4000
G1 X453.8996 Y1188.9732 Z10.0000 F9999
G1 X458.8986 Y1254.9728 Z10.0000 F9999
G1 X458.8986 Y1254.9728 Z1.0000 F2500
G1 X427.8982 Y1254.9728 Z-7.3524 F2500
G1 X433.8982 Y1254.9748 Z-8.9690 F2500
G1 X433.8982 Y1256.9455 Z-9.5000 F2500
G1 X433.8982 Y1254.9748 Z-10.0310 F2500
G1 X427.8982 Y1254.9728 Z-11.6476 F2500
G1 X458.8986 Y1254.9728 Z-20.0000 F2500
G1 X427.8982 Y1254.9728 Z-20.0000 F4000
G1 X433.8982 Y1254.9748 Z-20.0000 F4000
G1 X433.8982 Y1270.9747 Z-20.0000 F4000
G1 X433.9002 Y1264.9747 Z-20.0000 F4000
G1 X485.8980 Y1264.9747 Z-20.0000 F4000
G1 X485.8980 Y1270.9747 Z-20.0000 F4000
G1 X485.9000 Y1254.9748 Z-20.0000 F4000
G1 X491.9000 Y1254.9748 Z-20.0000 F4000
G1 X475.3993 Y1254.9655 Z-20.0000 F4000
G1 X458.8986 Y1254.9728 Z-20.0000 F4000
G1 X458.8986 Y1254.9728 Z10.0000 F9999
G1 X460.8996 Y1496.9743 Z10.0000 F9999
G1 X460.8996 Y1496.9743 Z1.0000 F2500
G1 X491.9000 Y1496.9743 Z-7.3524 F2500
G1 X485.9000 Y1496.9723 Z-8.9690 F2500
G1 X485.9000 Y1495.0015 Z-9.5000 F2500
G1 X485.9000 Y1496.9723 Z-10.0310 F2500
G1 X491.9000 Y1496.9743 Z-11.6476 F2500
G1 X460.8996 Y1496.9743 Z-20.0000 F2500
G1 X491.9000 Y1496.9743 Z-20.0000 F4000
G1 X485.9000 Y1496.9723 Z-20.0000 F4000
G1 X485.9000 Y1480.9723 Z-20.0000 F4000
G1 X485.8980 Y1486.9723 Z-20.0000 F4000
G1 X433.9002 Y1486.9723 Z-20.0000 F4000
G1 X433.9002 Y1480.9723 Z-20.0000 F4000
G1 X433.8982 Y1496.9723 Z-20.0000 F4000
G1 X427.8982 Y1496.9723 Z-20.0000 F4000
G1 X444.3989 Y1496.9815 Z-20.0000 F4000
G1 X460.8996 Y1496.9743 Z-20.0000 F4000
G1 X460.8996 Y1496.9743 Z10.0000 F9999
G1 X680.3986 Y1370.9725 Z10.0000 F9999
G1 X680.3986 Y1370.9725 Z1.0000 F2500
G1 X641.4275 Y1370.9725 Z-9.5000 F2500
G1 X680.3986 Y1370.9725 Z-20.0000 F2500
G1 X605.8998 Y1370.9725 Z-20.0000 F4000
G1 X605.8998 Y1364.9725 Z-20.0000 F4000
G1 X605.8978 Y1386.9746 Z-20.0000 F4000
G1 X605.8998 Y1380.9746 Z-20.0000 F4000
G1 X754.8975 Y1380.9746 Z-20.0000 F4000
G1 X754.8975 Y1405.9725 Z-20.0000 F4000
G1 X749.8975 Y1405.9725 Z-20.0000 F4000
G1 X749.8975 Y1407.9745 Z-20.0000 F4000
G1 X769.8994 Y1407.9745 Z-20.0000 F4000
G1 X769.8994 Y1405.9725 Z-20.0000 F4000
G1 X764.8994 Y1405.9725 Z-20.0000 F4000
G1 X764.8994 Y1380.9746 Z-20.0000 F4000
G1 X823.8973 Y1380.9746 Z-20.0000 F4000
G1 X823.8973 Y1385.9745 Z-20.0000 F4000
G1 X825.8993 Y1385.9745 Z-20.0000 F4000
G1 X825.8993 Y1365.9726 Z-20.0000 F4000
G1 X823.8973 Y1365.9726 Z-20.0000 F4000
G1 X823.8973 Y1370.9725 Z-20.0000 F4000
G1 X764.8994 Y1370.9725 Z-20.0000 F4000
G1 X764.8994 Y1345.9746 Z-20.0000 F4000
G1 X769.8994 Y1345.9746 Z-20.0000 F4000
G1 X769.8994 Y1343.9726 Z-20.0000 F4000
G1 X749.8975 Y1343.9726 Z-20.0000 F4000
G1 X749.8975 Y1345.9746 Z-20.0000 F4000
G1 X754.8975 Y1345.9746 Z-20.0000 F4000
G1 X754.8975 Y1370.9725 Z-20.0000 F4000
G1 X680.3986 Y1370.9725 Z-20.0000 F4000
G1 X680.3986 Y1370.9725 Z10.0000 F9999
G1 X758.8980 Y1254.9728 Z10.0000 F9999
G1 X758.8980 Y1254.9728 Z1.0000 F2500
G1 X727.8976 Y1254.9728 Z-7.3524 F2500
G1 X733.8976 Y1254.9748 Z-8.9690 F2500
G1 X733.8976 Y1256.9455 Z-9.5000 F2500
G1 X733.8976 Y1254.9748 Z-10.0310 F2500
G1 X727.8976 Y1254.9728 Z-11.6476 F2500
G1 X758.8980 Y1254.9728 Z-20.0000 F2500
G1 X727.8976 Y1254.9728 Z-20.0000 F4000
G1 X733.8976 Y1254.9748 Z-20.0000 F4000
G1 X733.8976 Y1270.9747 Z-20.0000 F4000
G1 X733.8996 Y1264.9747 Z-20.0000 F4000
G1 X785.8973 Y1264.9747 Z-20.0000 F4000
G1 X785.8973 Y1270.9747 Z-20.0000 F4000
G1 X785.8993 Y1254.9748 Z-20.0000 F4000
G1 X791.8993 Y1254.9748 Z-20.0000 F4000
G1 X775.3986 Y1254.9655 Z-20.0000 F4000
G1 X758.8980 Y1254.9728 Z-20.0000 F4000
G1 X758.8980 Y1254.9728 Z10.0000 F9999
G1 X753.8990 Y1188.9732 Z10.0000 F9999
G1 X753.8990 Y1188.9732 Z1.0000 F2500
G1 X784.8994 Y1188.9732 Z-7.3524 F2500
G1 X778.8994 Y1188.9712 Z-8.9690 F2500
G1 X778.8994 Y1187.0004 Z-9.5000 F2500
G1 X778.8994 Y1188.9712 Z-10.0310 F2500
G1 X784.8994 Y1188.9732 Z-11.6476 F2500
G1 X753.8990 Y1188.9732 Z-20.0000 F2500
G1 X784.8994 Y1188.9732 Z-20.0000 F4000
G1 X778.8994 Y1188.9712 Z-20.0000 F4000
G1 X778.8994 Y1172.9712 Z-20.0000 F4000
G1 X778.8974 Y1178.9712 Z-20.0000 F4000
G1 X726.8996 Y1178.9712 Z-20.0000 F4000
G1 X726.8996 Y1172.9712 Z-20.0000 F4000
G1 X726.8976 Y1188.9712 Z-20.0000 F4000
G1 X720.8976 Y1188.9712 Z-20.0000 F4000
G1 X737.3983 Y1188.9804 Z-20.0000 F4000
G1 X753.8990 Y1188.9732 Z-20.0000 F4000
G1 X753.8990 Y1188.9732 Z10.0000 F9999
G1 X751.8980 Y946.9717 Z10.0000 F9999
G1 X751.8980 Y946.9717 Z1.0000 F2500
G1 X720.8976 Y946.9717 Z-7.3524 F2500
G1 X726.8976 Y946.9737 Z-8.9690 F2500
G1 X726.8976 Y948.9445 Z-9.5000 F2500
G1 X726.8976 Y946.9737 Z-10.0310 F2500
G1 X720.8976 Y946.9717 Z-11.6476 F2500
G1 X751.8980 Y946.9717 Z-20.0000 F2500
G1 X720.8976 Y946.9717 Z-20.0000 F4000
G1 X726.8976 Y946.9737 Z-20.0000 F4000
G1 X726.8976 Y962.9737 Z-20.0000 F4000
G1 X726.8996 Y956.9737 Z-20.0000 F4000
G1 X778.8974 Y956.9737 Z-20.0000 F4000
G1 X778.8974 Y962.9737 Z-20.0000 F4000
G1 X778.8994 Y946.9737 Z-20.0000 F4000
G1 X784.8994 Y946.9737 Z-20.0000 F4000
G1 X768.3987 Y946.9644 Z-20.0000 F4000
G1 X751.8980 Y946.9717 Z-20.0000 F4000
G1 X751.8980 Y946.9717 Z10.0000 F9999
G1 X638.8977 Y753.8989 Z10.0000 F9999
G1 X638.8977 Y753.8989 Z1.0000 F2500
G1 X638.8977 Y784.8992 Z-7.3524 F2500
G1 X638.8997 Y778.8992 Z-8.9690 F2500
G1 X640.8705 Y778.8992 Z-9.5000 F2500
G1 X638.8997 Y778.8992 Z-10.0310 F2500
G1 X638.8977 Y784.8992 Z-11.6476 F2500
G1 X638.8977 Y753.8989 Z-20.0000 F2500
G1 X638.8977 Y784.8992 Z-20.0000 F4000
G1 X638.8997 Y778.8992 Z-20.0000 F4000
G1 X654.8997 Y778.8992 Z-20.0000 F4000
G1 X648.8997 Y778.8972 Z-20.0000 F4000
G1 X648.8997 Y726.8995 Z-20.0000 F4000
G1 X654.8997 Y726.8995 Z-20.0000 F4000
G1 X638.8997 Y726.8975 Z-20.0000 F4000
G1 X638.8997 Y720.8975 Z-20.0000 F4000
G1 X638.8905 Y737.3982 Z-20.0000 F4000
G1 X638.8977 Y753.8989 Z-20.0000 F4000
G1 X638.8977 Y753.8989 Z10.0000 F9999
G1 X880.8992 Y751.8979 Z10.0000 F9999
G1 X880.8992 Y751.8979 Z1.0000 F2500
G1 X880.8992 Y720.8975 Z-7.3524 F2500
G1 X880.8972 Y726.8975 Z-8.9690 F2500
G1 X878.9264 Y726.8975 Z-9.5000 F2500
G1 X880.8972 Y726.8975 Z-10.0310 F2500
G1 X880.8992 Y720.8975 Z-11.6476 F2500
G1 X880.8992 Y751.8979 Z-20.0000 F2500
G1 X880.8992 Y720.8975 Z-20.0000 F4000
G1 X880.8972 Y726.8975 Z-20.0000 F4000
G1 X864.8972 Y726.8975 Z-20.0000 F4000
G1 X870.8972 Y726.8995 Z-20.0000 F4000
G1 X870.8972 Y778.8972 Z-20.0000 F4000
G1 X864.8972 Y778.8972 Z-20.0000 F4000
G1 X880.8972 Y778.8992 Z-20.0000 F4000
G1 X880.8972 Y784.8992 Z-20.0000 F4000
G1 X880.9065 Y768.3985 Z-20.0000 F4000
G1 X880.8992 Y751.8979 Z-20.0000 F4000
G1 X880.8992 Y751.8979 Z10.0000 F9999
G1 X880.8992 Y451.8984 Z10.0000 F9999
G1 X880.8992 Y451.8984 Z1.0000 F2500
G1 X880.8992 Y420.8980 Z-7.3524 F2500
G1 X880.8972 Y426.8980 Z-8.9690 F2500
G1 X878.9264 Y426.8980 Z-9.5000 F2500
G1 X880.8972 Y426.8980 Z-10.0310 F2500
G1 X880.8992 Y420.8980 Z-11.6476 F2500
G1 X880.8992 Y451.8984 Z-20.0000 F2500
G1 X880.8992 Y420.8980 Z-20.0000 F4000
G1 X880.8972 Y426.8980 Z-20.0000 F4000
G1 X864.8972 Y426.8980 Z-20.0000 F4000
G1 X870.8972 Y426.9000 Z-20.0000 F4000
G1 X870.8972 Y478.8978 Z-20.0000 F4000
G1 X864.8972 Y478.8978 Z-20.0000 F4000
G1 X880.8972 Y478.8998 Z-20.0000 F4000
G1 X880.8972 Y484.8998 Z-20.0000 F4000
G1 X880.9065 Y468.3991 Z-20.0000 F4000
G1 X880.8992 Y451.8984 Z-20.0000 F4000
G1 X880.8992 Y451.8984 Z10.0000 F9999
G1 X759.8985 Y457.8999 Z10.0000 F9999
G1 X759.8985 Y457.8999 Z1.0000 F2500
G1 X789.8974 Y457.8999 Z-7.0826 F2500
G1 X789.8974 Y462.9000 Z-8.4298 F2500
G1 X791.8994 Y462.9000 Z-8.9692 F2500
G1 X791.8994 Y460.9299 Z-9.5000 F2500
G1 X791.8994 Y462.9000 Z-10.0308 F2500
G1 X789.8974 Y462.9000 Z-10.5702 F2500
G1 X789.8974 Y457.8999 Z-11.9174 F2500
G1 X759.8985 Y457.8999 Z-20.0000 F2500
G1 X789.8974 Y457.8999 Z-20.0000 F4000
G1 X789.8974 Y462.9000 Z-20.0000 F4000
G1 X791.8994 Y462.9000 Z-20.0000 F4000
G1 X791.8994 Y442.8979 Z-20.0000 F4000
G1 X789.8974 Y442.8979 Z-20.0000 F4000
G1 X789.8974 Y447.8980 Z-20.0000 F4000
G1 X729.8995 Y447.8980 Z-20.0000 F4000
G1 X729.8995 Y442.8979 Z-20.0000 F4000
G1 X727.8975 Y442.8979 Z-20.0000 F4000
G1 X727.8975 Y462.9000 Z-20.0000 F4000
G1 X729.8995 Y462.9000 Z-20.0000 F4000
G1 X729.8995 Y457.8999 Z-20.0000 F4000
G1 X759.8985 Y457.8999 Z-20.0000 F4000
G1 X759.8985 Y457.8999 Z10.0000 F9999
G1 X638.8977 Y453.8994 Z10.0000 F9999
G1 X638.8977 Y453.8994 Z1.0000 F2500
G1 X638.8977 Y484.8998 Z-7.3524 F2500
G1 X638.8997 Y478.8998 Z-8.9690 F2500
G1 X640.8705 Y478.8998 Z-9.5000 F2500
G1 X638.8997 Y478.8998 Z-10.0310 F2500
G1 X638.8977 Y484.8998 Z-11.6476 F2500
G1 X638.8977 Y453.8994 Z-20.0000 F2500
G1 X638.8977 Y484.8998 Z-20.0000 F4000
G1 X638.8997 Y478.8998 Z-20.0000 F4000
G1 X654.8997 Y478.8998 Z-20.0000 F4000
G1 X648.8997 Y478.8978 Z-20.0000 F4000
G1 X648.8997 Y426.9000 Z-20.0000 F4000
G1 X654.8997 Y426.9000 Z-20.0000 F4000
G1 X638.8997 Y426.8980 Z-20.0000 F4000
G1 X638.8997 Y420.8980 Z-20.0000 F4000
G1 X638.8905 Y437.3987 Z-20.0000 F4000
G1 X638.8977 Y453.8994 Z-20.0000 F4000
G1 X638.8977 Y453.8994 Z10.0000 F9999
G1 X460.8996 Y273.9002 Z10.0000 F9999
G1 X460.8996 Y273.9002 Z1.0000 F2500
G1 X491.9000 Y273.9002 Z-7.3524 F2500
G1 X485.9000 Y273.8982 Z-8.9690 F2500
G1 X485.9000 Y271.9275 Z-9.5000 F2500
G1 X485.9000 Y273.8982 Z-10.0310 F2500
G1 X491.9000 Y273.9002 Z-11.6476 F2500
G1 X460.8996 Y273.9002 Z-20.0000 F2500
G1 X491.9000 Y273.9002 Z-20.0000 F4000
G1 X485.9000 Y273.8982 Z-20.0000 F4000
G1 X485.9000 Y257.8983 Z-20.0000 F4000
G1 X485.8980 Y263.8983 Z-20.0000 F4000
G1 X433.9002 Y263.8983 Z-20.0000 F4000
G1 X433.9002 Y257.8983 Z-20.0000 F4000
G1 X433.8982 Y273.8982 Z-20.0000 F4000
G1 X427.8982 Y273.8982 Z-20.0000 F4000
G1 X444.3989 Y273.9075 Z-20.0000 F4000
G1 X460.8996 Y273.9002 Z-20.0000 F4000
G1 X460.8996 Y273.9002 Z10.0000 F9999
G1 X458.8986 Y31.8988 Z10.0000 F9999
G1 X458.8986 Y31.8988 Z1.0000 F2500
G1 X427.8982 Y31.8988 Z-7.3524 F2500
G1 X433.8982 Y31.9008 Z-8.9690 F2500
G1 X433.8982 Y33.8715 Z-9.5000 F2500
G1 X433.8982 Y31.9008 Z-10.0310 F2500
G1 X427.8982 Y31.8988 Z-11.6476 F2500
G1 X458.8986 Y31.8988 Z-20.0000 F2500
G1 X427.8982 Y31.8988 Z-20.0000 F4000
G1 X433.8982 Y31.9008 Z-20.0000 F4000
G1 X433.8982 Y47.9007 Z-20.0000 F4000
G1 X433.9002 Y41.9007 Z-20.0000 F4000
G1 X485.8980 Y41.9007 Z-20.0000 F4000
G1 X485.8980 Y47.9007 Z-20.0000 F4000
G1 X485.9000 Y31.9008 Z-20.0000 F4000
G1 X491.9000 Y31.9008 Z-20.0000 F4000
G1 X475.3993 Y31.8915 Z-20.0000 F4000
G1 X458.8986 Y31.8988 Z-20.0000 F4000
G1 X458.8986 Y31.8988 Z10.0000 F9999
G1 X680.3986 Y147.8985 Z10.0000 F9999
G1 X680.3986 Y147.8985 Z1.0000 F2500
G1 X641.4275 Y147.8985 Z-9.5000 F2500
G1 X680.3986 Y147.8985 Z-20.0000 F2500
G1 X605.8998 Y147.8985 Z-20.0000 F4000
G1 X605.8998 Y141.8985 Z-20.0000 F4000
G1 X605.8978 Y163.9006 Z-20.0000 F4000
G1 X605.8998 Y157.9006 Z-20.0000 F4000
G1 X754.8975 Y157.9006 Z-20.0000 F4000
G1 X754.8975 Y182.8985 Z-20.0000 F4000
G1 X749.8975 Y182.8985 Z-20.0000 F4000
G1 X749.8975 Y184.9005 Z-20.0000 F4000
G1 X769.8994 Y184.9005 Z-20.0000 F4000
G1 X769.8994 Y182.8985 Z-20.0000 F4000
G1 X764.8994 Y182.8985 Z-20.0000 F4000
G1 X764.8994 Y157.9006 Z-20.0000 F4000
G1 X823.8973 Y157.9006 Z-20.0000 F4000
G1 X823.8973 Y162.9005 Z-20.0000 F4000
G1 X825.8993 Y162.9005 Z-20.0000 F4000
G1 X825.8993 Y142.8986 Z-20.0000 F4000
G1 X823.8973 Y142.8986 Z-20.0000 F4000
G1 X823.8973 Y147.8985 Z-20.0000 F4000
G1 X764.8994 Y147.8985 Z-20.0000 F4000
G1 X764.8994 Y122.9006 Z-20.0000 F4000
G1 X769.8994 Y122.9006 Z-20.0000 F4000
G1 X769.8994 Y120.8986 Z-20.0000 F4000
G1 X749.8975 Y120.8986 Z-20.0000 F4000
G1 X749.8975 Y122.9006 Z-20.0000 F4000
G1 X754.8975 Y122.9006 Z-20.0000 F4000
G1 X754.8975 Y147.8985 Z-20.0000 F4000
G1 X680.3986 Y147.8985 Z-20.0000 F4000
G1 X680.3986 Y147.8985 Z10.0000 F9999
G1 X758.8980 Y31.8988 Z10.0000 F9999
G1 X758.8980 Y31.8988 Z1.0000 F2500
G1 X727.8976 Y31.8988 Z-7.3524 F2500
G1 X733.8976 Y31.9008 Z-8.9690 F2500
G1 X733.8976 Y33.8715 Z-9.5000 F2500
G1 X733.8976 Y31.9008 Z-10.0310 F2500
G1 X727.8976 Y31.8988 Z-11.6476 F2500
G1 X758.8980 Y31.8988 Z-20.0000 F2500
G1 X727.8976 Y31.8988 Z-20.0000 F4000
G1 X733.8976 Y31.9008 Z-20.0000 F4000
G1 X733.8976 Y47.9007 Z-20.0000 F4000
G1 X733.8996 Y41.9007 Z-20.0000 F4000
G1 X785.8973 Y41.9007 Z-20.0000 F4000
G1 X785.8973 Y47.9007 Z-20.0000 F4000
G1 X785.8993 Y31.9008 Z-20.0000 F4000
G1 X791.8993 Y31.9008 Z-20.0000 F4000
G1 X775.3986 Y31.8915 Z-20.0000 F4000
G1 X758.8980 Y31.8988 Z-20.0000 F4000
G1 X758.8980 Y31.8988 Z10.0000 F9999
G1 X1054.9008 Y47.3999 Z10.0000 F9999
G1 X1054.9008 Y47.3999 Z1.0000 F2500
G1 X1054.9008 Y33.9009 Z-2.6370 F2500
G1 X1059.9008 Y33.9009 Z-3.9842 F2500
G1 X1059.9008 Y31.8989 Z-4.5236 F2500
G1 X1041.4306 Y31.8989 Z-9.5000 F2500
G1 X1059.9008 Y31.8989 Z-14.4764 F2500
G1 X1059.9008 Y33.9009 Z-15.0158 F2500
G1 X1054.9008 Y33.9009 Z-16.3630 F2500
G1 X1054.9008 Y47.3999 Z-20.0000 F2500
G1 X1054.9008 Y33.9009 Z-20.0000 F4000
G1 X1059.9008 Y33.9009 Z-20.0000 F4000
G1 X1059.9008 Y31.8989 Z-20.0000 F4000
G1 X1039.8988 Y31.8989 Z-20.0000 F4000
G1 X1039.8988 Y33.9009 Z-20.0000 F4000
G1 X1044.8988 Y33.9009 Z-20.0000 F4000
G1 X1044.8988 Y60.8989 Z-20.0000 F4000
G1 X1039.8988 Y60.8989 Z-20.0000 F4000
G1 X1039.8988 Y62.9009 Z-20.0000 F4000
G1 X1059.9008 Y62.9009 Z-20.0000 F4000
G1 X1059.9008 Y60.8989 Z-20.0000 F4000
G1 X1054.9008 Y60.8989 Z-20.0000 F4000
G1 X1054.9008 Y47.3999 Z-20.0000 F4000
G1 X1054.9008 Y47.3999 Z10.0000 F9999
G1 X1044.8988 Y1172.3977 Z10.0000 F9999
G1 X1044.8988 Y1172.3977 Z1.0000 F2500
G1 X1044.8988 Y1185.8967 Z-2.6370 F2500
G1 X1039.8988 Y1185.8967 Z-3.9842 F2500
G1 X1039.8988 Y1187.8986 Z-4.5236 F2500
G1 X1058.3690 Y1187.8986 Z-9.5000 F2500
G1 X1039.8988 Y1187.8986 Z-14.4764 F2500
G1 X1039.8988 Y1185.8967 Z-15.0158 F2500
G1 X1044.8988 Y1185.8967 Z-16.3630 F2500
G1 X1044.8988 Y1172.3977 Z-20.0000 F2500
G1 X1044.8988 Y1185.8967 Z-20.0000 F4000
G1 X1039.8988 Y1185.8967 Z-20.0000 F4000
G1 X1039.8988 Y1187.8986 Z-20.0000 F4000
G1 X1059.9008 Y1187.8986 Z-20.0000 F4000
G1 X1059.9008 Y1185.8967 Z-20.0000 F4000
G1 X1054.9008 Y1185.8967 Z-20.0000 F4000
G1 X1054.9008 Y1158.8987 Z-20.0000 F4000
G1 X1059.9008 Y1158.8987 Z-20.0000 F4000
G1 X1059.9008 Y1156.8967 Z-20.0000 F4000
G1 X1039.8988 Y1156.8967 Z-20.0000 F4000
G1 X1039.8988 Y1158.8987 Z-20.0000 F4000
G1 X1044.8988 Y1158.8987 Z-20.0000 F4000
G1 X1044.8988 Y1172.3977 Z-20.0000 F4000
G1 X1044.8988 Y1172.3977 Z10.0000 F9999
G1 X880.8992 Y1674.9724 Z10.0000 F9999
G1 X880.8992 Y1674.9724 Z1.0000 F2500
G1 X880.8992 Y1643.9720 Z-7.3524 F2500
G1 X880.8972 Y1649.9720 Z-8.9690 F2500
G1 X878.9264 Y1649.9720 Z-9.5000 F2500
G1 X880.8972 Y1649.9720 Z-10.0310 F2500
G1 X880.8992 Y1643.9720 Z-11.6476 F2500
G1 X880.8992 Y1674.9724 Z-20.0000 F2500
G1 X880.8992 Y1643.9720 Z-20.0000 F4000
G1 X880.8972 Y1649.9720 Z-20.0000 F4000
G1 X864.8972 Y1649.9720 Z-20.0000 F4000
G1 X870.8972 Y1649.9740 Z-20.0000 F4000
G1 X870.8972 Y1701.9718 Z-20.0000 F4000
G1 X864.8972 Y1701.9718 Z-20.0000 F4000
G1 X880.8972 Y1701.9738 Z-20.0000 F4000
G1 X880.8972 Y1707.9738 Z-20.0000 F4000
G1 X880.9065 Y1691.4731 Z-20.0000 F4000
G1 X880.8992 Y1674.9724 Z-20.0000 F4000
G1 X880.8992 Y1674.9724 Z10.0000 F9999
G1 X759.8985 Y1680.9739 Z10.0000 F9999
G1 X759.8985 Y1680.9739 Z1.0000 F2500
G1 X789.8974 Y1680.9739 Z-7.0826 F2500
G1 X789.8974 Y1685.9740 Z-8.4298 F2500
G1 X791.8994 Y1685.9740 Z-8.9692 F2500
G1 X791.8994 Y1684.0039 Z-9.5000 F2500
G1 X791.8994 Y1685.9740 Z-10.0308 F2500
G1 X789.8974 Y1685.9740 Z-10.5702 F2500
G1 X789.8974 Y1680.9739 Z-11.9174 F2500
G1 X759.8985 Y1680.9739 Z-20.0000 F2500
G1 X789.8974 Y1680.9739 Z-20.0000 F4000
G1 X789.8974 Y1685.9740 Z-20.0000 F4000
G1 X791.8994 Y1685.9740 Z-20.0000 F4000
G1 X791.8994 Y1665.9719 Z-20.0000 F4000
G1 X789.8974 Y1665.9719 Z-20.0000 F4000
G1 X789.8974 Y1670.9720 Z-20.0000 F4000
G1 X729.8995 Y1670.9720 Z-20.0000 F4000
G1 X729.8995 Y1665.9719 Z-20.0000 F4000
G1 X727.8975 Y1665.9719 Z-20.0000 F4000
G1 X727.8975 Y1685.9740 Z-20.0000 F4000
G1 X729.8995 Y1685.9740 Z-20.0000 F4000
G1 X729.8995 Y1680.9739 Z-20.0000 F4000
G1 X759.8985 Y1680.9739 Z-20.0000 F4000
G1 X759.8985 Y1680.9739 Z10.0000 F9999
G1 X638.8977 Y1676.9734 Z10.0000 F9999
G1 X638.8977 Y1676.9734 Z1.0000 F2500
G1 X638.8977 Y1707.9738 Z-7.3524 F2500
G1 X638.8997 Y1701.9738 Z-8.9690 F2500
G1 X640.8705 Y1701.9738 Z-9.5000 F2500
G1 X638.8997 Y1701.9738 Z-10.0310 F2500
G1 X638.8977 Y1707.9738 Z-11.6476 F2500
G1 X638.8977 Y1676.9734 Z-20.0000 F2500
G1 X638.8977 Y1707.9738 Z-20.0000 F4000
G1 X638.8997 Y1701.9738 Z-20.0000 F4000
G1 X654.8997 Y1701.9738 Z-20.0000 F4000
G1 X648.8997 Y1701.9718 Z-20.0000 F4000
G1 X648.8997 Y1649.9740 Z-20.0000 F4000
G1 X654.8997 Y1649.9740 Z-20.0000 F4000
G1 X638.8997 Y1649.9720 Z-20.0000 F4000
G1 X638.8997 Y1643.9720 Z-20.0000 F4000
G1 X638.8905 Y1660.4727 Z-20.0000 F4000
G1 X638.8977 Y1676.9734 Z-20.0000 F4000
G1 X638.8977 Y1676.9734 Z10.0000 F9999
G1 X638.8977 Y1976.9729 Z10.0000 F9999
G1 X638.8977 Y1976.9729 Z1.0000 F2500
G1 X638.8977 Y2007.9732 Z-7.3524 F2500
G1 X638.8997 Y2001.9732 Z-8.9690 F2500
G1 X640.8705 Y2001.9732 Z-9.5000 F2500
G1 X638.8997 Y2001.9732 Z-10.0310 F2500
G1 X638.8977 Y2007.9732 Z-11.6476 F2500
G1 X638.8977 Y1976.9729 Z-20.0000 F2500
G1 X638.8977 Y2007.9732 Z-20.0000 F4000
G1 X638.8997 Y2001.9732 Z-20.0000 F4000
G1 X654.8997 Y2001.9732 Z-20.0000 F4000
G1 X648.8997 Y2001.9712 Z-20.0000 F4000
G1 X648.8997 Y1949.9735 Z-20.0000 F4000
G1 X654.8997 Y1949.9735 Z-20.0000 F4000
G1 X638.8997 Y1949.9715 Z-20.0000 F4000
G1 X638.8997 Y1943.9715 Z-20.0000 F4000
G1 X638.8905 Y1960.4722 Z-20.0000 F4000
G1 X638.8977 Y1976.9729 Z-20.0000 F4000
G1 X638.8977 Y1976.9729 Z10.0000 F9999
G1 X880.8992 Y1974.9719 Z10.0000 F9999
G1 X880.8992 Y1974.9719 Z1.0000 F2500
G1 X880.8992 Y1943.9715 Z-7.3524 F2500
G1 X880.8972 Y1949.9715 Z-8.9690 F2500
G1 X878.9264 Y1949.9715 Z-9.5000 F2500
G1 X880.8972 Y1949.9715 Z-10.0310 F2500
G1 X880.8992 Y1943.9715 Z-11.6476 F2500
G1 X880.8992 Y1974.9719 Z-20.0000 F2500
G1 X880.8992 Y1943.9715 Z-20.0000 F4000
G1 X880.8972 Y1949.9715 Z-20.0000 F4000
G1 X864.8972 Y1949.9715 Z-20.0000 F4000
G1 X870.8972 Y1949.9735 Z-20.0000 F4000
G1 X870.8972 Y2001.9712 Z-20.0000 F4000
G1 X864.8972 Y2001.9712 Z-20.0000 F4000
G1 X880.8972 Y2001.9732 Z-20.0000 F4000
G1 X880.8972 Y2007.9732 Z-20.0000 F4000
G1 X880.9065 Y1991.4726 Z-20.0000 F4000
G1 X880.8992 Y1974.9719 Z-20.0000 F4000
G1 X880.8992 Y1974.9719 Z10.0000 F9999
G1 X609.8971 Y2239.5005 Z10.0000 F9999
G1 X609.8971 Y2239.5005 Z1.0000 F2500
G1 X648.8682 Y2239.5005 Z-9.5000 F2500
G1 X609.8971 Y2239.5005 Z-20.0000 F2500
G1 X650.8981 Y2239.5005 Z-20.0000 F4000
G1 X650.8981 Y2237.4985 Z-20.0000 F4000
G1 X645.8990 Y2237.4985 Z-20.0000 F4000
G1 X645.8990 Y2224.4985 Z-20.0000 F4000
G1 X643.8975 Y2224.4985 Z-20.0000 F4000
G1 X643.8975 Y2229.4985 Z-20.0000 F4000
G1 X575.8995 Y2229.4985 Z-20.0000 F4000
G1 X575.8995 Y2224.4985 Z-20.0000 F4000
G1 X573.8970 Y2224.4985 Z-20.0000 F4000
G1 X573.8970 Y2237.4985 Z-20.0000 F4000
G1 X568.8961 Y2237.4985 Z-20.0000 F4000
G1 X568.8961 Y2239.5005 Z-20.0000 F4000
G1 X609.8971 Y2239.5005 Z-20.0000 F4000
G1 X609.8971 Y2239.5005 Z10.0000 F9999
G1 X160.9002 Y1496.9743 Z10.0000 F9999
G1 X160.9002 Y1496.9743 Z1.0000 F2500
G1 X191.9006 Y1496.9743 Z-7.3524 F2500
G1 X185.9006 Y1496.9723 Z-8.9690 F2500
G1 X185.9006 Y1495.0015 Z-9.5000 F2500
G1 X185.9006 Y1496.9723 Z-10.0310 F2500
G1 X191.9006 Y1496.9743 Z-11.6476 F2500
G1 X160.9002 Y1496.9743 Z-20.0000 F2500
G1 X191.9006 Y1496.9743 Z-20.0000 F4000
G1 X185.9006 Y1496.9723 Z-20.0000 F4000
G1 X185.9006 Y1480.9723 Z-20.0000 F4000
G1 X185.8986 Y1486.9723 Z-20.0000 F4000
G1 X133.9008 Y1486.9723 Z-20.0000 F4000
G1 X133.9008 Y1480.9723 Z-20.0000 F4000
G1 X133.8988 Y1496.9723 Z-20.0000 F4000
G1 X127.8988 Y1496.9723 Z-20.0000 F4000
G1 X144.3995 Y1496.9815 Z-20.0000 F4000
G1 X160.9002 Y1496.9743 Z-20.0000 F4000
G1 X160.9002 Y1496.9743 Z10.0000 F9999
G1 X158.8992 Y1254.9728 Z10.0000 F9999
G1 X158.8992 Y1254.9728 Z1.0000 F2500
G1 X127.8988 Y1254.9728 Z-7.3524 F2500
G1 X133.8988 Y1254.9748 Z-8.9690 F2500
G1 X133.8988 Y1256.9455 Z-9.5000 F2500
G1 X133.8988 Y1254.9748 Z-10.0310 F2500
G1 X127.8988 Y1254.9728 Z-11.6476 F2500
G1 X158.8992 Y1254.9728 Z-20.0000 F2500
G1 X127.8988 Y1254.9728 Z-20.0000 F4000
G1 X133.8988 Y1254.9748 Z-20.0000 F4000
G1 X133.8988 Y1270.9747 Z-20.0000 F4000
G1 X133.9008 Y1264.9747 Z-20.0000 F4000
G1 X185.8986 Y1264.9747 Z-20.0000 F4000
G1 X185.8986 Y1270.9747 Z-20.0000 F4000
G1 X185.9006 Y1254.9748 Z-20.0000 F4000
G1 X191.9006 Y1254.9748 Z-20.0000 F4000
G1 X175.3999 Y1254.9655 Z-20.0000 F4000
G1 X158.8992 Y1254.9728 Z-20.0000 F4000
G1 X158.8992 Y1254.9728 Z10.0000 F9999
G1 X153.9002 Y1188.9732 Z10.0000 F9999
G1 X153.9002 Y1188.9732 Z1.0000 F2500
G1 X184.9006 Y1188.9732 Z-7.3524 F2500
G1 X178.9006 Y1188.9712 Z-8.9690 F2500
G1 X178.9006 Y1187.0004 Z-9.5000 F2500
G1 X178.9006 Y1188.9712 Z-10.0310 F2500
G1 X184.9006 Y1188.9732 Z-11.6476 F2500
G1 X153.9002 Y1188.9732 Z-20.0000 F2500
G1 X184.9006 Y1188.9732 Z-20.0000 F4000
G1 X178.9006 Y1188.9712 Z-20.0000 F4000
G1 X178.9006 Y1172.9712 Z-20.0000 F4000
G1 X178.8986 Y1178.9712 Z-20.0000 F4000
G1 X126.9008 Y1178.9712 Z-20.0000 F4000
G1 X126.9008 Y1172.9712 Z-20.0000 F4000
G1 X126.8988 Y1188.9712 Z-20.0000 F4000
G1 X120.8988 Y1188.9712 Z-20.0000 F4000
G1 X137.3995 Y1188.9804 Z-20.0000 F4000
G1 X153.9002 Y1188.9732 Z-20.0000 F4000
G1 X153.9002 Y1188.9732 Z10.0000 F9999
G1 X232.3995 Y1072.9734 Z10.0000 F9999
G1 X232.3995 Y1072.9734 Z1.0000 F2500
G1 X271.3707 Y1072.9734 Z-9.5000 F2500
G1 X232.3995 Y1072.9734 Z-20.0000 F2500
G1 X306.8984 Y1072.9734 Z-20.0000 F4000
G1 X306.8984 Y1078.9734 Z-20.0000 F4000
G1 X306.9004 Y1056.9713 Z-20.0000 F4000
G1 X306.8984 Y1062.9713 Z-20.0000 F4000
G1 X157.9007 Y1062.9713 Z-20.0000 F4000
G1 X157.9007 Y1037.9734 Z-20.0000 F4000
G1 X162.9007 Y1037.9734 Z-20.0000 F4000
G1 X162.9007 Y1035.9714 Z-20.0000 F4000
G1 X142.8987 Y1035.9714 Z-20.0000 F4000
G1 X142.8987 Y1037.9734 Z-20.0000 F4000
G1 X147.8987 Y1037.9734 Z-20.0000 F4000
G1 X147.8987 Y1062.9713 Z-20.0000 F4000
G1 X88.9008 Y1062.9713 Z-20.0000 F4000
G1 X88.9008 Y1057.9714 Z-20.0000 F4000
G1 X86.8989 Y1057.9714 Z-20.0000 F4000
G1 X86.8989 Y1077.9733 Z-20.0000 F4000
G1 X88.9008 Y1077.9733 Z-20.0000 F4000
G1 X88.9008 Y1072.9734 Z-20.0000 F4000
G1 X147.8987 Y1072.9734 Z-20.0000 F4000
G1 X147.8987 Y1097.9713 Z-20.0000 F4000
G1 X142.8987 Y1097.9713 Z-20.0000 F4000
G1 X142.8987 Y1099.9733 Z-20.0000 F4000
G1 X162.9007 Y1099.9733 Z-20.0000 F4000
G1 X162.9007 Y1097.9713 Z-20.0000 F4000
G1 X157.9007 Y1097.9713 Z-20.0000 F4000
G1 X157.9007 Y1072.9734 Z-20.0000 F4000
G1 X232.3995 Y1072.9734 Z-20.0000 F4000
G1 X232.3995 Y1072.9734 Z10.0000 F9999
(Tool Number:1) (7.998 mm dia. slot drill)
M3 S9000
G1 X609.8988 Y2370.5989 Z10.0000 F9999
G1 X609.8988 Y2370.5989 Z1.0000 F2500
G1 X570.9276 Y2370.5989 Z-9.5000 F2500
G1 X609.8988 Y2370.5989 Z-20.0000 F2500
G1 X5.9010 Y2370.5989 Z-20.0000 F4000
G1 X5.9010 Y1883.8014 Z-20.0000 F4000
G1 X62.6612 Y1883.8014 Z-20.0000 F4000
G1 X63.6427 Y1883.5679 Z-20.0000 F4000
G1 X64.0452 Y1883.2279 Z-20.0000 F4000
G1 X64.2521 Y1882.7417 Z-20.0000 F4000
G1 X64.1868 Y1881.7337 Z-20.0000 F4000
G1 X48.1692 Y1829.6745 Z-20.0000 F4000
G1 X47.9353 Y1826.0617 Z-20.0000 F4000
G1 X49.5420 Y1822.2863 Z-20.0000 F4000
G1 X52.6781 Y1819.6402 Z-20.0000 F4000
G1 X56.1990 Y1818.8018 Z-20.0000 F4000
G1 X88.8970 Y1818.8018 Z-20.0000 F4000
G1 X88.8970 Y1893.6134 Z-20.0000 F4000
G1 X88.8970 Y1893.6134 Z-10.0000 F9999
G1 X88.8970 Y1909.6114 Z-10.0000 F4000
G1 X88.8970 Y1909.6114 Z-20.0000 F2500
G1 X88.8970 Y1919.0494 Z-20.0000 F4000
G1 X47.8985 Y1919.0494 Z-20.0000 F4000
G1 X47.8985 Y1921.0514 Z-20.0000 F4000
G1 X52.8980 Y1921.0514 Z-20.0000 F4000
G1 X52.8980 Y1997.1495 Z-20.0000 F4000
G1 X52.8980 Y1997.1495 Z-10.0000 F9999
G1 X52.8980 Y2013.1475 Z-10.0000 F4000
G1 X52.8980 Y2013.1475 Z-20.0000 F2500
G1 X52.8980 Y2089.0491 Z-20.0000 F4000
G1 X47.8985 Y2089.0491 Z-20.0000 F4000
G1 X47.8985 Y2091.0511 Z-20.0000 F4000
G1 X88.8970 Y2091.0511 Z-20.0000 F4000
G1 X88.8970 Y2167.0508 Z-20.0000 F4000
G1 X90.9015 Y2167.0508 Z-20.0000 F4000
G1 X90.9015 Y2162.0508 Z-20.0000 F4000
G1 X228.8995 Y2162.0508 Z-20.0000 F4000
G1 X228.8995 Y2167.0508 Z-20.0000 F4000
G1 X230.8986 Y2167.0508 Z-20.0000 F4000
G1 X230.8986 Y2144.0511 Z-20.0000 F4000
G1 X388.8995 Y2144.0511 Z-20.0000 F4000
G1 X388.8995 Y2167.0508 Z-20.0000 F4000
G1 X390.8986 Y2167.0508 Z-20.0000 F4000
G1 X390.8986 Y2162.0508 Z-20.0000 F4000
G1 X528.8961 Y2162.0508 Z-20.0000 F4000
G1 X528.8961 Y2167.0508 Z-20.0000 F4000
G1 X530.9010 Y2167.0508 Z-20.0000 F4000
G1 X530.9010 Y2144.0511 Z-20.0000 F4000
G1 X688.8985 Y2144.0511 Z-20.0000 F4000
G1 X688.8985 Y2167.0508 Z-20.0000 F4000
G1 X690.8981 Y2167.0508 Z-20.0000 F4000
G1 X690.8981 Y2162.0508 Z-20.0000 F4000
G1 X828.8961 Y2162.0508 Z-20.0000 F4000
G1 X828.8961 Y2167.0508 Z-20.0000 F4000
G1 X830.8976 Y2167.0508 Z-20.0000 F4000
G1 X830.8976 Y2144.0511 Z-20.0000 F4000
G1 X988.8956 Y2144.0511 Z-20.0000 F4000
G1 X988.8956 Y2167.0508 Z-20.0000 F4000
G1 X990.9000 Y2167.0508 Z-20.0000 F4000
G1 X990.9000 Y2162.0508 Z-20.0000 F4000
G1 X1128.8931 Y2162.0508 Z-20.0000 F4000
G1 X1128.8931 Y2167.0508 Z-20.0000 F4000
G1 X1130.8976 Y2167.0508 Z-20.0000 F4000
G1 X1130.8976 Y2091.0511 Z-20.0000 F4000
G1 X1171.8976 Y2091.0511 Z-20.0000 F4000
G1 X1171.8976 Y2089.0491 Z-20.0000 F4000
G1 X1166.8981 Y2089.0491 Z-20.0000 F4000
G1 X1166.8981 Y2016.5987 Z-20.0000 F4000
G1 X1166.8981 Y2016.5987 Z-10.0000 F9999
G1 X1166.8981 Y2000.6007 Z-10.0000 F4000
G1 X1166.8981 Y2000.6007 Z-20.0000 F2500
G1 X1166.8981 Y1921.0514 Z-20.0000 F4000
G1 X1171.8976 Y1921.0514 Z-20.0000 F4000
G1 X1171.8976 Y1919.0494 Z-20.0000 F4000
G1 X1130.8976 Y1919.0494 Z-20.0000 F4000
G1 X1130.8976 Y1907.8858 Z-20.0000 F4000
G1 X1130.8976 Y1907.8858 Z-10.0000 F9999
G1 X1130.8976 Y1891.8878 Z-10.0000 F4000
G1 X1130.8976 Y1891.8878 Z-20.0000 F2500
G1 X1130.8976 Y1818.8018 Z-20.0000 F4000
G1 X1163.5976 Y1818.8018 Z-20.0000 F4000
G1 X1167.1182 Y1819.6401 Z-20.0000 F4000
G1 X1170.2553 Y1822.2863 Z-20.0000 F4000
G1 X1171.8612 Y1826.0621 Z-20.0000 F4000
G1 X1171.6274 Y1829.6745 Z-20.0000 F4000
G1 X1155.6098 Y1881.7337 Z-20.0000 F4000
G1 X1155.5445 Y1882.7413 Z-20.0000 F4000
G1 X1155.7516 Y1883.2277 Z-20.0000 F4000
G1 X1156.1544 Y1883.5679 Z-20.0000 F4000
G1 X1157.1359 Y1883.8014 Z-20.0000 F4000
G1 X1213.8966 Y1883.8014 Z-20.0000 F4000
G1 X1213.8966 Y2370.5989 Z-20.0000 F4000
G1 X609.8988 Y2370.5989 Z-20.0000 F4000
G1 X609.8988 Y2370.5989 Z10.0000 F9999
G1 X920.9010 Y609.8988 Z10.0000 F9999
G1 X920.9010 Y609.8988 Z1.0000 F2500
G1 X920.9010 Y570.9276 Z-9.5000 F2500
G1 X920.9010 Y609.8988 Z-20.0000 F2500
G1 X920.9010 Y80.9009 Z-20.0000 F4000
G1 X1007.8989 Y80.9009 Z-20.0000 F4000
G1 X1007.8989 Y85.9008 Z-20.0000 F4000
G1 X1009.9009 Y85.9008 Z-20.0000 F4000
G1 X1009.9009 Y5.9010 Z-20.0000 F4000
G1 X1089.8986 Y5.9010 Z-20.0000 F4000
G1 X1089.8986 Y85.9008 Z-20.0000 F4000
G1 X1091.9006 Y85.9008 Z-20.0000 F4000
G1 X1091.9006 Y80.9009 Z-20.0000 F4000
G1 X1196.8984 Y80.9009 Z-20.0000 F4000
G1 X1196.8984 Y118.8988 Z-20.0000 F4000
G1 X1173.8984 Y118.8988 Z-20.0000 F4000
G1 X1173.8984 Y120.9008 Z-20.0000 F4000
G1 X1178.8984 Y120.9008 Z-20.0000 F4000
G1 X1178.8984 Y563.8979 Z-20.0000 F4000
G1 X1173.8984 Y563.8979 Z-20.0000 F4000
G1 X1173.8984 Y565.8998 Z-20.0000 F4000
G1 X1196.8984 Y565.8998 Z-20.0000 F4000
G1 X1196.8984 Y653.8977 Z-20.0000 F4000
G1 X1173.8984 Y653.8977 Z-20.0000 F4000
G1 X1173.8984 Y655.8997 Z-20.0000 F4000
G1 X1178.8984 Y655.8997 Z-20.0000 F4000
G1 X1178.8984 Y1098.8968 Z-20.0000 F4000
G1 X1173.8984 Y1098.8968 Z-20.0000 F4000
G1 X1173.8984 Y1100.8988 Z-20.0000 F4000
G1 X1196.8984 Y1100.8988 Z-20.0000 F4000
G1 X1196.8984 Y1138.8967 Z-20.0000 F4000
G1 X1156.8180 Y1138.8967 Z-20.0000 F4000
G1 X1156.8180 Y1138.8967 Z-10.0000 F9999
G1 X1140.8200 Y1138.8967 Z-10.0000 F4000
G1 X1140.8200 Y1138.8967 Z-20.0000 F2500
G1 X1091.9006 Y1138.8967 Z-20.0000 F4000
G1 X1091.9006 Y1133.8967 Z-20.0000 F4000
G1 X1089.8986 Y1133.8967 Z-20.0000 F4000
G1 X1089.8986 Y1213.8967 Z-20.0000 F4000
G1 X1009.9009 Y1213.8967 Z-20.0000 F4000
G1 X1009.9009 Y1133.8967 Z-20.0000 F4000
G1 X1007.8989 Y1133.8967 Z-20.0000 F4000
G1 X1007.8989 Y1138.8967 Z-20.0000 F4000
G1 X970.4530 Y1138.8967 Z-20.0000 F4000
G1 X970.4530 Y1138.8967 Z-10.0000 F9999
G1 X954.4550 Y1138.8967 Z-10.0000 F4000
G1 X954.4550 Y1138.8967 Z-20.0000 F2500
G1 X920.9010 Y1138.8967 Z-20.0000 F4000
G1 X920.9010 Y609.8988 Z-20.0000 F4000
G1 X920.9010 Y609.8988 Z10.0000 F9999
G1 X906.8972 Y1067.9724 Z10.0000 F9999
G1 X906.8972 Y1067.9724 Z1.0000 F2500
G1 X906.8972 Y1106.9436 Z-9.5000 F2500
G1 X906.8972 Y1067.9724 Z-20.0000 F2500
G1 X906.8972 Y1196.9712 Z-20.0000 F4000
G1 X848.8994 Y1196.9712 Z-20.0000 F4000
G1 X848.8994 Y1191.9709 Z-20.0000 F4000
G1 X846.8973 Y1191.9709 Z-20.0000 F4000
G1 X846.8973 Y1214.9709 Z-20.0000 F4000
G1 X658.8997 Y1214.9709 Z-20.0000 F4000
G1 X658.8997 Y1191.9709 Z-20.0000 F4000
G1 X656.8977 Y1191.9709 Z-20.0000 F4000
G1 X656.8977 Y1196.9712 Z-20.0000 F4000
G1 X548.9000 Y1196.9712 Z-20.0000 F4000
G1 X548.9000 Y1191.9709 Z-20.0000 F4000
G1 X546.8979 Y1191.9709 Z-20.0000 F4000
G1 X546.8979 Y1214.9709 Z-20.0000 F4000
G1 X358.9003 Y1214.9709 Z-20.0000 F4000
G1 X358.9003 Y1191.9709 Z-20.0000 F4000
G1 X356.8983 Y1191.9709 Z-20.0000 F4000
G1 X356.8983 Y1196.9712 Z-20.0000 F4000
G1 X248.9005 Y1196.9712 Z-20.0000 F4000
G1 X248.9005 Y1191.9709 Z-20.0000 F4000
G1 X246.8985 Y1191.9709 Z-20.0000 F4000
G1 X246.8985 Y1214.9709 Z-20.0000 F4000
G1 X58.9009 Y1214.9709 Z-20.0000 F4000
G1 X58.9009 Y1191.9709 Z-20.0000 F4000
G1 X56.8989 Y1191.9709 Z-20.0000 F4000
G1 X56.8989 Y1196.9712 Z-20.0000 F4000
G1 X23.9010 Y1196.9712 Z-20.0000 F4000
G1 X23.9010 Y1144.9731 Z-20.0000 F4000
G1 X28.9010 Y1144.9731 Z-20.0000 F4000
G1 X28.9010 Y1142.9712 Z-20.0000 F4000
G1 X5.9010 Y1142.9712 Z-20.0000 F4000
G1 X5.9010 Y1104.9732 Z-20.0000 F4000
G1 X57.8989 Y1104.9732 Z-20.0000 F4000
G1 X57.8989 Y1109.9733 Z-20.0000 F4000
G1 X59.9009 Y1109.9733 Z-20.0000 F4000
G1 X59.9009 Y1025.9716 Z-20.0000 F4000
G1 X57.8989 Y1025.9716 Z-20.0000 F4000
G1 X57.8989 Y1030.9714 Z-20.0000 F4000
G1 X23.9010 Y1030.9714 Z-20.0000 F4000
G1 X23.9010 Y863.9738 Z-20.0000 F4000
G1 X28.9010 Y863.9738 Z-20.0000 F4000
G1 X28.9010 Y861.9718 Z-20.0000 F4000
G1 X5.9010 Y861.9718 Z-20.0000 F4000
G1 X5.9010 Y673.9742 Z-20.0000 F4000
G1 X28.9010 Y673.9742 Z-20.0000 F4000
G1 X28.9010 Y671.9722 Z-20.0000 F4000
G1 X23.9010 Y671.9722 Z-20.0000 F4000
G1 X23.9010 Y563.9744 Z-20.0000 F4000
G1 X28.9010 Y563.9744 Z-20.0000 F4000
G1 X28.9010 Y561.9724 Z-20.0000 F4000
G1 X5.9010 Y561.9724 Z-20.0000 F4000
G1 X5.9010 Y373.9748 Z-20.0000 F4000
G1 X28.9010 Y373.9748 Z-20.0000 F4000
G1 X28.9010 Y371.9728 Z-20.0000 F4000
G1 X23.9010 Y371.9728 Z-20.0000 F4000
G1 X23.9010 Y313.9750 Z-20.0000 F4000
G1 X82.1637 Y313.9750 Z-20.0000 F4000
G1 X82.1637 Y313.9750 Z-10.0000 F9999
G1 X98.1617 Y313.9750 Z-10.0000 F4000
G1 X98.1617 Y313.9750 Z-20.0000 F2500
G1 X220.6431 Y313.9750 Z-20.0000 F4000
G1 X220.6431 Y313.9750 Z-10.0000 F9999
G1 X236.6411 Y313.9750 Z-10.0000 F4000
G1 X236.6411 Y313.9750 Z-20.0000 F2500
G1 X281.8985 Y313.9750 Z-20.0000 F4000
G1 X281.8985 Y371.9728 Z-20.0000 F4000
G1 X276.8985 Y371.9728 Z-20.0000 F4000
G1 X276.8985 Y373.9748 Z-20.0000 F4000
G1 X299.8984 Y373.9748 Z-20.0000 F4000
G1 X299.8984 Y561.9724 Z-20.0000 F4000
G1 X276.8985 Y561.9724 Z-20.0000 F4000
G1 X276.8985 Y563.9744 Z-20.0000 F4000
G1 X281.8985 Y563.9744 Z-20.0000 F4000
G1 X281.8985 Y671.9722 Z-20.0000 F4000
G1 X276.8985 Y671.9722 Z-20.0000 F4000
G1 X276.8985 Y673.9742 Z-20.0000 F4000
G1 X299.8984 Y673.9742 Z-20.0000 F4000
G1 X299.8984 Y861.9718 Z-20.0000 F4000
G1 X276.8985 Y861.9718 Z-20.0000 F4000
G1 X276.8985 Y863.9738 Z-20.0000 F4000
G1 X281.8985 Y863.9738 Z-20.0000 F4000
G1 X281.8985 Y938.9717 Z-20.0000 F4000
G1 X275.8985 Y938.9737 Z-20.0000 F4000
G1 X356.8983 Y938.9737 Z-20.0000 F4000
G1 X356.8983 Y943.9736 Z-20.0000 F4000
G1 X358.9003 Y943.9736 Z-20.0000 F4000
G1 X358.9003 Y920.9736 Z-20.0000 F4000
G1 X546.8979 Y920.9736 Z-20.0000 F4000
G1 X546.8979 Y943.9736 Z-20.0000 F4000
G1 X548.9000 Y943.9736 Z-20.0000 F4000
G1 X548.9000 Y938.9737 Z-20.0000 F4000
G1 X656.8977 Y938.9737 Z-20.0000 F4000
G1 X656.8977 Y943.9736 Z-20.0000 F4000
G1 X658.8997 Y943.9736 Z-20.0000 F4000
G1 X658.8997 Y920.9736 Z-20.0000 F4000
G1 X674.9076 Y920.9736 Z-20.0000 F4000
G1 X674.9076 Y920.9736 Z-10.0000 F9999
G1 X690.9056 Y920.9736 Z-10.0000 F4000
G1 X690.9056 Y920.9736 Z-20.0000 F2500
G1 X813.3871 Y920.9736 Z-20.0000 F4000
G1 X813.3871 Y920.9736 Z-10.0000 F9999
G1 X829.3851 Y920.9736 Z-10.0000 F4000
G1 X829.3851 Y920.9736 Z-20.0000 F2500
G1 X846.8973 Y920.9736 Z-20.0000 F4000
G1 X846.8973 Y943.9736 Z-20.0000 F4000
G1 X848.8994 Y943.9736 Z-20.0000 F4000
G1 X848.8994 Y938.9737 Z-20.0000 F4000
G1 X906.8972 Y938.9737 Z-20.0000 F4000
G1 X906.8972 Y1067.9724 Z-20.0000 F4000
G1 X906.8972 Y1067.9724 Z10.0000 F9999
G1 X5.9010 Y152.8995 Z10.0000 F9999
G1 X5.9010 Y152.8995 Z1.0000 F2500
G1 X5.9010 Y113.9284 Z-9.5000 F2500
G1 X5.9010 Y152.8995 Z-20.0000 F2500
G1 X5.9010 Y23.9008 Z-20.0000 F4000
G1 X63.8988 Y23.9008 Z-20.0000 F4000
G1 X63.8988 Y28.9010 Z-20.0000 F4000
G1 X65.9009 Y28.9010 Z-20.0000 F4000
G1 X65.9009 Y5.9010 Z-20.0000 F4000
G1 X253.8985 Y5.9010 Z-20.0000 F4000
G1 X253.8985 Y28.9010 Z-20.0000 F4000
G1 X255.9005 Y28.9010 Z-20.0000 F4000
G1 X255.9005 Y23.9008 Z-20.0000 F4000
G1 X363.8982 Y23.9008 Z-20.0000 F4000
G1 X363.8982 Y28.9010 Z-20.0000 F4000
G1 X365.9003 Y28.9010 Z-20.0000 F4000
G1 X365.9003 Y5.9010 Z-20.0000 F4000
G1 X553.8979 Y5.9010 Z-20.0000 F4000
G1 X553.8979 Y28.9010 Z-20.0000 F4000
G1 X555.8998 Y28.9010 Z-20.0000 F4000
G1 X555.8998 Y23.9008 Z-20.0000 F4000
G1 X663.8977 Y23.9008 Z-20.0000 F4000
G1 X663.8977 Y28.9010 Z-20.0000 F4000
G1 X665.8996 Y28.9010 Z-20.0000 F4000
G1 X665.8996 Y5.9010 Z-20.0000 F4000
G1 X853.8973 Y5.9010 Z-20.0000 F4000
G1 X853.8973 Y28.9010 Z-20.0000 F4000
G1 X855.8993 Y28.9010 Z-20.0000 F4000
G1 X855.8993 Y23.9008 Z-20.0000 F4000
G1 X888.8972 Y23.9008 Z-20.0000 F4000
G1 X888.8972 Y75.8989 Z-20.0000 F4000
G1 X883.8972 Y75.8989 Z-20.0000 F4000
G1 X883.8972 Y77.9008 Z-20.0000 F4000
G1 X906.8972 Y77.9008 Z-20.0000 F4000
G1 X906.8972 Y115.8988 Z-20.0000 F4000
G1 X854.8993 Y115.8988 Z-20.0000 F4000
G1 X854.8993 Y110.8986 Z-20.0000 F4000
G1 X852.8973 Y110.8986 Z-20.0000 F4000
G1 X852.8973 Y194.9004 Z-20.0000 F4000
G1 X854.8993 Y194.9004 Z-20.0000 F4000
G1 X854.8993 Y189.9005 Z-20.0000 F4000
G1 X888.8972 Y189.9005 Z-20.0000 F4000
G1 X888.8972 Y356.8981 Z-20.0000 F4000
G1 X883.8972 Y356.8981 Z-20.0000 F4000
G1 X883.8972 Y358.9001 Z-20.0000 F4000
G1 X906.8972 Y358.9001 Z-20.0000 F4000
G1 X906.8972 Y546.8978 Z-20.0000 F4000
G1 X883.8972 Y546.8978 Z-20.0000 F4000
G1 X883.8972 Y548.8998 Z-20.0000 F4000
G1 X888.8972 Y548.8998 Z-20.0000 F4000
G1 X888.8972 Y656.8975 Z-20.0000 F4000
G1 X883.8972 Y656.8975 Z-20.0000 F4000
G1 X883.8972 Y658.8995 Z-20.0000 F4000
G1 X906.8972 Y658.8995 Z-20.0000 F4000
G1 X906.8972 Y846.8972 Z-20.0000 F4000
G1 X883.8972 Y846.8972 Z-20.0000 F4000
G1 X883.8972 Y848.8992 Z-20.0000 F4000
G1 X888.8972 Y848.8992 Z-20.0000 F4000
G1 X888.8972 Y906.8969 Z-20.0000 F4000
G1 X830.6793 Y906.8969 Z-20.0000 F4000
G1 X830.6793 Y906.8969 Z-10.0000 F9999
G1 X814.6813 Y906.8969 Z-10.0000 F4000
G1 X814.6813 Y906.8969 Z-20.0000 F2500
G1 X691.3370 Y906.8969 Z-20.0000 F4000
G1 X691.3370 Y906.8969 Z-10.0000 F9999
G1 X675.3390 Y906.8969 Z-10.0000 F4000
G1 X675.3390 Y906.8969 Z-20.0000 F2500
G1 X630.8997 Y906.8969 Z-20.0000 F4000
G1 X630.8997 Y848.8992 Z-20.0000 F4000
G1 X635.8997 Y848.8992 Z-20.0000 F4000
G1 X635.8997 Y846.8972 Z-20.0000 F4000
G1 X612.8997 Y846.8972 Z-20.0000 F4000
G1 X612.8997 Y658.8995 Z-20.0000 F4000
G1 X635.8997 Y658.8995 Z-20.0000 F4000
G1 X635.8997 Y656.8975 Z-20.0000 F4000
G1 X630.8997 Y656.8975 Z-20.0000 F4000
G1 X630.8997 Y548.8998 Z-20.0000 F4000
G1 X635.8997 Y548.8998 Z-20.0000 F4000
G1 X635.8997 Y546.8978 Z-20.0000 F4000
G1 X612.8997 Y546.8978 Z-20.0000 F4000
G1 X612.8997 Y358.9001 Z-20.0000 F4000
G1 X635.8997 Y358.9001 Z-20.0000 F4000
G1 X635.8997 Y356.8981 Z-20.0000 F4000
G1 X630.8997 Y356.8981 Z-20.0000 F4000
G1 X630.8997 Y281.9003 Z-20.0000 F4000
G1 X636.8997 Y281.8983 Z-20.0000 F4000
G1 X555.8998 Y281.8983 Z-20.0000 F4000
G1 X555.8998 Y276.8984 Z-20.0000 F4000
G1 X553.8979 Y276.8984 Z-20.0000 F4000
G1 X553.8979 Y299.8984 Z-20.0000 F4000
G1 X365.9003 Y299.8984 Z-20.0000 F4000
G1 X365.9003 Y276.8984 Z-20.0000 F4000
G1 X363.8982 Y276.8984 Z-20.0000 F4000
G1 X363.8982 Y281.8983 Z-20.0000 F4000
G1 X255.9005 Y281.8983 Z-20.0000 F4000
G1 X255.9005 Y276.8984 Z-20.0000 F4000
G1 X253.8985 Y276.8984 Z-20.0000 F4000
G1 X253.8985 Y299.8984 Z-20.0000 F4000
G1 X237.9354 Y299.8984 Z-20.0000 F4000
G1 X237.9354 Y299.8984 Z-10.0000 F9999
G1 X221.9374 Y299.8984 Z-10.0000 F4000
G1 X221.9374 Y299.8984 Z-20.0000 F2500
G1 X98.5931 Y299.8984 Z-20.0000 F4000
G1 X98.5931 Y299.8984 Z-10.0000 F9999
G1 X82.5951 Y299.8984 Z-10.0000 F4000
G1 X82.5951 Y299.8984 Z-20.0000 F2500
G1 X65.9009 Y299.8984 Z-20.0000 F4000
G1 X65.9009 Y276.8984 Z-20.0000 F4000
G1 X63.8988 Y276.8984 Z-20.0000 F4000
G1 X63.8988 Y281.8983 Z-20.0000 F4000
G1 X5.9010 Y281.8983 Z-20.0000 F4000
G1 X5.9010 Y152.8995 Z-20.0000 F4000
G1 X5.9010 Y152.8995 Z10.0000 F9999
G1 X5.9010 Y1375.9735 Z10.0000 F9999
G1 X5.9010 Y1375.9735 Z1.0000 F2500
G1 X5.9010 Y1337.0024 Z-9.5000 F2500
G1 X5.9010 Y1375.9735 Z-20.0000 F2500
G1 X5.9010 Y1246.9748 Z-20.0000 F4000
G1 X63.8988 Y1246.9748 Z-20.0000 F4000
G1 X63.8988 Y1251.9750 Z-20.0000 F4000
G1 X65.9009 Y1251.9750 Z-20.0000 F4000
G1 X65.9009 Y1228.9750 Z-20.0000 F4000
G1 X253.8985 Y1228.9750 Z-20.0000 F4000
G1 X253.8985 Y1251.9750 Z-20.0000 F4000
G1 X255.9005 Y1251.9750 Z-20.0000 F4000
G1 X255.9005 Y1246.9748 Z-20.0000 F4000
G1 X363.8982 Y1246.9748 Z-20.0000 F4000
G1 X363.8982 Y1251.9750 Z-20.0000 F4000
G1 X365.9003 Y1251.9750 Z-20.0000 F4000
G1 X365.9003 Y1228.9750 Z-20.0000 F4000
G1 X553.8979 Y1228.9750 Z-20.0000 F4000
G1 X553.8979 Y1251.9750 Z-20.0000 F4000
G1 X555.8998 Y1251.9750 Z-20.0000 F4000
G1 X555.8998 Y1246.9748 Z-20.0000 F4000
G1 X663.8977 Y1246.9748 Z-20.0000 F4000
G1 X663.8977 Y1251.9750 Z-20.0000 F4000
G1 X665.8996 Y1251.9750 Z-20.0000 F4000
G1 X665.8996 Y1228.9750 Z-20.0000 F4000
G1 X853.8973 Y1228.9750 Z-20.0000 F4000
G1 X853.8973 Y1251.9750 Z-20.0000 F4000
G1 X855.8993 Y1251.9750 Z-20.0000 F4000
G1 X855.8993 Y1246.9748 Z-20.0000 F4000
G1 X888.8972 Y1246.9748 Z-20.0000 F4000
G1 X888.8972 Y1298.9729 Z-20.0000 F4000
G1 X883.8972 Y1298.9729 Z-20.0000 F4000
G1 X883.8972 Y1300.9748 Z-20.0000 F4000
G1 X906.8972 Y1300.9748 Z-20.0000 F4000
G1 X906.8972 Y1338.9728 Z-20.0000 F4000
G1 X854.8993 Y1338.9728 Z-20.0000 F4000
G1 X854.8993 Y1333.9726 Z-20.0000 F4000
G1 X852.8973 Y1333.9726 Z-20.0000 F4000
G1 X852.8973 Y1417.9744 Z-20.0000 F4000
G1 X854.8993 Y1417.9744 Z-20.0000 F4000
G1 X854.8993 Y1412.9745 Z-20.0000 F4000
G1 X888.8972 Y1412.9745 Z-20.0000 F4000
G1 X888.8972 Y1579.9722 Z-20.0000 F4000
G1 X883.8972 Y1579.9722 Z-20.0000 F4000
G1 X883.8972 Y1581.9742 Z-20.0000 F4000
G1 X906.8972 Y1581.9742 Z-20.0000 F4000
G1 X906.8972 Y1769.9718 Z-20.0000 F4000
G1 X883.8972 Y1769.9718 Z-20.0000 F4000
G1 X883.8972 Y1771.9738 Z-20.0000 F4000
G1 X888.8972 Y1771.9738 Z-20.0000 F4000
G1 X888.8972 Y1879.9716 Z-20.0000 F4000
G1 X883.8972 Y1879.9716 Z-20.0000 F4000
G1 X883.8972 Y1881.9736 Z-20.0000 F4000
G1 X906.8972 Y1881.9736 Z-20.0000 F4000
G1 X906.8972 Y2035.9755 Z-20.0000 F4000
G1 X906.8972 Y2035.9755 Z-10.0000 F9999
G1 X906.8972 Y2051.9735 Z-10.0000 F4000
G1 X906.8972 Y2051.9735 Z-20.0000 F2500
G1 X906.8972 Y2069.9712 Z-20.0000 F4000
G1 X883.8972 Y2069.9712 Z-20.0000 F4000
G1 X883.8972 Y2071.9732 Z-20.0000 F4000
G1 X888.8972 Y2071.9732 Z-20.0000 F4000
G1 X888.8972 Y2129.9709 Z-20.0000 F4000
G1 X630.8997 Y2129.9709 Z-20.0000 F4000
G1 X630.8997 Y2071.9732 Z-20.0000 F4000
G1 X635.8997 Y2071.9732 Z-20.0000 F4000
G1 X635.8997 Y2069.9712 Z-20.0000 F4000
G1 X612.8997 Y2069.9712 Z-20.0000 F4000
G1 X612.8997 Y2051.5421 Z-20.0000 F4000
G1 X612.8997 Y2051.5421 Z-10.0000 F9999
G1 X612.8997 Y2035.5441 Z-10.0000 F4000
G1 X612.8997 Y2035.5441 Z-20.0000 F2500
G1 X612.8997 Y1881.9736 Z-20.0000 F4000
G1 X635.8997 Y1881.9736 Z-20.0000 F4000
G1 X635.8997 Y1879.9716 Z-20.0000 F4000
G1 X630.8997 Y1879.9716 Z-20.0000 F4000
G1 X630.8997 Y1771.9738 Z-20.0000 F4000
G1 X635.8997 Y1771.9738 Z-20.0000 F4000
G1 X635.8997 Y1769.9718 Z-20.0000 F4000
G1 X612.8997 Y1769.9718 Z-20.0000 F4000
G1 X612.8997 Y1581.9742 Z-20.0000 F4000
G1 X635.8997 Y1581.9742 Z-20.0000 F4000
G1 X635.8997 Y1579.9722 Z-20.0000 F4000
G1 X630.8997 Y1579.9722 Z-20.0000 F4000
G1 X630.8997 Y1504.9743 Z-20.0000 F4000
G1 X636.8997 Y1504.9723 Z-20.0000 F4000
G1 X555.8998 Y1504.9723 Z-20.0000 F4000
G1 X555.8998 Y1499.9724 Z-20.0000 F4000
G1 X553.8979 Y1499.9724 Z-20.0000 F4000
G1 X553.8979 Y1522.9724 Z-20.0000 F4000
G1 X365.9003 Y1522.9724 Z-20.0000 F4000
G1 X365.9003 Y1499.9724 Z-20.0000 F4000
G1 X363.8982 Y1499.9724 Z-20.0000 F4000
G1 X363.8982 Y1504.9723 Z-20.0000 F4000
G1 X255.9005 Y1504.9723 Z-20.0000 F4000
G1 X255.9005 Y1499.9724 Z-20.0000 F4000
G1 X253.8985 Y1499.9724 Z-20.0000 F4000
G1 X253.8985 Y1522.9724 Z-20.0000 F4000
G1 X65.9009 Y1522.9724 Z-20.0000 F4000
G1 X65.9009 Y1499.9724 Z-20.0000 F4000
G1 X63.8988 Y1499.9724 Z-20.0000 F4000
G1 X63.8988 Y1504.9723 Z-20.0000 F4000
G1 X5.9010 Y1504.9723 Z-20.0000 F4000
G1 X5.9010 Y1375.9735 Z-20.0000 F4000
G1 X5.9010 Y1375.9735 Z10.0000 F9999
G1 X1900.0000 Y2800.0000 Z80.0000 F9999
G1 Z80.0000 F9999
G1 X1900.0000 Y2800.0000 F9999
M5
M30
