(plotsheet 2n3_nested_153 sheets_final v1_0_sheet 156c_S156.2_text_CC8 - HSM Finish 4~8mil)
(Material Size) (X=1220.000, Y=2440.000, Z=21.000)
(LinuxCNC_NoArcs_MM_TC_medium_50um_G1_verbose.con)
G90 G80 G21 G49
G64 P0.050
M6 T1
(Tool Number:1) (7.998 mm dia. slot drill)
G43 H1 G0Z80.0000
M3 S18000
G04 P10
G1 X463.6135 Y124.7519 Z10.0000 F9999
G1 X463.6135 Y124.7519 Z-1.5000 F2500
G1 X465.5585 Y121.7061 Z-1.5000 F5000
G1 X467.9805 Y119.6510 Z-1.5000 F5000
G1 X471.0998 Y118.4033 Z-1.5000 F5000
G1 X475.2282 Y117.9262 Z-1.5000 F5000
G1 X479.7236 Y118.3850 Z-1.5000 F5000
G1 X483.5401 Y120.1281 Z-1.5000 F5000
G1 X486.2190 Y123.1189 Z-1.5000 F5000
G1 X487.3383 Y127.2840 Z-1.5000 F5000
G1 X486.8062 Y131.2840 Z-1.5000 F5000
G1 X485.2649 Y133.9629 Z-1.5000 F5000
G1 X483.2282 Y135.6510 Z-1.5000 F5000
G1 X481.3199 Y136.7519 Z-1.5000 F5000
G1 X472.1273 Y141.4859 Z-1.5000 F5000
G1 X469.7603 Y142.8987 Z-1.5000 F5000
G1 X467.9071 Y144.5501 Z-1.5000 F5000
G1 X466.6594 Y146.7336 Z-1.5000 F5000
G1 X466.1456 Y149.6143 Z-1.5000 F5000
G1 X466.6777 Y152.8987 Z-1.5000 F5000
G1 X468.5126 Y155.9262 Z-1.5000 F5000
G1 X471.6502 Y158.1464 Z-1.5000 F5000
G1 X476.0172 Y159.0272 Z-1.5000 F5000
G1 X480.2741 Y158.3483 Z-1.5000 F5000
G1 X483.1181 Y156.8804 Z-1.5000 F5000
G1 X485.2098 Y154.7336 Z-1.5000 F5000
G1 X483.1181 Y156.8804 Z-1.5000 F5000
G1 X480.2741 Y158.3483 Z-1.5000 F5000
G1 X476.0172 Y159.0272 Z-1.5000 F5000
G1 X471.6502 Y158.1464 Z-1.5000 F5000
G1 X468.5126 Y155.9262 Z-1.5000 F5000
G1 X466.6777 Y152.8987 Z-1.5000 F5000
G1 X466.1456 Y149.6143 Z-1.5000 F5000
G1 X466.6594 Y146.7336 Z-1.5000 F5000
G1 X467.9071 Y144.5501 Z-1.5000 F5000
G1 X469.7603 Y142.8987 Z-1.5000 F5000
G1 X472.1273 Y141.4859 Z-1.5000 F5000
G1 X481.3199 Y136.7519 Z-1.5000 F5000
G1 X483.2282 Y135.6510 Z-1.5000 F5000
G1 X485.2649 Y133.9629 Z-1.5000 F5000
G1 X486.8062 Y131.2840 Z-1.5000 F5000
G1 X487.3383 Y127.2840 Z-1.5000 F5000
G1 X486.2190 Y123.1189 Z-1.5000 F5000
G1 X483.5401 Y120.1281 Z-1.5000 F5000
G1 X479.7236 Y118.3850 Z-1.5000 F5000
G1 X475.2282 Y117.9262 Z-1.5000 F5000
G1 X471.0998 Y118.4033 Z-1.5000 F5000
G1 X467.9805 Y119.6510 Z-1.5000 F5000
G1 X465.5585 Y121.7061 Z-1.5000 F5000
G1 X465.5585 Y121.7061 Z10.0000 F9999
G1 X503.6319 Y159.0272 Z10.0000 F9999
G1 X503.6319 Y159.0272 Z-1.5000 F2500
G1 X510.0539 Y159.0272 Z-1.5000 F5000
G1 X518.6777 Y156.4583 Z-1.5000 F5000
G1 X521.6686 Y148.8620 Z-1.5000 F5000
G1 X518.5860 Y140.9905 Z-1.5000 F5000
G1 X510.3475 Y138.1648 Z-1.5000 F5000
G1 X503.6319 Y138.1648 Z-1.5000 F5000
G1 X510.3475 Y138.1648 Z-1.5000 F5000
G1 X518.5860 Y140.9905 Z-1.5000 F5000
G1 X521.6686 Y148.8620 Z-1.5000 F5000
G1 X518.6777 Y156.4583 Z-1.5000 F5000
G1 X510.0539 Y159.0272 Z-1.5000 F5000
G1 X503.6319 Y159.0272 Z-1.5000 F5000
G1 X503.6319 Y117.9262 Z-1.5000 F5000
G1 X503.6319 Y117.9262 Z10.0000 F9999
G1 X559.2282 Y132.6235 Z10.0000 F9999
G1 X559.2282 Y132.6235 Z-1.5000 F2500
G1 X538.5310 Y132.6235 Z-1.5000 F5000
G1 X559.2282 Y132.6235 Z-1.5000 F5000
G1 X559.2282 Y132.6235 Z10.0000 F9999
G1 X548.9163 Y159.0272 Z10.0000 F9999
G1 X548.9163 Y159.0272 Z-1.5000 F2500
G1 X564.9713 Y117.9262 Z-1.5000 F5000
G1 X548.9163 Y159.0272 Z-1.5000 F5000
G1 X532.8979 Y117.9262 Z-1.5000 F5000
G1 X532.8979 Y117.9262 Z10.0000 F9999
G1 X612.2557 Y123.6143 Z10.0000 F9999
G1 X612.2557 Y123.6143 Z-1.5000 F2500
G1 X605.6319 Y119.4492 Z-1.5000 F5000
G1 X597.6502 Y117.9262 Z-1.5000 F5000
G1 X589.3750 Y119.5593 Z-1.5000 F5000
G1 X582.6043 Y123.9813 Z-1.5000 F5000
G1 X578.0355 Y130.5134 Z-1.5000 F5000
G1 X576.3475 Y138.5134 Z-1.5000 F5000
G1 X578.0355 Y146.4583 Z-1.5000 F5000
G1 X582.6043 Y152.9721 Z-1.5000 F5000
G1 X589.3750 Y157.3941 Z-1.5000 F5000
G1 X597.6502 Y159.0272 Z-1.5000 F5000
G1 X605.4300 Y157.6143 Z-1.5000 F5000
G1 X611.9805 Y153.6694 Z-1.5000 F5000
G1 X605.4300 Y157.6143 Z-1.5000 F5000
G1 X597.6502 Y159.0272 Z-1.5000 F5000
G1 X589.3750 Y157.3941 Z-1.5000 F5000
G1 X582.6043 Y152.9721 Z-1.5000 F5000
G1 X578.0355 Y146.4583 Z-1.5000 F5000
G1 X576.3475 Y138.5134 Z-1.5000 F5000
G1 X578.0355 Y130.5134 Z-1.5000 F5000
G1 X582.6043 Y123.9813 Z-1.5000 F5000
G1 X589.3750 Y119.5593 Z-1.5000 F5000
G1 X597.6502 Y117.9262 Z-1.5000 F5000
G1 X605.6319 Y119.4492 Z-1.5000 F5000
G1 X605.6319 Y119.4492 Z10.0000 F9999
G1 X628.1089 Y117.9262 Z10.0000 F9999
G1 X628.1089 Y117.9262 Z-1.5000 F2500
G1 X628.1089 Y140.7336 Z-1.5000 F5000
G1 X644.5676 Y140.7336 Z-1.5000 F5000
G1 X628.1089 Y140.7336 Z-1.5000 F5000
G1 X628.1089 Y159.0272 Z-1.5000 F5000
G1 X645.8704 Y159.0272 Z-1.5000 F5000
G1 X628.1089 Y159.0272 Z-1.5000 F5000
G1 X628.1089 Y117.9262 Z-1.5000 F5000
G1 X645.8704 Y117.9262 Z-1.5000 F5000
G1 X645.8704 Y117.9262 Z10.0000 F9999
G1 X660.9897 Y117.9262 Z10.0000 F9999
G1 X660.9897 Y117.9262 Z-1.5000 F2500
G1 X660.9897 Y159.0272 Z-1.5000 F5000
G1 X668.1456 Y159.0272 Z-1.5000 F5000
G1 X672.0172 Y158.4217 Z-1.5000 F5000
G1 X675.2282 Y156.6051 Z-1.5000 F5000
G1 X677.4484 Y153.4492 Z-1.5000 F5000
G1 X678.2924 Y148.8070 Z-1.5000 F5000
G1 X677.1365 Y144.1281 Z-1.5000 F5000
G1 X674.3658 Y140.8070 Z-1.5000 F5000
G1 X671.0447 Y138.8437 Z-1.5000 F5000
G1 X668.1456 Y138.1831 Z-1.5000 F5000
G1 X660.9897 Y138.1831 Z-1.5000 F5000
G1 X668.1456 Y138.1831 Z-1.5000 F5000
G1 X671.0447 Y138.8437 Z-1.5000 F5000
G1 X674.3658 Y140.8070 Z-1.5000 F5000
G1 X677.1365 Y144.1281 Z-1.5000 F5000
G1 X678.2924 Y148.8070 Z-1.5000 F5000
G1 X677.4484 Y153.4492 Z-1.5000 F5000
G1 X675.2282 Y156.6051 Z-1.5000 F5000
G1 X672.0172 Y158.4217 Z-1.5000 F5000
G1 X668.1456 Y159.0272 Z-1.5000 F5000
G1 X660.9897 Y159.0272 Z-1.5000 F5000
G1 X660.9897 Y159.0272 Z10.0000 F9999
G1 X678.4025 Y117.9262 Z10.0000 F9999
G1 X678.4025 Y117.9262 Z-1.5000 F2500
G1 X665.1732 Y138.0730 Z-1.5000 F5000
G1 X678.4025 Y117.9262 Z-1.5000 F5000
G1 X678.4025 Y117.9262 Z10.0000 F9999
G1 X734.9713 Y117.9262 Z10.0000 F9999
G1 X734.9713 Y117.9262 Z-1.5000 F2500
G1 X734.9713 Y159.0272 Z-1.5000 F5000
G1 X742.1273 Y159.0272 Z-1.5000 F5000
G1 X745.9988 Y158.4217 Z-1.5000 F5000
G1 X749.2098 Y156.6051 Z-1.5000 F5000
G1 X751.4300 Y153.4492 Z-1.5000 F5000
G1 X752.2741 Y148.8070 Z-1.5000 F5000
G1 X751.1181 Y144.1281 Z-1.5000 F5000
G1 X748.3475 Y140.8070 Z-1.5000 F5000
G1 X745.0264 Y138.8437 Z-1.5000 F5000
G1 X742.1273 Y138.1831 Z-1.5000 F5000
G1 X734.9713 Y138.1831 Z-1.5000 F5000
G1 X742.1273 Y138.1831 Z-1.5000 F5000
G1 X745.0264 Y138.8437 Z-1.5000 F5000
G1 X748.3475 Y140.8070 Z-1.5000 F5000
G1 X751.1181 Y144.1281 Z-1.5000 F5000
G1 X752.2741 Y148.8070 Z-1.5000 F5000
G1 X751.4300 Y153.4492 Z-1.5000 F5000
G1 X749.2098 Y156.6051 Z-1.5000 F5000
G1 X745.9988 Y158.4217 Z-1.5000 F5000
G1 X742.1273 Y159.0272 Z-1.5000 F5000
G1 X734.9713 Y159.0272 Z-1.5000 F5000
G1 X734.9713 Y159.0272 Z10.0000 F9999
G1 X719.4667 Y168.4217 Z10.0000 F9999
G1 X719.4667 Y168.4217 Z-1.5000 F2500
G1 X689.0814 Y115.5776 Z-1.5000 F5000
G1 X719.4667 Y168.4217 Z-1.5000 F5000
G1 X719.4667 Y168.4217 Z10.0000 F9999
G1 X752.3842 Y117.9262 Z10.0000 F9999
G1 X752.3842 Y117.9262 Z-1.5000 F2500
G1 X739.1548 Y138.0730 Z-1.5000 F5000
G1 X752.3842 Y117.9262 Z-1.5000 F5000
G1 X752.3842 Y117.9262 Z10.0000 F9999
G1 X752.3842 Y403.1488 Z10.0000 F9999
G1 X752.3842 Y403.1488 Z-1.5000 F2500
G1 X739.1548 Y423.2956 Z-1.5000 F5000
G1 X752.3842 Y403.1488 Z-1.5000 F5000
G1 X752.3842 Y403.1488 Z10.0000 F9999
G1 X734.9713 Y403.1488 Z10.0000 F9999
G1 X734.9713 Y403.1488 Z-1.5000 F2500
G1 X734.9713 Y444.2497 Z-1.5000 F5000
G1 X742.1273 Y444.2497 Z-1.5000 F5000
G1 X745.9988 Y443.6442 Z-1.5000 F5000
G1 X749.2098 Y441.8277 Z-1.5000 F5000
G1 X751.4300 Y438.6717 Z-1.5000 F5000
G1 X752.2741 Y434.0295 Z-1.5000 F5000
G1 X751.1181 Y429.3506 Z-1.5000 F5000
G1 X748.3475 Y426.0295 Z-1.5000 F5000
G1 X745.0264 Y424.0662 Z-1.5000 F5000
G1 X742.1273 Y423.4057 Z-1.5000 F5000
G1 X734.9713 Y423.4057 Z-1.5000 F5000
G1 X742.1273 Y423.4057 Z-1.5000 F5000
G1 X745.0264 Y424.0662 Z-1.5000 F5000
G1 X748.3475 Y426.0295 Z-1.5000 F5000
G1 X751.1181 Y429.3506 Z-1.5000 F5000
G1 X752.2741 Y434.0295 Z-1.5000 F5000
G1 X751.4300 Y438.6717 Z-1.5000 F5000
G1 X749.2098 Y441.8277 Z-1.5000 F5000
G1 X745.9988 Y443.6442 Z-1.5000 F5000
G1 X742.1273 Y444.2497 Z-1.5000 F5000
G1 X734.9713 Y444.2497 Z-1.5000 F5000
G1 X734.9713 Y444.2497 Z10.0000 F9999
G1 X719.4667 Y453.6442 Z10.0000 F9999
G1 X719.4667 Y453.6442 Z-1.5000 F2500
G1 X689.0814 Y400.8002 Z-1.5000 F5000
G1 X719.4667 Y453.6442 Z-1.5000 F5000
G1 X719.4667 Y453.6442 Z10.0000 F9999
G1 X678.4025 Y403.1488 Z10.0000 F9999
G1 X678.4025 Y403.1488 Z-1.5000 F2500
G1 X665.1732 Y423.2956 Z-1.5000 F5000
G1 X678.4025 Y403.1488 Z-1.5000 F5000
G1 X678.4025 Y403.1488 Z10.0000 F9999
G1 X660.9897 Y403.1488 Z10.0000 F9999
G1 X660.9897 Y403.1488 Z-1.5000 F2500
G1 X660.9897 Y444.2497 Z-1.5000 F5000
G1 X668.1456 Y444.2497 Z-1.5000 F5000
G1 X672.0172 Y443.6442 Z-1.5000 F5000
G1 X675.2282 Y441.8277 Z-1.5000 F5000
G1 X677.4484 Y438.6717 Z-1.5000 F5000
G1 X678.2924 Y434.0295 Z-1.5000 F5000
G1 X677.1365 Y429.3506 Z-1.5000 F5000
G1 X674.3658 Y426.0295 Z-1.5000 F5000
G1 X671.0447 Y424.0662 Z-1.5000 F5000
G1 X668.1456 Y423.4057 Z-1.5000 F5000
G1 X660.9897 Y423.4057 Z-1.5000 F5000
G1 X668.1456 Y423.4057 Z-1.5000 F5000
G1 X671.0447 Y424.0662 Z-1.5000 F5000
G1 X674.3658 Y426.0295 Z-1.5000 F5000
G1 X677.1365 Y429.3506 Z-1.5000 F5000
G1 X678.2924 Y434.0295 Z-1.5000 F5000
G1 X677.4484 Y438.6717 Z-1.5000 F5000
G1 X675.2282 Y441.8277 Z-1.5000 F5000
G1 X672.0172 Y443.6442 Z-1.5000 F5000
G1 X668.1456 Y444.2497 Z-1.5000 F5000
G1 X660.9897 Y444.2497 Z-1.5000 F5000
G1 X660.9897 Y444.2497 Z10.0000 F9999
G1 X628.1089 Y403.1488 Z10.0000 F9999
G1 X628.1089 Y403.1488 Z-1.5000 F2500
G1 X628.1089 Y425.9561 Z-1.5000 F5000
G1 X644.5676 Y425.9561 Z-1.5000 F5000
G1 X628.1089 Y425.9561 Z-1.5000 F5000
G1 X628.1089 Y444.2497 Z-1.5000 F5000
G1 X645.8704 Y444.2497 Z-1.5000 F5000
G1 X628.1089 Y444.2497 Z-1.5000 F5000
G1 X628.1089 Y403.1488 Z-1.5000 F5000
G1 X645.8704 Y403.1488 Z-1.5000 F5000
G1 X645.8704 Y403.1488 Z10.0000 F9999
G1 X612.2557 Y408.8369 Z10.0000 F9999
G1 X612.2557 Y408.8369 Z-1.5000 F2500
G1 X605.6319 Y404.6717 Z-1.5000 F5000
G1 X597.6502 Y403.1488 Z-1.5000 F5000
G1 X589.3750 Y404.7818 Z-1.5000 F5000
G1 X582.6043 Y409.2038 Z-1.5000 F5000
G1 X578.0355 Y415.7360 Z-1.5000 F5000
G1 X576.3475 Y423.7360 Z-1.5000 F5000
G1 X578.0355 Y431.6809 Z-1.5000 F5000
G1 X582.6043 Y438.1947 Z-1.5000 F5000
G1 X589.3750 Y442.6167 Z-1.5000 F5000
G1 X597.6502 Y444.2497 Z-1.5000 F5000
G1 X605.4300 Y442.8369 Z-1.5000 F5000
G1 X611.9805 Y438.8919 Z-1.5000 F5000
G1 X605.4300 Y442.8369 Z-1.5000 F5000
G1 X597.6502 Y444.2497 Z-1.5000 F5000
G1 X589.3750 Y442.6167 Z-1.5000 F5000
G1 X582.6043 Y438.1947 Z-1.5000 F5000
G1 X578.0355 Y431.6809 Z-1.5000 F5000
G1 X576.3475 Y423.7360 Z-1.5000 F5000
G1 X578.0355 Y415.7360 Z-1.5000 F5000
G1 X582.6043 Y409.2038 Z-1.5000 F5000
G1 X589.3750 Y404.7818 Z-1.5000 F5000
G1 X597.6502 Y403.1488 Z-1.5000 F5000
G1 X605.6319 Y404.6717 Z-1.5000 F5000
G1 X605.6319 Y404.6717 Z10.0000 F9999
G1 X559.2282 Y417.8460 Z10.0000 F9999
G1 X559.2282 Y417.8460 Z-1.5000 F2500
G1 X538.5310 Y417.8460 Z-1.5000 F5000
G1 X559.2282 Y417.8460 Z-1.5000 F5000
G1 X559.2282 Y417.8460 Z10.0000 F9999
G1 X548.9163 Y444.2497 Z10.0000 F9999
G1 X548.9163 Y444.2497 Z-1.5000 F2500
G1 X564.9713 Y403.1488 Z-1.5000 F5000
G1 X548.9163 Y444.2497 Z-1.5000 F5000
G1 X532.8979 Y403.1488 Z-1.5000 F5000
G1 X532.8979 Y403.1488 Z10.0000 F9999
G1 X503.6319 Y444.2497 Z10.0000 F9999
G1 X503.6319 Y444.2497 Z-1.5000 F2500
G1 X510.0539 Y444.2497 Z-1.5000 F5000
G1 X518.6777 Y441.6809 Z-1.5000 F5000
G1 X521.6686 Y434.0846 Z-1.5000 F5000
G1 X518.5860 Y426.2130 Z-1.5000 F5000
G1 X510.3475 Y423.3873 Z-1.5000 F5000
G1 X503.6319 Y423.3873 Z-1.5000 F5000
G1 X510.3475 Y423.3873 Z-1.5000 F5000
G1 X518.5860 Y426.2130 Z-1.5000 F5000
G1 X521.6686 Y434.0846 Z-1.5000 F5000
G1 X518.6777 Y441.6809 Z-1.5000 F5000
G1 X510.0539 Y444.2497 Z-1.5000 F5000
G1 X503.6319 Y444.2497 Z-1.5000 F5000
G1 X503.6319 Y403.1488 Z-1.5000 F5000
G1 X503.6319 Y403.1488 Z10.0000 F9999
G1 X463.6135 Y409.9745 Z10.0000 F9999
G1 X463.6135 Y409.9745 Z-1.5000 F2500
G1 X465.5585 Y406.9286 Z-1.5000 F5000
G1 X467.9805 Y404.8736 Z-1.5000 F5000
G1 X471.0998 Y403.6259 Z-1.5000 F5000
G1 X475.2282 Y403.1488 Z-1.5000 F5000
G1 X479.7236 Y403.6075 Z-1.5000 F5000
G1 X483.5401 Y405.3506 Z-1.5000 F5000
G1 X486.2190 Y408.3415 Z-1.5000 F5000
G1 X487.3383 Y412.5066 Z-1.5000 F5000
G1 X486.8062 Y416.5066 Z-1.5000 F5000
G1 X485.2649 Y419.1855 Z-1.5000 F5000
G1 X483.2282 Y420.8736 Z-1.5000 F5000
G1 X481.3199 Y421.9745 Z-1.5000 F5000
G1 X472.1273 Y426.7084 Z-1.5000 F5000
G1 X469.7603 Y428.1213 Z-1.5000 F5000
G1 X467.9071 Y429.7727 Z-1.5000 F5000
G1 X466.6594 Y431.9561 Z-1.5000 F5000
G1 X466.1456 Y434.8369 Z-1.5000 F5000
G1 X466.6777 Y438.1213 Z-1.5000 F5000
G1 X468.5126 Y441.1488 Z-1.5000 F5000
G1 X471.6502 Y443.3690 Z-1.5000 F5000
G1 X476.0172 Y444.2497 Z-1.5000 F5000
G1 X480.2741 Y443.5708 Z-1.5000 F5000
G1 X483.1181 Y442.1029 Z-1.5000 F5000
G1 X485.2098 Y439.9561 Z-1.5000 F5000
G1 X483.1181 Y442.1029 Z-1.5000 F5000
G1 X480.2741 Y443.5708 Z-1.5000 F5000
G1 X476.0172 Y444.2497 Z-1.5000 F5000
G1 X471.6502 Y443.3690 Z-1.5000 F5000
G1 X468.5126 Y441.1488 Z-1.5000 F5000
G1 X466.6777 Y438.1213 Z-1.5000 F5000
G1 X466.1456 Y434.8369 Z-1.5000 F5000
G1 X466.6594 Y431.9561 Z-1.5000 F5000
G1 X467.9071 Y429.7727 Z-1.5000 F5000
G1 X469.7603 Y428.1213 Z-1.5000 F5000
G1 X472.1273 Y426.7084 Z-1.5000 F5000
G1 X481.3199 Y421.9745 Z-1.5000 F5000
G1 X483.2282 Y420.8736 Z-1.5000 F5000
G1 X485.2649 Y419.1855 Z-1.5000 F5000
G1 X486.8062 Y416.5066 Z-1.5000 F5000
G1 X487.3383 Y412.5066 Z-1.5000 F5000
G1 X486.2190 Y408.3415 Z-1.5000 F5000
G1 X483.5401 Y405.3506 Z-1.5000 F5000
G1 X479.7236 Y403.6075 Z-1.5000 F5000
G1 X475.2282 Y403.1488 Z-1.5000 F5000
G1 X471.0998 Y403.6259 Z-1.5000 F5000
G1 X467.9805 Y404.8736 Z-1.5000 F5000
G1 X465.5585 Y406.9286 Z-1.5000 F5000
G1 X465.5585 Y406.9286 Z10.0000 F9999
G1 X463.6135 Y701.6937 Z10.0000 F9999
G1 X463.6135 Y701.6937 Z-1.5000 F2500
G1 X465.5585 Y698.6478 Z-1.5000 F5000
G1 X467.9805 Y696.5927 Z-1.5000 F5000
G1 X471.0998 Y695.3450 Z-1.5000 F5000
G1 X475.2282 Y694.8680 Z-1.5000 F5000
G1 X479.7236 Y695.3267 Z-1.5000 F5000
G1 X483.5401 Y697.0698 Z-1.5000 F5000
G1 X486.2190 Y700.0606 Z-1.5000 F5000
G1 X487.3383 Y704.2258 Z-1.5000 F5000
G1 X486.8062 Y708.2258 Z-1.5000 F5000
G1 X485.2649 Y710.9047 Z-1.5000 F5000
G1 X483.2282 Y712.5927 Z-1.5000 F5000
G1 X481.3199 Y713.6937 Z-1.5000 F5000
G1 X472.1273 Y718.4276 Z-1.5000 F5000
G1 X469.7603 Y719.8404 Z-1.5000 F5000
G1 X467.9071 Y721.4918 Z-1.5000 F5000
G1 X466.6594 Y723.6753 Z-1.5000 F5000
G1 X466.1456 Y726.5560 Z-1.5000 F5000
G1 X466.6777 Y729.8404 Z-1.5000 F5000
G1 X468.5126 Y732.8680 Z-1.5000 F5000
G1 X471.6502 Y735.0881 Z-1.5000 F5000
G1 X476.0172 Y735.9689 Z-1.5000 F5000
G1 X480.2741 Y735.2900 Z-1.5000 F5000
G1 X483.1181 Y733.8221 Z-1.5000 F5000
G1 X485.2098 Y731.6753 Z-1.5000 F5000
G1 X483.1181 Y733.8221 Z-1.5000 F5000
G1 X480.2741 Y735.2900 Z-1.5000 F5000
G1 X476.0172 Y735.9689 Z-1.5000 F5000
G1 X471.6502 Y735.0881 Z-1.5000 F5000
G1 X468.5126 Y732.8680 Z-1.5000 F5000
G1 X466.6777 Y729.8404 Z-1.5000 F5000
G1 X466.1456 Y726.5560 Z-1.5000 F5000
G1 X466.6594 Y723.6753 Z-1.5000 F5000
G1 X467.9071 Y721.4918 Z-1.5000 F5000
G1 X469.7603 Y719.8404 Z-1.5000 F5000
G1 X472.1273 Y718.4276 Z-1.5000 F5000
G1 X481.3199 Y713.6937 Z-1.5000 F5000
G1 X483.2282 Y712.5927 Z-1.5000 F5000
G1 X485.2649 Y710.9047 Z-1.5000 F5000
G1 X486.8062 Y708.2258 Z-1.5000 F5000
G1 X487.3383 Y704.2258 Z-1.5000 F5000
G1 X486.2190 Y700.0606 Z-1.5000 F5000
G1 X483.5401 Y697.0698 Z-1.5000 F5000
G1 X479.7236 Y695.3267 Z-1.5000 F5000
G1 X475.2282 Y694.8680 Z-1.5000 F5000
G1 X471.0998 Y695.3450 Z-1.5000 F5000
G1 X467.9805 Y696.5927 Z-1.5000 F5000
G1 X465.5585 Y698.6478 Z-1.5000 F5000
G1 X465.5585 Y698.6478 Z10.0000 F9999
G1 X503.6319 Y735.9689 Z10.0000 F9999
G1 X503.6319 Y735.9689 Z-1.5000 F2500
G1 X510.0539 Y735.9689 Z-1.5000 F5000
G1 X518.6777 Y733.4001 Z-1.5000 F5000
G1 X521.6686 Y725.8037 Z-1.5000 F5000
G1 X518.5860 Y717.9322 Z-1.5000 F5000
G1 X510.3475 Y715.1065 Z-1.5000 F5000
G1 X503.6319 Y715.1065 Z-1.5000 F5000
G1 X510.3475 Y715.1065 Z-1.5000 F5000
G1 X518.5860 Y717.9322 Z-1.5000 F5000
G1 X521.6686 Y725.8037 Z-1.5000 F5000
G1 X518.6777 Y733.4001 Z-1.5000 F5000
G1 X510.0539 Y735.9689 Z-1.5000 F5000
G1 X503.6319 Y735.9689 Z-1.5000 F5000
G1 X503.6319 Y694.8680 Z-1.5000 F5000
G1 X503.6319 Y694.8680 Z10.0000 F9999
G1 X559.2282 Y709.5652 Z10.0000 F9999
G1 X559.2282 Y709.5652 Z-1.5000 F2500
G1 X538.5310 Y709.5652 Z-1.5000 F5000
G1 X559.2282 Y709.5652 Z-1.5000 F5000
G1 X559.2282 Y709.5652 Z10.0000 F9999
G1 X548.9163 Y735.9689 Z10.0000 F9999
G1 X548.9163 Y735.9689 Z-1.5000 F2500
G1 X564.9713 Y694.8680 Z-1.5000 F5000
G1 X548.9163 Y735.9689 Z-1.5000 F5000
G1 X532.8979 Y694.8680 Z-1.5000 F5000
G1 X532.8979 Y694.8680 Z10.0000 F9999
G1 X612.2557 Y700.5560 Z10.0000 F9999
G1 X612.2557 Y700.5560 Z-1.5000 F2500
G1 X605.6319 Y696.3909 Z-1.5000 F5000
G1 X597.6502 Y694.8680 Z-1.5000 F5000
G1 X589.3750 Y696.5010 Z-1.5000 F5000
G1 X582.6043 Y700.9230 Z-1.5000 F5000
G1 X578.0355 Y707.4551 Z-1.5000 F5000
G1 X576.3475 Y715.4551 Z-1.5000 F5000
G1 X578.0355 Y723.4001 Z-1.5000 F5000
G1 X582.6043 Y729.9138 Z-1.5000 F5000
G1 X589.3750 Y734.3359 Z-1.5000 F5000
G1 X597.6502 Y735.9689 Z-1.5000 F5000
G1 X605.4300 Y734.5560 Z-1.5000 F5000
G1 X611.9805 Y730.6111 Z-1.5000 F5000
G1 X605.4300 Y734.5560 Z-1.5000 F5000
G1 X597.6502 Y735.9689 Z-1.5000 F5000
G1 X589.3750 Y734.3359 Z-1.5000 F5000
G1 X582.6043 Y729.9138 Z-1.5000 F5000
G1 X578.0355 Y723.4001 Z-1.5000 F5000
G1 X576.3475 Y715.4551 Z-1.5000 F5000
G1 X578.0355 Y707.4551 Z-1.5000 F5000
G1 X582.6043 Y700.9230 Z-1.5000 F5000
G1 X589.3750 Y696.5010 Z-1.5000 F5000
G1 X597.6502 Y694.8680 Z-1.5000 F5000
G1 X605.6319 Y696.3909 Z-1.5000 F5000
G1 X605.6319 Y696.3909 Z10.0000 F9999
G1 X628.1089 Y694.8680 Z10.0000 F9999
G1 X628.1089 Y694.8680 Z-1.5000 F2500
G1 X628.1089 Y717.6753 Z-1.5000 F5000
G1 X644.5676 Y717.6753 Z-1.5000 F5000
G1 X628.1089 Y717.6753 Z-1.5000 F5000
G1 X628.1089 Y735.9689 Z-1.5000 F5000
G1 X645.8704 Y735.9689 Z-1.5000 F5000
G1 X628.1089 Y735.9689 Z-1.5000 F5000
G1 X628.1089 Y694.8680 Z-1.5000 F5000
G1 X645.8704 Y694.8680 Z-1.5000 F5000
G1 X645.8704 Y694.8680 Z10.0000 F9999
G1 X660.9897 Y694.8680 Z10.0000 F9999
G1 X660.9897 Y694.8680 Z-1.5000 F2500
G1 X660.9897 Y735.9689 Z-1.5000 F5000
G1 X668.1456 Y735.9689 Z-1.5000 F5000
G1 X672.0172 Y735.3634 Z-1.5000 F5000
G1 X675.2282 Y733.5469 Z-1.5000 F5000
G1 X677.4484 Y730.3909 Z-1.5000 F5000
G1 X678.2924 Y725.7487 Z-1.5000 F5000
G1 X677.1365 Y721.0698 Z-1.5000 F5000
G1 X674.3658 Y717.7487 Z-1.5000 F5000
G1 X671.0447 Y715.7854 Z-1.5000 F5000
G1 X668.1456 Y715.1248 Z-1.5000 F5000
G1 X660.9897 Y715.1248 Z-1.5000 F5000
G1 X668.1456 Y715.1248 Z-1.5000 F5000
G1 X671.0447 Y715.7854 Z-1.5000 F5000
G1 X674.3658 Y717.7487 Z-1.5000 F5000
G1 X677.1365 Y721.0698 Z-1.5000 F5000
G1 X678.2924 Y725.7487 Z-1.5000 F5000
G1 X677.4484 Y730.3909 Z-1.5000 F5000
G1 X675.2282 Y733.5469 Z-1.5000 F5000
G1 X672.0172 Y735.3634 Z-1.5000 F5000
G1 X668.1456 Y735.9689 Z-1.5000 F5000
G1 X660.9897 Y735.9689 Z-1.5000 F5000
G1 X660.9897 Y735.9689 Z10.0000 F9999
G1 X678.4025 Y694.8680 Z10.0000 F9999
G1 X678.4025 Y694.8680 Z-1.5000 F2500
G1 X665.1732 Y715.0148 Z-1.5000 F5000
G1 X678.4025 Y694.8680 Z-1.5000 F5000
G1 X678.4025 Y694.8680 Z10.0000 F9999
G1 X734.9713 Y694.8680 Z10.0000 F9999
G1 X734.9713 Y694.8680 Z-1.5000 F2500
G1 X734.9713 Y735.9689 Z-1.5000 F5000
G1 X742.1273 Y735.9689 Z-1.5000 F5000
G1 X745.9988 Y735.3634 Z-1.5000 F5000
G1 X749.2098 Y733.5469 Z-1.5000 F5000
G1 X751.4300 Y730.3909 Z-1.5000 F5000
G1 X752.2741 Y725.7487 Z-1.5000 F5000
G1 X751.1181 Y721.0698 Z-1.5000 F5000
G1 X748.3475 Y717.7487 Z-1.5000 F5000
G1 X745.0264 Y715.7854 Z-1.5000 F5000
G1 X742.1273 Y715.1248 Z-1.5000 F5000
G1 X734.9713 Y715.1248 Z-1.5000 F5000
G1 X742.1273 Y715.1248 Z-1.5000 F5000
G1 X745.0264 Y715.7854 Z-1.5000 F5000
G1 X748.3475 Y717.7487 Z-1.5000 F5000
G1 X751.1181 Y721.0698 Z-1.5000 F5000
G1 X752.2741 Y725.7487 Z-1.5000 F5000
G1 X751.4300 Y730.3909 Z-1.5000 F5000
G1 X749.2098 Y733.5469 Z-1.5000 F5000
G1 X745.9988 Y735.3634 Z-1.5000 F5000
G1 X742.1273 Y735.9689 Z-1.5000 F5000
G1 X734.9713 Y735.9689 Z-1.5000 F5000
G1 X734.9713 Y735.9689 Z10.0000 F9999
G1 X719.4667 Y745.3634 Z10.0000 F9999
G1 X719.4667 Y745.3634 Z-1.5000 F2500
G1 X689.0814 Y692.5193 Z-1.5000 F5000
G1 X719.4667 Y745.3634 Z-1.5000 F5000
G1 X719.4667 Y745.3634 Z10.0000 F9999
G1 X752.3842 Y694.8680 Z10.0000 F9999
G1 X752.3842 Y694.8680 Z-1.5000 F2500
G1 X739.1548 Y715.0148 Z-1.5000 F5000
G1 X752.3842 Y694.8680 Z-1.5000 F5000
G1 X752.3842 Y694.8680 Z10.0000 F9999
G1 X752.3842 Y981.0050 Z10.0000 F9999
G1 X752.3842 Y981.0050 Z-1.5000 F2500
G1 X739.1548 Y1001.1518 Z-1.5000 F5000
G1 X752.3842 Y981.0050 Z-1.5000 F5000
G1 X752.3842 Y981.0050 Z10.0000 F9999
G1 X734.9713 Y981.0050 Z10.0000 F9999
G1 X734.9713 Y981.0050 Z-1.5000 F2500
G1 X734.9713 Y1022.1059 Z-1.5000 F5000
G1 X742.1273 Y1022.1059 Z-1.5000 F5000
G1 X745.9988 Y1021.5004 Z-1.5000 F5000
G1 X749.2098 Y1019.6839 Z-1.5000 F5000
G1 X751.4300 Y1016.5279 Z-1.5000 F5000
G1 X752.2741 Y1011.8857 Z-1.5000 F5000
G1 X751.1181 Y1007.2068 Z-1.5000 F5000
G1 X748.3475 Y1003.8857 Z-1.5000 F5000
G1 X745.0264 Y1001.9224 Z-1.5000 F5000
G1 X742.1273 Y1001.2619 Z-1.5000 F5000
G1 X734.9713 Y1001.2619 Z-1.5000 F5000
G1 X742.1273 Y1001.2619 Z-1.5000 F5000
G1 X745.0264 Y1001.9224 Z-1.5000 F5000
G1 X748.3475 Y1003.8857 Z-1.5000 F5000
G1 X751.1181 Y1007.2068 Z-1.5000 F5000
G1 X752.2741 Y1011.8857 Z-1.5000 F5000
G1 X751.4300 Y1016.5279 Z-1.5000 F5000
G1 X749.2098 Y1019.6839 Z-1.5000 F5000
G1 X745.9988 Y1021.5004 Z-1.5000 F5000
G1 X742.1273 Y1022.1059 Z-1.5000 F5000
G1 X734.9713 Y1022.1059 Z-1.5000 F5000
G1 X734.9713 Y1022.1059 Z10.0000 F9999
G1 X719.4667 Y1031.5004 Z10.0000 F9999
G1 X719.4667 Y1031.5004 Z-1.5000 F2500
G1 X689.0814 Y978.6564 Z-1.5000 F5000
G1 X719.4667 Y1031.5004 Z-1.5000 F5000
G1 X719.4667 Y1031.5004 Z10.0000 F9999
G1 X678.4025 Y981.0050 Z10.0000 F9999
G1 X678.4025 Y981.0050 Z-1.5000 F2500
G1 X665.1732 Y1001.1518 Z-1.5000 F5000
G1 X678.4025 Y981.0050 Z-1.5000 F5000
G1 X678.4025 Y981.0050 Z10.0000 F9999
G1 X660.9897 Y981.0050 Z10.0000 F9999
G1 X660.9897 Y981.0050 Z-1.5000 F2500
G1 X660.9897 Y1022.1059 Z-1.5000 F5000
G1 X668.1456 Y1022.1059 Z-1.5000 F5000
G1 X672.0172 Y1021.5004 Z-1.5000 F5000
G1 X675.2282 Y1019.6839 Z-1.5000 F5000
G1 X677.4484 Y1016.5279 Z-1.5000 F5000
G1 X678.2924 Y1011.8857 Z-1.5000 F5000
G1 X677.1365 Y1007.2068 Z-1.5000 F5000
G1 X674.3658 Y1003.8857 Z-1.5000 F5000
G1 X671.0447 Y1001.9224 Z-1.5000 F5000
G1 X668.1456 Y1001.2619 Z-1.5000 F5000
G1 X660.9897 Y1001.2619 Z-1.5000 F5000
G1 X668.1456 Y1001.2619 Z-1.5000 F5000
G1 X671.0447 Y1001.9224 Z-1.5000 F5000
G1 X674.3658 Y1003.8857 Z-1.5000 F5000
G1 X677.1365 Y1007.2068 Z-1.5000 F5000
G1 X678.2924 Y1011.8857 Z-1.5000 F5000
G1 X677.4484 Y1016.5279 Z-1.5000 F5000
G1 X675.2282 Y1019.6839 Z-1.5000 F5000
G1 X672.0172 Y1021.5004 Z-1.5000 F5000
G1 X668.1456 Y1022.1059 Z-1.5000 F5000
G1 X660.9897 Y1022.1059 Z-1.5000 F5000
G1 X660.9897 Y1022.1059 Z10.0000 F9999
G1 X628.1089 Y981.0050 Z10.0000 F9999
G1 X628.1089 Y981.0050 Z-1.5000 F2500
G1 X628.1089 Y1003.8123 Z-1.5000 F5000
G1 X644.5676 Y1003.8123 Z-1.5000 F5000
G1 X628.1089 Y1003.8123 Z-1.5000 F5000
G1 X628.1089 Y1022.1059 Z-1.5000 F5000
G1 X645.8704 Y1022.1059 Z-1.5000 F5000
G1 X628.1089 Y1022.1059 Z-1.5000 F5000
G1 X628.1089 Y981.0050 Z-1.5000 F5000
G1 X645.8704 Y981.0050 Z-1.5000 F5000
G1 X645.8704 Y981.0050 Z10.0000 F9999
G1 X612.2557 Y986.6931 Z10.0000 F9999
G1 X612.2557 Y986.6931 Z-1.5000 F2500
G1 X605.6319 Y982.5279 Z-1.5000 F5000
G1 X597.6502 Y981.0050 Z-1.5000 F5000
G1 X589.3750 Y982.6380 Z-1.5000 F5000
G1 X582.6043 Y987.0600 Z-1.5000 F5000
G1 X578.0355 Y993.5922 Z-1.5000 F5000
G1 X576.3475 Y1001.5922 Z-1.5000 F5000
G1 X578.0355 Y1009.5371 Z-1.5000 F5000
G1 X582.6043 Y1016.0509 Z-1.5000 F5000
G1 X589.3750 Y1020.4729 Z-1.5000 F5000
G1 X597.6502 Y1022.1059 Z-1.5000 F5000
G1 X605.4300 Y1020.6931 Z-1.5000 F5000
G1 X611.9805 Y1016.7481 Z-1.5000 F5000
G1 X605.4300 Y1020.6931 Z-1.5000 F5000
G1 X597.6502 Y1022.1059 Z-1.5000 F5000
G1 X589.3750 Y1020.4729 Z-1.5000 F5000
G1 X582.6043 Y1016.0509 Z-1.5000 F5000
G1 X578.0355 Y1009.5371 Z-1.5000 F5000
G1 X576.3475 Y1001.5922 Z-1.5000 F5000
G1 X578.0355 Y993.5922 Z-1.5000 F5000
G1 X582.6043 Y987.0600 Z-1.5000 F5000
G1 X589.3750 Y982.6380 Z-1.5000 F5000
G1 X597.6502 Y981.0050 Z-1.5000 F5000
G1 X605.6319 Y982.5279 Z-1.5000 F5000
G1 X605.6319 Y982.5279 Z10.0000 F9999
G1 X559.2282 Y995.7022 Z10.0000 F9999
G1 X559.2282 Y995.7022 Z-1.5000 F2500
G1 X538.5310 Y995.7022 Z-1.5000 F5000
G1 X559.2282 Y995.7022 Z-1.5000 F5000
G1 X559.2282 Y995.7022 Z10.0000 F9999
G1 X548.9163 Y1022.1059 Z10.0000 F9999
G1 X548.9163 Y1022.1059 Z-1.5000 F2500
G1 X564.9713 Y981.0050 Z-1.5000 F5000
G1 X548.9163 Y1022.1059 Z-1.5000 F5000
G1 X532.8979 Y981.0050 Z-1.5000 F5000
G1 X532.8979 Y981.0050 Z10.0000 F9999
G1 X503.6319 Y1022.1059 Z10.0000 F9999
G1 X503.6319 Y1022.1059 Z-1.5000 F2500
G1 X510.0539 Y1022.1059 Z-1.5000 F5000
G1 X518.6777 Y1019.5371 Z-1.5000 F5000
G1 X521.6686 Y1011.9408 Z-1.5000 F5000
G1 X518.5860 Y1004.0692 Z-1.5000 F5000
G1 X510.3475 Y1001.2435 Z-1.5000 F5000
G1 X503.6319 Y1001.2435 Z-1.5000 F5000
G1 X510.3475 Y1001.2435 Z-1.5000 F5000
G1 X518.5860 Y1004.0692 Z-1.5000 F5000
G1 X521.6686 Y1011.9408 Z-1.5000 F5000
G1 X518.6777 Y1019.5371 Z-1.5000 F5000
G1 X510.0539 Y1022.1059 Z-1.5000 F5000
G1 X503.6319 Y1022.1059 Z-1.5000 F5000
G1 X503.6319 Y981.0050 Z-1.5000 F5000
G1 X503.6319 Y981.0050 Z10.0000 F9999
G1 X463.6135 Y987.8307 Z10.0000 F9999
G1 X463.6135 Y987.8307 Z-1.5000 F2500
G1 X465.5585 Y984.7848 Z-1.5000 F5000
G1 X467.9805 Y982.7298 Z-1.5000 F5000
G1 X471.0998 Y981.4821 Z-1.5000 F5000
G1 X475.2282 Y981.0050 Z-1.5000 F5000
G1 X479.7236 Y981.4637 Z-1.5000 F5000
G1 X483.5401 Y983.2068 Z-1.5000 F5000
G1 X486.2190 Y986.1977 Z-1.5000 F5000
G1 X487.3383 Y990.3628 Z-1.5000 F5000
G1 X486.8062 Y994.3628 Z-1.5000 F5000
G1 X485.2649 Y997.0417 Z-1.5000 F5000
G1 X483.2282 Y998.7298 Z-1.5000 F5000
G1 X481.3199 Y999.8307 Z-1.5000 F5000
G1 X472.1273 Y1004.5646 Z-1.5000 F5000
G1 X469.7603 Y1005.9775 Z-1.5000 F5000
G1 X467.9071 Y1007.6288 Z-1.5000 F5000
G1 X466.6594 Y1009.8123 Z-1.5000 F5000
G1 X466.1456 Y1012.6931 Z-1.5000 F5000
G1 X466.6777 Y1015.9775 Z-1.5000 F5000
G1 X468.5126 Y1019.0050 Z-1.5000 F5000
G1 X471.6502 Y1021.2252 Z-1.5000 F5000
G1 X476.0172 Y1022.1059 Z-1.5000 F5000
G1 X480.2741 Y1021.4270 Z-1.5000 F5000
G1 X483.1181 Y1019.9591 Z-1.5000 F5000
G1 X485.2098 Y1017.8123 Z-1.5000 F5000
G1 X483.1181 Y1019.9591 Z-1.5000 F5000
G1 X480.2741 Y1021.4270 Z-1.5000 F5000
G1 X476.0172 Y1022.1059 Z-1.5000 F5000
G1 X471.6502 Y1021.2252 Z-1.5000 F5000
G1 X468.5126 Y1019.0050 Z-1.5000 F5000
G1 X466.6777 Y1015.9775 Z-1.5000 F5000
G1 X466.1456 Y1012.6931 Z-1.5000 F5000
G1 X466.6594 Y1009.8123 Z-1.5000 F5000
G1 X467.9071 Y1007.6288 Z-1.5000 F5000
G1 X469.7603 Y1005.9775 Z-1.5000 F5000
G1 X472.1273 Y1004.5646 Z-1.5000 F5000
G1 X481.3199 Y999.8307 Z-1.5000 F5000
G1 X483.2282 Y998.7298 Z-1.5000 F5000
G1 X485.2649 Y997.0417 Z-1.5000 F5000
G1 X486.8062 Y994.3628 Z-1.5000 F5000
G1 X487.3383 Y990.3628 Z-1.5000 F5000
G1 X486.2190 Y986.1977 Z-1.5000 F5000
G1 X483.5401 Y983.2068 Z-1.5000 F5000
G1 X479.7236 Y981.4637 Z-1.5000 F5000
G1 X475.2282 Y981.0050 Z-1.5000 F5000
G1 X471.0998 Y981.4821 Z-1.5000 F5000
G1 X467.9805 Y982.7298 Z-1.5000 F5000
G1 X465.5585 Y984.7848 Z-1.5000 F5000
G1 X465.5585 Y984.7848 Z10.0000 F9999
G1 X463.6135 Y1279.8114 Z10.0000 F9999
G1 X463.6135 Y1279.8114 Z-1.5000 F2500
G1 X465.5585 Y1276.7655 Z-1.5000 F5000
G1 X467.9805 Y1274.7105 Z-1.5000 F5000
G1 X471.0998 Y1273.4628 Z-1.5000 F5000
G1 X475.2282 Y1272.9857 Z-1.5000 F5000
G1 X479.7236 Y1273.4444 Z-1.5000 F5000
G1 X483.5401 Y1275.1875 Z-1.5000 F5000
G1 X486.2190 Y1278.1783 Z-1.5000 F5000
G1 X487.3383 Y1282.3435 Z-1.5000 F5000
G1 X486.8062 Y1286.3435 Z-1.5000 F5000
G1 X485.2649 Y1289.0224 Z-1.5000 F5000
G1 X483.2282 Y1290.7105 Z-1.5000 F5000
G1 X481.3199 Y1291.8114 Z-1.5000 F5000
G1 X472.1273 Y1296.5453 Z-1.5000 F5000
G1 X469.7603 Y1297.9582 Z-1.5000 F5000
G1 X467.9071 Y1299.6095 Z-1.5000 F5000
G1 X466.6594 Y1301.7930 Z-1.5000 F5000
G1 X466.1456 Y1304.6738 Z-1.5000 F5000
G1 X466.6777 Y1307.9582 Z-1.5000 F5000
G1 X468.5126 Y1310.9857 Z-1.5000 F5000
G1 X471.6502 Y1313.2059 Z-1.5000 F5000
G1 X476.0172 Y1314.0866 Z-1.5000 F5000
G1 X480.2741 Y1313.4077 Z-1.5000 F5000
G1 X483.1181 Y1311.9398 Z-1.5000 F5000
G1 X485.2098 Y1309.7930 Z-1.5000 F5000
G1 X483.1181 Y1311.9398 Z-1.5000 F5000
G1 X480.2741 Y1313.4077 Z-1.5000 F5000
G1 X476.0172 Y1314.0866 Z-1.5000 F5000
G1 X471.6502 Y1313.2059 Z-1.5000 F5000
G1 X468.5126 Y1310.9857 Z-1.5000 F5000
G1 X466.6777 Y1307.9582 Z-1.5000 F5000
G1 X466.1456 Y1304.6738 Z-1.5000 F5000
G1 X466.6594 Y1301.7930 Z-1.5000 F5000
G1 X467.9071 Y1299.6095 Z-1.5000 F5000
G1 X469.7603 Y1297.9582 Z-1.5000 F5000
G1 X472.1273 Y1296.5453 Z-1.5000 F5000
G1 X481.3199 Y1291.8114 Z-1.5000 F5000
G1 X483.2282 Y1290.7105 Z-1.5000 F5000
G1 X485.2649 Y1289.0224 Z-1.5000 F5000
G1 X486.8062 Y1286.3435 Z-1.5000 F5000
G1 X487.3383 Y1282.3435 Z-1.5000 F5000
G1 X486.2190 Y1278.1783 Z-1.5000 F5000
G1 X483.5401 Y1275.1875 Z-1.5000 F5000
G1 X479.7236 Y1273.4444 Z-1.5000 F5000
G1 X475.2282 Y1272.9857 Z-1.5000 F5000
G1 X471.0998 Y1273.4628 Z-1.5000 F5000
G1 X467.9805 Y1274.7105 Z-1.5000 F5000
G1 X465.5585 Y1276.7655 Z-1.5000 F5000
G1 X465.5585 Y1276.7655 Z10.0000 F9999
G1 X503.6319 Y1314.0866 Z10.0000 F9999
G1 X503.6319 Y1314.0866 Z-1.5000 F2500
G1 X510.0539 Y1314.0866 Z-1.5000 F5000
G1 X518.6777 Y1311.5178 Z-1.5000 F5000
G1 X521.6686 Y1303.9215 Z-1.5000 F5000
G1 X518.5860 Y1296.0499 Z-1.5000 F5000
G1 X510.3475 Y1293.2242 Z-1.5000 F5000
G1 X503.6319 Y1293.2242 Z-1.5000 F5000
G1 X510.3475 Y1293.2242 Z-1.5000 F5000
G1 X518.5860 Y1296.0499 Z-1.5000 F5000
G1 X521.6686 Y1303.9215 Z-1.5000 F5000
G1 X518.6777 Y1311.5178 Z-1.5000 F5000
G1 X510.0539 Y1314.0866 Z-1.5000 F5000
G1 X503.6319 Y1314.0866 Z-1.5000 F5000
G1 X503.6319 Y1272.9857 Z-1.5000 F5000
G1 X503.6319 Y1272.9857 Z10.0000 F9999
G1 X559.2282 Y1287.6829 Z10.0000 F9999
G1 X559.2282 Y1287.6829 Z-1.5000 F2500
G1 X538.5310 Y1287.6829 Z-1.5000 F5000
G1 X559.2282 Y1287.6829 Z-1.5000 F5000
G1 X559.2282 Y1287.6829 Z10.0000 F9999
G1 X548.9163 Y1314.0866 Z10.0000 F9999
G1 X548.9163 Y1314.0866 Z-1.5000 F2500
G1 X564.9713 Y1272.9857 Z-1.5000 F5000
G1 X548.9163 Y1314.0866 Z-1.5000 F5000
G1 X532.8979 Y1272.9857 Z-1.5000 F5000
G1 X532.8979 Y1272.9857 Z10.0000 F9999
G1 X612.2557 Y1278.6738 Z10.0000 F9999
G1 X612.2557 Y1278.6738 Z-1.5000 F2500
G1 X605.6319 Y1274.5086 Z-1.5000 F5000
G1 X597.6502 Y1272.9857 Z-1.5000 F5000
G1 X589.3750 Y1274.6187 Z-1.5000 F5000
G1 X582.6043 Y1279.0407 Z-1.5000 F5000
G1 X578.0355 Y1285.5728 Z-1.5000 F5000
G1 X576.3475 Y1293.5728 Z-1.5000 F5000
G1 X578.0355 Y1301.5178 Z-1.5000 F5000
G1 X582.6043 Y1308.0316 Z-1.5000 F5000
G1 X589.3750 Y1312.4536 Z-1.5000 F5000
G1 X597.6502 Y1314.0866 Z-1.5000 F5000
G1 X605.4300 Y1312.6738 Z-1.5000 F5000
G1 X611.9805 Y1308.7288 Z-1.5000 F5000
G1 X605.4300 Y1312.6738 Z-1.5000 F5000
G1 X597.6502 Y1314.0866 Z-1.5000 F5000
G1 X589.3750 Y1312.4536 Z-1.5000 F5000
G1 X582.6043 Y1308.0316 Z-1.5000 F5000
G1 X578.0355 Y1301.5178 Z-1.5000 F5000
G1 X576.3475 Y1293.5728 Z-1.5000 F5000
G1 X578.0355 Y1285.5728 Z-1.5000 F5000
G1 X582.6043 Y1279.0407 Z-1.5000 F5000
G1 X589.3750 Y1274.6187 Z-1.5000 F5000
G1 X597.6502 Y1272.9857 Z-1.5000 F5000
G1 X605.6319 Y1274.5086 Z-1.5000 F5000
G1 X605.6319 Y1274.5086 Z10.0000 F9999
G1 X628.1089 Y1272.9857 Z10.0000 F9999
G1 X628.1089 Y1272.9857 Z-1.5000 F2500
G1 X628.1089 Y1295.7930 Z-1.5000 F5000
G1 X644.5676 Y1295.7930 Z-1.5000 F5000
G1 X628.1089 Y1295.7930 Z-1.5000 F5000
G1 X628.1089 Y1314.0866 Z-1.5000 F5000
G1 X645.8704 Y1314.0866 Z-1.5000 F5000
G1 X628.1089 Y1314.0866 Z-1.5000 F5000
G1 X628.1089 Y1272.9857 Z-1.5000 F5000
G1 X645.8704 Y1272.9857 Z-1.5000 F5000
G1 X645.8704 Y1272.9857 Z10.0000 F9999
G1 X660.9897 Y1272.9857 Z10.0000 F9999
G1 X660.9897 Y1272.9857 Z-1.5000 F2500
G1 X660.9897 Y1314.0866 Z-1.5000 F5000
G1 X668.1456 Y1314.0866 Z-1.5000 F5000
G1 X672.0172 Y1313.4811 Z-1.5000 F5000
G1 X675.2282 Y1311.6646 Z-1.5000 F5000
G1 X677.4484 Y1308.5086 Z-1.5000 F5000
G1 X678.2924 Y1303.8664 Z-1.5000 F5000
G1 X677.1365 Y1299.1875 Z-1.5000 F5000
G1 X674.3658 Y1295.8664 Z-1.5000 F5000
G1 X671.0447 Y1293.9031 Z-1.5000 F5000
G1 X668.1456 Y1293.2426 Z-1.5000 F5000
G1 X660.9897 Y1293.2426 Z-1.5000 F5000
G1 X668.1456 Y1293.2426 Z-1.5000 F5000
G1 X671.0447 Y1293.9031 Z-1.5000 F5000
G1 X674.3658 Y1295.8664 Z-1.5000 F5000
G1 X677.1365 Y1299.1875 Z-1.5000 F5000
G1 X678.2924 Y1303.8664 Z-1.5000 F5000
G1 X677.4484 Y1308.5086 Z-1.5000 F5000
G1 X675.2282 Y1311.6646 Z-1.5000 F5000
G1 X672.0172 Y1313.4811 Z-1.5000 F5000
G1 X668.1456 Y1314.0866 Z-1.5000 F5000
G1 X660.9897 Y1314.0866 Z-1.5000 F5000
G1 X660.9897 Y1314.0866 Z10.0000 F9999
G1 X678.4025 Y1272.9857 Z10.0000 F9999
G1 X678.4025 Y1272.9857 Z-1.5000 F2500
G1 X665.1732 Y1293.1325 Z-1.5000 F5000
G1 X678.4025 Y1272.9857 Z-1.5000 F5000
G1 X678.4025 Y1272.9857 Z10.0000 F9999
G1 X734.9713 Y1272.9857 Z10.0000 F9999
G1 X734.9713 Y1272.9857 Z-1.5000 F2500
G1 X734.9713 Y1314.0866 Z-1.5000 F5000
G1 X742.1273 Y1314.0866 Z-1.5000 F5000
G1 X745.9988 Y1313.4811 Z-1.5000 F5000
G1 X749.2098 Y1311.6646 Z-1.5000 F5000
G1 X751.4300 Y1308.5086 Z-1.5000 F5000
G1 X752.2741 Y1303.8664 Z-1.5000 F5000
G1 X751.1181 Y1299.1875 Z-1.5000 F5000
G1 X748.3475 Y1295.8664 Z-1.5000 F5000
G1 X745.0264 Y1293.9031 Z-1.5000 F5000
G1 X742.1273 Y1293.2426 Z-1.5000 F5000
G1 X734.9713 Y1293.2426 Z-1.5000 F5000
G1 X742.1273 Y1293.2426 Z-1.5000 F5000
G1 X745.0264 Y1293.9031 Z-1.5000 F5000
G1 X748.3475 Y1295.8664 Z-1.5000 F5000
G1 X751.1181 Y1299.1875 Z-1.5000 F5000
G1 X752.2741 Y1303.8664 Z-1.5000 F5000
G1 X751.4300 Y1308.5086 Z-1.5000 F5000
G1 X749.2098 Y1311.6646 Z-1.5000 F5000
G1 X745.9988 Y1313.4811 Z-1.5000 F5000
G1 X742.1273 Y1314.0866 Z-1.5000 F5000
G1 X734.9713 Y1314.0866 Z-1.5000 F5000
G1 X734.9713 Y1314.0866 Z10.0000 F9999
G1 X719.4667 Y1323.4811 Z10.0000 F9999
G1 X719.4667 Y1323.4811 Z-1.5000 F2500
G1 X689.0814 Y1270.6371 Z-1.5000 F5000
G1 X719.4667 Y1323.4811 Z-1.5000 F5000
G1 X719.4667 Y1323.4811 Z10.0000 F9999
G1 X752.3842 Y1272.9857 Z10.0000 F9999
G1 X752.3842 Y1272.9857 Z-1.5000 F2500
G1 X739.1548 Y1293.1325 Z-1.5000 F5000
G1 X752.3842 Y1272.9857 Z-1.5000 F5000
G1 X752.3842 Y1272.9857 Z10.0000 F9999
G1 X679.5493 Y1681.1540 Z10.0000 F9999
G1 X679.5493 Y1681.1540 Z-1.5000 F2500
G1 X666.3199 Y1701.3008 Z-1.5000 F5000
G1 X679.5493 Y1681.1540 Z-1.5000 F5000
G1 X679.5493 Y1681.1540 Z10.0000 F9999
G1 X662.1365 Y1681.1540 Z10.0000 F9999
G1 X662.1365 Y1681.1540 Z-1.5000 F2500
G1 X662.1365 Y1722.2549 Z-1.5000 F5000
G1 X669.2924 Y1722.2549 Z-1.5000 F5000
G1 X673.1640 Y1721.6494 Z-1.5000 F5000
G1 X676.3750 Y1719.8329 Z-1.5000 F5000
G1 X678.5952 Y1716.6769 Z-1.5000 F5000
G1 X679.4392 Y1712.0347 Z-1.5000 F5000
G1 X678.2832 Y1707.3558 Z-1.5000 F5000
G1 X675.5126 Y1704.0347 Z-1.5000 F5000
G1 X672.1915 Y1702.0714 Z-1.5000 F5000
G1 X669.2924 Y1701.4109 Z-1.5000 F5000
G1 X662.1365 Y1701.4109 Z-1.5000 F5000
G1 X669.2924 Y1701.4109 Z-1.5000 F5000
G1 X672.1915 Y1702.0714 Z-1.5000 F5000
G1 X675.5126 Y1704.0347 Z-1.5000 F5000
G1 X678.2832 Y1707.3558 Z-1.5000 F5000
G1 X679.4392 Y1712.0347 Z-1.5000 F5000
G1 X678.5952 Y1716.6769 Z-1.5000 F5000
G1 X676.3750 Y1719.8329 Z-1.5000 F5000
G1 X673.1640 Y1721.6494 Z-1.5000 F5000
G1 X669.2924 Y1722.2549 Z-1.5000 F5000
G1 X662.1365 Y1722.2549 Z-1.5000 F5000
G1 X662.1365 Y1722.2549 Z10.0000 F9999
G1 X629.2557 Y1681.1540 Z10.0000 F9999
G1 X629.2557 Y1681.1540 Z-1.5000 F2500
G1 X629.2557 Y1703.9613 Z-1.5000 F5000
G1 X645.7144 Y1703.9613 Z-1.5000 F5000
G1 X629.2557 Y1703.9613 Z-1.5000 F5000
G1 X629.2557 Y1722.2549 Z-1.5000 F5000
G1 X647.0172 Y1722.2549 Z-1.5000 F5000
G1 X629.2557 Y1722.2549 Z-1.5000 F5000
G1 X629.2557 Y1681.1540 Z-1.5000 F5000
G1 X647.0172 Y1681.1540 Z-1.5000 F5000
G1 X647.0172 Y1681.1540 Z10.0000 F9999
G1 X613.4025 Y1686.8421 Z10.0000 F9999
G1 X613.4025 Y1686.8421 Z-1.5000 F2500
G1 X606.7787 Y1682.6769 Z-1.5000 F5000
G1 X598.7970 Y1681.1540 Z-1.5000 F5000
G1 X590.5218 Y1682.7870 Z-1.5000 F5000
G1 X583.7511 Y1687.2091 Z-1.5000 F5000
G1 X579.1823 Y1693.7412 Z-1.5000 F5000
G1 X577.4943 Y1701.7412 Z-1.5000 F5000
G1 X579.1823 Y1709.6861 Z-1.5000 F5000
G1 X583.7511 Y1716.1999 Z-1.5000 F5000
G1 X590.5218 Y1720.6219 Z-1.5000 F5000
G1 X598.7970 Y1722.2549 Z-1.5000 F5000
G1 X606.5768 Y1720.8421 Z-1.5000 F5000
G1 X613.1273 Y1716.8971 Z-1.5000 F5000
G1 X606.5768 Y1720.8421 Z-1.5000 F5000
G1 X598.7970 Y1722.2549 Z-1.5000 F5000
G1 X590.5218 Y1720.6219 Z-1.5000 F5000
G1 X583.7511 Y1716.1999 Z-1.5000 F5000
G1 X579.1823 Y1709.6861 Z-1.5000 F5000
G1 X577.4943 Y1701.7412 Z-1.5000 F5000
G1 X579.1823 Y1693.7412 Z-1.5000 F5000
G1 X583.7511 Y1687.2091 Z-1.5000 F5000
G1 X590.5218 Y1682.7870 Z-1.5000 F5000
G1 X598.7970 Y1681.1540 Z-1.5000 F5000
G1 X606.7787 Y1682.6769 Z-1.5000 F5000
G1 X606.7787 Y1682.6769 Z10.0000 F9999
G1 X560.3750 Y1695.8513 Z10.0000 F9999
G1 X560.3750 Y1695.8513 Z-1.5000 F2500
G1 X539.6777 Y1695.8513 Z-1.5000 F5000
G1 X560.3750 Y1695.8513 Z-1.5000 F5000
G1 X560.3750 Y1695.8513 Z10.0000 F9999
G1 X550.0631 Y1722.2549 Z10.0000 F9999
G1 X550.0631 Y1722.2549 Z-1.5000 F2500
G1 X566.1181 Y1681.1540 Z-1.5000 F5000
G1 X550.0631 Y1722.2549 Z-1.5000 F5000
G1 X534.0447 Y1681.1540 Z-1.5000 F5000
G1 X534.0447 Y1681.1540 Z10.0000 F9999
G1 X504.7787 Y1722.2549 Z10.0000 F9999
G1 X504.7787 Y1722.2549 Z-1.5000 F2500
G1 X511.2007 Y1722.2549 Z-1.5000 F5000
G1 X519.8245 Y1719.6861 Z-1.5000 F5000
G1 X522.8154 Y1712.0898 Z-1.5000 F5000
G1 X519.7328 Y1704.2182 Z-1.5000 F5000
G1 X511.4943 Y1701.3925 Z-1.5000 F5000
G1 X504.7787 Y1701.3925 Z-1.5000 F5000
G1 X511.4943 Y1701.3925 Z-1.5000 F5000
G1 X519.7328 Y1704.2182 Z-1.5000 F5000
G1 X522.8154 Y1712.0898 Z-1.5000 F5000
G1 X519.8245 Y1719.6861 Z-1.5000 F5000
G1 X511.2007 Y1722.2549 Z-1.5000 F5000
G1 X504.7787 Y1722.2549 Z-1.5000 F5000
G1 X504.7787 Y1681.1540 Z-1.5000 F5000
G1 X504.7787 Y1681.1540 Z10.0000 F9999
G1 X464.7603 Y1687.9797 Z10.0000 F9999
G1 X464.7603 Y1687.9797 Z-1.5000 F2500
G1 X466.7053 Y1684.9338 Z-1.5000 F5000
G1 X469.1273 Y1682.8788 Z-1.5000 F5000
G1 X472.2465 Y1681.6311 Z-1.5000 F5000
G1 X476.3750 Y1681.1540 Z-1.5000 F5000
G1 X480.8704 Y1681.6127 Z-1.5000 F5000
G1 X484.6869 Y1683.3558 Z-1.5000 F5000
G1 X487.3658 Y1686.3467 Z-1.5000 F5000
G1 X488.4851 Y1690.5118 Z-1.5000 F5000
G1 X487.9530 Y1694.5118 Z-1.5000 F5000
G1 X486.4117 Y1697.1907 Z-1.5000 F5000
G1 X484.3750 Y1698.8788 Z-1.5000 F5000
G1 X482.4667 Y1699.9797 Z-1.5000 F5000
G1 X473.2741 Y1704.7136 Z-1.5000 F5000
G1 X470.9071 Y1706.1265 Z-1.5000 F5000
G1 X469.0539 Y1707.7779 Z-1.5000 F5000
G1 X467.8062 Y1709.9613 Z-1.5000 F5000
G1 X467.2924 Y1712.8421 Z-1.5000 F5000
G1 X467.8245 Y1716.1265 Z-1.5000 F5000
G1 X469.6594 Y1719.1540 Z-1.5000 F5000
G1 X472.7970 Y1721.3742 Z-1.5000 F5000
G1 X477.1640 Y1722.2549 Z-1.5000 F5000
G1 X481.4209 Y1721.5760 Z-1.5000 F5000
G1 X484.2649 Y1720.1081 Z-1.5000 F5000
G1 X486.3566 Y1717.9613 Z-1.5000 F5000
G1 X484.2649 Y1720.1081 Z-1.5000 F5000
G1 X481.4209 Y1721.5760 Z-1.5000 F5000
G1 X477.1640 Y1722.2549 Z-1.5000 F5000
G1 X472.7970 Y1721.3742 Z-1.5000 F5000
G1 X469.6594 Y1719.1540 Z-1.5000 F5000
G1 X467.8245 Y1716.1265 Z-1.5000 F5000
G1 X467.2924 Y1712.8421 Z-1.5000 F5000
G1 X467.8062 Y1709.9613 Z-1.5000 F5000
G1 X469.0539 Y1707.7779 Z-1.5000 F5000
G1 X470.9071 Y1706.1265 Z-1.5000 F5000
G1 X473.2741 Y1704.7136 Z-1.5000 F5000
G1 X482.4667 Y1699.9797 Z-1.5000 F5000
G1 X484.3750 Y1698.8788 Z-1.5000 F5000
G1 X486.4117 Y1697.1907 Z-1.5000 F5000
G1 X487.9530 Y1694.5118 Z-1.5000 F5000
G1 X488.4851 Y1690.5118 Z-1.5000 F5000
G1 X487.3658 Y1686.3467 Z-1.5000 F5000
G1 X484.6869 Y1683.3558 Z-1.5000 F5000
G1 X480.8704 Y1681.6127 Z-1.5000 F5000
G1 X476.3750 Y1681.1540 Z-1.5000 F5000
G1 X472.2465 Y1681.6311 Z-1.5000 F5000
G1 X469.1273 Y1682.8788 Z-1.5000 F5000
G1 X466.7053 Y1684.9338 Z-1.5000 F5000
G1 X466.7053 Y1684.9338 Z10.0000 F9999
G1 X720.6135 Y1731.6494 Z10.0000 F9999
G1 X720.6135 Y1731.6494 Z-1.5000 F2500
G1 X690.2282 Y1678.8054 Z-1.5000 F5000
G1 X720.6135 Y1731.6494 Z-1.5000 F5000
G1 X720.6135 Y1731.6494 Z10.0000 F9999
G1 X736.1181 Y1703.9613 Z10.0000 F9999
G1 X736.1181 Y1703.9613 Z-1.5000 F2500
G1 X750.5585 Y1703.9613 Z-1.5000 F5000
G1 X736.1181 Y1703.9613 Z-1.5000 F5000
G1 X736.1181 Y1722.2549 Z-1.5000 F5000
G1 X751.2374 Y1722.2549 Z-1.5000 F5000
G1 X736.1181 Y1722.2549 Z-1.5000 F5000
G1 X736.1181 Y1681.1540 Z-1.5000 F5000
G1 X736.1181 Y1681.1540 Z10.0000 F9999
G1 X679.5493 Y1972.8732 Z10.0000 F9999
G1 X679.5493 Y1972.8732 Z-1.5000 F2500
G1 X666.3199 Y1993.0200 Z-1.5000 F5000
G1 X679.5493 Y1972.8732 Z-1.5000 F5000
G1 X679.5493 Y1972.8732 Z10.0000 F9999
G1 X662.1365 Y1972.8732 Z10.0000 F9999
G1 X662.1365 Y1972.8732 Z-1.5000 F2500
G1 X662.1365 Y2013.9741 Z-1.5000 F5000
G1 X669.2924 Y2013.9741 Z-1.5000 F5000
G1 X673.1640 Y2013.3686 Z-1.5000 F5000
G1 X676.3750 Y2011.5521 Z-1.5000 F5000
G1 X678.5952 Y2008.3961 Z-1.5000 F5000
G1 X679.4392 Y2003.7539 Z-1.5000 F5000
G1 X678.2832 Y1999.0750 Z-1.5000 F5000
G1 X675.5126 Y1995.7539 Z-1.5000 F5000
G1 X672.1915 Y1993.7906 Z-1.5000 F5000
G1 X669.2924 Y1993.1301 Z-1.5000 F5000
G1 X662.1365 Y1993.1301 Z-1.5000 F5000
G1 X669.2924 Y1993.1301 Z-1.5000 F5000
G1 X672.1915 Y1993.7906 Z-1.5000 F5000
G1 X675.5126 Y1995.7539 Z-1.5000 F5000
G1 X678.2832 Y1999.0750 Z-1.5000 F5000
G1 X679.4392 Y2003.7539 Z-1.5000 F5000
G1 X678.5952 Y2008.3961 Z-1.5000 F5000
G1 X676.3750 Y2011.5521 Z-1.5000 F5000
G1 X673.1640 Y2013.3686 Z-1.5000 F5000
G1 X669.2924 Y2013.9741 Z-1.5000 F5000
G1 X662.1365 Y2013.9741 Z-1.5000 F5000
G1 X662.1365 Y2013.9741 Z10.0000 F9999
G1 X629.2557 Y1972.8732 Z10.0000 F9999
G1 X629.2557 Y1972.8732 Z-1.5000 F2500
G1 X629.2557 Y1995.6805 Z-1.5000 F5000
G1 X645.7144 Y1995.6805 Z-1.5000 F5000
G1 X629.2557 Y1995.6805 Z-1.5000 F5000
G1 X629.2557 Y2013.9741 Z-1.5000 F5000
G1 X647.0172 Y2013.9741 Z-1.5000 F5000
G1 X629.2557 Y2013.9741 Z-1.5000 F5000
G1 X629.2557 Y1972.8732 Z-1.5000 F5000
G1 X647.0172 Y1972.8732 Z-1.5000 F5000
G1 X647.0172 Y1972.8732 Z10.0000 F9999
G1 X613.4025 Y1978.5612 Z10.0000 F9999
G1 X613.4025 Y1978.5612 Z-1.5000 F2500
G1 X606.7787 Y1974.3961 Z-1.5000 F5000
G1 X598.7970 Y1972.8732 Z-1.5000 F5000
G1 X590.5218 Y1974.5062 Z-1.5000 F5000
G1 X583.7511 Y1978.9282 Z-1.5000 F5000
G1 X579.1823 Y1985.4603 Z-1.5000 F5000
G1 X577.4943 Y1993.4603 Z-1.5000 F5000
G1 X579.1823 Y2001.4053 Z-1.5000 F5000
G1 X583.7511 Y2007.9190 Z-1.5000 F5000
G1 X590.5218 Y2012.3411 Z-1.5000 F5000
G1 X598.7970 Y2013.9741 Z-1.5000 F5000
G1 X606.5768 Y2012.5612 Z-1.5000 F5000
G1 X613.1273 Y2008.6163 Z-1.5000 F5000
G1 X606.5768 Y2012.5612 Z-1.5000 F5000
G1 X598.7970 Y2013.9741 Z-1.5000 F5000
G1 X590.5218 Y2012.3411 Z-1.5000 F5000
G1 X583.7511 Y2007.9190 Z-1.5000 F5000
G1 X579.1823 Y2001.4053 Z-1.5000 F5000
G1 X577.4943 Y1993.4603 Z-1.5000 F5000
G1 X579.1823 Y1985.4603 Z-1.5000 F5000
G1 X583.7511 Y1978.9282 Z-1.5000 F5000
G1 X590.5218 Y1974.5062 Z-1.5000 F5000
G1 X598.7970 Y1972.8732 Z-1.5000 F5000
G1 X606.7787 Y1974.3961 Z-1.5000 F5000
G1 X606.7787 Y1974.3961 Z10.0000 F9999
G1 X560.3750 Y1987.5704 Z10.0000 F9999
G1 X560.3750 Y1987.5704 Z-1.5000 F2500
G1 X539.6777 Y1987.5704 Z-1.5000 F5000
G1 X560.3750 Y1987.5704 Z-1.5000 F5000
G1 X560.3750 Y1987.5704 Z10.0000 F9999
G1 X550.0631 Y2013.9741 Z10.0000 F9999
G1 X550.0631 Y2013.9741 Z-1.5000 F2500
G1 X566.1181 Y1972.8732 Z-1.5000 F5000
G1 X550.0631 Y2013.9741 Z-1.5000 F5000
G1 X534.0447 Y1972.8732 Z-1.5000 F5000
G1 X534.0447 Y1972.8732 Z10.0000 F9999
G1 X504.7787 Y2013.9741 Z10.0000 F9999
G1 X504.7787 Y2013.9741 Z-1.5000 F2500
G1 X511.2007 Y2013.9741 Z-1.5000 F5000
G1 X519.8245 Y2011.4053 Z-1.5000 F5000
G1 X522.8154 Y2003.8090 Z-1.5000 F5000
G1 X519.7328 Y1995.9374 Z-1.5000 F5000
G1 X511.4943 Y1993.1117 Z-1.5000 F5000
G1 X504.7787 Y1993.1117 Z-1.5000 F5000
G1 X511.4943 Y1993.1117 Z-1.5000 F5000
G1 X519.7328 Y1995.9374 Z-1.5000 F5000
G1 X522.8154 Y2003.8090 Z-1.5000 F5000
G1 X519.8245 Y2011.4053 Z-1.5000 F5000
G1 X511.2007 Y2013.9741 Z-1.5000 F5000
G1 X504.7787 Y2013.9741 Z-1.5000 F5000
G1 X504.7787 Y1972.8732 Z-1.5000 F5000
G1 X504.7787 Y1972.8732 Z10.0000 F9999
G1 X464.7603 Y1979.6989 Z10.0000 F9999
G1 X464.7603 Y1979.6989 Z-1.5000 F2500
G1 X466.7053 Y1976.6530 Z-1.5000 F5000
G1 X469.1273 Y1974.5979 Z-1.5000 F5000
G1 X472.2465 Y1973.3502 Z-1.5000 F5000
G1 X476.3750 Y1972.8732 Z-1.5000 F5000
G1 X480.8704 Y1973.3319 Z-1.5000 F5000
G1 X484.6869 Y1975.0750 Z-1.5000 F5000
G1 X487.3658 Y1978.0658 Z-1.5000 F5000
G1 X488.4851 Y1982.2310 Z-1.5000 F5000
G1 X487.9530 Y1986.2310 Z-1.5000 F5000
G1 X486.4117 Y1988.9099 Z-1.5000 F5000
G1 X484.3750 Y1990.5979 Z-1.5000 F5000
G1 X482.4667 Y1991.6989 Z-1.5000 F5000
G1 X473.2741 Y1996.4328 Z-1.5000 F5000
G1 X470.9071 Y1997.8456 Z-1.5000 F5000
G1 X469.0539 Y1999.4970 Z-1.5000 F5000
G1 X467.8062 Y2001.6805 Z-1.5000 F5000
G1 X467.2924 Y2004.5612 Z-1.5000 F5000
G1 X467.8245 Y2007.8456 Z-1.5000 F5000
G1 X469.6594 Y2010.8732 Z-1.5000 F5000
G1 X472.7970 Y2013.0934 Z-1.5000 F5000
G1 X477.1640 Y2013.9741 Z-1.5000 F5000
G1 X481.4209 Y2013.2952 Z-1.5000 F5000
G1 X484.2649 Y2011.8273 Z-1.5000 F5000
G1 X486.3566 Y2009.6805 Z-1.5000 F5000
G1 X484.2649 Y2011.8273 Z-1.5000 F5000
G1 X481.4209 Y2013.2952 Z-1.5000 F5000
G1 X477.1640 Y2013.9741 Z-1.5000 F5000
G1 X472.7970 Y2013.0934 Z-1.5000 F5000
G1 X469.6594 Y2010.8732 Z-1.5000 F5000
G1 X467.8245 Y2007.8456 Z-1.5000 F5000
G1 X467.2924 Y2004.5612 Z-1.5000 F5000
G1 X467.8062 Y2001.6805 Z-1.5000 F5000
G1 X469.0539 Y1999.4970 Z-1.5000 F5000
G1 X470.9071 Y1997.8456 Z-1.5000 F5000
G1 X473.2741 Y1996.4328 Z-1.5000 F5000
G1 X482.4667 Y1991.6989 Z-1.5000 F5000
G1 X484.3750 Y1990.5979 Z-1.5000 F5000
G1 X486.4117 Y1988.9099 Z-1.5000 F5000
G1 X487.9530 Y1986.2310 Z-1.5000 F5000
G1 X488.4851 Y1982.2310 Z-1.5000 F5000
G1 X487.3658 Y1978.0658 Z-1.5000 F5000
G1 X484.6869 Y1975.0750 Z-1.5000 F5000
G1 X480.8704 Y1973.3319 Z-1.5000 F5000
G1 X476.3750 Y1972.8732 Z-1.5000 F5000
G1 X472.2465 Y1973.3502 Z-1.5000 F5000
G1 X469.1273 Y1974.5979 Z-1.5000 F5000
G1 X466.7053 Y1976.6530 Z-1.5000 F5000
G1 X466.7053 Y1976.6530 Z10.0000 F9999
G1 X720.6135 Y2023.3686 Z10.0000 F9999
G1 X720.6135 Y2023.3686 Z-1.5000 F2500
G1 X690.2282 Y1970.5245 Z-1.5000 F5000
G1 X720.6135 Y2023.3686 Z-1.5000 F5000
G1 X720.6135 Y2023.3686 Z10.0000 F9999
G1 X736.1181 Y1995.6805 Z10.0000 F9999
G1 X736.1181 Y1995.6805 Z-1.5000 F2500
G1 X750.5585 Y1995.6805 Z-1.5000 F5000
G1 X736.1181 Y1995.6805 Z-1.5000 F5000
G1 X736.1181 Y2013.9741 Z-1.5000 F5000
G1 X751.2374 Y2013.9741 Z-1.5000 F5000
G1 X736.1181 Y2013.9741 Z-1.5000 F5000
G1 X736.1181 Y1972.8732 Z-1.5000 F5000
G1 X736.1181 Y1972.8732 Z10.0000 F9999
G1 X679.5493 Y2259.0102 Z10.0000 F9999
G1 X679.5493 Y2259.0102 Z-1.5000 F2500
G1 X666.3199 Y2279.1570 Z-1.5000 F5000
G1 X679.5493 Y2259.0102 Z-1.5000 F5000
G1 X679.5493 Y2259.0102 Z10.0000 F9999
G1 X662.1365 Y2259.0102 Z10.0000 F9999
G1 X662.1365 Y2259.0102 Z-1.5000 F2500
G1 X662.1365 Y2300.1111 Z-1.5000 F5000
G1 X669.2924 Y2300.1111 Z-1.5000 F5000
G1 X673.1640 Y2299.5056 Z-1.5000 F5000
G1 X676.3750 Y2297.6891 Z-1.5000 F5000
G1 X678.5952 Y2294.5331 Z-1.5000 F5000
G1 X679.4392 Y2289.8909 Z-1.5000 F5000
G1 X678.2832 Y2285.2120 Z-1.5000 F5000
G1 X675.5126 Y2281.8909 Z-1.5000 F5000
G1 X672.1915 Y2279.9276 Z-1.5000 F5000
G1 X669.2924 Y2279.2671 Z-1.5000 F5000
G1 X662.1365 Y2279.2671 Z-1.5000 F5000
G1 X669.2924 Y2279.2671 Z-1.5000 F5000
G1 X672.1915 Y2279.9276 Z-1.5000 F5000
G1 X675.5126 Y2281.8909 Z-1.5000 F5000
G1 X678.2832 Y2285.2120 Z-1.5000 F5000
G1 X679.4392 Y2289.8909 Z-1.5000 F5000
G1 X678.5952 Y2294.5331 Z-1.5000 F5000
G1 X676.3750 Y2297.6891 Z-1.5000 F5000
G1 X673.1640 Y2299.5056 Z-1.5000 F5000
G1 X669.2924 Y2300.1111 Z-1.5000 F5000
G1 X662.1365 Y2300.1111 Z-1.5000 F5000
G1 X662.1365 Y2300.1111 Z10.0000 F9999
G1 X629.2557 Y2259.0102 Z10.0000 F9999
G1 X629.2557 Y2259.0102 Z-1.5000 F2500
G1 X629.2557 Y2281.8175 Z-1.5000 F5000
G1 X645.7144 Y2281.8175 Z-1.5000 F5000
G1 X629.2557 Y2281.8175 Z-1.5000 F5000
G1 X629.2557 Y2300.1111 Z-1.5000 F5000
G1 X647.0172 Y2300.1111 Z-1.5000 F5000
G1 X629.2557 Y2300.1111 Z-1.5000 F5000
G1 X629.2557 Y2259.0102 Z-1.5000 F5000
G1 X647.0172 Y2259.0102 Z-1.5000 F5000
G1 X647.0172 Y2259.0102 Z10.0000 F9999
G1 X613.4025 Y2264.6983 Z10.0000 F9999
G1 X613.4025 Y2264.6983 Z-1.5000 F2500
G1 X606.7787 Y2260.5331 Z-1.5000 F5000
G1 X598.7970 Y2259.0102 Z-1.5000 F5000
G1 X590.5218 Y2260.6432 Z-1.5000 F5000
G1 X583.7511 Y2265.0652 Z-1.5000 F5000
G1 X579.1823 Y2271.5974 Z-1.5000 F5000
G1 X577.4943 Y2279.5974 Z-1.5000 F5000
G1 X579.1823 Y2287.5423 Z-1.5000 F5000
G1 X583.7511 Y2294.0561 Z-1.5000 F5000
G1 X590.5218 Y2298.4781 Z-1.5000 F5000
G1 X598.7970 Y2300.1111 Z-1.5000 F5000
G1 X606.5768 Y2298.6983 Z-1.5000 F5000
G1 X613.1273 Y2294.7533 Z-1.5000 F5000
G1 X606.5768 Y2298.6983 Z-1.5000 F5000
G1 X598.7970 Y2300.1111 Z-1.5000 F5000
G1 X590.5218 Y2298.4781 Z-1.5000 F5000
G1 X583.7511 Y2294.0561 Z-1.5000 F5000
G1 X579.1823 Y2287.5423 Z-1.5000 F5000
G1 X577.4943 Y2279.5974 Z-1.5000 F5000
G1 X579.1823 Y2271.5974 Z-1.5000 F5000
G1 X583.7511 Y2265.0652 Z-1.5000 F5000
G1 X590.5218 Y2260.6432 Z-1.5000 F5000
G1 X598.7970 Y2259.0102 Z-1.5000 F5000
G1 X606.7787 Y2260.5331 Z-1.5000 F5000
G1 X606.7787 Y2260.5331 Z10.0000 F9999
G1 X560.3750 Y2273.7075 Z10.0000 F9999
G1 X560.3750 Y2273.7075 Z-1.5000 F2500
G1 X539.6777 Y2273.7075 Z-1.5000 F5000
G1 X560.3750 Y2273.7075 Z-1.5000 F5000
G1 X560.3750 Y2273.7075 Z10.0000 F9999
G1 X550.0631 Y2300.1111 Z10.0000 F9999
G1 X550.0631 Y2300.1111 Z-1.5000 F2500
G1 X566.1181 Y2259.0102 Z-1.5000 F5000
G1 X550.0631 Y2300.1111 Z-1.5000 F5000
G1 X534.0447 Y2259.0102 Z-1.5000 F5000
G1 X534.0447 Y2259.0102 Z10.0000 F9999
G1 X504.7787 Y2300.1111 Z10.0000 F9999
G1 X504.7787 Y2300.1111 Z-1.5000 F2500
G1 X511.2007 Y2300.1111 Z-1.5000 F5000
G1 X519.8245 Y2297.5423 Z-1.5000 F5000
G1 X522.8154 Y2289.9460 Z-1.5000 F5000
G1 X519.7328 Y2282.0744 Z-1.5000 F5000
G1 X511.4943 Y2279.2487 Z-1.5000 F5000
G1 X504.7787 Y2279.2487 Z-1.5000 F5000
G1 X511.4943 Y2279.2487 Z-1.5000 F5000
G1 X519.7328 Y2282.0744 Z-1.5000 F5000
G1 X522.8154 Y2289.9460 Z-1.5000 F5000
G1 X519.8245 Y2297.5423 Z-1.5000 F5000
G1 X511.2007 Y2300.1111 Z-1.5000 F5000
G1 X504.7787 Y2300.1111 Z-1.5000 F5000
G1 X504.7787 Y2259.0102 Z-1.5000 F5000
G1 X504.7787 Y2259.0102 Z10.0000 F9999
G1 X464.7603 Y2265.8359 Z10.0000 F9999
G1 X464.7603 Y2265.8359 Z-1.5000 F2500
G1 X466.7053 Y2262.7900 Z-1.5000 F5000
G1 X469.1273 Y2260.7350 Z-1.5000 F5000
G1 X472.2465 Y2259.4873 Z-1.5000 F5000
G1 X476.3750 Y2259.0102 Z-1.5000 F5000
G1 X480.8704 Y2259.4689 Z-1.5000 F5000
G1 X484.6869 Y2261.2120 Z-1.5000 F5000
G1 X487.3658 Y2264.2029 Z-1.5000 F5000
G1 X488.4851 Y2268.3680 Z-1.5000 F5000
G1 X487.9530 Y2272.3680 Z-1.5000 F5000
G1 X486.4117 Y2275.0469 Z-1.5000 F5000
G1 X484.3750 Y2276.7350 Z-1.5000 F5000
G1 X482.4667 Y2277.8359 Z-1.5000 F5000
G1 X473.2741 Y2282.5698 Z-1.5000 F5000
G1 X470.9071 Y2283.9827 Z-1.5000 F5000
G1 X469.0539 Y2285.6341 Z-1.5000 F5000
G1 X467.8062 Y2287.8175 Z-1.5000 F5000
G1 X467.2924 Y2290.6983 Z-1.5000 F5000
G1 X467.8245 Y2293.9827 Z-1.5000 F5000
G1 X469.6594 Y2297.0102 Z-1.5000 F5000
G1 X472.7970 Y2299.2304 Z-1.5000 F5000
G1 X477.1640 Y2300.1111 Z-1.5000 F5000
G1 X481.4209 Y2299.4322 Z-1.5000 F5000
G1 X484.2649 Y2297.9643 Z-1.5000 F5000
G1 X486.3566 Y2295.8175 Z-1.5000 F5000
G1 X484.2649 Y2297.9643 Z-1.5000 F5000
G1 X481.4209 Y2299.4322 Z-1.5000 F5000
G1 X477.1640 Y2300.1111 Z-1.5000 F5000
G1 X472.7970 Y2299.2304 Z-1.5000 F5000
G1 X469.6594 Y2297.0102 Z-1.5000 F5000
G1 X467.8245 Y2293.9827 Z-1.5000 F5000
G1 X467.2924 Y2290.6983 Z-1.5000 F5000
G1 X467.8062 Y2287.8175 Z-1.5000 F5000
G1 X469.0539 Y2285.6341 Z-1.5000 F5000
G1 X470.9071 Y2283.9827 Z-1.5000 F5000
G1 X473.2741 Y2282.5698 Z-1.5000 F5000
G1 X482.4667 Y2277.8359 Z-1.5000 F5000
G1 X484.3750 Y2276.7350 Z-1.5000 F5000
G1 X486.4117 Y2275.0469 Z-1.5000 F5000
G1 X487.9530 Y2272.3680 Z-1.5000 F5000
G1 X488.4851 Y2268.3680 Z-1.5000 F5000
G1 X487.3658 Y2264.2029 Z-1.5000 F5000
G1 X484.6869 Y2261.2120 Z-1.5000 F5000
G1 X480.8704 Y2259.4689 Z-1.5000 F5000
G1 X476.3750 Y2259.0102 Z-1.5000 F5000
G1 X472.2465 Y2259.4873 Z-1.5000 F5000
G1 X469.1273 Y2260.7350 Z-1.5000 F5000
G1 X466.7053 Y2262.7900 Z-1.5000 F5000
G1 X466.7053 Y2262.7900 Z10.0000 F9999
G1 X720.6135 Y2309.5056 Z10.0000 F9999
G1 X720.6135 Y2309.5056 Z-1.5000 F2500
G1 X690.2282 Y2256.6616 Z-1.5000 F5000
G1 X720.6135 Y2309.5056 Z-1.5000 F5000
G1 X720.6135 Y2309.5056 Z10.0000 F9999
G1 X736.1181 Y2281.8175 Z10.0000 F9999
G1 X736.1181 Y2281.8175 Z-1.5000 F2500
G1 X750.5585 Y2281.8175 Z-1.5000 F5000
G1 X736.1181 Y2281.8175 Z-1.5000 F5000
G1 X736.1181 Y2300.1111 Z-1.5000 F5000
G1 X751.2374 Y2300.1111 Z-1.5000 F5000
G1 X736.1181 Y2300.1111 Z-1.5000 F5000
G1 X736.1181 Y2259.0102 Z-1.5000 F5000
G1 X736.1181 Y2259.0102 Z10.0000 F9999
(Tool Number:1) (7.998 mm dia. slot drill)
M3 S9000
G1 X52.7334 Y1709.2895 Z10.0000 F9999
G1 X52.7334 Y1709.2895 Z0.0000 F2500
G1 X45.4999 Y1709.2263 Z-20.0000 F5000
G1 X32.0009 Y1709.2263 Z-20.0000 F5000
G1 X32.0009 Y1704.2263 Z-20.0000 F5000
G1 X29.9989 Y1704.2263 Z-20.0000 F5000
G1 X29.9989 Y1724.2283 Z-20.0000 F5000
G1 X32.0009 Y1724.2283 Z-20.0000 F5000
G1 X32.0009 Y1719.2283 Z-20.0000 F5000
G1 X58.9989 Y1719.2283 Z-20.0000 F5000
G1 X58.9989 Y1724.2283 Z-20.0000 F5000
G1 X61.0009 Y1724.2283 Z-20.0000 F5000
G1 X61.0009 Y1704.2263 Z-20.0000 F5000
G1 X58.9989 Y1704.2263 Z-20.0000 F5000
G1 X58.9989 Y1709.2263 Z-20.0000 F5000
G1 X45.4999 Y1709.2263 Z-20.0000 F5000
G1 X37.4999 Y1709.2263 Z-20.0000 F5000
G1 X30.2664 Y1709.2895 Z0.0000 F5000
G1 X30.2664 Y1709.2895 Z10.0000 F9999
G1 X52.7334 Y2001.0086 Z10.0000 F9999
G1 X52.7334 Y2001.0086 Z0.0000 F2500
G1 X45.4999 Y2000.9455 Z-20.0000 F5000
G1 X32.0009 Y2000.9455 Z-20.0000 F5000
G1 X32.0009 Y1995.9455 Z-20.0000 F5000
G1 X29.9989 Y1995.9455 Z-20.0000 F5000
G1 X29.9989 Y2015.9475 Z-20.0000 F5000
G1 X32.0009 Y2015.9475 Z-20.0000 F5000
G1 X32.0009 Y2010.9475 Z-20.0000 F5000
G1 X58.9989 Y2010.9475 Z-20.0000 F5000
G1 X58.9989 Y2015.9475 Z-20.0000 F5000
G1 X61.0009 Y2015.9475 Z-20.0000 F5000
G1 X61.0009 Y1995.9455 Z-20.0000 F5000
G1 X58.9989 Y1995.9455 Z-20.0000 F5000
G1 X58.9989 Y2000.9455 Z-20.0000 F5000
G1 X45.4999 Y2000.9455 Z-20.0000 F5000
G1 X37.4999 Y2000.9455 Z-20.0000 F5000
G1 X30.2664 Y2001.0086 Z0.0000 F5000
G1 X30.2664 Y2001.0086 Z10.0000 F9999
G1 X52.7334 Y2287.1457 Z10.0000 F9999
G1 X52.7334 Y2287.1457 Z0.0000 F2500
G1 X45.4999 Y2287.0825 Z-20.0000 F5000
G1 X32.0009 Y2287.0825 Z-20.0000 F5000
G1 X32.0009 Y2282.0825 Z-20.0000 F5000
G1 X29.9989 Y2282.0825 Z-20.0000 F5000
G1 X29.9989 Y2302.0845 Z-20.0000 F5000
G1 X32.0009 Y2302.0845 Z-20.0000 F5000
G1 X32.0009 Y2297.0845 Z-20.0000 F5000
G1 X58.9989 Y2297.0845 Z-20.0000 F5000
G1 X58.9989 Y2302.0845 Z-20.0000 F5000
G1 X61.0009 Y2302.0845 Z-20.0000 F5000
G1 X61.0009 Y2282.0825 Z-20.0000 F5000
G1 X58.9989 Y2282.0825 Z-20.0000 F5000
G1 X58.9989 Y2287.0825 Z-20.0000 F5000
G1 X45.4999 Y2287.0825 Z-20.0000 F5000
G1 X37.4999 Y2287.0825 Z-20.0000 F5000
G1 X30.2664 Y2287.1457 Z0.0000 F5000
G1 X30.2664 Y2287.1457 Z10.0000 F9999
G1 X1177.7312 Y2287.1457 Z10.0000 F9999
G1 X1177.7312 Y2287.1457 Z0.0000 F2500
G1 X1170.4977 Y2287.0825 Z-20.0000 F5000
G1 X1156.9987 Y2287.0825 Z-20.0000 F5000
G1 X1156.9987 Y2282.0825 Z-20.0000 F5000
G1 X1154.9967 Y2282.0825 Z-20.0000 F5000
G1 X1154.9967 Y2302.0845 Z-20.0000 F5000
G1 X1156.9987 Y2302.0845 Z-20.0000 F5000
G1 X1156.9987 Y2297.0845 Z-20.0000 F5000
G1 X1183.9967 Y2297.0845 Z-20.0000 F5000
G1 X1183.9967 Y2302.0845 Z-20.0000 F5000
G1 X1185.9986 Y2302.0845 Z-20.0000 F5000
G1 X1185.9986 Y2282.0825 Z-20.0000 F5000
G1 X1183.9967 Y2282.0825 Z-20.0000 F5000
G1 X1183.9967 Y2287.0825 Z-20.0000 F5000
G1 X1170.4977 Y2287.0825 Z-20.0000 F5000
G1 X1162.4977 Y2287.0825 Z-20.0000 F5000
G1 X1155.2642 Y2287.1457 Z0.0000 F5000
G1 X1155.2642 Y2287.1457 Z10.0000 F9999
G1 X1177.7312 Y2001.0086 Z10.0000 F9999
G1 X1177.7312 Y2001.0086 Z0.0000 F2500
G1 X1170.4977 Y2000.9455 Z-20.0000 F5000
G1 X1156.9987 Y2000.9455 Z-20.0000 F5000
G1 X1156.9987 Y1995.9455 Z-20.0000 F5000
G1 X1154.9967 Y1995.9455 Z-20.0000 F5000
G1 X1154.9967 Y2015.9475 Z-20.0000 F5000
G1 X1156.9987 Y2015.9475 Z-20.0000 F5000
G1 X1156.9987 Y2010.9475 Z-20.0000 F5000
G1 X1183.9967 Y2010.9475 Z-20.0000 F5000
G1 X1183.9967 Y2015.9475 Z-20.0000 F5000
G1 X1185.9986 Y2015.9475 Z-20.0000 F5000
G1 X1185.9986 Y1995.9455 Z-20.0000 F5000
G1 X1183.9967 Y1995.9455 Z-20.0000 F5000
G1 X1183.9967 Y2000.9455 Z-20.0000 F5000
G1 X1170.4977 Y2000.9455 Z-20.0000 F5000
G1 X1162.4977 Y2000.9455 Z-20.0000 F5000
G1 X1155.2642 Y2001.0086 Z0.0000 F5000
G1 X1155.2642 Y2001.0086 Z10.0000 F9999
G1 X1177.7312 Y1709.2895 Z10.0000 F9999
G1 X1177.7312 Y1709.2895 Z0.0000 F2500
G1 X1170.4977 Y1709.2263 Z-20.0000 F5000
G1 X1156.9987 Y1709.2263 Z-20.0000 F5000
G1 X1156.9987 Y1704.2263 Z-20.0000 F5000
G1 X1154.9967 Y1704.2263 Z-20.0000 F5000
G1 X1154.9967 Y1724.2283 Z-20.0000 F5000
G1 X1156.9987 Y1724.2283 Z-20.0000 F5000
G1 X1156.9987 Y1719.2283 Z-20.0000 F5000
G1 X1183.9967 Y1719.2283 Z-20.0000 F5000
G1 X1183.9967 Y1724.2283 Z-20.0000 F5000
G1 X1185.9986 Y1724.2283 Z-20.0000 F5000
G1 X1185.9986 Y1704.2263 Z-20.0000 F5000
G1 X1183.9967 Y1704.2263 Z-20.0000 F5000
G1 X1183.9967 Y1709.2263 Z-20.0000 F5000
G1 X1170.4977 Y1709.2263 Z-20.0000 F5000
G1 X1162.4977 Y1709.2263 Z-20.0000 F5000
G1 X1155.2642 Y1709.2895 Z0.0000 F5000
G1 X1155.2642 Y1709.2895 Z10.0000 F9999
(Tool Number:1) (7.998 mm dia. slot drill)
M3 S9000
G1 X650.1063 Y281.3473 Z10.0000 F9999
G1 X650.1063 Y281.3473 Z0.0000 F2500
G1 X610.1079 Y280.9983 Z-14.0000 F5000
G1 X186.6086 Y280.9983 Z-14.0000 F5000
G1 X186.6086 Y280.9983 Z-4.0000 F9999
G1 X173.6106 Y280.9983 Z-4.0000 F5000
G1 X173.6106 Y280.9983 Z-14.0000 F2500
G1 X3.0010 Y280.9983 Z-14.0000 F5000
G1 X3.0010 Y161.0006 Z-14.0000 F5000
G1 X51.9989 Y161.0006 Z-14.0000 F5000
G1 X51.9989 Y225.9985 Z-14.0000 F5000
G1 X46.9989 Y226.0005 Z-14.0000 F5000
G1 X83.0008 Y226.0005 Z-14.0000 F5000
G1 X78.0009 Y225.9985 Z-14.0000 F5000
G1 X78.0009 Y21.0008 Z-14.0000 F5000
G1 X173.6106 Y21.0008 Z-14.0000 F5000
G1 X173.6106 Y21.0008 Z-4.0000 F9999
G1 X186.6086 Y21.0008 Z-4.0000 F5000
G1 X186.6086 Y21.0008 Z-14.0000 F2500
G1 X562.9979 Y21.0008 Z-14.0000 F5000
G1 X562.9998 Y26.0010 Z-14.0000 F5000
G1 X562.9998 Y3.0010 Z-14.0000 F5000
G1 X652.9977 Y3.0010 Z-14.0000 F5000
G1 X652.9997 Y26.0010 Z-14.0000 F5000
G1 X652.9997 Y21.0008 Z-14.0000 F5000
G1 X1033.8228 Y21.0008 Z-14.0000 F5000
G1 X1033.8228 Y21.0008 Z-4.0000 F9999
G1 X1046.8208 Y21.0008 Z-4.0000 F5000
G1 X1046.8208 Y21.0008 Z-14.0000 F2500
G1 X1137.9967 Y21.0008 Z-14.0000 F5000
G1 X1137.9967 Y225.9985 Z-14.0000 F5000
G1 X1132.9967 Y226.0005 Z-14.0000 F5000
G1 X1168.9986 Y225.9985 Z-14.0000 F5000
G1 X1163.9987 Y225.9985 Z-14.0000 F5000
G1 X1163.9987 Y161.0006 Z-14.0000 F5000
G1 X1212.9967 Y161.0006 Z-14.0000 F5000
G1 X1212.9967 Y280.9983 Z-14.0000 F5000
G1 X1046.6051 Y280.9983 Z-14.0000 F5000
G1 X1046.6051 Y280.9983 Z-4.0000 F9999
G1 X1033.6071 Y280.9983 Z-4.0000 F5000
G1 X1033.6071 Y280.9983 Z-14.0000 F2500
G1 X610.1079 Y280.9983 Z-14.0000 F5000
G1 X577.1079 Y280.9983 Z-14.0000 F5000
G1 X537.1094 Y281.3473 Z0.0000 F5000
G1 X537.1094 Y281.3473 Z10.0000 F9999
G1 X650.1063 Y566.5699 Z10.0000 F9999
G1 X650.1063 Y566.5699 Z0.0000 F2500
G1 X610.1079 Y566.2208 Z-14.0000 F5000
G1 X186.6086 Y566.2208 Z-14.0000 F5000
G1 X186.6086 Y566.2208 Z-4.0000 F9999
G1 X173.6106 Y566.2208 Z-4.0000 F5000
G1 X173.6106 Y566.2208 Z-14.0000 F2500
G1 X3.0010 Y566.2208 Z-14.0000 F5000
G1 X3.0010 Y446.2232 Z-14.0000 F5000
G1 X51.9989 Y446.2232 Z-14.0000 F5000
G1 X51.9989 Y511.2211 Z-14.0000 F5000
G1 X46.9989 Y511.2231 Z-14.0000 F5000
G1 X83.0008 Y511.2231 Z-14.0000 F5000
G1 X78.0009 Y511.2211 Z-14.0000 F5000
G1 X78.0009 Y306.2233 Z-14.0000 F5000
G1 X173.6106 Y306.2233 Z-14.0000 F5000
G1 X173.6106 Y306.2233 Z-4.0000 F9999
G1 X186.6086 Y306.2233 Z-4.0000 F5000
G1 X186.6086 Y306.2233 Z-14.0000 F2500
G1 X562.9979 Y306.2233 Z-14.0000 F5000
G1 X562.9998 Y311.2236 Z-14.0000 F5000
G1 X562.9998 Y288.2236 Z-14.0000 F5000
G1 X652.9977 Y288.2236 Z-14.0000 F5000
G1 X652.9997 Y311.2236 Z-14.0000 F5000
G1 X652.9997 Y306.2233 Z-14.0000 F5000
G1 X1033.8228 Y306.2233 Z-14.0000 F5000
G1 X1033.8228 Y306.2233 Z-4.0000 F9999
G1 X1046.8208 Y306.2233 Z-4.0000 F5000
G1 X1046.8208 Y306.2233 Z-14.0000 F2500
G1 X1137.9967 Y306.2233 Z-14.0000 F5000
G1 X1137.9967 Y511.2211 Z-14.0000 F5000
G1 X1132.9967 Y511.2231 Z-14.0000 F5000
G1 X1168.9986 Y511.2211 Z-14.0000 F5000
G1 X1163.9987 Y511.2211 Z-14.0000 F5000
G1 X1163.9987 Y446.2232 Z-14.0000 F5000
G1 X1212.9967 Y446.2232 Z-14.0000 F5000
G1 X1212.9967 Y566.2208 Z-14.0000 F5000
G1 X1046.6051 Y566.2208 Z-14.0000 F5000
G1 X1046.6051 Y566.2208 Z-4.0000 F9999
G1 X1033.6071 Y566.2208 Z-4.0000 F5000
G1 X1033.6071 Y566.2208 Z-14.0000 F2500
G1 X610.1079 Y566.2208 Z-14.0000 F5000
G1 X577.1079 Y566.2208 Z-14.0000 F5000
G1 X537.1094 Y566.5699 Z0.0000 F5000
G1 X537.1094 Y566.5699 Z10.0000 F9999
G1 X650.1063 Y858.2891 Z10.0000 F9999
G1 X650.1063 Y858.2891 Z0.0000 F2500
G1 X610.1079 Y857.9400 Z-14.0000 F5000
G1 X186.6086 Y857.9400 Z-14.0000 F5000
G1 X186.6086 Y857.9400 Z-4.0000 F9999
G1 X173.6106 Y857.9400 Z-4.0000 F5000
G1 X173.6106 Y857.9400 Z-14.0000 F2500
G1 X3.0010 Y857.9400 Z-14.0000 F5000
G1 X3.0010 Y737.9424 Z-14.0000 F5000
G1 X51.9989 Y737.9424 Z-14.0000 F5000
G1 X51.9989 Y802.9402 Z-14.0000 F5000
G1 X46.9989 Y802.9422 Z-14.0000 F5000
G1 X83.0008 Y802.9422 Z-14.0000 F5000
G1 X78.0009 Y802.9402 Z-14.0000 F5000
G1 X78.0009 Y597.9425 Z-14.0000 F5000
G1 X173.6106 Y597.9425 Z-14.0000 F5000
G1 X173.6106 Y597.9425 Z-4.0000 F9999
G1 X186.6086 Y597.9425 Z-4.0000 F5000
G1 X186.6086 Y597.9425 Z-14.0000 F2500
G1 X562.9979 Y597.9425 Z-14.0000 F5000
G1 X562.9998 Y602.9427 Z-14.0000 F5000
G1 X562.9998 Y579.9427 Z-14.0000 F5000
G1 X652.9977 Y579.9427 Z-14.0000 F5000
G1 X652.9997 Y602.9427 Z-14.0000 F5000
G1 X652.9997 Y597.9425 Z-14.0000 F5000
G1 X1033.8228 Y597.9425 Z-14.0000 F5000
G1 X1033.8228 Y597.9425 Z-4.0000 F9999
G1 X1046.8208 Y597.9425 Z-4.0000 F5000
G1 X1046.8208 Y597.9425 Z-14.0000 F2500
G1 X1137.9967 Y597.9425 Z-14.0000 F5000
G1 X1137.9967 Y802.9402 Z-14.0000 F5000
G1 X1132.9967 Y802.9422 Z-14.0000 F5000
G1 X1168.9986 Y802.9402 Z-14.0000 F5000
G1 X1163.9987 Y802.9402 Z-14.0000 F5000
G1 X1163.9987 Y737.9424 Z-14.0000 F5000
G1 X1212.9967 Y737.9424 Z-14.0000 F5000
G1 X1212.9967 Y857.9400 Z-14.0000 F5000
G1 X1046.6051 Y857.9400 Z-14.0000 F5000
G1 X1046.6051 Y857.9400 Z-4.0000 F9999
G1 X1033.6071 Y857.9400 Z-4.0000 F5000
G1 X1033.6071 Y857.9400 Z-14.0000 F2500
G1 X610.1079 Y857.9400 Z-14.0000 F5000
G1 X577.1079 Y857.9400 Z-14.0000 F5000
G1 X537.1094 Y858.2891 Z0.0000 F5000
G1 X537.1094 Y858.2891 Z10.0000 F9999
G1 X650.1063 Y1144.4261 Z10.0000 F9999
G1 X650.1063 Y1144.4261 Z0.0000 F2500
G1 X610.1079 Y1144.0770 Z-14.0000 F5000
G1 X186.6086 Y1144.0770 Z-14.0000 F5000
G1 X186.6086 Y1144.0770 Z-4.0000 F9999
G1 X173.6106 Y1144.0770 Z-4.0000 F5000
G1 X173.6106 Y1144.0770 Z-14.0000 F2500
G1 X3.0010 Y1144.0770 Z-14.0000 F5000
G1 X3.0010 Y1024.0794 Z-14.0000 F5000
G1 X51.9989 Y1024.0794 Z-14.0000 F5000
G1 X51.9989 Y1089.0773 Z-14.0000 F5000
G1 X46.9989 Y1089.0793 Z-14.0000 F5000
G1 X83.0008 Y1089.0793 Z-14.0000 F5000
G1 X78.0009 Y1089.0773 Z-14.0000 F5000
G1 X78.0009 Y884.0795 Z-14.0000 F5000
G1 X173.6106 Y884.0795 Z-14.0000 F5000
G1 X173.6106 Y884.0795 Z-4.0000 F9999
G1 X186.6086 Y884.0795 Z-4.0000 F5000
G1 X186.6086 Y884.0795 Z-14.0000 F2500
G1 X562.9979 Y884.0795 Z-14.0000 F5000
G1 X562.9998 Y889.0798 Z-14.0000 F5000
G1 X562.9998 Y866.0798 Z-14.0000 F5000
G1 X652.9977 Y866.0798 Z-14.0000 F5000
G1 X652.9997 Y889.0798 Z-14.0000 F5000
G1 X652.9997 Y884.0795 Z-14.0000 F5000
G1 X1033.8228 Y884.0795 Z-14.0000 F5000
G1 X1033.8228 Y884.0795 Z-4.0000 F9999
G1 X1046.8208 Y884.0795 Z-4.0000 F5000
G1 X1046.8208 Y884.0795 Z-14.0000 F2500
G1 X1137.9967 Y884.0795 Z-14.0000 F5000
G1 X1137.9967 Y1089.0773 Z-14.0000 F5000
G1 X1132.9967 Y1089.0793 Z-14.0000 F5000
G1 X1168.9986 Y1089.0773 Z-14.0000 F5000
G1 X1163.9987 Y1089.0773 Z-14.0000 F5000
G1 X1163.9987 Y1024.0794 Z-14.0000 F5000
G1 X1212.9967 Y1024.0794 Z-14.0000 F5000
G1 X1212.9967 Y1144.0770 Z-14.0000 F5000
G1 X1046.6051 Y1144.0770 Z-14.0000 F5000
G1 X1046.6051 Y1144.0770 Z-4.0000 F9999
G1 X1033.6071 Y1144.0770 Z-4.0000 F5000
G1 X1033.6071 Y1144.0770 Z-14.0000 F2500
G1 X610.1079 Y1144.0770 Z-14.0000 F5000
G1 X577.1079 Y1144.0770 Z-14.0000 F5000
G1 X537.1094 Y1144.4261 Z0.0000 F5000
G1 X537.1094 Y1144.4261 Z10.0000 F9999
G1 X650.1063 Y1436.4068 Z10.0000 F9999
G1 X650.1063 Y1436.4068 Z0.0000 F2500
G1 X610.1079 Y1436.0577 Z-14.0000 F5000
G1 X186.6086 Y1436.0577 Z-14.0000 F5000
G1 X186.6086 Y1436.0577 Z-4.0000 F9999
G1 X173.6106 Y1436.0577 Z-4.0000 F5000
G1 X173.6106 Y1436.0577 Z-14.0000 F2500
G1 X3.0010 Y1436.0577 Z-14.0000 F5000
G1 X3.0010 Y1316.0601 Z-14.0000 F5000
G1 X51.9989 Y1316.0601 Z-14.0000 F5000
G1 X51.9989 Y1381.0580 Z-14.0000 F5000
G1 X46.9989 Y1381.0600 Z-14.0000 F5000
G1 X83.0008 Y1381.0600 Z-14.0000 F5000
G1 X78.0009 Y1381.0580 Z-14.0000 F5000
G1 X78.0009 Y1176.0602 Z-14.0000 F5000
G1 X173.6106 Y1176.0602 Z-14.0000 F5000
G1 X173.6106 Y1176.0602 Z-4.0000 F9999
G1 X186.6086 Y1176.0602 Z-4.0000 F5000
G1 X186.6086 Y1176.0602 Z-14.0000 F2500
G1 X562.9979 Y1176.0602 Z-14.0000 F5000
G1 X562.9998 Y1181.0604 Z-14.0000 F5000
G1 X562.9998 Y1158.0604 Z-14.0000 F5000
G1 X652.9977 Y1158.0604 Z-14.0000 F5000
G1 X652.9997 Y1181.0604 Z-14.0000 F5000
G1 X652.9997 Y1176.0602 Z-14.0000 F5000
G1 X1033.8228 Y1176.0602 Z-14.0000 F5000
G1 X1033.8228 Y1176.0602 Z-4.0000 F9999
G1 X1046.8208 Y1176.0602 Z-4.0000 F5000
G1 X1046.8208 Y1176.0602 Z-14.0000 F2500
G1 X1137.9967 Y1176.0602 Z-14.0000 F5000
G1 X1137.9967 Y1381.0580 Z-14.0000 F5000
G1 X1132.9967 Y1381.0600 Z-14.0000 F5000
G1 X1168.9986 Y1381.0580 Z-14.0000 F5000
G1 X1163.9987 Y1381.0580 Z-14.0000 F5000
G1 X1163.9987 Y1316.0601 Z-14.0000 F5000
G1 X1212.9967 Y1316.0601 Z-14.0000 F5000
G1 X1212.9967 Y1436.0577 Z-14.0000 F5000
G1 X1046.6051 Y1436.0577 Z-14.0000 F5000
G1 X1046.6051 Y1436.0577 Z-4.0000 F9999
G1 X1033.6071 Y1436.0577 Z-4.0000 F5000
G1 X1033.6071 Y1436.0577 Z-14.0000 F2500
G1 X610.1079 Y1436.0577 Z-14.0000 F5000
G1 X577.1079 Y1436.0577 Z-14.0000 F5000
G1 X537.1094 Y1436.4068 Z0.0000 F5000
G1 X537.1094 Y1436.4068 Z10.0000 F9999
G1 X650.1063 Y1844.5752 Z10.0000 F9999
G1 X650.1063 Y1844.5752 Z0.0000 F2500
G1 X610.1079 Y1844.2261 Z-14.0000 F5000
G1 X186.8243 Y1844.2261 Z-14.0000 F5000
G1 X186.8243 Y1844.2261 Z-4.0000 F9999
G1 X173.8263 Y1844.2261 Z-4.0000 F5000
G1 X173.8263 Y1844.2261 Z-14.0000 F2500
G1 X78.0009 Y1844.2261 Z-14.0000 F5000
G1 X78.0009 Y1755.2282 Z-14.0000 F5000
G1 X83.0008 Y1755.2262 Z-14.0000 F5000
G1 X3.0010 Y1755.2262 Z-14.0000 F5000
G1 X3.0010 Y1673.2285 Z-14.0000 F5000
G1 X83.0008 Y1673.2265 Z-14.0000 F5000
G1 X78.0009 Y1673.2265 Z-14.0000 F5000
G1 X78.0009 Y1566.2287 Z-14.0000 F5000
G1 X117.9988 Y1566.2287 Z-14.0000 F5000
G1 X118.0008 Y1589.2287 Z-14.0000 F5000
G1 X118.0008 Y1584.2287 Z-14.0000 F5000
G1 X173.6106 Y1584.2287 Z-14.0000 F5000
G1 X173.6106 Y1584.2287 Z-4.0000 F9999
G1 X186.6086 Y1584.2287 Z-4.0000 F5000
G1 X186.6086 Y1584.2287 Z-14.0000 F2500
G1 X562.9979 Y1584.2287 Z-14.0000 F5000
G1 X562.9998 Y1589.2287 Z-14.0000 F5000
G1 X562.9998 Y1566.2287 Z-14.0000 F5000
G1 X652.9977 Y1566.2287 Z-14.0000 F5000
G1 X652.9997 Y1589.2287 Z-14.0000 F5000
G1 X652.9997 Y1584.2287 Z-14.0000 F5000
G1 X1033.6071 Y1584.2287 Z-14.0000 F5000
G1 X1033.6071 Y1584.2287 Z-4.0000 F9999
G1 X1046.6051 Y1584.2287 Z-4.0000 F5000
G1 X1046.6051 Y1584.2287 Z-14.0000 F2500
G1 X1097.9968 Y1584.2287 Z-14.0000 F5000
G1 X1097.9988 Y1589.2287 Z-14.0000 F5000
G1 X1097.9988 Y1566.2287 Z-14.0000 F5000
G1 X1137.9967 Y1566.2287 Z-14.0000 F5000
G1 X1137.9967 Y1673.2265 Z-14.0000 F5000
G1 X1132.9967 Y1673.2285 Z-14.0000 F5000
G1 X1212.9967 Y1673.2285 Z-14.0000 F5000
G1 X1212.9967 Y1755.2262 Z-14.0000 F5000
G1 X1132.9967 Y1755.2282 Z-14.0000 F5000
G1 X1137.9967 Y1755.2282 Z-14.0000 F5000
G1 X1137.9967 Y1844.2261 Z-14.0000 F5000
G1 X1046.3894 Y1844.2261 Z-14.0000 F5000
G1 X1046.3894 Y1844.2261 Z-4.0000 F9999
G1 X1033.3914 Y1844.2261 Z-4.0000 F5000
G1 X1033.3914 Y1844.2261 Z-14.0000 F2500
G1 X610.1079 Y1844.2261 Z-14.0000 F5000
G1 X577.1079 Y1844.2261 Z-14.0000 F5000
G1 X537.1094 Y1844.5752 Z0.0000 F5000
G1 X537.1094 Y1844.5752 Z10.0000 F9999
G1 X650.1063 Y2136.2943 Z10.0000 F9999
G1 X650.1063 Y2136.2943 Z0.0000 F2500
G1 X610.1079 Y2135.9453 Z-14.0000 F5000
G1 X186.8243 Y2135.9453 Z-14.0000 F5000
G1 X186.8243 Y2135.9453 Z-4.0000 F9999
G1 X173.8263 Y2135.9453 Z-4.0000 F5000
G1 X173.8263 Y2135.9453 Z-14.0000 F2500
G1 X78.0009 Y2135.9453 Z-14.0000 F5000
G1 X78.0009 Y2046.9474 Z-14.0000 F5000
G1 X83.0008 Y2046.9454 Z-14.0000 F5000
G1 X3.0010 Y2046.9454 Z-14.0000 F5000
G1 X3.0010 Y1964.9476 Z-14.0000 F5000
G1 X83.0008 Y1964.9456 Z-14.0000 F5000
G1 X78.0009 Y1964.9456 Z-14.0000 F5000
G1 X78.0009 Y1857.9479 Z-14.0000 F5000
G1 X117.9988 Y1857.9479 Z-14.0000 F5000
G1 X118.0008 Y1880.9479 Z-14.0000 F5000
G1 X118.0008 Y1875.9479 Z-14.0000 F5000
G1 X173.6106 Y1875.9479 Z-14.0000 F5000
G1 X173.6106 Y1875.9479 Z-4.0000 F9999
G1 X186.6086 Y1875.9479 Z-4.0000 F5000
G1 X186.6086 Y1875.9479 Z-14.0000 F2500
G1 X562.9979 Y1875.9479 Z-14.0000 F5000
G1 X562.9998 Y1880.9479 Z-14.0000 F5000
G1 X562.9998 Y1857.9479 Z-14.0000 F5000
G1 X652.9977 Y1857.9479 Z-14.0000 F5000
G1 X652.9997 Y1880.9479 Z-14.0000 F5000
G1 X652.9997 Y1875.9479 Z-14.0000 F5000
G1 X1033.6071 Y1875.9479 Z-14.0000 F5000
G1 X1033.6071 Y1875.9479 Z-4.0000 F9999
G1 X1046.6051 Y1875.9479 Z-4.0000 F5000
G1 X1046.6051 Y1875.9479 Z-14.0000 F2500
G1 X1097.9968 Y1875.9479 Z-14.0000 F5000
G1 X1097.9988 Y1880.9479 Z-14.0000 F5000
G1 X1097.9988 Y1857.9479 Z-14.0000 F5000
G1 X1137.9967 Y1857.9479 Z-14.0000 F5000
G1 X1137.9967 Y1964.9456 Z-14.0000 F5000
G1 X1132.9967 Y1964.9476 Z-14.0000 F5000
G1 X1212.9967 Y1964.9476 Z-14.0000 F5000
G1 X1212.9967 Y2046.9454 Z-14.0000 F5000
G1 X1132.9967 Y2046.9474 Z-14.0000 F5000
G1 X1137.9967 Y2046.9474 Z-14.0000 F5000
G1 X1137.9967 Y2135.9453 Z-14.0000 F5000
G1 X1046.3894 Y2135.9453 Z-14.0000 F5000
G1 X1046.3894 Y2135.9453 Z-4.0000 F9999
G1 X1033.3914 Y2135.9453 Z-4.0000 F5000
G1 X1033.3914 Y2135.9453 Z-14.0000 F2500
G1 X610.1079 Y2135.9453 Z-14.0000 F5000
G1 X577.1079 Y2135.9453 Z-14.0000 F5000
G1 X537.1094 Y2136.2943 Z0.0000 F5000
G1 X537.1094 Y2136.2943 Z10.0000 F9999
G1 X650.1063 Y2422.4314 Z10.0000 F9999
G1 X650.1063 Y2422.4314 Z0.0000 F2500
G1 X610.1079 Y2422.0823 Z-14.0000 F5000
G1 X186.8243 Y2422.0823 Z-14.0000 F5000
G1 X186.8243 Y2422.0823 Z-4.0000 F9999
G1 X173.8263 Y2422.0823 Z-4.0000 F5000
G1 X173.8263 Y2422.0823 Z-14.0000 F2500
G1 X78.0009 Y2422.0823 Z-14.0000 F5000
G1 X78.0009 Y2333.0844 Z-14.0000 F5000
G1 X83.0008 Y2333.0824 Z-14.0000 F5000
G1 X3.0010 Y2333.0824 Z-14.0000 F5000
G1 X3.0010 Y2251.0847 Z-14.0000 F5000
G1 X83.0008 Y2251.0827 Z-14.0000 F5000
G1 X78.0009 Y2251.0827 Z-14.0000 F5000
G1 X78.0009 Y2144.0849 Z-14.0000 F5000
G1 X117.9988 Y2144.0849 Z-14.0000 F5000
G1 X118.0008 Y2167.0849 Z-14.0000 F5000
G1 X118.0008 Y2162.0849 Z-14.0000 F5000
G1 X173.6106 Y2162.0849 Z-14.0000 F5000
G1 X173.6106 Y2162.0849 Z-4.0000 F9999
G1 X186.6086 Y2162.0849 Z-4.0000 F5000
G1 X186.6086 Y2162.0849 Z-14.0000 F2500
G1 X562.9979 Y2162.0849 Z-14.0000 F5000
G1 X562.9998 Y2167.0849 Z-14.0000 F5000
G1 X562.9998 Y2144.0849 Z-14.0000 F5000
G1 X652.9977 Y2144.0849 Z-14.0000 F5000
G1 X652.9997 Y2167.0849 Z-14.0000 F5000
G1 X652.9997 Y2162.0849 Z-14.0000 F5000
G1 X1033.6071 Y2162.0849 Z-14.0000 F5000
G1 X1033.6071 Y2162.0849 Z-4.0000 F9999
G1 X1046.6051 Y2162.0849 Z-4.0000 F5000
G1 X1046.6051 Y2162.0849 Z-14.0000 F2500
G1 X1097.9968 Y2162.0849 Z-14.0000 F5000
G1 X1097.9988 Y2167.0849 Z-14.0000 F5000
G1 X1097.9988 Y2144.0849 Z-14.0000 F5000
G1 X1137.9967 Y2144.0849 Z-14.0000 F5000
G1 X1137.9967 Y2251.0827 Z-14.0000 F5000
G1 X1132.9967 Y2251.0847 Z-14.0000 F5000
G1 X1212.9967 Y2251.0847 Z-14.0000 F5000
G1 X1212.9967 Y2333.0824 Z-14.0000 F5000
G1 X1132.9967 Y2333.0844 Z-14.0000 F5000
G1 X1137.9967 Y2333.0844 Z-14.0000 F5000
G1 X1137.9967 Y2422.0823 Z-14.0000 F5000
G1 X1046.3894 Y2422.0823 Z-14.0000 F5000
G1 X1046.3894 Y2422.0823 Z-4.0000 F9999
G1 X1033.3914 Y2422.0823 Z-4.0000 F5000
G1 X1033.3914 Y2422.0823 Z-14.0000 F2500
G1 X610.1079 Y2422.0823 Z-14.0000 F5000
G1 X577.1079 Y2422.0823 Z-14.0000 F5000
G1 X537.1094 Y2422.4314 Z0.0000 F5000
G1 X537.1094 Y2422.4314 Z10.0000 F9999
(Tool Number:1) (7.998 mm dia. slot drill)
M3 S9000
G1 X611.1078 Y280.0070 Z10.0000 F9999
G1 X611.1078 Y280.0070 Z-20.0000 F2500
G1 X610.1079 Y279.9983 Z-20.0000 F5000
G1 X186.6086 Y279.9983 Z-20.0000 F5000
G1 X186.6086 Y279.9983 Z-10.0000 F9999
G1 X173.6106 Y279.9983 Z-10.0000 F5000
G1 X173.6106 Y279.9983 Z-20.0000 F2500
G1 X4.0010 Y279.9983 Z-20.0000 F5000
G1 X4.0010 Y162.0006 Z-20.0000 F5000
G1 X50.9989 Y162.0006 Z-20.0000 F5000
G1 X50.9989 Y224.9985 Z-20.0000 F5000
G1 X45.9989 Y224.9985 Z-20.0000 F5000
G1 X45.9989 Y227.0005 Z-20.0000 F5000
G1 X84.0008 Y227.0005 Z-20.0000 F5000
G1 X84.0008 Y224.9985 Z-20.0000 F5000
G1 X79.0009 Y224.9985 Z-20.0000 F5000
G1 X79.0009 Y22.0008 Z-20.0000 F5000
G1 X173.6106 Y22.0008 Z-20.0000 F5000
G1 X173.6106 Y22.0008 Z-10.0000 F9999
G1 X186.6086 Y22.0008 Z-10.0000 F5000
G1 X186.6086 Y22.0008 Z-20.0000 F2500
G1 X561.9979 Y22.0008 Z-20.0000 F5000
G1 X561.9979 Y27.0010 Z-20.0000 F5000
G1 X563.9998 Y27.0010 Z-20.0000 F5000
G1 X563.9998 Y4.0010 Z-20.0000 F5000
G1 X651.9977 Y4.0010 Z-20.0000 F5000
G1 X651.9977 Y27.0010 Z-20.0000 F5000
G1 X653.9997 Y27.0010 Z-20.0000 F5000
G1 X653.9997 Y22.0008 Z-20.0000 F5000
G1 X1033.8228 Y22.0008 Z-20.0000 F5000
G1 X1033.8228 Y22.0008 Z-10.0000 F9999
G1 X1046.8208 Y22.0008 Z-10.0000 F5000
G1 X1046.8208 Y22.0008 Z-20.0000 F2500
G1 X1136.9967 Y22.0008 Z-20.0000 F5000
G1 X1136.9967 Y224.9985 Z-20.0000 F5000
G1 X1131.9967 Y224.9985 Z-20.0000 F5000
G1 X1131.9967 Y227.0005 Z-20.0000 F5000
G1 X1169.9986 Y227.0005 Z-20.0000 F5000
G1 X1169.9986 Y224.9985 Z-20.0000 F5000
G1 X1164.9987 Y224.9985 Z-20.0000 F5000
G1 X1164.9987 Y162.0006 Z-20.0000 F5000
G1 X1211.9967 Y162.0006 Z-20.0000 F5000
G1 X1211.9967 Y279.9983 Z-20.0000 F5000
G1 X1046.6051 Y279.9983 Z-20.0000 F5000
G1 X1046.6051 Y279.9983 Z-10.0000 F9999
G1 X1033.6071 Y279.9983 Z-10.0000 F5000
G1 X1033.6071 Y279.9983 Z-20.0000 F2500
G1 X610.1079 Y279.9983 Z-20.0000 F5000
G1 X577.1079 Y279.9983 Z-20.0000 F5000
G1 X576.1079 Y280.0070 Z-20.0000 F5000
G1 X576.1079 Y280.0070 Z10.0000 F9999
G1 X611.1078 Y565.2296 Z10.0000 F9999
G1 X611.1078 Y565.2296 Z-20.0000 F2500
G1 X610.1079 Y565.2208 Z-20.0000 F5000
G1 X186.6086 Y565.2208 Z-20.0000 F5000
G1 X186.6086 Y565.2208 Z-10.0000 F9999
G1 X173.6106 Y565.2208 Z-10.0000 F5000
G1 X173.6106 Y565.2208 Z-20.0000 F2500
G1 X4.0010 Y565.2208 Z-20.0000 F5000
G1 X4.0010 Y447.2232 Z-20.0000 F5000
G1 X50.9989 Y447.2232 Z-20.0000 F5000
G1 X50.9989 Y510.2211 Z-20.0000 F5000
G1 X45.9989 Y510.2211 Z-20.0000 F5000
G1 X45.9989 Y512.2231 Z-20.0000 F5000
G1 X84.0008 Y512.2231 Z-20.0000 F5000
G1 X84.0008 Y510.2211 Z-20.0000 F5000
G1 X79.0009 Y510.2211 Z-20.0000 F5000
G1 X79.0009 Y307.2233 Z-20.0000 F5000
G1 X173.6106 Y307.2233 Z-20.0000 F5000
G1 X173.6106 Y307.2233 Z-10.0000 F9999
G1 X186.6086 Y307.2233 Z-10.0000 F5000
G1 X186.6086 Y307.2233 Z-20.0000 F2500
G1 X561.9979 Y307.2233 Z-20.0000 F5000
G1 X561.9979 Y312.2236 Z-20.0000 F5000
G1 X563.9998 Y312.2236 Z-20.0000 F5000
G1 X563.9998 Y289.2236 Z-20.0000 F5000
G1 X651.9977 Y289.2236 Z-20.0000 F5000
G1 X651.9977 Y312.2236 Z-20.0000 F5000
G1 X653.9997 Y312.2236 Z-20.0000 F5000
G1 X653.9997 Y307.2233 Z-20.0000 F5000
G1 X1033.8228 Y307.2233 Z-20.0000 F5000
G1 X1033.8228 Y307.2233 Z-10.0000 F9999
G1 X1046.8208 Y307.2233 Z-10.0000 F5000
G1 X1046.8208 Y307.2233 Z-20.0000 F2500
G1 X1136.9967 Y307.2233 Z-20.0000 F5000
G1 X1136.9967 Y510.2211 Z-20.0000 F5000
G1 X1131.9967 Y510.2211 Z-20.0000 F5000
G1 X1131.9967 Y512.2231 Z-20.0000 F5000
G1 X1169.9986 Y512.2231 Z-20.0000 F5000
G1 X1169.9986 Y510.2211 Z-20.0000 F5000
G1 X1164.9987 Y510.2211 Z-20.0000 F5000
G1 X1164.9987 Y447.2232 Z-20.0000 F5000
G1 X1211.9967 Y447.2232 Z-20.0000 F5000
G1 X1211.9967 Y565.2208 Z-20.0000 F5000
G1 X1046.6051 Y565.2208 Z-20.0000 F5000
G1 X1046.6051 Y565.2208 Z-10.0000 F9999
G1 X1033.6071 Y565.2208 Z-10.0000 F5000
G1 X1033.6071 Y565.2208 Z-20.0000 F2500
G1 X610.1079 Y565.2208 Z-20.0000 F5000
G1 X577.1079 Y565.2208 Z-20.0000 F5000
G1 X576.1079 Y565.2296 Z-20.0000 F5000
G1 X576.1079 Y565.2296 Z10.0000 F9999
G1 X611.1078 Y856.9487 Z10.0000 F9999
G1 X611.1078 Y856.9487 Z-20.0000 F2500
G1 X610.1079 Y856.9400 Z-20.0000 F5000
G1 X186.6086 Y856.9400 Z-20.0000 F5000
G1 X186.6086 Y856.9400 Z-10.0000 F9999
G1 X173.6106 Y856.9400 Z-10.0000 F5000
G1 X173.6106 Y856.9400 Z-20.0000 F2500
G1 X4.0010 Y856.9400 Z-20.0000 F5000
G1 X4.0010 Y738.9424 Z-20.0000 F5000
G1 X50.9989 Y738.9424 Z-20.0000 F5000
G1 X50.9989 Y801.9402 Z-20.0000 F5000
G1 X45.9989 Y801.9402 Z-20.0000 F5000
G1 X45.9989 Y803.9422 Z-20.0000 F5000
G1 X84.0008 Y803.9422 Z-20.0000 F5000
G1 X84.0008 Y801.9402 Z-20.0000 F5000
G1 X79.0009 Y801.9402 Z-20.0000 F5000
G1 X79.0009 Y598.9425 Z-20.0000 F5000
G1 X173.6106 Y598.9425 Z-20.0000 F5000
G1 X173.6106 Y598.9425 Z-10.0000 F9999
G1 X186.6086 Y598.9425 Z-10.0000 F5000
G1 X186.6086 Y598.9425 Z-20.0000 F2500
G1 X561.9979 Y598.9425 Z-20.0000 F5000
G1 X561.9979 Y603.9427 Z-20.0000 F5000
G1 X563.9998 Y603.9427 Z-20.0000 F5000
G1 X563.9998 Y580.9427 Z-20.0000 F5000
G1 X651.9977 Y580.9427 Z-20.0000 F5000
G1 X651.9977 Y603.9427 Z-20.0000 F5000
G1 X653.9997 Y603.9427 Z-20.0000 F5000
G1 X653.9997 Y598.9425 Z-20.0000 F5000
G1 X1033.8228 Y598.9425 Z-20.0000 F5000
G1 X1033.8228 Y598.9425 Z-10.0000 F9999
G1 X1046.8208 Y598.9425 Z-10.0000 F5000
G1 X1046.8208 Y598.9425 Z-20.0000 F2500
G1 X1136.9967 Y598.9425 Z-20.0000 F5000
G1 X1136.9967 Y801.9402 Z-20.0000 F5000
G1 X1131.9967 Y801.9402 Z-20.0000 F5000
G1 X1131.9967 Y803.9422 Z-20.0000 F5000
G1 X1169.9986 Y803.9422 Z-20.0000 F5000
G1 X1169.9986 Y801.9402 Z-20.0000 F5000
G1 X1164.9987 Y801.9402 Z-20.0000 F5000
G1 X1164.9987 Y738.9424 Z-20.0000 F5000
G1 X1211.9967 Y738.9424 Z-20.0000 F5000
G1 X1211.9967 Y856.9400 Z-20.0000 F5000
G1 X1046.6051 Y856.9400 Z-20.0000 F5000
G1 X1046.6051 Y856.9400 Z-10.0000 F9999
G1 X1033.6071 Y856.9400 Z-10.0000 F5000
G1 X1033.6071 Y856.9400 Z-20.0000 F2500
G1 X610.1079 Y856.9400 Z-20.0000 F5000
G1 X577.1079 Y856.9400 Z-20.0000 F5000
G1 X576.1079 Y856.9487 Z-20.0000 F5000
G1 X576.1079 Y856.9487 Z10.0000 F9999
G1 X611.1078 Y1143.0858 Z10.0000 F9999
G1 X611.1078 Y1143.0858 Z-20.0000 F2500
G1 X610.1079 Y1143.0770 Z-20.0000 F5000
G1 X186.6086 Y1143.0770 Z-20.0000 F5000
G1 X186.6086 Y1143.0770 Z-10.0000 F9999
G1 X173.6106 Y1143.0770 Z-10.0000 F5000
G1 X173.6106 Y1143.0770 Z-20.0000 F2500
G1 X4.0010 Y1143.0770 Z-20.0000 F5000
G1 X4.0010 Y1025.0794 Z-20.0000 F5000
G1 X50.9989 Y1025.0794 Z-20.0000 F5000
G1 X50.9989 Y1088.0773 Z-20.0000 F5000
G1 X45.9989 Y1088.0773 Z-20.0000 F5000
G1 X45.9989 Y1090.0793 Z-20.0000 F5000
G1 X84.0008 Y1090.0793 Z-20.0000 F5000
G1 X84.0008 Y1088.0773 Z-20.0000 F5000
G1 X79.0009 Y1088.0773 Z-20.0000 F5000
G1 X79.0009 Y885.0795 Z-20.0000 F5000
G1 X173.6106 Y885.0795 Z-20.0000 F5000
G1 X173.6106 Y885.0795 Z-10.0000 F9999
G1 X186.6086 Y885.0795 Z-10.0000 F5000
G1 X186.6086 Y885.0795 Z-20.0000 F2500
G1 X561.9979 Y885.0795 Z-20.0000 F5000
G1 X561.9979 Y890.0798 Z-20.0000 F5000
G1 X563.9998 Y890.0798 Z-20.0000 F5000
G1 X563.9998 Y867.0798 Z-20.0000 F5000
G1 X651.9977 Y867.0798 Z-20.0000 F5000
G1 X651.9977 Y890.0798 Z-20.0000 F5000
G1 X653.9997 Y890.0798 Z-20.0000 F5000
G1 X653.9997 Y885.0795 Z-20.0000 F5000
G1 X1033.8228 Y885.0795 Z-20.0000 F5000
G1 X1033.8228 Y885.0795 Z-10.0000 F9999
G1 X1046.8208 Y885.0795 Z-10.0000 F5000
G1 X1046.8208 Y885.0795 Z-20.0000 F2500
G1 X1136.9967 Y885.0795 Z-20.0000 F5000
G1 X1136.9967 Y1088.0773 Z-20.0000 F5000
G1 X1131.9967 Y1088.0773 Z-20.0000 F5000
G1 X1131.9967 Y1090.0793 Z-20.0000 F5000
G1 X1169.9986 Y1090.0793 Z-20.0000 F5000
G1 X1169.9986 Y1088.0773 Z-20.0000 F5000
G1 X1164.9987 Y1088.0773 Z-20.0000 F5000
G1 X1164.9987 Y1025.0794 Z-20.0000 F5000
G1 X1211.9967 Y1025.0794 Z-20.0000 F5000
G1 X1211.9967 Y1143.0770 Z-20.0000 F5000
G1 X1046.6051 Y1143.0770 Z-20.0000 F5000
G1 X1046.6051 Y1143.0770 Z-10.0000 F9999
G1 X1033.6071 Y1143.0770 Z-10.0000 F5000
G1 X1033.6071 Y1143.0770 Z-20.0000 F2500
G1 X610.1079 Y1143.0770 Z-20.0000 F5000
G1 X577.1079 Y1143.0770 Z-20.0000 F5000
G1 X576.1079 Y1143.0858 Z-20.0000 F5000
G1 X576.1079 Y1143.0858 Z10.0000 F9999
G1 X611.1078 Y1435.0664 Z10.0000 F9999
G1 X611.1078 Y1435.0664 Z-20.0000 F2500
G1 X610.1079 Y1435.0577 Z-20.0000 F5000
G1 X186.6086 Y1435.0577 Z-20.0000 F5000
G1 X186.6086 Y1435.0577 Z-10.0000 F9999
G1 X173.6106 Y1435.0577 Z-10.0000 F5000
G1 X173.6106 Y1435.0577 Z-20.0000 F2500
G1 X4.0010 Y1435.0577 Z-20.0000 F5000
G1 X4.0010 Y1317.0601 Z-20.0000 F5000
G1 X50.9989 Y1317.0601 Z-20.0000 F5000
G1 X50.9989 Y1380.0580 Z-20.0000 F5000
G1 X45.9989 Y1380.0580 Z-20.0000 F5000
G1 X45.9989 Y1382.0600 Z-20.0000 F5000
G1 X84.0008 Y1382.0600 Z-20.0000 F5000
G1 X84.0008 Y1380.0580 Z-20.0000 F5000
G1 X79.0009 Y1380.0580 Z-20.0000 F5000
G1 X79.0009 Y1177.0602 Z-20.0000 F5000
G1 X173.6106 Y1177.0602 Z-20.0000 F5000
G1 X173.6106 Y1177.0602 Z-10.0000 F9999
G1 X186.6086 Y1177.0602 Z-10.0000 F5000
G1 X186.6086 Y1177.0602 Z-20.0000 F2500
G1 X561.9979 Y1177.0602 Z-20.0000 F5000
G1 X561.9979 Y1182.0604 Z-20.0000 F5000
G1 X563.9998 Y1182.0604 Z-20.0000 F5000
G1 X563.9998 Y1159.0604 Z-20.0000 F5000
G1 X651.9977 Y1159.0604 Z-20.0000 F5000
G1 X651.9977 Y1182.0604 Z-20.0000 F5000
G1 X653.9997 Y1182.0604 Z-20.0000 F5000
G1 X653.9997 Y1177.0602 Z-20.0000 F5000
G1 X1033.8228 Y1177.0602 Z-20.0000 F5000
G1 X1033.8228 Y1177.0602 Z-10.0000 F9999
G1 X1046.8208 Y1177.0602 Z-10.0000 F5000
G1 X1046.8208 Y1177.0602 Z-20.0000 F2500
G1 X1136.9967 Y1177.0602 Z-20.0000 F5000
G1 X1136.9967 Y1380.0580 Z-20.0000 F5000
G1 X1131.9967 Y1380.0580 Z-20.0000 F5000
G1 X1131.9967 Y1382.0600 Z-20.0000 F5000
G1 X1169.9986 Y1382.0600 Z-20.0000 F5000
G1 X1169.9986 Y1380.0580 Z-20.0000 F5000
G1 X1164.9987 Y1380.0580 Z-20.0000 F5000
G1 X1164.9987 Y1317.0601 Z-20.0000 F5000
G1 X1211.9967 Y1317.0601 Z-20.0000 F5000
G1 X1211.9967 Y1435.0577 Z-20.0000 F5000
G1 X1046.6051 Y1435.0577 Z-20.0000 F5000
G1 X1046.6051 Y1435.0577 Z-10.0000 F9999
G1 X1033.6071 Y1435.0577 Z-10.0000 F5000
G1 X1033.6071 Y1435.0577 Z-20.0000 F2500
G1 X610.1079 Y1435.0577 Z-20.0000 F5000
G1 X577.1079 Y1435.0577 Z-20.0000 F5000
G1 X576.1079 Y1435.0664 Z-20.0000 F5000
G1 X576.1079 Y1435.0664 Z10.0000 F9999
G1 X611.1078 Y1843.2348 Z10.0000 F9999
G1 X611.1078 Y1843.2348 Z-20.0000 F2500
G1 X610.1079 Y1843.2261 Z-20.0000 F5000
G1 X186.8243 Y1843.2261 Z-20.0000 F5000
G1 X186.8243 Y1843.2261 Z-10.0000 F9999
G1 X173.8263 Y1843.2261 Z-10.0000 F5000
G1 X173.8263 Y1843.2261 Z-20.0000 F2500
G1 X79.0009 Y1843.2261 Z-20.0000 F5000
G1 X79.0009 Y1756.2282 Z-20.0000 F5000
G1 X84.0008 Y1756.2282 Z-20.0000 F5000
G1 X84.0008 Y1754.2262 Z-20.0000 F5000
G1 X4.0010 Y1754.2262 Z-20.0000 F5000
G1 X4.0010 Y1674.2285 Z-20.0000 F5000
G1 X84.0008 Y1674.2285 Z-20.0000 F5000
G1 X84.0008 Y1672.2265 Z-20.0000 F5000
G1 X79.0009 Y1672.2265 Z-20.0000 F5000
G1 X79.0009 Y1567.2287 Z-20.0000 F5000
G1 X116.9988 Y1567.2287 Z-20.0000 F5000
G1 X116.9988 Y1590.2287 Z-20.0000 F5000
G1 X119.0008 Y1590.2287 Z-20.0000 F5000
G1 X119.0008 Y1585.2287 Z-20.0000 F5000
G1 X173.6106 Y1585.2287 Z-20.0000 F5000
G1 X173.6106 Y1585.2287 Z-10.0000 F9999
G1 X186.6086 Y1585.2287 Z-10.0000 F5000
G1 X186.6086 Y1585.2287 Z-20.0000 F2500
G1 X561.9979 Y1585.2287 Z-20.0000 F5000
G1 X561.9979 Y1590.2287 Z-20.0000 F5000
G1 X563.9998 Y1590.2287 Z-20.0000 F5000
G1 X563.9998 Y1567.2287 Z-20.0000 F5000
G1 X651.9977 Y1567.2287 Z-20.0000 F5000
G1 X651.9977 Y1590.2287 Z-20.0000 F5000
G1 X653.9997 Y1590.2287 Z-20.0000 F5000
G1 X653.9997 Y1585.2287 Z-20.0000 F5000
G1 X1033.6071 Y1585.2287 Z-20.0000 F5000
G1 X1033.6071 Y1585.2287 Z-10.0000 F9999
G1 X1046.6051 Y1585.2287 Z-10.0000 F5000
G1 X1046.6051 Y1585.2287 Z-20.0000 F2500
G1 X1096.9968 Y1585.2287 Z-20.0000 F5000
G1 X1096.9968 Y1590.2287 Z-20.0000 F5000
G1 X1098.9988 Y1590.2287 Z-20.0000 F5000
G1 X1098.9988 Y1567.2287 Z-20.0000 F5000
G1 X1136.9967 Y1567.2287 Z-20.0000 F5000
G1 X1136.9967 Y1672.2265 Z-20.0000 F5000
G1 X1131.9967 Y1672.2265 Z-20.0000 F5000
G1 X1131.9967 Y1674.2285 Z-20.0000 F5000
G1 X1211.9967 Y1674.2285 Z-20.0000 F5000
G1 X1211.9967 Y1754.2262 Z-20.0000 F5000
G1 X1131.9967 Y1754.2262 Z-20.0000 F5000
G1 X1131.9967 Y1756.2282 Z-20.0000 F5000
G1 X1136.9967 Y1756.2282 Z-20.0000 F5000
G1 X1136.9967 Y1843.2261 Z-20.0000 F5000
G1 X1046.3894 Y1843.2261 Z-20.0000 F5000
G1 X1046.3894 Y1843.2261 Z-10.0000 F9999
G1 X1033.3914 Y1843.2261 Z-10.0000 F5000
G1 X1033.3914 Y1843.2261 Z-20.0000 F2500
G1 X610.1079 Y1843.2261 Z-20.0000 F5000
G1 X577.1079 Y1843.2261 Z-20.0000 F5000
G1 X576.1079 Y1843.2348 Z-20.0000 F5000
G1 X576.1079 Y1843.2348 Z10.0000 F9999
G1 X611.1078 Y2134.9540 Z10.0000 F9999
G1 X611.1078 Y2134.9540 Z-20.0000 F2500
G1 X610.1079 Y2134.9453 Z-20.0000 F5000
G1 X186.8243 Y2134.9453 Z-20.0000 F5000
G1 X186.8243 Y2134.9453 Z-10.0000 F9999
G1 X173.8263 Y2134.9453 Z-10.0000 F5000
G1 X173.8263 Y2134.9453 Z-20.0000 F2500
G1 X79.0009 Y2134.9453 Z-20.0000 F5000
G1 X79.0009 Y2047.9474 Z-20.0000 F5000
G1 X84.0008 Y2047.9474 Z-20.0000 F5000
G1 X84.0008 Y2045.9454 Z-20.0000 F5000
G1 X4.0010 Y2045.9454 Z-20.0000 F5000
G1 X4.0010 Y1965.9476 Z-20.0000 F5000
G1 X84.0008 Y1965.9476 Z-20.0000 F5000
G1 X84.0008 Y1963.9456 Z-20.0000 F5000
G1 X79.0009 Y1963.9456 Z-20.0000 F5000
G1 X79.0009 Y1858.9479 Z-20.0000 F5000
G1 X116.9988 Y1858.9479 Z-20.0000 F5000
G1 X116.9988 Y1881.9479 Z-20.0000 F5000
G1 X119.0008 Y1881.9479 Z-20.0000 F5000
G1 X119.0008 Y1876.9479 Z-20.0000 F5000
G1 X173.6106 Y1876.9479 Z-20.0000 F5000
G1 X173.6106 Y1876.9479 Z-10.0000 F9999
G1 X186.6086 Y1876.9479 Z-10.0000 F5000
G1 X186.6086 Y1876.9479 Z-20.0000 F2500
G1 X561.9979 Y1876.9479 Z-20.0000 F5000
G1 X561.9979 Y1881.9479 Z-20.0000 F5000
G1 X563.9998 Y1881.9479 Z-20.0000 F5000
G1 X563.9998 Y1858.9479 Z-20.0000 F5000
G1 X651.9977 Y1858.9479 Z-20.0000 F5000
G1 X651.9977 Y1881.9479 Z-20.0000 F5000
G1 X653.9997 Y1881.9479 Z-20.0000 F5000
G1 X653.9997 Y1876.9479 Z-20.0000 F5000
G1 X1033.6071 Y1876.9479 Z-20.0000 F5000
G1 X1033.6071 Y1876.9479 Z-10.0000 F9999
G1 X1046.6051 Y1876.9479 Z-10.0000 F5000
G1 X1046.6051 Y1876.9479 Z-20.0000 F2500
G1 X1096.9968 Y1876.9479 Z-20.0000 F5000
G1 X1096.9968 Y1881.9479 Z-20.0000 F5000
G1 X1098.9988 Y1881.9479 Z-20.0000 F5000
G1 X1098.9988 Y1858.9479 Z-20.0000 F5000
G1 X1136.9967 Y1858.9479 Z-20.0000 F5000
G1 X1136.9967 Y1963.9456 Z-20.0000 F5000
G1 X1131.9967 Y1963.9456 Z-20.0000 F5000
G1 X1131.9967 Y1965.9476 Z-20.0000 F5000
G1 X1211.9967 Y1965.9476 Z-20.0000 F5000
G1 X1211.9967 Y2045.9454 Z-20.0000 F5000
G1 X1131.9967 Y2045.9454 Z-20.0000 F5000
G1 X1131.9967 Y2047.9474 Z-20.0000 F5000
G1 X1136.9967 Y2047.9474 Z-20.0000 F5000
G1 X1136.9967 Y2134.9453 Z-20.0000 F5000
G1 X1046.3894 Y2134.9453 Z-20.0000 F5000
G1 X1046.3894 Y2134.9453 Z-10.0000 F9999
G1 X1033.3914 Y2134.9453 Z-10.0000 F5000
G1 X1033.3914 Y2134.9453 Z-20.0000 F2500
G1 X610.1079 Y2134.9453 Z-20.0000 F5000
G1 X577.1079 Y2134.9453 Z-20.0000 F5000
G1 X576.1079 Y2134.9540 Z-20.0000 F5000
G1 X576.1079 Y2134.9540 Z10.0000 F9999
G1 X611.1078 Y2421.0910 Z10.0000 F9999
G1 X611.1078 Y2421.0910 Z-20.0000 F2500
G1 X610.1079 Y2421.0823 Z-20.0000 F5000
G1 X186.8243 Y2421.0823 Z-20.0000 F5000
G1 X186.8243 Y2421.0823 Z-10.0000 F9999
G1 X173.8263 Y2421.0823 Z-10.0000 F5000
G1 X173.8263 Y2421.0823 Z-20.0000 F2500
G1 X79.0009 Y2421.0823 Z-20.0000 F5000
G1 X79.0009 Y2334.0844 Z-20.0000 F5000
G1 X84.0008 Y2334.0844 Z-20.0000 F5000
G1 X84.0008 Y2332.0824 Z-20.0000 F5000
G1 X4.0010 Y2332.0824 Z-20.0000 F5000
G1 X4.0010 Y2252.0847 Z-20.0000 F5000
G1 X84.0008 Y2252.0847 Z-20.0000 F5000
G1 X84.0008 Y2250.0827 Z-20.0000 F5000
G1 X79.0009 Y2250.0827 Z-20.0000 F5000
G1 X79.0009 Y2145.0849 Z-20.0000 F5000
G1 X116.9988 Y2145.0849 Z-20.0000 F5000
G1 X116.9988 Y2168.0849 Z-20.0000 F5000
G1 X119.0008 Y2168.0849 Z-20.0000 F5000
G1 X119.0008 Y2163.0849 Z-20.0000 F5000
G1 X173.6106 Y2163.0849 Z-20.0000 F5000
G1 X173.6106 Y2163.0849 Z-10.0000 F9999
G1 X186.6086 Y2163.0849 Z-10.0000 F5000
G1 X186.6086 Y2163.0849 Z-20.0000 F2500
G1 X561.9979 Y2163.0849 Z-20.0000 F5000
G1 X561.9979 Y2168.0849 Z-20.0000 F5000
G1 X563.9998 Y2168.0849 Z-20.0000 F5000
G1 X563.9998 Y2145.0849 Z-20.0000 F5000
G1 X651.9977 Y2145.0849 Z-20.0000 F5000
G1 X651.9977 Y2168.0849 Z-20.0000 F5000
G1 X653.9997 Y2168.0849 Z-20.0000 F5000
G1 X653.9997 Y2163.0849 Z-20.0000 F5000
G1 X1033.6071 Y2163.0849 Z-20.0000 F5000
G1 X1033.6071 Y2163.0849 Z-10.0000 F9999
G1 X1046.6051 Y2163.0849 Z-10.0000 F5000
G1 X1046.6051 Y2163.0849 Z-20.0000 F2500
G1 X1096.9968 Y2163.0849 Z-20.0000 F5000
G1 X1096.9968 Y2168.0849 Z-20.0000 F5000
G1 X1098.9988 Y2168.0849 Z-20.0000 F5000
G1 X1098.9988 Y2145.0849 Z-20.0000 F5000
G1 X1136.9967 Y2145.0849 Z-20.0000 F5000
G1 X1136.9967 Y2250.0827 Z-20.0000 F5000
G1 X1131.9967 Y2250.0827 Z-20.0000 F5000
G1 X1131.9967 Y2252.0847 Z-20.0000 F5000
G1 X1211.9967 Y2252.0847 Z-20.0000 F5000
G1 X1211.9967 Y2332.0824 Z-20.0000 F5000
G1 X1131.9967 Y2332.0824 Z-20.0000 F5000
G1 X1131.9967 Y2334.0844 Z-20.0000 F5000
G1 X1136.9967 Y2334.0844 Z-20.0000 F5000
G1 X1136.9967 Y2421.0823 Z-20.0000 F5000
G1 X1046.3894 Y2421.0823 Z-20.0000 F5000
G1 X1046.3894 Y2421.0823 Z-10.0000 F9999
G1 X1033.3914 Y2421.0823 Z-10.0000 F5000
G1 X1033.3914 Y2421.0823 Z-20.0000 F2500
G1 X610.1079 Y2421.0823 Z-20.0000 F5000
G1 X577.1079 Y2421.0823 Z-20.0000 F5000
G1 X576.1079 Y2421.0910 Z-20.0000 F5000
G1 X576.1079 Y2421.0910 Z10.0000 F9999
G1 X1900.0000 Y2800.0000 Z80.0000 F9999
G1 Z80.0000 F9999
G1 X1900.0000 Y2800.0000 F9999
M5
M30
