(plotsheet 2n3_nested_153 sheets_final v1_0_sheet 32 to 35_S32.0_4 screws_CC8 - stepover 1mm)
(Material Size) (X=1220.000, Y=2440.000, Z=21.000)
(LinuxCNC_NoArcs_MM_TC_medium_50um_G1_verbose.con)
G90 G80 G21 G49
G64 P0.050
M6 T1
(Tool Number:1) (7.998 mm dia. slot drill)
G43 H1 G0Z30.0000
M3 S19000
G04 P10
G1 X232.9561 Y124.3989 Z10.0000 F9999
G1 X232.9561 Y124.3989 Z2.0000 F9999
G1 X232.9561 Y124.3989 Z-2.0000 F2000
G1 X232.9561 Y124.3989 Z10.0000 F9999
G1 X978.4158 Y131.3013 Z10.0000 F9999
G1 X978.4158 Y131.3013 Z2.0000 F9999
G1 X978.4158 Y131.3013 Z-2.0000 F2000
G1 X978.4158 Y131.3013 Z10.0000 F9999
G1 X731.6549 Y1915.5729 Z10.0000 F9999
G1 X731.6549 Y1915.5729 Z2.0000 F9999
G1 X731.6549 Y1915.5729 Z-2.0000 F2000
G1 X731.6549 Y1915.5729 Z10.0000 F9999
G1 X222.6025 Y1905.2192 Z10.0000 F9999
G1 X222.6025 Y1905.2192 Z2.0000 F9999
G1 X222.6025 Y1905.2192 Z-2.0000 F2000
G1 X222.6025 Y1905.2192 Z10.0000 F9999
G1 X1900.0000 Y2800.0000 Z80.0000 F9999
G1 Z80.0000 F9999
G1 X1900.0000 Y2800.0000 F9999
M5
M30
